PorkPy/robot-pulling-data/good_move_ztwist_90/joint_states_throttle.csv
rosbagTimestamp,header,seq,stamp,secs,nsecs,frame_id,name,wrist_3_joint],position,velocity,effort
1584452118339315920,,1278312,,1584452118,338930871,'',"[shoulder_pan_joint, shoulder_lift_joint, elbow_joint, wrist_1_joint, wrist_2_joint,","[1.4047702550888062, -1.1718123594867151, 2.4830822944641113, -2.8628271261798304, -1.5669577757464808, 2.720646381378174]","[0.0, 0.0, -0.0, 0.0, 0.0, 0.0]","[-0.7324219346046448, -4.348755359649658, -1.0962454080581665, -0.5966492295265198, 0.0762634351849556, 0.0874786451458931]"
1584452118451388693,,1278326,,1584452118,450996781,'',"[shoulder_pan_joint, shoulder_lift_joint, elbow_joint, wrist_1_joint, wrist_2_joint,","[1.4047462940216064, -1.1718247572528284, 2.4830703735351562, -2.8628514448748987, -1.5669339338885706, 2.7206225395202637]","[0.0, 0.0, -0.0, 0.0, 0.0, 0.0]","[-0.7461548447608948, -4.312134265899658, -1.085036277770996, -0.5988922715187073, 0.0852356031537056, 0.1031799390912056]"
1584452118563398918,,1278340,,1584452118,563000845,'',"[shoulder_pan_joint, shoulder_lift_joint, elbow_joint, wrist_1_joint, wrist_2_joint,","[1.4047702550888062, -1.17177659669985, 2.4830703735351562, -2.8628514448748987, -1.5669339338885706, 2.7206225395202637]","[0.0, 0.0, -0.0, 0.0, 0.0, 0.0]","[-0.7553101181983948, -4.357910633087158, -1.1096962690353394, -0.5944061875343323, 0.0672912672162056, 0.0717773512005806]"
1584452118675480828,,1278354,,1584452118,675018264,'',"[shoulder_pan_joint, shoulder_lift_joint, elbow_joint, wrist_1_joint, wrist_2_joint,","[1.4047343730926514, -1.17177659669985, 2.4830703735351562, -2.8628390471087855, -1.5669458548175257, 2.7206108570098877]","[0.0, 0.0, -0.0, 0.0, 0.0, 0.0]","[-0.7324219346046448, -4.344177722930908, -1.0827945470809937, -0.5966492295265198, 0.0628051832318306, 0.0807495191693306]"
1584452118787259481,,1278368,,1584452118,786900872,'',"[shoulder_pan_joint, shoulder_lift_joint, elbow_joint, wrist_1_joint, wrist_2_joint,","[1.404758334159851, -1.17180043855776, 2.483058452606201, -2.8628514448748987, -1.5669577757464808, 2.720658540725708]","[0.0, 0.0, -0.0, 0.0, 0.0, 0.0]","[-0.7278442978858948, -4.362488269805908, -1.098487138748169, -0.6011353135108948, 0.0717773512005806, 0.0852356031537056]"
1584452118899325411,,1278382,,1584452118,898937957,'',"[shoulder_pan_joint, shoulder_lift_joint, elbow_joint, wrist_1_joint, wrist_2_joint,","[1.4047104120254517, -1.1718123594867151, 2.48313045501709, -2.8628390471087855, -1.5669696966754358, 2.7206108570098877]","[0.0, 0.0, -0.0, 0.0, 0.0, 0.0]","[-0.7461548447608948, -4.316711902618408, -1.1074544191360474, -0.5966492295265198, 0.0717773512005806, 0.0874786451458931]"
1584452119011383015,,1278396,,1584452119,10979461,'',"[shoulder_pan_joint, shoulder_lift_joint, elbow_joint, wrist_1_joint, wrist_2_joint,","[1.4047223329544067, -1.171788517628805, 2.483058452606201, -2.8628271261798304, -1.5669458548175257, 2.7206344604492188]","[0.0, 0.0, -0.0, 0.0, 0.0, 0.0]","[-0.7369995713233948, -4.367065906524658, -1.0917617082595825, -0.6011353135108948, 0.0583190992474556, 0.1031799390912056]"
1584452119123350852,,1278410,,1584452119,122919296,'',"[shoulder_pan_joint, shoulder_lift_joint, elbow_joint, wrist_1_joint, wrist_2_joint,","[1.4047462940216064, -1.1718247572528284, 2.4830944538116455, -2.8628514448748987, -1.566981617604391, 2.7206225395202637]","[0.0, 0.0, -0.0, 0.0, 0.0, 0.0]","[-0.7324219346046448, -4.399109363555908, -1.102970838546753, -0.5921631455421448, 0.0628051832318306, 0.0919647291302681]"
1584452119235355477,,1278424,,1584452119,234940692,'',"[shoulder_pan_joint, shoulder_lift_joint, elbow_joint, wrist_1_joint, wrist_2_joint,","[1.404758334159851, -1.17180043855776, 2.483058452606201, -2.8628271261798304, -1.566981617604391, 2.7206108570098877]","[0.0, 0.0, -0.0, 0.0, 0.0, 0.0]","[-0.7781983017921448, -4.348755359649658, -1.0917617082595825, -0.5944061875343323, 0.0560760572552681, 0.0874786451458931]"
1584452119347246911,,1278438,,1584452119,346895424,'',"[shoulder_pan_joint, shoulder_lift_joint, elbow_joint, wrist_1_joint, wrist_2_joint,","[1.4047343730926514, -1.1718247572528284, 2.4830944538116455, -2.8628514448748987, -1.5669339338885706, 2.7206108570098877]","[0.0, 0.0, -0.0, 0.0, 0.0, 0.0]","[-0.7553101181983948, -4.348755359649658, -1.085036277770996, -0.5899201035499573, 0.0852356031537056, 0.0785064771771431]"
1584452119459471967,,1278452,,1584452119,458993353,'',"[shoulder_pan_joint, shoulder_lift_joint, elbow_joint, wrist_1_joint, wrist_2_joint,","[1.4047343730926514, -1.1718247572528284, 2.4831063747406006, -2.8628514448748987, -1.5669696966754358, 2.7206108570098877]","[0.0, 0.0, -0.0, 0.0, 0.0, 0.0]","[-0.7553101181983948, -4.371643543243408, -1.1052125692367554, -0.6101074814796448, 0.0695343092083931, 0.0785064771771431]"
1584452119571348664,,1278466,,1584452119,570928118,'',"[shoulder_pan_joint, shoulder_lift_joint, elbow_joint, wrist_1_joint, wrist_2_joint,","[1.4047343730926514, -1.17180043855776, 2.4830822944641113, -2.862875286732809, -1.5669458548175257, 2.7206108570098877]","[0.0, 0.0, -0.0, 0.0, 0.0, 0.0]","[-0.7415772080421448, -4.376221179962158, -1.0940035581588745, -0.5899201035499573, 0.0785064771771431, 0.0919647291302681]"
1584452119683509250,,1278480,,1584452119,683014657,'',"[shoulder_pan_joint, shoulder_lift_joint, elbow_joint, wrist_1_joint, wrist_2_joint,","[1.4047223329544067, -1.1718123594867151, 2.4831182956695557, -2.8628514448748987, -1.566981617604391, 2.7206225395202637]","[0.0, 0.0, -0.0, 0.0, 0.0, 0.0]","[-0.7278442978858948, -4.389954090118408, -1.102970838546753, -0.5988922715187073, 0.0807495191693306, 0.0942077711224556]"
1584452119795411534,,1278494,,1584452119,794947077,'',"[shoulder_pan_joint, shoulder_lift_joint, elbow_joint, wrist_1_joint, wrist_2_joint,","[1.4047702550888062, -1.1718485991107386, 2.4830822944641113, -2.8628271261798304, -1.5669696966754358, 2.7206344604492188]","[0.0, 0.0, -0.0, 0.0, 0.0, 0.0]","[-0.7186890244483948, -4.367065906524658, -1.087278127670288, -0.5899201035499573, 0.0852356031537056, 0.0874786451458931]"
1584452119907405289,,1278508,,1584452119,906940371,'',"[shoulder_pan_joint, shoulder_lift_joint, elbow_joint, wrist_1_joint, wrist_2_joint,","[1.404758334159851, -1.1718247572528284, 2.4830944538116455, -2.8628271261798304, -1.5669696966754358, 2.7206344604492188]","[0.0, 0.0, -0.0, 0.0, 0.0, 0.0]","[-0.7507324814796448, -4.389954090118408, -1.0962454080581665, -0.5921631455421448, 0.0740203931927681, 0.0897216871380806]"
1584452120019329434,,1278522,,1584452120,18943313,'',"[shoulder_pan_joint, shoulder_lift_joint, elbow_joint, wrist_1_joint, wrist_2_joint,","[1.4047822952270508, -1.17177659669985, 2.483058452606201, -2.8628271261798304, -1.5669940153705042, 2.7206225395202637]","[0.0, 0.0, -0.0, 0.0, 0.0, 0.0]","[-0.7507324814796448, -4.339600086212158, -1.098487138748169, -0.5988922715187073, 0.0717773512005806, 0.0919647291302681]"
1584452120131245373,,1278536,,1584452120,130867468,'',"[shoulder_pan_joint, shoulder_lift_joint, elbow_joint, wrist_1_joint, wrist_2_joint,","[1.4047343730926514, -1.17180043855776, 2.4830944538116455, -2.8628271261798304, -1.5669458548175257, 2.7206344604492188]","[0.0, 0.0, -0.0, 0.0, 0.0, 0.0]","[-0.7644653916358948, -4.367065906524658, -1.100728988647461, -0.5988922715187073, 0.0672912672162056, 0.0807495191693306]"
1584452120243302317,,1278550,,1584452120,242922317,'',"[shoulder_pan_joint, shoulder_lift_joint, elbow_joint, wrist_1_joint, wrist_2_joint,","[1.4047462940216064, -1.1718362013446253, 2.483058452606201, -2.8628390471087855, -1.566981617604391, 2.7206344604492188]","[0.0, 0.0, -0.0, 0.0, 0.0, 0.0]","[-0.7278442978858948, -4.348755359649658, -1.102970838546753, -0.5944061875343323, 0.0471038855612278, 0.0897216871380806]"
1584452120355264111,,1278564,,1584452120,354893800,'',"[shoulder_pan_joint, shoulder_lift_joint, elbow_joint, wrist_1_joint, wrist_2_joint,","[1.4047462940216064, -1.1718123594867151, 2.483058452606201, -2.8628390471087855, -1.5669940153705042, 2.7206344604492188]","[0.0, 0.0, -0.0, 0.0, 0.0, 0.0]","[-0.7781983017921448, -4.394531726837158, -1.1074544191360474, -0.5876770615577698, 0.0583190992474556, 0.0829925611615181]"
1584452120467287672,,1278578,,1584452120,466928141,'',"[shoulder_pan_joint, shoulder_lift_joint, elbow_joint, wrist_1_joint, wrist_2_joint,","[1.4047462940216064, -1.171788517628805, 2.4830822944641113, -2.8628514448748987, -1.5669696966754358, 2.7206344604492188]","[0.0, 0.0, -0.0, 0.0, 0.0, 0.0]","[-0.7186890244483948, -4.353332996368408, -1.1074544191360474, -0.5921631455421448, 0.0785064771771431, 0.0919647291302681]"
1584452120579311133,,1278592,,1584452120,578888754,'',"[shoulder_pan_joint, shoulder_lift_joint, elbow_joint, wrist_1_joint, wrist_2_joint,","[1.4047462940216064, -1.17180043855776, 2.4830703735351562, -2.8628390471087855, -1.5669696966754358, 2.720646381378174]","[0.0, 0.0, -0.0, 0.0, 0.0, 0.0]","[-0.7369995713233948, -4.371643543243408, -1.08951997756958, -0.5921631455421448, 0.0628051832318306, 0.0986938551068306]"
1584452120691304366,,1278606,,1584452120,690901744,'',"[shoulder_pan_joint, shoulder_lift_joint, elbow_joint, wrist_1_joint, wrist_2_joint,","[1.4047223329544067, -1.1718362013446253, 2.4830944538116455, -2.8628390471087855, -1.5669577757464808, 2.7206108570098877]","[0.0, 0.0, -0.0, 0.0, 0.0, 0.0]","[-0.6729126572608948, -4.344177722930908, -1.100728988647461, -0.5988922715187073, 0.0628051832318306, 0.0942077711224556]"
1584452120803554000,,1278620,,1584452120,802970410,'',"[shoulder_pan_joint, shoulder_lift_joint, elbow_joint, wrist_1_joint, wrist_2_joint,","[1.4047702550888062, -1.1718362013446253, 2.4830703735351562, -2.8628514448748987, -1.566981617604391, 2.7206344604492188]","[0.0, 0.0, -0.0, 0.0, 0.0, 0.0]","[-0.7369995713233948, -4.339600086212158, -1.0940035581588745, -0.5876770615577698, 0.0605621412396431, 0.0829925611615181]"
1584452120915350166,,1278634,,1584452120,914935341,'',"[shoulder_pan_joint, shoulder_lift_joint, elbow_joint, wrist_1_joint, wrist_2_joint,","[1.4047702550888062, -1.17180043855776, 2.483058452606201, -2.862863365803854, -1.5669696966754358, 2.7206344604492188]","[0.0, 0.0, -0.0, 0.0, 0.0, 0.0]","[-0.7553101181983948, -4.348755359649658, -1.1074544191360474, -0.5921631455421448, 0.0493469275534153, 0.0829925611615181]"
1584452121027479453,,1278648,,1584452121,26959222,'',"[shoulder_pan_joint, shoulder_lift_joint, elbow_joint, wrist_1_joint, wrist_2_joint,","[1.404758334159851, -1.1718123594867151, 2.4830822944641113, -2.8628514448748987, -1.5669577757464808, 2.7206108570098877]","[0.0, 0.0, -0.0, 0.0, 0.0, 0.0]","[-0.7598877549171448, -4.371643543243408, -1.098487138748169, -0.5988922715187073, 0.0874786451458931, 0.0852356031537056]"
1584452121139228181,,1278662,,1584452121,138848842,'',"[shoulder_pan_joint, shoulder_lift_joint, elbow_joint, wrist_1_joint, wrist_2_joint,","[1.4047223329544067, -1.17180043855776, 2.4830703735351562, -2.862863365803854, -1.5669577757464808, 2.7206108570098877]","[0.0, 0.0, -0.0, 0.0, 0.0, 0.0]","[-0.7369995713233948, -4.316711902618408, -1.0940035581588745, -0.5966492295265198, 0.0717773512005806, 0.0740203931927681]"
1584452121251210935,,1278676,,1584452121,250850773,'',"[shoulder_pan_joint, shoulder_lift_joint, elbow_joint, wrist_1_joint, wrist_2_joint,","[1.4047223329544067, -1.1718247572528284, 2.483058452606201, -2.8628514448748987, -1.5669577757464808, 2.7206225395202637]","[0.0, 0.0, -0.0, 0.0, 0.0, 0.0]","[-0.7232666611671448, -4.357910633087158, -1.08951997756958, -0.5876770615577698, 0.0919647291302681, 0.0807495191693306]"
1584452121363247580,,1278690,,1584452121,362887618,'',"[shoulder_pan_joint, shoulder_lift_joint, elbow_joint, wrist_1_joint, wrist_2_joint,","[1.404758334159851, -1.1718123594867151, 2.4830822944641113, -2.8628390471087855, -1.5669940153705042, 2.7206344604492188]","[0.0, 0.0, -0.0, 0.0, 0.0, 0.0]","[-0.7415772080421448, -4.348755359649658, -1.0940035581588745, -0.6123505234718323, 0.0785064771771431, 0.0785064771771431]"
1584452121475419348,,1278704,,1584452121,474942898,'',"[shoulder_pan_joint, shoulder_lift_joint, elbow_joint, wrist_1_joint, wrist_2_joint,","[1.4047343730926514, -1.1718123594867151, 2.4830822944641113, -2.8628514448748987, -1.5669696966754358, 2.7206225395202637]","[0.0, 0.0, -0.0, 0.0, 0.0, 0.0]","[-0.7232666611671448, -4.371643543243408, -1.1074544191360474, -0.5899201035499573, 0.0583190992474556, 0.0762634351849556]"
1584452121587226363,,1278718,,1584452121,586828120,'',"[shoulder_pan_joint, shoulder_lift_joint, elbow_joint, wrist_1_joint, wrist_2_joint,","[1.4047343730926514, -1.17180043855776, 2.4830822944641113, -2.8628514448748987, -1.5669577757464808, 2.7205989360809326]","[0.0, 0.0, -0.0, 0.0, 0.0, 0.0]","[-0.7781983017921448, -4.371643543243408, -1.1074544191360474, -0.5966492295265198, 0.0650482252240181, 0.0964508131146431]"
1584452121699264441,,1278732,,1584452121,698855097,'',"[shoulder_pan_joint, shoulder_lift_joint, elbow_joint, wrist_1_joint, wrist_2_joint,","[1.4047343730926514, -1.1718247572528284, 2.4830944538116455, -2.8628271261798304, -1.5669458548175257, 2.7206225395202637]","[0.0, 0.0, -0.0, 0.0, 0.0, 0.0]","[-0.7141113877296448, -4.376221179962158, -1.100728988647461, -0.5921631455421448, 0.1031799390912056, 0.0942077711224556]"
1584452121811283343,,1278746,,1584452121,810839625,'',"[shoulder_pan_joint, shoulder_lift_joint, elbow_joint, wrist_1_joint, wrist_2_joint,","[1.4047223329544067, -1.1718362013446253, 2.483058452606201, -2.8628390471087855, -1.5669940153705042, 2.7206344604492188]","[0.0, 0.0, -0.0, 0.0, 0.0, 0.0]","[-0.7186890244483948, -4.330444812774658, -1.1209052801132202, -0.5921631455421448, 0.0605621412396431, 0.0964508131146431]"
1584452121923286225,,1278760,,1584452121,922880427,'',"[shoulder_pan_joint, shoulder_lift_joint, elbow_joint, wrist_1_joint, wrist_2_joint,","[1.4047462940216064, -1.1718247572528284, 2.483058452606201, -2.8628514448748987, -1.5669577757464808, 2.7206225395202637]","[0.0, 0.0, -0.0, 0.0, 0.0, 0.0]","[-0.7507324814796448, -4.357910633087158, -1.1164216995239258, -0.6033783555030823, 0.0695343092083931, 0.0762634351849556]"
1584452122035222463,,1278774,,1584452122,34832855,'',"[shoulder_pan_joint, shoulder_lift_joint, elbow_joint, wrist_1_joint, wrist_2_joint,","[1.4047104120254517, -1.1718123594867151, 2.4830822944641113, -2.8628390471087855, -1.566981617604391, 2.7206225395202637]","[0.0, 0.0, -0.0, 0.0, 0.0, 0.0]","[-0.7461548447608948, -4.408264636993408, -1.0917617082595825, -0.5944061875343323, 0.0897216871380806, 0.0852356031537056]"
1584452122147186733,,1278788,,1584452122,146800471,'',"[shoulder_pan_joint, shoulder_lift_joint, elbow_joint, wrist_1_joint, wrist_2_joint,","[1.404758334159851, -1.171788517628805, 2.4831063747406006, -2.8628514448748987, -1.5669696966754358, 2.7206344604492188]","[0.0, 0.0, -0.0, 0.0, 0.0, 0.0]","[-0.7644653916358948, -4.307556629180908, -1.0962454080581665, -0.6011353135108948, 0.0762634351849556, 0.0829925611615181]"
1584452122259441705,,1278802,,1584452122,258909461,'',"[shoulder_pan_joint, shoulder_lift_joint, elbow_joint, wrist_1_joint, wrist_2_joint,","[1.4047462940216064, -1.1718247572528284, 2.4830703735351562, -2.8628390471087855, -1.566981617604391, 2.7206344604492188]","[0.0, 0.0, -0.0, 0.0, 0.0, 0.0]","[-0.7049561142921448, -4.357910633087158, -1.0940035581588745, -0.6011353135108948, 0.0672912672162056, 0.0852356031537056]"
1584452122371318332,,1278816,,1584452122,370895382,'',"[shoulder_pan_joint, shoulder_lift_joint, elbow_joint, wrist_1_joint, wrist_2_joint,","[1.404698371887207, -1.17180043855776, 2.4830822944641113, -2.862863365803854, -1.5669339338885706, 2.720646381378174]","[0.0, 0.0, -0.0, 0.0, 0.0, 0.0]","[-0.7141113877296448, -4.367065906524658, -1.1096962690353394, -0.5944061875343323, 0.0560760572552681, 0.0874786451458931]"
1584452122483151396,,1278830,,1584452122,482761167,'',"[shoulder_pan_joint, shoulder_lift_joint, elbow_joint, wrist_1_joint, wrist_2_joint,","[1.4047223329544067, -1.17180043855776, 2.4830944538116455, -2.862863365803854, -1.566981617604391, 2.7206344604492188]","[0.0, 0.0, -0.0, 0.0, 0.0, 0.0]","[-0.7415772080421448, -4.367065906524658, -1.100728988647461, -0.5831909775733948, 0.0874786451458931, 0.0942077711224556]"
1584452122595193982,,1278844,,1584452122,594786561,'',"[shoulder_pan_joint, shoulder_lift_joint, elbow_joint, wrist_1_joint, wrist_2_joint,","[1.4047343730926514, -1.1718123594867151, 2.4831063747406006, -2.8628390471087855, -1.566981617604391, 2.7206225395202637]","[0.0, 0.0, -0.0, 0.0, 0.0, 0.0]","[-0.7232666611671448, -4.335022449493408, -1.1074544191360474, -0.5921631455421448, 0.0695343092083931, 0.0942077711224556]"
1584452122707262116,,1278858,,1584452122,706802498,'',"[shoulder_pan_joint, shoulder_lift_joint, elbow_joint, wrist_1_joint, wrist_2_joint,","[1.4047343730926514, -1.1718123594867151, 2.4830944538116455, -2.862863365803854, -1.5669577757464808, 2.7206344604492188]","[0.0, 0.0, -0.0, 0.0, 0.0, 0.0]","[-0.7415772080421448, -4.353332996368408, -1.1141798496246338, -0.5988922715187073, 0.0717773512005806, 0.0964508131146431]"
1584452122819242486,,1278872,,1584452122,818823543,'',"[shoulder_pan_joint, shoulder_lift_joint, elbow_joint, wrist_1_joint, wrist_2_joint,","[1.4047223329544067, -1.171788517628805, 2.4830944538116455, -2.862863365803854, -1.5669577757464808, 2.7206344604492188]","[0.0, 0.0, -0.0, 0.0, 0.0, 0.0]","[-0.7369995713233948, -4.335022449493408, -1.1096962690353394, -0.5831909775733948, 0.0672912672162056, 0.0919647291302681]"
1584452122931200414,,1278886,,1584452122,930773687,'',"[shoulder_pan_joint, shoulder_lift_joint, elbow_joint, wrist_1_joint, wrist_2_joint,","[1.404758334159851, -1.17177659669985, 2.4830822944641113, -2.8628390471087855, -1.566981617604391, 2.7206344604492188]","[0.0, 0.0, -0.0, 0.0, 0.0, 0.0]","[-0.7553101181983948, -4.399109363555908, -1.08951997756958, -0.5966492295265198, 0.0740203931927681, 0.0919647291302681]"
1584452123043084745,,1278900,,1584452123,42703022,'',"[shoulder_pan_joint, shoulder_lift_joint, elbow_joint, wrist_1_joint, wrist_2_joint,","[1.4047343730926514, -1.171788517628805, 2.483058452606201, -2.8628390471087855, -1.566981617604391, 2.720646381378174]","[0.0, 0.0, -0.0, 0.0, 0.0, 0.0]","[-0.7141113877296448, -4.353332996368408, -1.1074544191360474, -0.5988922715187073, 0.0829925611615181, 0.1031799390912056]"
1584452123155248657,,1278914,,1584452123,154777768,'',"[shoulder_pan_joint, shoulder_lift_joint, elbow_joint, wrist_1_joint, wrist_2_joint,","[1.4047223329544067, -1.1718123594867151, 2.483058452606201, -2.8628271261798304, -1.5669696966754358, 2.7205989360809326]","[0.0, 0.0, -0.0, 0.0, 0.0, 0.0]","[-0.7415772080421448, -4.380798816680908, -1.0940035581588745, -0.6056213974952698, 0.0650482252240181, 0.0807495191693306]"
1584452123267203289,,1278928,,1584452123,266777464,'',"[shoulder_pan_joint, shoulder_lift_joint, elbow_joint, wrist_1_joint, wrist_2_joint,","[1.4047343730926514, -1.1718123594867151, 2.4830822944641113, -2.8628514448748987, -1.5669577757464808, 2.7206344604492188]","[0.0, 0.0, -0.0, 0.0, 0.0, 0.0]","[-0.7415772080421448, -4.362488269805908, -1.102970838546753, -0.5876770615577698, 0.0785064771771431, 0.0942077711224556]"
1584452123379209307,,1278942,,1584452123,378752844,'',"[shoulder_pan_joint, shoulder_lift_joint, elbow_joint, wrist_1_joint, wrist_2_joint,","[1.4047223329544067, -1.1718123594867151, 2.4830703735351562, -2.8628390471087855, -1.5669577757464808, 2.7206225395202637]","[0.0, 0.0, -0.0, 0.0, 0.0, 0.0]","[-0.7690430283546448, -4.399109363555908, -1.102970838546753, -0.5899201035499573, 0.0650482252240181, 0.0807495191693306]"
1584452123491206789,,1278956,,1584452123,490757329,'',"[shoulder_pan_joint, shoulder_lift_joint, elbow_joint, wrist_1_joint, wrist_2_joint,","[1.4047343730926514, -1.1718362013446253, 2.4830944538116455, -2.862863365803854, -1.566981617604391, 2.7205989360809326]","[0.0, 0.0, -0.0, 0.0, 0.0, 0.0]","[-0.7141113877296448, -4.389954090118408, -1.102970838546753, -0.5988922715187073, 0.0717773512005806, 0.0897216871380806]"
1584452123603106929,,1278970,,1584452123,602763838,'',"[shoulder_pan_joint, shoulder_lift_joint, elbow_joint, wrist_1_joint, wrist_2_joint,","[1.404758334159851, -1.171788517628805, 2.483058452606201, -2.8628390471087855, -1.5669577757464808, 2.7206225395202637]","[0.0, 0.0, -0.0, 0.0, 0.0, 0.0]","[-0.7324219346046448, -4.335022449493408, -1.102970838546753, -0.5854340195655823, 0.0695343092083931, 0.0942077711224556]"
1584452123715136611,,1278984,,1584452123,714714663,'',"[shoulder_pan_joint, shoulder_lift_joint, elbow_joint, wrist_1_joint, wrist_2_joint,","[1.404758334159851, -1.1718247572528284, 2.4830703735351562, -2.8628514448748987, -1.5669458548175257, 2.7206225395202637]","[0.0, 0.0, -0.0, 0.0, 0.0, 0.0]","[-0.7369995713233948, -4.385376453399658, -1.100728988647461, -0.5876770615577698, 0.0717773512005806, 0.1031799390912056]"
1584452123827118864,,1278998,,1584452123,826740588,'',"[shoulder_pan_joint, shoulder_lift_joint, elbow_joint, wrist_1_joint, wrist_2_joint,","[1.4047462940216064, -1.1718362013446253, 2.483034372329712, -2.862863365803854, -1.5669577757464808, 2.7206108570098877]","[0.0, 0.0, -0.0, 0.0, 0.0, 0.0]","[-0.7186890244483948, -4.394531726837158, -1.1052125692367554, -0.5921631455421448, 0.0807495191693306, 0.0964508131146431]"
1584452123939147905,,1279012,,1584452123,938775500,'',"[shoulder_pan_joint, shoulder_lift_joint, elbow_joint, wrist_1_joint, wrist_2_joint,","[1.4047104120254517, -1.17180043855776, 2.4830822944641113, -2.862887207661764, -1.5669458548175257, 2.7206225395202637]","[0.0, 0.0, -0.0, 0.0, 0.0, 0.0]","[-0.7553101181983948, -4.376221179962158, -1.1096962690353394, -0.5876770615577698, 0.0605621412396431, 0.0829925611615181]"
1584452124051119939,,1279026,,1584452124,50700837,'',"[shoulder_pan_joint, shoulder_lift_joint, elbow_joint, wrist_1_joint, wrist_2_joint,","[1.404758334159851, -1.17180043855776, 2.4830944538116455, -2.8628152052508753, -1.5669696966754358, 2.720646381378174]","[0.0, 0.0, -0.0, 0.0, 0.0, 0.0]","[-0.7186890244483948, -4.330444812774658, -1.1052125692367554, -0.5944061875343323, 0.1480407863855362, 0.0874786451458931]"
1584452124162994251,,1279040,,1584452124,162649888,'',"[shoulder_pan_joint, shoulder_lift_joint, elbow_joint, wrist_1_joint, wrist_2_joint,","[1.4047462940216064, -1.17180043855776, 2.4830944538116455, -2.8628514448748987, -1.566981617604391, 2.7206344604492188]","[0.0, 0.0, -0.0, 0.0, 0.0, 0.0]","[-0.7324219346046448, -4.385376453399658, -1.102970838546753, -0.5854340195655823, 0.0650482252240181, 0.0807495191693306]"
1584452124275137145,,1279054,,1584452124,274725887,'',"[shoulder_pan_joint, shoulder_lift_joint, elbow_joint, wrist_1_joint, wrist_2_joint,","[1.4047343730926514, -1.1718362013446253, 2.4830822944641113, -2.862863365803854, -1.5669577757464808, 2.7206225395202637]","[0.0, 0.0, -0.0, 0.0, 0.0, 0.0]","[-0.7369995713233948, -4.344177722930908, -1.100728988647461, -0.5966492295265198, 0.1054229810833931, 0.1054229810833931]"
1584452124387076949,,1279068,,1584452124,386670500,'',"[shoulder_pan_joint, shoulder_lift_joint, elbow_joint, wrist_1_joint, wrist_2_joint,","[1.4047104120254517, -1.171788517628805, 2.4830822944641113, -2.8628514448748987, -1.566981617604391, 2.7206225395202637]","[0.0, 0.0, -0.0, 0.0, 0.0, 0.0]","[-0.7003784775733948, -4.339600086212158, -1.100728988647461, -0.6033783555030823, 0.0717773512005806, 0.0829925611615181]"
1584452124499257122,,1279082,,1584452124,498750185,'',"[shoulder_pan_joint, shoulder_lift_joint, elbow_joint, wrist_1_joint, wrist_2_joint,","[1.4047702550888062, -1.1718123594867151, 2.4830944538116455, -2.8628390471087855, -1.5669458548175257, 2.7206344604492188]","[0.0, 0.0, -0.0, 0.0, 0.0, 0.0]","[-0.7324219346046448, -4.339600086212158, -1.102970838546753, -0.5944061875343323, 0.0717773512005806, 0.0807495191693306]"
1584452124611176337,,1279096,,1584452124,610692674,'',"[shoulder_pan_joint, shoulder_lift_joint, elbow_joint, wrist_1_joint, wrist_2_joint,","[1.404698371887207, -1.17177659669985, 2.4830944538116455, -2.8628390471087855, -1.5669458548175257, 2.7206225395202637]","[0.0, 0.0, -0.0, 0.0, 0.0, 0.0]","[-0.7461548447608948, -4.353332996368408, -1.1186634302139282, -0.5876770615577698, 0.0740203931927681, 0.0964508131146431]"
1584452124723052974,,1279110,,1584452124,722648619,'',"[shoulder_pan_joint, shoulder_lift_joint, elbow_joint, wrist_1_joint, wrist_2_joint,","[1.4047702550888062, -1.1718123594867151, 2.4830703735351562, -2.862863365803854, -1.5669696966754358, 2.7205989360809326]","[0.0, 0.0, -0.0, 0.0, 0.0, 0.0]","[-0.7781983017921448, -4.330444812774658, -1.1186634302139282, -0.5921631455421448, 0.0717773512005806, 0.0919647291302681]"
1584452124834982609,,1279124,,1584452124,834649587,'',"[shoulder_pan_joint, shoulder_lift_joint, elbow_joint, wrist_1_joint, wrist_2_joint,","[1.4047462940216064, -1.1718247572528284, 2.4830822944641113, -2.862863365803854, -1.5669940153705042, 2.720646381378174]","[0.0, 0.0, -0.0, 0.0, 0.0, 0.0]","[-0.7049561142921448, -4.312134265899658, -1.1052125692367554, -0.5876770615577698, 0.0695343092083931, 0.0897216871380806]"
1584452124947233354,,1279138,,1584452124,946739982,'',"[shoulder_pan_joint, shoulder_lift_joint, elbow_joint, wrist_1_joint, wrist_2_joint,","[1.4047343730926514, -1.171788517628805, 2.4830944538116455, -2.862863365803854, -1.566981617604391, 2.7206225395202637]","[0.0, 0.0, -0.0, 0.0, 0.0, 0.0]","[-0.7141113877296448, -4.339600086212158, -1.1074544191360474, -0.5944061875343323, 0.0695343092083931, 0.0964508131146431]"
1584452125059055418,,1279152,,1584452125,58667614,'',"[shoulder_pan_joint, shoulder_lift_joint, elbow_joint, wrist_1_joint, wrist_2_joint,","[1.404758334159851, -1.17180043855776, 2.4830822944641113, -2.8628152052508753, -1.5669577757464808, 2.7206108570098877]","[0.0, 0.0, -0.0, 0.0, 0.0, 0.0]","[-0.7736206650733948, -4.362488269805908, -1.100728988647461, -0.5944061875343323, 0.0717773512005806, 0.0919647291302681]"
1584452125171311433,,1279166,,1584452125,170825055,'',"[shoulder_pan_joint, shoulder_lift_joint, elbow_joint, wrist_1_joint, wrist_2_joint,","[1.404758334159851, -1.171788517628805, 2.4831063747406006, -2.8628390471087855, -1.5669696966754358, 2.7206344604492188]","[0.0, 0.0, -0.0, 0.0, 0.0, 0.0]","[-0.7049561142921448, -4.412842273712158, -1.1052125692367554, -0.5831909775733948, 0.0650482252240181, 0.0897216871380806]"
1584452125283149256,,1279180,,1584452125,282711890,'',"[shoulder_pan_joint, shoulder_lift_joint, elbow_joint, wrist_1_joint, wrist_2_joint,","[1.4047462940216064, -1.1718123594867151, 2.4830944538116455, -2.862899128590719, -1.566981617604391, 2.7204790115356445]","[0.0, 0.0, -0.0, 0.0, 0.0, -0.01660534180700779]","[-0.7141113877296448, -4.399109363555908, -1.0940035581588745, -0.5988922715187073, 0.0762634351849556, -0.1727142482995987]"
1584452125395065216,,1279194,,1584452125,394681540,'',"[shoulder_pan_joint, shoulder_lift_joint, elbow_joint, wrist_1_joint, wrist_2_joint,","[1.4047343730926514, -1.17177659669985, 2.4830822944641113, -2.8628271261798304, -1.566981617604391, 2.712684154510498]","[0.0, 0.0, -0.0, 0.0, 0.0, -0.15809589624404907]","[-0.7736206650733948, -4.339600086212158, -1.102970838546753, -0.5831909775733948, 0.0785064771771431, -0.4643097519874573]"
1584452125507246110,,1279208,,1584452125,506758920,'',"[shoulder_pan_joint, shoulder_lift_joint, elbow_joint, wrist_1_joint, wrist_2_joint,","[1.4047702550888062, -1.1718123594867151, 2.4830822944641113, -2.8628390471087855, -1.5669696966754358, 2.6903772354125977]","[0.0, 0.0, -0.0, 0.0, 0.0, -0.20434542000293732]","[-0.7644653916358948, -4.403687000274658, -1.1119379997253418, -0.6011353135108948, 0.0852356031537056, -0.3970184624195099]"
1584452125619058507,,1279222,,1584452125,618641939,'',"[shoulder_pan_joint, shoulder_lift_joint, elbow_joint, wrist_1_joint, wrist_2_joint,","[1.4047223329544067, -1.17180043855776, 2.4830822944641113, -2.8628514448748987, -1.5669577757464808, 2.667879819869995]","[0.0, 0.0, -0.0, 0.0, 0.0, -0.19974347949028015]","[-0.7186890244483948, -4.367065906524658, -1.1186634302139282, -0.5899201035499573, 0.0650482252240181, -0.4463654160499573]"
1584452125731140046,,1279236,,1584452125,730714451,'',"[shoulder_pan_joint, shoulder_lift_joint, elbow_joint, wrist_1_joint, wrist_2_joint,","[1.4047343730926514, -1.17180043855776, 2.483058452606201, -2.8628271261798304, -1.5669458548175257, 2.6455016136169434]","[0.0, 0.0, -0.0, 0.0, 0.0, -0.2011815905570984]","[-0.7186890244483948, -4.357910633087158, -1.0917617082595825, -0.5876770615577698, 0.0695343092083931, -0.4172058403491974]"
1584452125843086241,,1279250,,1584452125,842692716,'',"[shoulder_pan_joint, shoulder_lift_joint, elbow_joint, wrist_1_joint, wrist_2_joint,","[1.4047343730926514, -1.17180043855776, 2.4830822944641113, -2.862863365803854, -1.5669100920306605, 2.62302827835083]","[0.0, 0.0, -0.0, 0.0, 0.0, -0.19799856841564178]","[-0.7369995713233948, -4.348755359649658, -1.0940035581588745, -0.5921631455421448, 0.0650482252240181, -0.6011353135108948]"
1584452125955219237,,1279264,,1584452125,954732648,'',"[shoulder_pan_joint, shoulder_lift_joint, elbow_joint, wrist_1_joint, wrist_2_joint,","[1.4047702550888062, -1.171788517628805, 2.4830703735351562, -2.8628514448748987, -1.5669220129596155, 2.6006393432617188]","[0.0, 0.0, -0.0, 0.0, 0.0, -0.20160342752933502]","[-0.7186890244483948, -4.385376453399658, -1.102970838546753, -0.5944061875343323, 0.0314025916159153, -0.4127197563648224]"
1584452126067081186,,1279278,,1584452126,66683082,'',"[shoulder_pan_joint, shoulder_lift_joint, elbow_joint, wrist_1_joint, wrist_2_joint,","[1.4047702550888062, -1.17180043855776, 2.4830944538116455, -2.86280328432192, -1.5668981711017054, 2.5782742500305176]","[0.0, 0.0, -0.0, 0.0, 0.0, -0.19755755364894867]","[-0.7369995713233948, -4.298401355743408, -1.102970838546753, -0.5921631455421448, 0.0605621412396431, -0.4598236680030823]"
1584452126179145282,,1279292,,1584452126,178726349,'',"[shoulder_pan_joint, shoulder_lift_joint, elbow_joint, wrist_1_joint, wrist_2_joint,","[1.4047702550888062, -1.171788517628805, 2.4830822944641113, -2.8628390471087855, -1.5669100920306605, 2.5558135509490967]","[0.0, 0.0, -0.0, 0.0, 0.0, -0.20089396834373474]","[-0.7461548447608948, -4.335022449493408, -1.1164216995239258, -0.6101074814796448, 0.0785064771771431, -0.4732819199562073]"
1584452126291174964,,1279306,,1584452126,290724583,'',"[shoulder_pan_joint, shoulder_lift_joint, elbow_joint, wrist_1_joint, wrist_2_joint,","[1.4047702550888062, -1.17177659669985, 2.4830822944641113, -2.86280328432192, -1.5668981711017054, 2.5333054065704346]","[0.0, 0.0, -0.0, 0.0, 3.834952076431364e-05, -0.19830536842346191]","[-0.7553101181983948, -4.385376453399658, -1.1253888607025146, -0.5966492295265198, 0.0605621412396431, -0.4598236680030823]"
1584452126403027365,,1279320,,1584452126,402656903,'',"[shoulder_pan_joint, shoulder_lift_joint, elbow_joint, wrist_1_joint, wrist_2_joint,","[1.404758334159851, -1.17177659669985, 2.4830944538116455, -2.862791363392965, -1.5668981711017054, 2.511108636856079]","[0.0, 0.0, -0.0, 0.0, 3.834952076431364e-05, -0.20125828683376312]","[-0.7598877549171448, -4.362488269805908, -1.1209052801132202, -0.5988922715187073, 0.0897216871380806, -0.4373932480812073]"
1584452126515134020,,1279334,,1584452126,514645748,'',"[shoulder_pan_joint, shoulder_lift_joint, elbow_joint, wrist_1_joint, wrist_2_joint,","[1.4047822952270508, -1.1718123594867151, 2.4831063747406006, -2.86280328432192, -1.566861931477682, 2.4885525703430176]","[0.0, 0.0, -0.0, 0.0, 3.834952076431364e-05, -0.20210197567939758]","[-0.7324219346046448, -4.348755359649658, -1.1567742824554443, -0.6078644394874573, 0.0358886756002903, -0.3992615044116974]"
1584452126627054429,,1279348,,1584452126,626643872,'',"[shoulder_pan_joint, shoulder_lift_joint, elbow_joint, wrist_1_joint, wrist_2_joint,","[1.4047702550888062, -1.1718247572528284, 2.4831063747406006, -2.8628152052508753, -1.5668500105487269, 2.466200828552246]","[0.0, 0.0, -0.0, 0.0, 3.834952076431364e-05, -0.19870804250240326]","[-0.7690430283546448, -4.389954090118408, -1.2352375984191895, -0.5966492295265198, 0.0493469275534153, -0.5674896836280823]"
1584452126739234060,,1279362,,1584452126,738726041,'',"[shoulder_pan_joint, shoulder_lift_joint, elbow_joint, wrist_1_joint, wrist_2_joint,","[1.404758334159851, -1.17180043855776, 2.4831063747406006, -2.86277944246401, -1.566861931477682, 2.44378924369812]","[0.0, 0.0, -0.0, 0.0, 3.834952076431364e-05, -0.20168012380599976]","[-0.7461548447608948, -4.389954090118408, -1.3630207777023315, -0.5876770615577698, 0.0314025916159153, -0.4015045464038849]"
1584452126851090459,,1279376,,1584452126,850660937,'',"[shoulder_pan_joint, shoulder_lift_joint, elbow_joint, wrist_1_joint, wrist_2_joint,","[1.404758334159851, -1.171788517628805, 2.4831182956695557, -2.86280328432192, -1.5668500105487269, 2.4214015007019043]","[0.0, 0.0, -0.0, 0.0, 0.0, -0.198784738779068]","[-0.7141113877296448, -4.389954090118408, -1.454935073852539, -0.5921631455421448, -0.0269165076315403, -0.5181427597999573]"
1584452126963020505,,1279390,,1584452126,962589099,'',"[shoulder_pan_joint, shoulder_lift_joint, elbow_joint, wrist_1_joint, wrist_2_joint,","[1.4047462940216064, -1.1718123594867151, 2.4831063747406006, -2.8628152052508753, -1.5669100920306605, 2.399038076400757]","[0.0, 0.0, -0.0, 0.0, -0.0013038837350904942, -0.19801774621009827]","[-0.7278442978858948, -4.380798816680908, -1.598410964012146, -0.6011353135108948, -0.0762634351849556, -0.4598236680030823]"
1584452127074995805,,1279404,,1584452127,74546676,'',"[shoulder_pan_joint, shoulder_lift_joint, elbow_joint, wrist_1_joint, wrist_2_joint,","[1.4047702550888062, -1.17180043855776, 2.4830944538116455, -2.86280328432192, -1.5669339338885706, 2.3831396102905273]","[0.0, 0.0, -0.00010226538870483637, 0.0, -0.00028762139845639467, -0.06304661184549332]","[-0.7461548447608948, -4.380798816680908, -1.5603001117706299, -0.6033783555030823, -0.0628051832318306, -0.3364563286304474]"
1584452127187076272,,1279418,,1584452127,186677828,'',"[shoulder_pan_joint, shoulder_lift_joint, elbow_joint, wrist_1_joint, wrist_2_joint,","[1.404758334159851, -1.171788517628805, 2.4830822944641113, -2.862791363392965, -1.5669220129596155, 2.382026195526123]","[0.0, 0.0, -0.00010226538870483637, 0.0, -0.00015339808305725455, 0.0006327670998871326]","[-0.7461548447608948, -4.399109363555908, -1.593927264213562, -0.5966492295265198, -0.0717773512005806, 0.02243042178452015]"
1584452127298875784,,1279432,,1584452127,298586865,'',"[shoulder_pan_joint, shoulder_lift_joint, elbow_joint, wrist_1_joint, wrist_2_joint,","[1.4047343730926514, -1.171788517628805, 2.4830703735351562, -2.86280328432192, -1.5669220129596155, 2.3821940422058105]","[0.0, 0.0, -0.00010226538870483637, 0.0, -9.58738019107841e-05, 0.002416019793599844]","[-0.7324219346046448, -4.380798816680908, -1.5647838115692139, -0.5854340195655823, -0.0538330152630806, 0.0717773512005806]"
1584452127411095521,,1279446,,1584452127,410635311,'',"[shoulder_pan_joint, shoulder_lift_joint, elbow_joint, wrist_1_joint, wrist_2_joint,","[1.4047343730926514, -1.1718247572528284, 2.483058452606201, -2.86280328432192, -1.5669100920306605, 2.3822178840637207]","[0.0, 0.0, -7.669904152862728e-05, 0.0, -7.669904152862728e-05, 0.00036432043998502195]","[-0.7369995713233948, -4.316711902618408, -1.5715092420578003, -0.5921631455421448, -0.0493469275534153, 0.0448608435690403]"
1584452127522878302,,1279460,,1584452127,522534089,'',"[shoulder_pan_joint, shoulder_lift_joint, elbow_joint, wrist_1_joint, wrist_2_joint,","[1.4047343730926514, -1.1718123594867151, 2.4830822944641113, -2.862791363392965, -1.5669339338885706, 2.3822414875030518]","[0.0, 0.0, -6.391586794052273e-05, 0.0, -5.752428114647046e-05, 0.00015339808305725455]","[-0.7232666611671448, -4.367065906524658, -1.5580583810806274, -0.5944061875343323, -0.0605621412396431, 0.0471038855612278]"
1584452127635062102,,1279474,,1584452127,634587495,'',"[shoulder_pan_joint, shoulder_lift_joint, elbow_joint, wrist_1_joint, wrist_2_joint,","[1.4047702550888062, -1.17180043855776, 2.483046531677246, -2.862791363392965, -1.5669458548175257, 2.382265567779541]","[0.0, 0.0, -5.1132694352418184e-05, 0.0, -3.834952076431364e-05, 9.58738019107841e-05]","[-0.7415772080421448, -4.339600086212158, -1.5647838115692139, -0.6011353135108948, -0.0672912672162056, 0.0448608435690403]"
1584452127747067378,,1279488,,1584452127,746631684,'',"[shoulder_pan_joint, shoulder_lift_joint, elbow_joint, wrist_1_joint, wrist_2_joint,","[1.4047223329544067, -1.171788517628805, 2.4831063747406006, -2.8628152052508753, -1.5669100920306605, 2.3823013305664062]","[0.0, 0.0, -3.834952076431364e-05, 0.0, -3.834952076431364e-05, 7.669904152862728e-05]","[-0.7598877549171448, -4.385376453399658, -1.549091100692749, -0.6033783555030823, -0.0605621412396431, 0.0448608435690403]"
1584452127858906895,,1279502,,1584452127,858527296,'',"[shoulder_pan_joint, shoulder_lift_joint, elbow_joint, wrist_1_joint, wrist_2_joint,","[1.404758334159851, -1.1718123594867151, 2.4830822944641113, -2.862767521535055, -1.5669458548175257, 2.382265567779541]","[0.0, 0.0, -3.834952076431364e-05, 0.0, -3.834952076431364e-05, 5.752428114647046e-05]","[-0.7507324814796448, -4.316711902618408, -1.5647838115692139, -0.6078644394874573, -0.0560760572552681, 0.0471038855612278]"
1584452127970973676,,1279516,,1584452127,970551387,'',"[shoulder_pan_joint, shoulder_lift_joint, elbow_joint, wrist_1_joint, wrist_2_joint,","[1.4047343730926514, -1.1718123594867151, 2.483058452606201, -2.86280328432192, -1.5669458548175257, 2.3823134899139404]","[0.0, 0.0, -2.5566347176209092e-05, 0.0, -1.917476038215682e-05, 5.752428114647046e-05]","[-0.7324219346046448, -4.348755359649658, -1.5603001117706299, -0.6078644394874573, -0.0605621412396431, 0.0448608435690403]"
1584452128083128622,,1279530,,1584452128,82618610,'',"[shoulder_pan_joint, shoulder_lift_joint, elbow_joint, wrist_1_joint, wrist_2_joint,","[1.4047343730926514, -1.1717646757708948, 2.4830822944641113, -2.86280328432192, -1.5669339338885706, 2.382277488708496]","[0.0, 0.0, -2.5566347176209092e-05, 0.0, -1.917476038215682e-05, 5.752428114647046e-05]","[-0.7461548447608948, -4.367065906524658, -1.5603001117706299, -0.6056213974952698, -0.0560760572552681, 0.0471038855612278]"
1584452128195042488,,1279544,,1584452128,194622434,'',"[shoulder_pan_joint, shoulder_lift_joint, elbow_joint, wrist_1_joint, wrist_2_joint,","[1.4047462940216064, -1.1718362013446253, 2.4830822944641113, -2.862791363392965, -1.5669220129596155, 2.3823013305664062]","[0.0, 0.0, -2.5566347176209092e-05, 0.0, -1.917476038215682e-05, 5.752428114647046e-05]","[-0.7507324814796448, -4.348755359649658, -1.5580583810806274, -0.5988922715187073, -0.0583190992474556, 0.0471038855612278]"
1584452128306968196,,1279558,,1584452128,306547740,'',"[shoulder_pan_joint, shoulder_lift_joint, elbow_joint, wrist_1_joint, wrist_2_joint,","[1.4047462940216064, -1.1718247572528284, 2.4831063747406006, -2.8628152052508753, -1.5669458548175257, 2.3823013305664062]","[0.0, 0.0, -2.5566347176209092e-05, 0.0, -1.917476038215682e-05, 5.752428114647046e-05]","[-0.7415772080421448, -4.362488269805908, -1.5670255422592163, -0.5988922715187073, -0.0538330152630806, 0.0538330152630806]"
1584452128418972210,,1279572,,1584452128,418536316,'',"[shoulder_pan_joint, shoulder_lift_joint, elbow_joint, wrist_1_joint, wrist_2_joint,","[1.404758334159851, -1.17180043855776, 2.4831063747406006, -2.86280328432192, -1.5669339338885706, 2.382289409637451]","[0.0, 0.0, -2.5566347176209092e-05, 0.0, -1.917476038215682e-05, 5.752428114647046e-05]","[-0.7095337510108948, -4.371643543243408, -1.5737509727478027, -0.6078644394874573, -0.0560760572552681, 0.0471038855612278]"
1584452128530838867,,1279586,,1584452128,530494414,'',"[shoulder_pan_joint, shoulder_lift_joint, elbow_joint, wrist_1_joint, wrist_2_joint,","[1.4045301675796509, -1.1719682852374476, 2.4832262992858887, -2.8629472891436976, -1.5668981711017054, 2.382146120071411]","[0.005573463626205921, -0.002582201035693288, -0.0068517811596393585, 0.0037774278316646814, -1.917476038215682e-05, 0.0035473306197673082]","[-0.7644653916358948, -4.101562976837158, -1.3540536165237427, -0.5921631455421448, -0.0426178015768528, -0.02467346377670765]"
1584452128643123275,,1279600,,1584452128,642600900,'',"[shoulder_pan_joint, shoulder_lift_joint, elbow_joint, wrist_1_joint, wrist_2_joint,","[1.4044822454452515, -1.1719682852374476, 2.483142375946045, -2.8629472891436976, -1.5669577757464808, 2.382158041000366]","[0.00026844663079828024, -0.00020453077740967274, 0.0005624596378766, 0.0003067961661145091, -1.917476038215682e-05, 0.00032597093377262354]","[-0.6225586533546448, -4.261780261993408, -1.2464466094970703, -0.5854340195655823, -0.0672912672162056, 0.0022430422250181437]"
1584452128754925733,,1279614,,1584452128,754491422,'',"[shoulder_pan_joint, shoulder_lift_joint, elbow_joint, wrist_1_joint, wrist_2_joint,","[1.4045301675796509, -1.1719325224505823, 2.483166217803955, -2.8629592100726526, -1.5669339338885706, 2.382146120071411]","[0.00011504856229294091, -2.5566347176209092e-05, -0.0, 0.00015339808305725455, -1.917476038215682e-05, 0.00015339808305725455]","[-0.6500244736671448, -4.316711902618408, -1.100728988647461, -0.5809479355812073, -0.0605621412396431, 0.006729126907885075]"
1584452128866892928,,1279628,,1584452128,866491819,'',"[shoulder_pan_joint, shoulder_lift_joint, elbow_joint, wrist_1_joint, wrist_2_joint,","[1.404494285583496, -1.1719682852374476, 2.4832022190093994, -2.8629592100726526, -1.5669458548175257, 2.382146120071411]","[7.669904152862728e-05, 0.0, 0.0003579288604669273, 9.58738019107841e-05, 0.0, 9.58738019107841e-05]","[-0.5676270127296448, -4.330444812774658, -0.9460440278053284, -0.5899201035499573, -0.0560760572552681, 0.008972168900072575]"
1584452128978881193,,1279642,,1584452128,978482849,'',"[shoulder_pan_joint, shoulder_lift_joint, elbow_joint, wrist_1_joint, wrist_2_joint,","[1.4044703245162964, -1.1719802061664026, 2.483262062072754, -2.862983051930563, -1.5669220129596155, 2.382133960723877]","[5.1132694352418184e-05, 0.0, 0.0006008091731928289, 7.669904152862728e-05, 0.0, 7.669904152862728e-05]","[-0.5630493760108948, -4.307556629180908, -0.9348350167274475, -0.5944061875343323, -0.0605621412396431, 0.0022430422250181437]"
1584452129090815337,,1279656,,1584452129,90475031,'',"[shoulder_pan_joint, shoulder_lift_joint, elbow_joint, wrist_1_joint, wrist_2_joint,","[1.4045062065124512, -1.1719563643084925, 2.483250141143799, -2.863006893788473, -1.5668981711017054, 2.382158041000366]","[3.834952076431364e-05, 0.0, 0.0002812298189383, 5.752428114647046e-05, 0.0, 5.752428114647046e-05]","[-0.5584717392921448, -4.312134265899658, -0.9303513765335083, -0.5899201035499573, -0.0605621412396431, 0.0022430422250181437]"
1584452129203118249,,1279670,,1584452129,202615550,'',"[shoulder_pan_joint, shoulder_lift_joint, elbow_joint, wrist_1_joint, wrist_2_joint,","[1.4045062065124512, -1.1719682852374476, 2.483262062072754, -2.862983051930563, -1.5669220129596155, 2.382122039794922]","[3.834952076431364e-05, 0.0, 0.00015339808305725455, 3.834952076431364e-05, 0.0, 3.834952076431364e-05]","[-0.5310059189796448, -4.316711902618408, -0.910175085067749, -0.5944061875343323, -0.0650482252240181, 0.011215210892260075]"
1584452129314994214,,1279684,,1584452129,314556186,'',"[shoulder_pan_joint, shoulder_lift_joint, elbow_joint, wrist_1_joint, wrist_2_joint,","[1.4044822454452515, -1.1719682852374476, 2.4832382202148438, -2.862983051930563, -1.5669220129596155, 2.382146120071411]","[2.5566347176209092e-05, 0.0, 0.00010226538870483637, 3.834952076431364e-05, 0.0, 3.834952076431364e-05]","[-0.5859375596046448, -4.302978992462158, -0.9281095862388611, -0.5854340195655823, -0.0605621412396431, 0.004486084450036287]"
1584452129426937384,,1279698,,1584452129,426523361,'',"[shoulder_pan_joint, shoulder_lift_joint, elbow_joint, wrist_1_joint, wrist_2_joint,","[1.4044822454452515, -1.1719802061664026, 2.483262062072754, -2.8629711310016077, -1.5669339338885706, 2.3821699619293213]","[2.5566347176209092e-05, 0.0, 7.669904152862728e-05, 3.834952076431364e-05, 0.0, 3.834952076431364e-05]","[-0.5905151963233948, -4.312134265899658, -0.9258677363395691, -0.5854340195655823, -0.0538330152630806, 0.0022430422250181437]"
1584452129539076981,,1279712,,1584452129,538546781,'',"[shoulder_pan_joint, shoulder_lift_joint, elbow_joint, wrist_1_joint, wrist_2_joint,","[1.404494285583496, -1.171920124684469, 2.483274221420288, -2.8629711310016077, -1.5669220129596155, 2.382146120071411]","[1.2783173588104546e-05, 0.0, 6.391586794052273e-05, 1.917476038215682e-05, 0.0, 1.917476038215682e-05]","[-0.5767822861671448, -4.302978992462158, -0.9236259460449219, -0.5831909775733948, -0.0583190992474556, 0.006729126907885075]"
1584452129650992941,,1279726,,1584452129,650520018,'',"[shoulder_pan_joint, shoulder_lift_joint, elbow_joint, wrist_1_joint, wrist_2_joint,","[1.4045062065124512, -1.1719682852374476, 2.483274221420288, -2.862983051930563, -1.5669100920306605, 2.382158041000366]","[1.2783173588104546e-05, 0.0, 5.1132694352418184e-05, 1.917476038215682e-05, 0.0, 1.917476038215682e-05]","[-0.6088257431983948, -4.330444812774658, -0.9281095862388611, -0.5899201035499573, -0.0672912672162056, 0.008972168900072575]"
1584452129762801710,,1279740,,1584452129,762421680,'',"[shoulder_pan_joint, shoulder_lift_joint, elbow_joint, wrist_1_joint, wrist_2_joint,","[1.4045182466506958, -1.1719325224505823, 2.4832382202148438, -2.8629711310016077, -1.5669339338885706, 2.382133960723877]","[1.2783173588104546e-05, 0.0, 3.834952076431364e-05, 1.917476038215682e-05, 0.0, 1.917476038215682e-05]","[-0.5538941025733948, -4.316711902618408, -0.9303513765335083, -0.5921631455421448, -0.0583190992474556, 0.0022430422250181437]"
1584452129875077913,,1279754,,1584452129,874537874,'',"[shoulder_pan_joint, shoulder_lift_joint, elbow_joint, wrist_1_joint, wrist_2_joint,","[1.404494285583496, -1.1719682852374476, 2.4832382202148438, -2.862983051930563, -1.5669220129596155, 2.382146120071411]","[1.2783173588104546e-05, 0.0, 3.834952076431364e-05, 1.917476038215682e-05, 0.0, 1.917476038215682e-05]","[-0.5630493760108948, -4.325867176055908, -0.9146587252616882, -0.5831909775733948, -0.0583190992474556, 0.0]"
1584452129986860954,,1279768,,1584452129,986457150,'',"[shoulder_pan_joint, shoulder_lift_joint, elbow_joint, wrist_1_joint, wrist_2_joint,","[1.4044822454452515, -1.1719921270953577, 2.483286142349243, -2.862983051930563, -1.5669339338885706, 2.382133960723877]","[1.2783173588104546e-05, 0.0, 2.5566347176209092e-05, 1.917476038215682e-05, 0.0, 1.917476038215682e-05]","[-0.5722046494483948, -4.316711902618408, -0.9169005155563354, -0.5854340195655823, -0.0628051832318306, 0.01345825381577015]"
1584452130098981406,,1279782,,1584452130,98565008,'',"[shoulder_pan_joint, shoulder_lift_joint, elbow_joint, wrist_1_joint, wrist_2_joint,","[1.404494285583496, -1.1719444433795374, 2.483262062072754, -2.8629711310016077, -1.5669339338885706, 2.382146120071411]","[1.2783173588104546e-05, 0.0, 2.5566347176209092e-05, 1.917476038215682e-05, 0.0, 1.917476038215682e-05]","[-0.5172730088233948, -4.238892078399658, -0.9213841557502747, -0.5854340195655823, -0.0650482252240181, 0.0022430422250181437]"
1584452130210871878,,1279796,,1584452130,210474506,'',"[shoulder_pan_joint, shoulder_lift_joint, elbow_joint, wrist_1_joint, wrist_2_joint,","[1.404494285583496, -1.1719682852374476, 2.483250141143799, -2.8629711310016077, -1.5669220129596155, 2.382158041000366]","[1.2783173588104546e-05, 0.0, 2.5566347176209092e-05, 1.917476038215682e-05, 0.0, 1.917476038215682e-05]","[-0.5859375596046448, -4.289246082305908, -0.9169005155563354, -0.5787048935890198, -0.0628051832318306, -0.006729126907885075]"
1584452130322757521,,1279810,,1584452130,322393471,'',"[shoulder_pan_joint, shoulder_lift_joint, elbow_joint, wrist_1_joint, wrist_2_joint,","[1.4044822454452515, -1.1719802061664026, 2.483286142349243, -2.8629711310016077, -1.5669339338885706, 2.3821699619293213]","[1.2783173588104546e-05, 0.0, 2.5566347176209092e-05, 1.917476038215682e-05, 0.0, 1.917476038215682e-05]","[-0.6088257431983948, -4.298401355743408, -0.8989660143852234, -0.5831909775733948, -0.0605621412396431, 0.008972168900072575]"
1584452130434857073,,1279824,,1584452130,434455884,'',"[shoulder_pan_joint, shoulder_lift_joint, elbow_joint, wrist_1_joint, wrist_2_joint,","[1.404494285583496, -1.1719444433795374, 2.483274221420288, -2.862994972859518, -1.5669458548175257, 2.382133960723877]","[1.2783173588104546e-05, 0.0, 1.2783173588104546e-05, 0.0, 0.0, 0.0]","[-0.5447388291358948, -4.293823719024658, -0.9034496545791626, -0.5876770615577698, -0.0628051832318306, 0.004486084450036287]"
1584452130546923013,,1279838,,1584452130,546498771,'',"[shoulder_pan_joint, shoulder_lift_joint, elbow_joint, wrist_1_joint, wrist_2_joint,","[1.4045062065124512, -1.1719802061664026, 2.483262062072754, -2.8629711310016077, -1.5669339338885706, 2.382146120071411]","[0.0, 0.0, 1.2783173588104546e-05, 0.0, 0.0, 0.0]","[-0.5538941025733948, -4.197693347930908, -0.9169005155563354, -0.5809479355812073, -0.0493469275534153, 0.006729126907885075]"
1584452130658958886,,1279852,,1584452130,658470434,'',"[shoulder_pan_joint, shoulder_lift_joint, elbow_joint, wrist_1_joint, wrist_2_joint,","[1.4045062065124512, -1.1720040480243128, 2.4832980632781982, -2.862983051930563, -1.5669458548175257, 2.382158041000366]","[0.0, 0.0, 1.2783173588104546e-05, 0.0, 0.0, 0.0]","[-0.5538941025733948, -4.298401355743408, -0.9124168753623962, -0.5854340195655823, -0.0560760572552681, 0.0]"
1584452130770887890,,1279866,,1584452130,770416270,'',"[shoulder_pan_joint, shoulder_lift_joint, elbow_joint, wrist_1_joint, wrist_2_joint,","[1.4045182466506958, -1.1719682852374476, 2.483274221420288, -2.8629711310016077, -1.5669577757464808, 2.382158041000366]","[0.0, 0.0, 1.2783173588104546e-05, 0.0, 0.0, 0.0]","[-0.5630493760108948, -4.293823719024658, -0.8832733631134033, -0.5899201035499573, -0.0583190992474556, 0.008972168900072575]"
1584452130883101917,,1279880,,1584452130,882691430,'',"[shoulder_pan_joint, shoulder_lift_joint, elbow_joint, wrist_1_joint, wrist_2_joint,","[1.4044822454452515, -1.1719563643084925, 2.483262062072754, -2.863006893788473, -1.5669458548175257, 2.382133960723877]","[0.0, 0.0, 1.2783173588104546e-05, 0.0, 0.0, 0.0]","[-0.5264282822608948, -4.270935535430908, -0.910175085067749, -0.5831909775733948, -0.0605621412396431, 0.008972168900072575]"
1584452130994676519,,1279894,,1584452130,994344509,'',"[shoulder_pan_joint, shoulder_lift_joint, elbow_joint, wrist_1_joint, wrist_2_joint,","[1.4045182466506958, -1.1719682852374476, 2.483286142349243, -2.863006893788473, -1.5669458548175257, 2.3821699619293213]","[0.0, 0.0, 1.2783173588104546e-05, 0.0, 0.0, 0.0]","[-0.5035400986671448, -4.353332996368408, -0.9213841557502747, -0.5899201035499573, -0.0583190992474556, 0.004486084450036287]"
1584452131106918487,,1279908,,1584452131,106544349,'',"[shoulder_pan_joint, shoulder_lift_joint, elbow_joint, wrist_1_joint, wrist_2_joint,","[1.4045062065124512, -1.1719444433795374, 2.483286142349243, -2.8629592100726526, -1.5669577757464808, 2.382146120071411]","[0.0, 0.0, 1.2783173588104546e-05, 0.0, 0.0, 0.0]","[-0.5081177353858948, -4.280090808868408, -0.910175085067749, -0.5854340195655823, -0.0560760572552681, 0.011215210892260075]"
1584452131218704805,,1279922,,1584452131,218368748,'',"[shoulder_pan_joint, shoulder_lift_joint, elbow_joint, wrist_1_joint, wrist_2_joint,","[1.4045062065124512, -1.1719682852374476, 2.483274221420288, -2.862983051930563, -1.5669220129596155, 2.382133960723877]","[0.0, 0.0, 1.2783173588104546e-05, 0.0, 0.0, 0.0]","[-0.5218506455421448, -4.284668445587158, -0.9079332947731018, -0.5854340195655823, -0.0560760572552681, 0.006729126907885075]"
1584452131330739917,,1279936,,1584452131,330387729,'',"[shoulder_pan_joint, shoulder_lift_joint, elbow_joint, wrist_1_joint, wrist_2_joint,","[1.4044822454452515, -1.1719444433795374, 2.4832980632781982, -2.862983051930563, -1.5669696966754358, 2.382133960723877]","[0.0, 0.0, 1.2783173588104546e-05, 0.0, 0.0, 0.0]","[-0.4669190049171448, -4.302978992462158, -0.9079332947731018, -0.5876770615577698, -0.0672912672162056, 0.01570129580795765]"
1584452131442736277,,1279950,,1584452131,442347110,'',"[shoulder_pan_joint, shoulder_lift_joint, elbow_joint, wrist_1_joint, wrist_2_joint,","[1.4045062065124512, -1.1719682852374476, 2.483286142349243, -2.8629592100726526, -1.5669339338885706, 2.382146120071411]","[0.0, 0.0, 1.2783173588104546e-05, 0.0, 0.0, 0.0]","[-0.4714966416358948, -4.202270984649658, -0.9146587252616882, -0.5899201035499573, -0.0560760572552681, 0.0022430422250181437]"
1584452131554799491,,1279964,,1584452131,554385047,'',"[shoulder_pan_joint, shoulder_lift_joint, elbow_joint, wrist_1_joint, wrist_2_joint,","[1.404494285583496, -1.1719802061664026, 2.483250141143799, -2.862994972859518, -1.5669696966754358, 2.382146120071411]","[0.0, 0.0, 1.2783173588104546e-05, 0.0, 0.0, 0.0]","[-0.4898071885108948, -4.307556629180908, -0.9146587252616882, -0.5854340195655823, -0.0628051832318306, 0.01345825381577015]"
1584452131666823202,,1279978,,1584452131,666421392,'',"[shoulder_pan_joint, shoulder_lift_joint, elbow_joint, wrist_1_joint, wrist_2_joint,","[1.4044582843780518, -1.1719682852374476, 2.4832980632781982, -2.8629711310016077, -1.5669339338885706, 2.382158041000366]","[0.0, 0.0, -0.0, 0.0, 0.0, 0.0]","[-0.4806519150733948, -4.348755359649658, -0.9236259460449219, -0.5831909775733948, -0.0560760572552681, 0.01570129580795765]"
1584452131778873934,,1279992,,1584452131,778587709,'',"[shoulder_pan_joint, shoulder_lift_joint, elbow_joint, wrist_1_joint, wrist_2_joint,","[1.4049500226974487, -1.171788517628805, 2.482830286026001, -2.8626001516925257, -1.5669940153705042, 2.3826606273651123]","[0.0222171563655138, 0.01233576238155365, -0.025962624698877335, 0.018311895430088043, 0.0, 0.02454369328916073]","[0.7278442978858948, -3.131103754043579, -2.1185109615325928, -0.3140259087085724, -0.0471038855612278, 0.1816864162683487]"
1584452131890701338,,1280006,,1584452131,890312161,'',"[shoulder_pan_joint, shoulder_lift_joint, elbow_joint, wrist_1_joint, wrist_2_joint,","[1.4109833240509033, -1.1687911192523401, 2.4749960899353027, -2.8583853880511683, -1.5669220129596155, 2.388395071029663]","[0.02684466354548931, 0.012744824402034283, -0.03725016862154007, 0.013671603985130787, 0.0, 0.02864709123969078]","[0.0686645582318306, -3.062439203262329, -1.419066071510315, 0.0583190992474556, -0.0605621412396431, 0.3409424126148224]"
1584452132002793276,,1280020,,1584452132,2448051,'',"[shoulder_pan_joint, shoulder_lift_joint, elbow_joint, wrist_1_joint, wrist_2_joint,","[1.4108754396438599, -1.1689108053790491, 2.4749720096588135, -2.8584449926959437, -1.5669696966754358, 2.388478994369507]","[0.0, -0.0003067961661145091, -0.0003451456723269075, 0.0, 0.0, -0.0003834952076431364]","[-0.2288818657398224, -3.410339593887329, -1.7082595825195312, -0.2579498589038849, -0.0583190992474556, -0.0628051832318306]"
1584452132114743580,,1280034,,1584452132,114382135,'',"[shoulder_pan_joint, shoulder_lift_joint, elbow_joint, wrist_1_joint, wrist_2_joint,","[1.4108754396438599, -1.1688631216632288, 2.475044012069702, -2.8583372274981897, -1.5669458548175257, 2.3884668350219727]","[0.0, 7.669904152862728e-05, -0.0011504855938255787, 0.007037137169390917, 0.0, -0.00017257283616345376]","[-0.1556396633386612, -3.021240472793579, -1.6835997104644775, -0.1480407863855362, -0.0426178015768528, -0.0448608435690403]"
1584452132226759155,,1280048,,1584452132,226339712,'',"[shoulder_pan_joint, shoulder_lift_joint, elbow_joint, wrist_1_joint, wrist_2_joint,","[1.4113552570343018, -1.1684673468219202, 2.4744200706481934, -2.8576071898089808, -1.5670059362994593, 2.3889575004577637]","[0.023559389635920525, 0.015748869627714157, -0.028570393100380898, 0.024658741429448128, 0.0, 0.022952187806367874]","[0.9109498262405396, -2.426147699356079, -2.3539011478424072, -0.1502838283777237, -0.01570129580795765, 0.2175751030445099]"
1584452132338761467,,1280062,,1584452132,338362882,'',"[shoulder_pan_joint, shoulder_lift_joint, elbow_joint, wrist_1_joint, wrist_2_joint,","[1.4176884889602661, -1.1650860945331019, 2.4663937091827393, -2.8528063933001917, -1.5669696966754358, 2.3952548503875732]","[0.06608900427818298, 0.03392654284834862, -0.08255373686552048, 0.050947338342666626, 0.0, 0.0635259822010994]","[1.0116578340530396, -2.307129144668579, -2.383044719696045, -0.0672912672162056, 0.0785064771771431, 0.3992615044116974]"
1584452132450725416,,1280076,,1584452132,450376705,'',"[shoulder_pan_joint, shoulder_lift_joint, elbow_joint, wrist_1_joint, wrist_2_joint,","[1.4248853921890259, -1.1610930601703089, 2.4566750526428223, -2.847203079854147, -1.5669339338885706, 2.402521848678589]","[0.06570551544427872, 0.03544773906469345, -0.08513593673706055, 0.04876141622662544, 0.0014764565275982022, 0.06459976732730865]","[0.9887696504592896, -2.618408441543579, -2.2507777214050293, -0.004486084450036287, 0.1547699123620987, 0.3229980766773224]"
1584452132562954079,,1280090,,1584452132,562368896,'',"[shoulder_pan_joint, shoulder_lift_joint, elbow_joint, wrist_1_joint, wrist_2_joint,","[1.432058334350586, -1.1571009794818323, 2.446789026260376, -2.84157640138735, -1.5669100920306605, 2.4096453189849854]","[0.06210065633058548, 0.03471909835934639, -0.08879192173480988, 0.049490056931972504, 0.0004985437844879925, 0.06348763406276703]","[0.9201050996780396, -2.796936273574829, -2.015387773513794, -0.1413116604089737, 0.2243042290210724, 0.3745880424976349]"
1584452132674716122,,1280104,,1584452132,674339258,'',"[shoulder_pan_joint, shoulder_lift_joint, elbow_joint, wrist_1_joint, wrist_2_joint,","[1.4391590356826782, -1.1532042662249964, 2.437166452407837, -2.8359854857074183, -1.566861931477682, 2.4166367053985596]","[0.06193447485566139, 0.03387540951371193, -0.07539515942335129, 0.05133083462715149, 0.0009587380336597562, 0.06333423405885696]","[1.1764527559280396, -2.673340082168579, -2.2395687103271484, -0.1480407863855362, 0.2220611870288849, 0.3409424126148224]"
1584452132786823468,,1280118,,1584452132,786387875,'',"[shoulder_pan_joint, shoulder_lift_joint, elbow_joint, wrist_1_joint, wrist_2_joint,","[1.4459600448608398, -1.1491878668414515, 2.427579641342163, -2.8303101698504847, -1.5668380896197718, 2.423640251159668]","[0.05919887498021126, 0.03694337233901024, -0.08739855885505676, 0.051062386482954025, 0.0006135923322290182, 0.05994030088186264]","[1.1215211153030396, -2.947998285293579, -2.36735200881958, -0.004486084450036287, 0.3386993706226349, 0.2938385307788849]"
1584452132898689886,,1280132,,1584452132,898325555,'',"[shoulder_pan_joint, shoulder_lift_joint, elbow_joint, wrist_1_joint, wrist_2_joint,","[1.4525933265686035, -1.1451237837420862, 2.417764663696289, -2.8246477285968226, -1.5667303244220179, 2.430332660675049]","[0.06083512306213379, 0.03664935752749443, -0.08383205533027649, 0.04924078285694122, 0.0013230585027486086, 0.05986360087990761]","[1.0437012910842896, -2.998352289199829, -2.4884097576141357, -0.0807495191693306, 0.2736511528491974, 0.3297272026538849]"
1584452133010711593,,1280146,,1584452133,10340450,'',"[shoulder_pan_joint, shoulder_lift_joint, elbow_joint, wrist_1_joint, wrist_2_joint,","[1.4591543674468994, -1.1410592238055628, 2.4079740047454834, -2.819092098866598, -1.5667060057269495, 2.436941385269165]","[0.05999143421649933, 0.03488527983427048, -0.08677218109369278, 0.05004612356424332, 0.0014381069922819734, 0.05938423424959183]","[0.8789063692092896, -2.760315179824829, -2.300097703933716, -0.01345825381577015, 0.2736511528491974, 0.3364563286304474]"
1584452133122801257,,1280160,,1584452133,122336058,'',"[shoulder_pan_joint, shoulder_lift_joint, elbow_joint, wrist_1_joint, wrist_2_joint,","[1.4657752513885498, -1.136958424245016, 2.398134469985962, -2.8134897390948694, -1.5666101614581507, 2.4434659481048584]","[0.05901991203427315, 0.03802994266152382, -0.09087558090686798, 0.05012282356619835, 0.0004793690168298781, 0.05769685283303261]","[0.8651733994483948, -2.833557367324829, -2.2530195713043213, -0.0314025916159153, 0.2467346489429474, 0.3656158745288849]"
1584452133234633700,,1280174,,1584452133,234238132,'',"[shoulder_pan_joint, shoulder_lift_joint, elbow_joint, wrist_1_joint, wrist_2_joint,","[1.472228765487671, -1.132714573537008, 2.388415575027466, -2.8078625837909144, -1.5665743986712855, 2.449883222579956]","[0.0567956380546093, 0.037889327853918076, -0.0912335067987442, 0.05046796798706055, 0.00036432043998502195, 0.05752428248524666]","[0.8926392793655396, -3.007507562637329, -2.356142997741699, -0.1413116604089737, 0.3701019585132599, 0.2669220268726349]"
1584452133346734856,,1280188,,1584452133,346247867,'',"[shoulder_pan_joint, shoulder_lift_joint, elbow_joint, wrist_1_joint, wrist_2_joint,","[1.478478193283081, -1.1286738554583948, 2.378540277481079, -2.802211586629049, -1.5665743986712855, 2.456228017807007]","[0.053944993764162064, 0.03549887239933014, -0.08636312186717987, 0.05140753090381622, 0.00036432043998502195, 0.05436044558882713]","[1.1032105684280396, -2.879333734512329, -2.3494174480438232, -0.1031799390912056, 0.2983246147632599, 0.3544006645679474]"
1584452133458691772,,1280202,,1584452133,458309418,'',"[shoulder_pan_joint, shoulder_lift_joint, elbow_joint, wrist_1_joint, wrist_2_joint,","[1.484499454498291, -1.1245139280902308, 2.3685686588287354, -2.7965009848224085, -1.5665143171893519, 2.4623100757598877]","[0.055389489978551865, 0.03869466483592987, -0.08442007750272751, 0.04945170506834984, 0.0003067961661145091, 0.05391942709684372]","[1.1032105684280396, -3.048706293106079, -2.4166717529296875, -0.0336456336081028, 0.2467346489429474, 0.3835602104663849]"
1584452133570691408,,1280216,,1584452133,570318071,'',"[shoulder_pan_joint, shoulder_lift_joint, elbow_joint, wrist_1_joint, wrist_2_joint,","[1.4906046390533447, -1.120185677205221, 2.358633041381836, -2.791041676198141, -1.5665023962603968, 2.468367576599121]","[0.0552360936999321, 0.03736521676182747, -0.08883026987314224, 0.05023787170648575, 0.00028762139845639467, 0.05518496036529541]","[1.1672974824905396, -3.144836664199829, -2.270954132080078, -0.0538330152630806, 0.2512207329273224, 0.3297272026538849]"
1584452133682821477,,1280230,,1584452133,682341030,'',"[shoulder_pan_joint, shoulder_lift_joint, elbow_joint, wrist_1_joint, wrist_2_joint,","[1.4966020584106445, -1.1160371939288538, 2.3486852645874023, -2.785403076802389, -1.5664785544024866, 2.474437713623047]","[0.05288399010896683, 0.03574175387620926, -0.09131021052598953, 0.04868471622467041, 0.00017257283616345376, 0.05351675674319267]","[0.9246827363967896, -2.961731195449829, -2.27319598197937, 0.01794433780014515, 0.2781372368335724, 0.3454284965991974]"
1584452133794750561,,1280244,,1584452133,794288378,'',"[shoulder_pan_joint, shoulder_lift_joint, elbow_joint, wrist_1_joint, wrist_2_joint,","[1.5025750398635864, -1.111840550099508, 2.3388454914093018, -2.779787842427389, -1.5664785544024866, 2.4803035259246826]","[0.05131165683269501, 0.03937217593193054, -0.0926780104637146, 0.051426708698272705, 0.00017257283616345376, 0.052327919751405716]","[0.9567261934280396, -3.034973382949829, -2.465991497039795, -0.1413116604089737, 0.2691650688648224, 0.2601929008960724]"
1584452133906667413,,1280258,,1584452133,906298003,'',"[shoulder_pan_joint, shoulder_lift_joint, elbow_joint, wrist_1_joint, wrist_2_joint,","[1.5054059028625488, -1.1094911734210413, 2.3337454795837402, -2.776926342641012, -1.566430393849508, 2.483213186264038]","[-0.0021092237439006567, -0.0016618125373497605, 0.00336197461001575, -0.0026652917731553316, 0.0012271846644580364, -0.0023584954906255007]","[-0.1098632961511612, -3.813171863555908, -1.9817605018615723, -0.4216919243335724, 0.2624359428882599, -0.0426178015768528]"
1584452134018667069,,1280272,,1584452134,18215906,'',"[shoulder_pan_joint, shoulder_lift_joint, elbow_joint, wrist_1_joint, wrist_2_joint,","[1.5054419040679932, -1.1095150152789515, 2.333613634109497, -2.7769983450519007, -1.5663226286517542, 2.4831416606903076]","[-0.0004090615548193455, 0.00048576059634797275, -0.0009203884983435273, -0.00028762139845639467, 0.00036432043998502195, -0.0005560680292546749]","[-0.0915527418255806, -3.987122058868408, -1.7530958652496338, -0.4239349663257599, 0.2534637749195099, -0.0605621412396431]"
1584452134130678136,,1280286,,1584452134,130263562,'',"[shoulder_pan_joint, shoulder_lift_joint, elbow_joint, wrist_1_joint, wrist_2_joint,","[1.5054059028625488, -1.1095150152789515, 2.333625555038452, -2.7769864241229456, -1.5663107077227991, 2.4831535816192627]","[0.0, 0.00015339808305725455, -0.0, -0.00017257283616345376, 0.00017257283616345376, -0.0001917476038215682]","[-0.1007080152630806, -4.019165515899658, -1.739645004272461, -0.4194488823413849, 0.2108459621667862, -0.0560760572552681]"
1584452134242534384,,1280300,,1584452134,242192626,'',"[shoulder_pan_joint, shoulder_lift_joint, elbow_joint, wrist_1_joint, wrist_2_joint,","[1.5054419040679932, -1.1095393339740198, 2.333601713180542, -2.7769864241229456, -1.5663464705096644, 2.4831175804138184]","[0.0, 8.948221511673182e-05, -0.0, -0.00011504856229294091, 7.669904152862728e-05, -0.00011504856229294091]","[-0.1144409328699112, -3.987122058868408, -1.739645004272461, -0.3701019585132599, 0.1278534084558487, -0.0403747595846653]"
1584452134354646320,,1280314,,1584452134,354261922,'',"[shoulder_pan_joint, shoulder_lift_joint, elbow_joint, wrist_1_joint, wrist_2_joint,","[1.5054298639297485, -1.1095030943499964, 2.3336496353149414, -2.7769506613360804, -1.5663827101336878, 2.4831535816192627]","[0.0, 6.391586794052273e-05, -0.0, -7.669904152862728e-05, 7.669904152862728e-05, -7.669904152862728e-05]","[-0.0869751051068306, -4.037476062774658, -1.6611815690994263, -0.3028106987476349, 0.0269165076315403, 0.006729126907885075]"
1584452134466551229,,1280328,,1584452134,466180767,'',"[shoulder_pan_joint, shoulder_lift_joint, elbow_joint, wrist_1_joint, wrist_2_joint,","[1.5054179430007935, -1.1095269362079065, 2.3336496353149414, -2.7769387404071253, -1.5664666334735315, 2.4831535816192627]","[0.0, 3.834952076431364e-05, -0.0, 0.0, -0.0008436894277110696, -5.752428114647046e-05]","[-0.0961303785443306, -4.183960437774658, -1.6589398384094238, -0.2489776909351349, 0.0471038855612278, 0.0695343092083931]"
1584452134578596049,,1280342,,1584452134,578185672,'',"[shoulder_pan_joint, shoulder_lift_joint, elbow_joint, wrist_1_joint, wrist_2_joint,","[1.5054538249969482, -1.1095269362079065, 2.3336734771728516, -2.7769387404071253, -1.5664666334735315, 2.4831655025482178]","[0.0, 0.0, -0.0, 0.0, -0.00023009712458588183, 0.0002109223569277674]","[-0.0915527418255806, -4.312134265899658, -1.6813578605651855, -0.2601929008960724, 0.0336456336081028, 0.1278534084558487]"
1584452134690616965,,1280356,,1584452134,690168226,'',"[shoulder_pan_joint, shoulder_lift_joint, elbow_joint, wrist_1_joint, wrist_2_joint,","[1.5054419040679932, -1.1095393339740198, 2.3336615562438965, -2.776926342641012, -1.5664666334735315, 2.4831056594848633]","[0.0, -0.00017896443023346364, -0.0, 0.0, -0.00011504856229294091, -0.007439807057380676]","[-0.1510620266199112, -4.216003894805908, -1.6477307081222534, -0.2736511528491974, 0.0426178015768528, -0.1054229810833931]"
1584452134802824559,,1280370,,1584452134,802381502,'',"[shoulder_pan_joint, shoulder_lift_joint, elbow_joint, wrist_1_joint, wrist_2_joint,","[1.5054298639297485, -1.1095507780658167, 2.3336615562438965, -2.776926342641012, -1.5664666334735315, 2.47637677192688]","[0.0, -0.00014061490946915, -0.0, 0.0, -7.669904152862728e-05, -0.14463521540164948]","[-0.0823974683880806, -4.183960437774658, -1.6477307081222534, -0.2534637749195099, 0.0381317175924778, -0.3947754204273224]"
1584452134914565912,,1280384,,1584452134,914201221,'',"[shoulder_pan_joint, shoulder_lift_joint, elbow_joint, wrist_1_joint, wrist_2_joint,","[1.5054419040679932, -1.1095030943499964, 2.3336734771728516, -2.776902500783102, -1.5664423147784632, 2.4546236991882324]","[0.0, -7.669904152862728e-05, -0.0, 0.0, -5.752428114647046e-05, -0.20131580531597137]","[-0.1190185695886612, -4.238892078399658, -1.6522144079208374, -0.2601929008960724, 0.0471038855612278, -0.4800110459327698]"
1584452135026730957,,1280398,,1584452135,26211908,'',"[shoulder_pan_joint, shoulder_lift_joint, elbow_joint, wrist_1_joint, wrist_2_joint,","[1.5054298639297485, -1.1095150152789515, 2.3336734771728516, -2.776902500783102, -1.5664666334735315, 2.4318888187408447]","[0.0, -5.1132694352418184e-05, -0.0, 0.0, -5.752428114647046e-05, -0.20210197567939758]","[-0.1144409328699112, -4.234314441680908, -1.6544561386108398, -0.2646789848804474, 0.0336456336081028, -0.4306641221046448]"
1584452135138660052,,1280412,,1584452135,138216483,'',"[shoulder_pan_joint, shoulder_lift_joint, elbow_joint, wrist_1_joint, wrist_2_joint,","[1.5053939819335938, -1.1095507780658167, 2.3336734771728516, -2.7768786589251917, -1.5664904753314417, 2.4094655513763428]","[0.0, -3.834952076431364e-05, -0.0, 3.834952076431364e-05, -3.834952076431364e-05, -0.19987769424915314]","[-0.1464843899011612, -4.225159168243408, -1.6522144079208374, -0.2624359428882599, 0.0381317175924778, -0.4418793320655823]"
1584452135250660078,,1280426,,1584452135,250186173,'',"[shoulder_pan_joint, shoulder_lift_joint, elbow_joint, wrist_1_joint, wrist_2_joint,","[1.5054298639297485, -1.1095269362079065, 2.3336856365203857, -2.776830498372213, -1.5664785544024866, 2.3871381282806396]","[0.0, -3.834952076431364e-05, -0.0, 0.000997087568975985, -3.834952076431364e-05, -0.20125828683376312]","[-0.1190185695886612, -4.206848621368408, -1.6477307081222534, -0.2714081108570099, 0.0336456336081028, -0.5203858017921448]"
1584452135362540812,,1280440,,1584452135,362157306,'',"[shoulder_pan_joint, shoulder_lift_joint, elbow_joint, wrist_1_joint, wrist_2_joint,","[1.5054419040679932, -1.1095150152789515, 2.3336734771728516, -2.776771370564596, -1.5664547125445765, 2.364643096923828]","[0.0, -2.5566347176209092e-05, -0.0, 0.00023009712458588183, -1.917476038215682e-05, -0.20168012380599976]","[-0.0823974683880806, -4.193115711212158, -1.6566979885101318, -0.2669220268726349, 0.0381317175924778, -0.3745880424976349]"
1584452135474737496,,1280454,,1584452135,474247902,'',"[shoulder_pan_joint, shoulder_lift_joint, elbow_joint, wrist_1_joint, wrist_2_joint,","[1.5054298639297485, -1.1095269362079065, 2.3336856365203857, -2.7767470518695276, -1.5664547125445765, 2.3422205448150635]","[0.0, -2.5566347176209092e-05, -0.0, 0.0001917476038215682, -1.917476038215682e-05, -0.19801774621009827]","[-0.1327514797449112, -4.225159168243408, -1.6611815690994263, -0.2871094048023224, 0.0358886756002903, -0.5383301377296448]"
1584452135586702206,,1280468,,1584452135,586222621,'',"[shoulder_pan_joint, shoulder_lift_joint, elbow_joint, wrist_1_joint, wrist_2_joint,","[1.5054059028625488, -1.1095150152789515, 2.3336496353149414, -2.7767351309405726, -1.5664666334735315, 2.3199172019958496]","[0.0, -2.5566347176209092e-05, -0.0, 0.00017257283616345376, -1.917476038215682e-05, -0.2032141089439392]","[-0.1098632961511612, -4.206848621368408, -1.6589398384094238, -0.3229980766773224, 0.0426178015768528, -0.4172058403491974]"
1584452135698593230,,1280482,,1584452135,698200957,'',"[shoulder_pan_joint, shoulder_lift_joint, elbow_joint, wrist_1_joint, wrist_2_joint,","[1.5054298639297485, -1.1095150152789515, 2.333697557449341, -2.776795212422506, -1.5664547125445765, 2.2974467277526855]","[0.0, -1.2783173588104546e-05, -0.0, 0.00011504856229294091, -1.917476038215682e-05, -0.19822867214679718]","[-0.0640869215130806, -4.211426258087158, -1.6634234189987183, -0.3745880424976349, 0.0336456336081028, -0.5001984238624573]"
1584452135810806304,,1280496,,1584452135,810314415,'',"[shoulder_pan_joint, shoulder_lift_joint, elbow_joint, wrist_1_joint, wrist_2_joint,","[1.5054298639297485, -1.1095030943499964, 2.333697557449341, -2.776818577443258, -1.5664904753314417, 2.275023937225342]","[0.0, -1.2783173588104546e-05, -0.0, 7.669904152862728e-05, -1.917476038215682e-05, -0.19905318319797516]","[-0.1098632961511612, -4.243469715118408, -1.6611815690994263, -0.4486084580421448, 0.0426178015768528, -0.4396362900733948]"
1584452135922523082,,1280510,,1584452135,922147189,'',"[shoulder_pan_joint, shoulder_lift_joint, elbow_joint, wrist_1_joint, wrist_2_joint,","[1.5054419040679932, -1.1095269362079065, 2.333697557449341, -2.776795212422506, -1.566430393849508, 2.252601385116577]","[0.0, -1.2783173588104546e-05, -0.0, -1.917476038215682e-05, -1.917476038215682e-05, -0.1998009979724884]","[-0.0961303785443306, -4.261780261993408, -1.6768742799758911, -0.5271149277687073, 0.0291595496237278, -0.4755249619483948]"
1584452136034659122,,1280524,,1584452136,34239970,'',"[shoulder_pan_joint, shoulder_lift_joint, elbow_joint, wrist_1_joint, wrist_2_joint,","[1.5054298639297485, -1.1095393339740198, 2.333733558654785, -2.776818577443258, -1.5664785544024866, 2.2302627563476562]","[0.0, -1.2783173588104546e-05, -0.0, -1.917476038215682e-05, -1.917476038215682e-05, -0.20131580531597137]","[-0.0961303785443306, -4.298401355743408, -1.6544561386108398, -0.6033783555030823, 0.0358886756002903, -0.4553375840187073]"
1584452136146601992,,1280538,,1584452136,146188930,'',"[shoulder_pan_joint, shoulder_lift_joint, elbow_joint, wrist_1_joint, wrist_2_joint,","[1.5053939819335938, -1.1095030943499964, 2.333709478378296, -2.7768428961383265, -1.5664547125445765, 2.20784068107605]","[0.0, -1.2783173588104546e-05, -0.0, -0.00015339808305725455, -1.917476038215682e-05, -0.2004912942647934]","[-0.1235962063074112, -4.421997547149658, -1.6589398384094238, -0.6033783555030823, 0.0381317175924778, -0.4844971299171448]"
1584452136258705362,,1280552,,1584452136,258298973,'',"[shoulder_pan_joint, shoulder_lift_joint, elbow_joint, wrist_1_joint, wrist_2_joint,","[1.5054179430007935, -1.1094911734210413, 2.333733558654785, -2.7769506613360804, -1.566430393849508, 2.1854422092437744]","[0.0, -1.2783173588104546e-05, 1.2783173588104546e-05, -0.0012655341997742653, -1.917476038215682e-05, -0.1992449313402176]","[-0.1052856519818306, -4.367065906524658, -1.6656652688980103, -0.5742188096046448, 0.0336456336081028, -0.5158997178077698]"
1584452136370574504,,1280566,,1584452136,370187732,'',"[shoulder_pan_joint, shoulder_lift_joint, elbow_joint, wrist_1_joint, wrist_2_joint,","[1.5054059028625488, -1.1095269362079065, 2.333697557449341, -2.7769864241229456, -1.5664666334735315, 2.1630561351776123]","[0.0, -1.2783173588104546e-05, 1.2783173588104546e-05, -0.00032597093377262354, 0.0, -0.2026580423116684]","[-0.1144409328699112, -4.371643543243408, -1.6768742799758911, -0.5630035996437073, 0.0336456336081028, -0.3768310844898224]"
1584452136482688944,,1280580,,1584452136,482300268,'',"[shoulder_pan_joint, shoulder_lift_joint, elbow_joint, wrist_1_joint, wrist_2_joint,","[1.5054419040679932, -1.1095150152789515, 2.3337574005126953, -2.7769864241229456, -1.5664666334735315, 2.14353084564209]","[0.0, -1.2783173588104546e-05, 1.2783173588104546e-05, -0.00015339808305725455, 0.0, -0.10973715037107468]","[-0.0869751051068306, -4.344177722930908, -1.6656652688980103, -0.5652466416358948, 0.0381317175924778, -0.4755249619483948]"
1584452136594645510,,1280594,,1584452136,594191632,'',"[shoulder_pan_joint, shoulder_lift_joint, elbow_joint, wrist_1_joint, wrist_2_joint,","[1.5054419040679932, -1.1095393339740198, 2.333709478378296, -2.7769864241229456, -1.5664547125445765, 2.139712333679199]","[0.0, 0.0, 1.2783173588104546e-05, -7.669904152862728e-05, 0.0, 0.00138058268930763]","[-0.1007080152630806, -4.367065906524658, -1.6768742799758911, -0.5024414658546448, 0.0358886756002903, -0.0964508131146431]"
1584452136706648251,,1280608,,1584452136,706194914,'',"[shoulder_pan_joint, shoulder_lift_joint, elbow_joint, wrist_1_joint, wrist_2_joint,","[1.5054298639297485, -1.1095030943499964, 2.333733558654785, -2.7769864241229456, -1.5664904753314417, 2.1398556232452393]","[0.0, 0.0, 1.2783173588104546e-05, -7.669904152862728e-05, 0.0, 0.002972087822854519]","[-0.1235962063074112, -4.307556629180908, -1.645488977432251, -0.4329071640968323, 0.02243042178452015, 0.004486084450036287]"
1584452136818551157,,1280622,,1584452136,818201624,'',"[shoulder_pan_joint, shoulder_lift_joint, elbow_joint, wrist_1_joint, wrist_2_joint,","[1.5054298639297485, -1.1095269362079065, 2.333733558654785, -2.7769625822650355, -1.566430393849508, 2.1399755477905273]","[0.0, 0.0, 1.2783173588104546e-05, -7.669904152862728e-05, 0.0, 0.00046019424917176366]","[0.0778198316693306, -4.316711902618408, -1.7687885761260986, -0.3588867485523224, 0.0358886756002903, 0.01570129580795765]"
1584452136930703348,,1280636,,1584452136,930245933,'',"[shoulder_pan_joint, shoulder_lift_joint, elbow_joint, wrist_1_joint, wrist_2_joint,","[1.5087041854858398, -1.1082080046283167, 2.330493927001953, -2.7749632040606897, -1.566418472920553, 2.143279552459717]","[0.06638301908969879, 0.028493693098425865, -0.06859450787305832, 0.03681553900241852, 0.0, 0.06385195255279541]","[1.0391236543655396, -3.117370843887329, -2.6274020671844482, -0.1256103664636612, 0.1256103664636612, 0.3140259087085724]"
1584452137042576858,,1280650,,1584452137,42146614,'',"[shoulder_pan_joint, shoulder_lift_joint, elbow_joint, wrist_1_joint, wrist_2_joint,","[1.5165610313415527, -1.1048033873187464, 2.3220937252044678, -2.7703784147845667, -1.5664423147784632, 2.1511807441711426]","[0.07099774479866028, 0.03015550598502159, -0.07286408543586731, 0.0412832573056221, 0.0, 0.07035219669342041]","[1.2359620332717896, -3.062439203262329, -2.3337247371673584, -0.0381317175924778, 0.1637420803308487, 0.3544006645679474]"
1584452137154669237,,1280664,,1584452137,154217373,'',"[shoulder_pan_joint, shoulder_lift_joint, elbow_joint, wrist_1_joint, wrist_2_joint,","[1.5243815183639526, -1.1013386885272425, 2.3140416145324707, -2.765661064778463, -1.5663827101336878, 2.1591053009033203]","[0.06955324858427048, 0.03254596143960953, -0.07636667788028717, 0.03965340554714203, 0.0019558256026357412, 0.06966190040111542]","[1.0391236543655396, -3.208923578262329, -2.5758402347564697, -0.0807495191693306, 0.1659851223230362, 0.3050537407398224]"
1584452137266874808,,1280678,,1584452137,266331733,'',"[shoulder_pan_joint, shoulder_lift_joint, elbow_joint, wrist_1_joint, wrist_2_joint,","[1.5321775674819946, -1.097717587147848, 2.3058815002441406, -2.761087719594137, -1.5663226286517542, 2.1668269634246826]","[0.06712444126605988, 0.03268657624721527, -0.0703202411532402, 0.038848064839839935, 0.0004218447138555348, 0.0688757374882698]","[1.3504029512405396, -3.346252679824829, -2.665512800216675, -0.0874786451458931, 0.2557068169116974, 0.2848663628101349]"
1584452137378624857,,1280692,,1584452137,378192019,'',"[shoulder_pan_joint, shoulder_lift_joint, elbow_joint, wrist_1_joint, wrist_2_joint,","[1.5397826433181763, -1.094048802052633, 2.2973854541778564, -2.756598774586813, -1.5662630240069788, 2.1744885444641113]","[0.0666770339012146, 0.031446605920791626, -0.0741296261548996, 0.04216529801487923, 0.000862864195369184, 0.06663229316473007]","[1.0482789278030396, -3.456115961074829, -2.5108277797698975, -0.02243042178452015, 0.2669220268726349, 0.3162689507007599]"
1584452137490551417,,1280706,,1584452137,490115903,'',"[shoulder_pan_joint, shoulder_lift_joint, elbow_joint, wrist_1_joint, wrist_2_joint,","[1.54715895652771, -1.0906079451190394, 2.2891528606414795, -2.751941506062643, -1.566179100667135, 2.1819825172424316]","[0.06612735986709595, 0.029772011563181877, -0.07882104814052582, 0.043047334998846054, 0.0018791265320032835, 0.06651724129915237]","[1.3687134981155396, -3.167724847793579, -2.544455051422119, -0.0269165076315403, 0.2803802788257599, 0.3431854546070099]"
1584452137602591709,,1280720,,1584452137,602090222,'',"[shoulder_pan_joint, shoulder_lift_joint, elbow_joint, wrist_1_joint, wrist_2_joint,","[1.5546314716339111, -1.086999241505758, 2.280824661254883, -2.7472365538226526, -1.5661194960223597, 2.1894407272338867]","[0.06593561172485352, 0.03353026509284973, -0.07232719659805298, 0.042031075805425644, 0.0007286408799700439, 0.06663229316473007]","[1.0711671113967896, -3.382873773574829, -2.5937747955322266, -0.1143951565027237, 0.2803802788257599, 0.3140259087085724]"
1584452137714537033,,1280734,,1584452137,714126035,'',"[shoulder_pan_joint, shoulder_lift_joint, elbow_joint, wrist_1_joint, wrist_2_joint,","[1.5584938526153564, -1.0850690046893519, 2.276371955871582, -2.7448180357562464, -1.566059414540426, 2.1932716369628906]","[-0.0049982210621237755, -0.000907605339307338, -0.001163268811069429, -0.0019558256026357412, 0.0014956312952563167, -0.0012271846644580364]","[0.004577637184411287, -4.266357898712158, -2.1454126834869385, -0.3970184624195099, 0.2265472710132599, 0.0403747595846653]"
1584452137826662794,,1280748,,1584452137,826239494,'',"[shoulder_pan_joint, shoulder_lift_joint, elbow_joint, wrist_1_joint, wrist_2_joint,","[1.5585057735443115, -1.0850451628314417, 2.276276111602783, -2.74485427538027, -1.5659516493426722, 2.1932597160339355]","[0.0001917476038215682, -0.0003195793251506984, 0.0003323625132907182, -0.00026844663079828024, 0.0003834952076431364, -0.00024927189224399626]","[-0.1739502102136612, -4.302978992462158, -1.9077807664871216, -0.4351502060890198, 0.2220611870288849, 0.02243042178452015]"
1584452137938547235,,1280762,,1584452137,938094028,'',"[shoulder_pan_joint, shoulder_lift_joint, elbow_joint, wrist_1_joint, wrist_2_joint,","[1.5585057735443115, -1.0850570837603968, 2.276336193084717, -2.744866196309225, -1.565939728413717, 2.1932835578918457]","[-0.00020453077740967274, -0.00012783173588104546, -0.0, -0.00013422331539914012, 0.00017257283616345376, -0.00015339808305725455]","[-0.1464843899011612, -4.335022449493408, -1.7598212957382202, -0.4082336723804474, 0.2243042290210724, -0.006729126907885075]"
1584452138050505504,,1280776,,1584452138,50086221,'',"[shoulder_pan_joint, shoulder_lift_joint, elbow_joint, wrist_1_joint, wrist_2_joint,","[1.5585178136825562, -1.0851052443133753, 2.2763962745666504, -2.7448299566852015, -1.565939728413717, 2.193187713623047]","[0.0, -7.669904152862728e-05, 0.0003195793251506984, -9.58738019107841e-05, 9.58738019107841e-05, -0.000997087568975985]","[-0.2975464165210724, -4.302978992462158, -1.6028945446014404, -0.3992615044116974, 0.1996307522058487, -0.01345825381577015]"
1584452138162612210,,1280790,,1584452138,162143394,'',"[shoulder_pan_joint, shoulder_lift_joint, elbow_joint, wrist_1_joint, wrist_2_joint,","[1.5584938526153564, -1.085092846547262, 2.2764320373535156, -2.744866196309225, -1.565939728413717, 2.193175792694092]","[0.0, -5.1132694352418184e-05, -0.0, -5.752428114647046e-05, 7.669904152862728e-05, -0.00023009712458588183]","[-0.4165649712085724, -4.325867176055908, -1.6522144079208374, -0.4239349663257599, 0.2220611870288849, -0.01794433780014515]"
1584452138274445695,,1280804,,1584452138,274074612,'',"[shoulder_pan_joint, shoulder_lift_joint, elbow_joint, wrist_1_joint, wrist_2_joint,","[1.5585057735443115, -1.0850814024554651, 2.2764439582824707, -2.74485427538027, -1.5659154097186487, 2.1910927295684814]","[-0.0001661812566453591, -3.834952076431364e-05, -0.0, -5.752428114647046e-05, 7.669904152862728e-05, -0.05982525274157524]","[-0.4669190049171448, -4.307556629180908, -1.6365216970443726, -0.3992615044116974, 0.2153320610523224, -0.3611297905445099]"
1584452138386445031,,1280818,,1584452138,386075771,'',"[shoulder_pan_joint, shoulder_lift_joint, elbow_joint, wrist_1_joint, wrist_2_joint,","[1.5584818124771118, -1.0850814024554651, 2.276456356048584, -2.7448299566852015, -1.565927807484762, 2.174201250076294]","[-0.00015339808305725455, -3.834952076431364e-05, -0.0, -3.834952076431364e-05, 7.669904152862728e-05, -0.20028036832809448]","[-0.3982544243335724, -4.344177722930908, -1.6566979885101318, -0.4104767143726349, 0.1996307522058487, -0.5697327256202698]"
1584452138498635713,,1280832,,1584452138,498161568,'',"[shoulder_pan_joint, shoulder_lift_joint, elbow_joint, wrist_1_joint, wrist_2_joint,","[1.5585057735443115, -1.0850690046893519, 2.276468276977539, -2.7448299566852015, -1.5659154097186487, 2.1515159606933594]","[-8.948221511673182e-05, -2.5566347176209092e-05, -0.0, -3.834952076431364e-05, 7.669904152862728e-05, -0.2010473608970642]","[-0.3753662407398224, -4.289246082305908, -1.6522144079208374, -0.4037475883960724, 0.1772003322839737, -0.4508515000343323]"
1584452138610536003,,1280846,,1584452138,610168958,'',"[shoulder_pan_joint, shoulder_lift_joint, elbow_joint, wrist_1_joint, wrist_2_joint,","[1.5584698915481567, -1.0851052443133753, 2.276480197906494, -2.7448299566852015, -1.5659034887896937, 2.1290576457977295]","[-6.391586794052273e-05, -2.5566347176209092e-05, 7.669904152862728e-05, -3.834952076431364e-05, 5.752428114647046e-05, -0.1999160498380661]","[-0.3936767876148224, -4.302978992462158, -1.6544561386108398, -0.4037475883960724, 0.1121521145105362, -0.4777680039405823]"
1584452138722502518,,1280860,,1584452138,722169886,'',"[shoulder_pan_joint, shoulder_lift_joint, elbow_joint, wrist_1_joint, wrist_2_joint,","[1.5584938526153564, -1.0850570837603968, 2.276480197906494, -2.7448423544513147, -1.565939728413717, 2.106599807739258]","[-5.1132694352418184e-05, -2.5566347176209092e-05, 7.669904152862728e-05, -1.917476038215682e-05, 5.752428114647046e-05, -0.20143085718154907]","[-0.3845215141773224, -4.344177722930908, -1.645488977432251, -0.4015045464038849, 0.1256103664636612, -0.4620667099952698]"
1584452138834478950,,1280874,,1584452138,834098399,'',"[shoulder_pan_joint, shoulder_lift_joint, elbow_joint, wrist_1_joint, wrist_2_joint,","[1.5585057735443115, -1.0850690046893519, 2.2765283584594727, -2.7448299566852015, -1.565927807484762, 2.084249258041382]","[-3.834952076431364e-05, -1.2783173588104546e-05, 7.669904152862728e-05, -1.917476038215682e-05, 3.834952076431364e-05, -0.20148837566375732]","[-0.3799438774585724, -4.270935535430908, -1.6611815690994263, -0.4127197563648224, 0.1009368970990181, -0.4261780083179474]"
1584452138946436798,,1280888,,1584452138,946064783,'',"[shoulder_pan_joint, shoulder_lift_joint, elbow_joint, wrist_1_joint, wrist_2_joint,","[1.5585057735443115, -1.0850814024554651, 2.276492118835449, -2.744866196309225, -1.5659516493426722, 2.061779260635376]","[-2.5566347176209092e-05, -1.2783173588104546e-05, 7.669904152862728e-05, -1.917476038215682e-05, 3.834952076431364e-05, -0.20179517567157745]","[-0.4531860947608948, -4.284668445587158, -1.6634234189987183, -0.4127197563648224, 0.0762634351849556, -0.5203858017921448]"
1584452139058553833,,1280902,,1584452139,58102360,'',"[shoulder_pan_joint, shoulder_lift_joint, elbow_joint, wrist_1_joint, wrist_2_joint,","[1.5585178136825562, -1.0851052443133753, 2.2765402793884277, -2.7448299566852015, -1.565939728413717, 2.0394649505615234]","[-2.5566347176209092e-05, -1.2783173588104546e-05, 7.669904152862728e-05, -1.917476038215682e-05, 0.0, -0.20215949416160583]","[-0.3982544243335724, -4.380798816680908, -1.6566979885101318, -0.4149627983570099, 0.0740203931927681, -0.3678589165210724]"
1584452139170693641,,1280916,,1584452139,170224314,'',"[shoulder_pan_joint, shoulder_lift_joint, elbow_joint, wrist_1_joint, wrist_2_joint,","[1.5584698915481567, -1.085092846547262, 2.276552200317383, -2.7448180357562464, -1.5659154097186487, 2.017090320587158]","[-2.5566347176209092e-05, -1.2783173588104546e-05, 5.1132694352418184e-05, -1.917476038215682e-05, 0.0, -0.19813279807567596]","[-0.4257202446460724, -4.344177722930908, -1.6499725580215454, -0.3947754204273224, 0.1031799390912056, -0.5787048935890198]"
1584452139282469980,,1280930,,1584452139,282077477,'',"[shoulder_pan_joint, shoulder_lift_joint, elbow_joint, wrist_1_joint, wrist_2_joint,","[1.5585057735443115, -1.0850814024554651, 2.2765402793884277, -2.7448180357562464, -1.565927807484762, 1.994584083557129]","[-1.2783173588104546e-05, -1.2783173588104546e-05, 5.1132694352418184e-05, -1.917476038215682e-05, 0.0, -0.20054881274700165]","[-0.3707886040210724, -4.348755359649658, -1.6768742799758911, -0.4194488823413849, 0.0897216871380806, -0.4284210503101349]"
1584452139394514790,,1280944,,1584452139,394092201,'',"[shoulder_pan_joint, shoulder_lift_joint, elbow_joint, wrist_1_joint, wrist_2_joint,","[1.5584938526153564, -1.0850451628314417, 2.2765283584594727, -2.7448299566852015, -1.5659154097186487, 1.9721978902816772]","[-1.2783173588104546e-05, -1.2783173588104546e-05, 3.834952076431364e-05, -1.917476038215682e-05, 0.0, -0.19819031655788422]","[-0.4028320610523224, -4.321289539337158, -1.6566979885101318, -0.3880462944507599, 0.0919647291302681, -0.5001984238624573]"
1584452139506404230,,1280958,,1584452139,506034179,'',"[shoulder_pan_joint, shoulder_lift_joint, elbow_joint, wrist_1_joint, wrist_2_joint,","[1.5584938526153564, -1.0850690046893519, 2.276492118835449, -2.7448299566852015, -1.5659154097186487, 1.949883222579956]","[-1.2783173588104546e-05, -1.2783173588104546e-05, 3.834952076431364e-05, -1.917476038215682e-05, 0.0, -0.2008172571659088]","[-0.3799438774585724, -4.353332996368408, -1.6566979885101318, -0.4059906303882599, 0.0762634351849556, -0.4620667099952698]"
1584452139618447357,,1280972,,1584452139,618114465,'',"[shoulder_pan_joint, shoulder_lift_joint, elbow_joint, wrist_1_joint, wrist_2_joint,","[1.5584938526153564, -1.0851052443133753, 2.2765402793884277, -2.7448061148272913, -1.5659516493426722, 1.927341341972351]","[-1.2783173588104546e-05, -1.2783173588104546e-05, 2.5566347176209092e-05, 0.0, 0.0, -0.19951337575912476]","[-0.3982544243335724, -4.376221179962158, -1.692566990852356, -0.4149627983570099, 0.0336456336081028, -0.4441223740577698]"
1584452139730591373,,1280986,,1584452139,730110204,'',"[shoulder_pan_joint, shoulder_lift_joint, elbow_joint, wrist_1_joint, wrist_2_joint,","[1.5585057735443115, -1.0851052443133753, 2.2765283584594727, -2.7448180357562464, -1.565939728413717, 1.904990315437317]","[-1.2783173588104546e-05, 0.0, 2.5566347176209092e-05, 0.0, 0.0, -0.1999160498380661]","[-0.3753662407398224, -4.408264636993408, -1.6656652688980103, -0.4216919243335724, 0.01345825381577015, -0.5540314316749573]"
1584452139842569057,,1281000,,1584452139,842098308,'',"[shoulder_pan_joint, shoulder_lift_joint, elbow_joint, wrist_1_joint, wrist_2_joint,","[1.5584818124771118, -1.0850690046893519, 2.2765402793884277, -2.74485427538027, -1.5659516493426722, 1.8826158046722412]","[-1.2783173588104546e-05, 0.0, 2.5566347176209092e-05, 0.0, 0.0, -0.20227454602718353]","[-0.3845215141773224, -4.421997547149658, -1.688083291053772, -0.3880462944507599, 0.01570129580795765, -0.3813171684741974]"
1584452139954425957,,1281014,,1584452139,954033334,'',"[shoulder_pan_joint, shoulder_lift_joint, elbow_joint, wrist_1_joint, wrist_2_joint,","[1.5585057735443115, -1.0850814024554651, 2.2765283584594727, -2.7448061148272913, -1.5658915678607386, 1.8602168560028076]","[-1.2783173588104546e-05, 0.0, 2.5566347176209092e-05, 0.0, 0.0, -0.1998009979724884]","[-0.4348755180835724, -4.394531726837158, -1.6970505714416504, -0.3925323784351349, 0.0022430422250181437, -0.5966492295265198]"
1584452140066499300,,1281028,,1584452140,66064638,'',"[shoulder_pan_joint, shoulder_lift_joint, elbow_joint, wrist_1_joint, wrist_2_joint,","[1.5585297346115112, -1.0850690046893519, 2.2765283584594727, -2.7448061148272913, -1.565927807484762, 1.8378535509109497]","[-1.2783173588104546e-05, 0.0, 1.2783173588104546e-05, 0.0, 0.0, -0.200951486825943]","[-0.4302978813648224, -4.371643543243408, -1.6970505714416504, -0.4239349663257599, 0.011215210892260075, -0.4486084580421448]"
1584452140178339228,,1281042,,1584452140,178002118,'',"[shoulder_pan_joint, shoulder_lift_joint, elbow_joint, wrist_1_joint, wrist_2_joint,","[1.5584938526153564, -1.0850814024554651, 2.2765402793884277, -2.7448299566852015, -1.5659034887896937, 1.815430760383606]","[-1.2783173588104546e-05, 0.0, 1.2783173588104546e-05, 0.0, 0.0, -0.19834372401237488]","[-0.4302978813648224, -4.417419910430908, -1.690325140953064, -0.4015045464038849, 0.004486084450036287, -0.5630035996437073]"
1584452140290434072,,1281056,,1584452140,290056036,'',"[shoulder_pan_joint, shoulder_lift_joint, elbow_joint, wrist_1_joint, wrist_2_joint,","[1.5584938526153564, -1.0850814024554651, 2.2765402793884277, -2.7448299566852015, -1.565939728413717, 1.7930790185928345]","[0.0, 0.0, 1.2783173588104546e-05, 0.0, 0.0, -0.20045293867588043]","[-0.3524780571460724, -4.481506824493408, -1.7037760019302368, -0.4104767143726349, 0.0, -0.4755249619483948]"
1584452140402361072,,1281070,,1584452140,402006069,'',"[shoulder_pan_joint, shoulder_lift_joint, elbow_joint, wrist_1_joint, wrist_2_joint,","[1.5585178136825562, -1.0850814024554651, 2.2765283584594727, -2.744866196309225, -1.565927807484762, 1.7707037925720215]","[0.0, 0.0, -0.0, 0.0, 0.0, -0.19857381284236908]","[-0.3753662407398224, -4.472351551055908, -1.6858415603637695, -0.4149627983570099, 0.0022430422250181437, -0.5517883896827698]"
1584452140514514285,,1281084,,1584452140,514019681,'',"[shoulder_pan_joint, shoulder_lift_joint, elbow_joint, wrist_1_joint, wrist_2_joint,","[1.5584818124771118, -1.0851052443133753, 2.2765283584594727, -2.7448180357562464, -1.565939728413717, 1.7584922313690186]","[0.0, 0.0, -0.0, 0.0, 0.0, -0.022357771173119545]","[-0.4257202446460724, -4.508972644805908, -1.7060178518295288, -0.4329071640968323, -0.008972168900072575, -0.3252411186695099]"
1584452140626474187,,1281098,,1584452140,626110838,'',"[shoulder_pan_joint, shoulder_lift_joint, elbow_joint, wrist_1_joint, wrist_2_joint,","[1.558457851409912, -1.0850332419024866, 2.2765402793884277, -2.7448299566852015, -1.5659754912005823, 1.7585641145706177]","[0.0, 0.0, -0.0, 0.0, -1.917476038215682e-05, 0.001764077926054597]","[-0.3799438774585724, -4.490662097930908, -1.7172268629074097, -0.4015045464038849, -0.01345825381577015, 0.0650482252240181]"
1584452140738364248,,1281112,,1584452140,737967547,'',"[shoulder_pan_joint, shoulder_lift_joint, elbow_joint, wrist_1_joint, wrist_2_joint,","[1.5584818124771118, -1.0850690046893519, 2.276564121246338, -2.74485427538027, -1.5659516493426722, 1.758707880973816]","[0.0, 0.0, -0.0, 0.0, -1.917476038215682e-05, 0.001073786523193121]","[-0.4028320610523224, -4.435730457305908, -1.737403154373169, -0.3970184624195099, -0.02467346377670765, 0.0605621412396431]"
1584452140850398859,,1281126,,1584452140,849966281,'',"[shoulder_pan_joint, shoulder_lift_joint, elbow_joint, wrist_1_joint, wrist_2_joint,","[1.5585057735443115, -1.0850332419024866, 2.2765283584594727, -2.7448061148272913, -1.5659516493426722, 1.7587438821792603]","[0.0, 0.0, -0.0, 0.0, -1.917476038215682e-05, 0.00023009712458588183]","[-0.4348755180835724, -4.522705554962158, -1.8158665895462036, -0.4082336723804474, -0.011215210892260075, 0.0650482252240181]"
1584452140962377395,,1281140,,1584452140,961987357,'',"[shoulder_pan_joint, shoulder_lift_joint, elbow_joint, wrist_1_joint, wrist_2_joint,","[1.560904860496521, -1.0845535437213343, 2.2751598358154297, -2.743932072316305, -1.5659635702716272, 1.7612818479537964]","[0.0666770339012146, 0.014790131710469723, -0.036738839000463486, 0.022645391523838043, -5.752428114647046e-05, 0.06413957476615906]","[1.2588502168655396, -3.295898675918579, -2.6117093563079834, -0.1390686184167862, 0.0538330152630806, 0.3611297905445099]"
1584452141074672293,,1281154,,1584452141,74088623,'',"[shoulder_pan_joint, shoulder_lift_joint, elbow_joint, wrist_1_joint, wrist_2_joint,","[1.5697686672210693, -1.0825875441180628, 2.2703356742858887, -2.741274658833639, -1.565939728413717, 1.770093321800232]","[0.07597040385007858, 0.018510036170482635, -0.04357783868908882, 0.024831313639879227, -5.752428114647046e-05, 0.07815632224082947]","[1.3229371309280396, -3.483581781387329, -2.566873073577881, -0.1166381984949112, 0.1323394924402237, 0.3117828667163849]"
1584452141186460434,,1281168,,1584452141,186009411,'',"[shoulder_pan_joint, shoulder_lift_joint, elbow_joint, wrist_1_joint, wrist_2_joint,","[1.578452467918396, -1.0805252234088343, 2.2653675079345703, -2.738521401082174, -1.5658677260028284, 1.7788563966751099]","[0.07827137410640717, 0.017679128795862198, -0.04869110882282257, 0.024658741429448128, 0.00036432043998502195, 0.07100413739681244]","[1.3641358613967896, -3.446960687637329, -2.5310041904449463, -0.0650482252240181, 0.1929016262292862, 0.3566437065601349]"
1584452141298315349,,1281182,,1584452141,297989631,'',"[shoulder_pan_joint, shoulder_lift_joint, elbow_joint, wrist_1_joint, wrist_2_joint,","[1.5871847867965698, -1.0785110632525843, 2.2602310180664062, -2.735647503529684, -1.5658076445208948, 1.7876681089401245]","[0.0802527666091919, 0.018548384308815002, -0.04237622022628784, 0.02431359514594078, 0.001073786523193121, 0.07946020364761353]","[1.1810303926467896, -3.273010492324829, -2.5332460403442383, -0.1256103664636612, 0.2691650688648224, 0.2938385307788849]"
1584452141410402669,,1281196,,1584452141,409978837,'',"[shoulder_pan_joint, shoulder_lift_joint, elbow_joint, wrist_1_joint, wrist_2_joint,","[1.5960845947265625, -1.0763891378985804, 2.2553467750549316, -2.7328103224383753, -1.5656641165362757, 1.7964435815811157]","[0.07751716673374176, 0.02027411386370659, -0.04637735337018967, 0.025080585852265358, 0.0009779128013178706, 0.07817550003528595]","[0.8880616426467896, -3.318786859512329, -2.7148325443267822, -0.1570129543542862, 0.3768310844898224, 0.2736511528491974]"
1584452141522430107,,1281210,,1584452141,522002438,'',"[shoulder_pan_joint, shoulder_lift_joint, elbow_joint, wrist_1_joint, wrist_2_joint,","[1.6047922372817993, -1.0740874449359339, 2.2498621940612793, -2.730008904133932, -1.565484348927633, 1.8050628900527954]","[0.07551020383834839, 0.01882961392402649, -0.04729774221777916, 0.025138109922409058, 0.0018024274613708258, 0.07690996676683426]","[1.1581422090530396, -3.314209222793579, -2.457024335861206, -0.1300964504480362, 0.3521576225757599, 0.4216919243335724]"
1584452141634357467,,1281224,,1584452141,633973490,'',"[shoulder_pan_joint, shoulder_lift_joint, elbow_joint, wrist_1_joint, wrist_2_joint,","[1.6133081912994385, -1.071869198475973, 2.2447614669799805, -2.7270520369159144, -1.565388027821676, 1.8137304782867432]","[0.07773447781801224, 0.02106666937470436, -0.04471554234623909, 0.025905100628733635, 0.0009203884983435273, 0.07729345560073853]","[1.2359620332717896, -3.465271234512329, -2.6699962615966797, -0.1009368970990181, 0.3499145805835724, 0.2646789848804474]"
1584452141746440810,,1281238,,1584452141,745965853,'',"[shoulder_pan_joint, shoulder_lift_joint, elbow_joint, wrist_1_joint, wrist_2_joint,","[1.6219199895858765, -1.0696395079242151, 2.2393851280212402, -2.724035088215963, -1.5652321020709437, 1.8222546577453613]","[0.07622606307268143, 0.01985226757824421, -0.05126052722334862, 0.026767965406179428, 0.0008245147182606161, 0.07581700384616852]","[1.0849000215530396, -3.680420398712158, -2.535487651824951, -0.0448608435690403, 0.3656158745288849, 0.4194488823413849]"
