PorkPy/robot-pulling-data/straight_out/joint_states_throttle.csv
rosbagTimestamp,header,seq,stamp,secs,nsecs,frame_id,name,wrist_3_joint],position,velocity,effort
1584376502267095350,,536665,,1584376502,266715501,'',"[shoulder_pan_joint, shoulder_lift_joint, elbow_joint, wrist_1_joint, wrist_2_joint,","[1.4047343730926514, -1.171788517628805, 2.4830222129821777, -2.8627312819110315, -1.566981617604391, 2.7207303047180176]","[0.0, 0.0, -0.0, 0.0, 0.0, 0.0]","[0.5126953721046448, -2.696228265762329, -1.6073781251907349, -0.1547699123620987, 0.02243042178452015, 0.0897216871380806]"
1584376502379037486,,536679,,1584376502,378683095,'',"[shoulder_pan_joint, shoulder_lift_joint, elbow_joint, wrist_1_joint, wrist_2_joint,","[1.4047702550888062, -1.1718247572528284, 2.483046531677246, -2.8627551237689417, -1.5670059362994593, 2.7207064628601074]","[0.0, 0.0, -0.0, 0.0, 0.0, 0.0]","[0.5126953721046448, -2.796936273574829, -1.6096199750900269, -0.1570129543542862, 0.01794433780014515, 0.1076660305261612]"
1584376502491061816,,536693,,1584376502,490743312,'',"[shoulder_pan_joint, shoulder_lift_joint, elbow_joint, wrist_1_joint, wrist_2_joint,","[1.4047223329544067, -1.1718485991107386, 2.4830222129821777, -2.8627551237689417, -1.5670178572284144, 2.7207303047180176]","[0.0, 0.0, -0.0, 0.0, 0.0, 0.0]","[0.4943848252296448, -2.719116449356079, -1.6185872554779053, -0.1682281643152237, 0.006729126907885075, 0.0785064771771431]"
1584376502603059677,,536707,,1584376502,602735782,'',"[shoulder_pan_joint, shoulder_lift_joint, elbow_joint, wrist_1_joint, wrist_2_joint,","[1.4047462940216064, -1.17180043855776, 2.483034372329712, -2.8627551237689417, -1.5670059362994593, 2.7207303047180176]","[0.0, 0.0, -0.0, 0.0, 0.0, 0.0]","[0.4943848252296448, -2.691650629043579, -1.6051363945007324, -0.1592559963464737, 0.01570129580795765, 0.0897216871380806]"
1584376502715067216,,536721,,1584376502,714717343,'',"[shoulder_pan_joint, shoulder_lift_joint, elbow_joint, wrist_1_joint, wrist_2_joint,","[1.4047462940216064, -1.1718123594867151, 2.483058452606201, -2.8627432028399866, -1.5669940153705042, 2.7207303047180176]","[0.0, 0.0, -0.0, 0.0, 0.0, 0.0]","[0.4898071885108948, -2.728271722793579, -1.6051363945007324, -0.1659851223230362, 0.0269165076315403, 0.0942077711224556]"
1584376502827024841,,536735,,1584376502,826713880,'',"[shoulder_pan_joint, shoulder_lift_joint, elbow_joint, wrist_1_joint, wrist_2_joint,","[1.404758334159851, -1.171788517628805, 2.4830100536346436, -2.8627551237689417, -1.5670059362994593, 2.7206943035125732]","[0.0, 0.0, -0.0, 0.0, 0.0, 0.0]","[0.5035400986671448, -2.732849359512329, -1.6163454055786133, -0.1592559963464737, 0.02018737979233265, 0.0740203931927681]"
1584376502939025757,,536749,,1584376502,938720748,'',"[shoulder_pan_joint, shoulder_lift_joint, elbow_joint, wrist_1_joint, wrist_2_joint,","[1.4047223329544067, -1.17177659669985, 2.4830222129821777, -2.8627551237689417, -1.5669940153705042, 2.7207064628601074]","[0.0, 0.0, -0.0, 0.0, 0.0, 0.0]","[0.4898071885108948, -2.696228265762329, -1.6073781251907349, -0.1727142482995987, 0.02243042178452015, 0.0919647291302681]"
1584376503050972712,,536763,,1584376503,50665769,'',"[shoulder_pan_joint, shoulder_lift_joint, elbow_joint, wrist_1_joint, wrist_2_joint,","[1.4047343730926514, -1.171788517628805, 2.4830222129821777, -2.862767521535055, -1.5669940153705042, 2.7207064628601074]","[0.0, 0.0, -0.0, 0.0, 0.0, 0.0]","[0.5264282822608948, -2.760315179824829, -1.5894436836242676, -0.1772003322839737, 0.011215210892260075, 0.0807495191693306]"
1584376503163107358,,536777,,1584376503,162743028,'',"[shoulder_pan_joint, shoulder_lift_joint, elbow_joint, wrist_1_joint, wrist_2_joint,","[1.4047223329544067, -1.17180043855776, 2.483046531677246, -2.8627079168902796, -1.5670059362994593, 2.720754384994507]","[0.0, 0.0, -0.0, 0.0, 0.0, 0.0]","[0.4852295517921448, -2.696228265762329, -1.6096199750900269, -0.1614990383386612, 0.01794433780014515, 0.0852356031537056]"
1584376503274976719,,536791,,1584376503,274611577,'',"[shoulder_pan_joint, shoulder_lift_joint, elbow_joint, wrist_1_joint, wrist_2_joint,","[1.4047343730926514, -1.17180043855776, 2.4830222129821777, -2.8627432028399866, -1.5670297781573694, 2.7207422256469727]","[0.0, 0.0, -0.0, 0.0, 0.0, 0.0]","[0.4714966416358948, -2.714538812637329, -1.6051363945007324, -0.1570129543542862, 0.004486084450036287, 0.0942077711224556]"
1584376503386957968,,536805,,1584376503,386667276,'',"[shoulder_pan_joint, shoulder_lift_joint, elbow_joint, wrist_1_joint, wrist_2_joint,","[1.4047223329544067, -1.17180043855776, 2.4830100536346436, -2.86277944246401, -1.5670059362994593, 2.7207183837890625]","[0.0, 0.0, -0.0, 0.0, 0.0, 0.0]","[0.5081177353858948, -2.742004632949829, -1.6073781251907349, -0.1884155422449112, 0.011215210892260075, 0.1031799390912056]"
1584376503499026601,,536819,,1584376503,498666408,'',"[shoulder_pan_joint, shoulder_lift_joint, elbow_joint, wrist_1_joint, wrist_2_joint,","[1.4047702550888062, -1.1718123594867151, 2.4830222129821777, -2.862767521535055, -1.5670178572284144, 2.7207064628601074]","[0.0, 0.0, -0.0, 0.0, 0.0, 0.0]","[0.5264282822608948, -2.696228265762329, -1.596169114112854, -0.1704712063074112, 0.011215210892260075, 0.0807495191693306]"
1584376503610967495,,536833,,1584376503,610647828,'',"[shoulder_pan_joint, shoulder_lift_joint, elbow_joint, wrist_1_joint, wrist_2_joint,","[1.4047702550888062, -1.1718123594867151, 2.4830222129821777, -2.8627312819110315, -1.5670059362994593, 2.7207183837890625]","[0.0, 0.0, -0.0, 0.0, 0.0, 0.0]","[0.5264282822608948, -2.742004632949829, -1.6185872554779053, -0.1614990383386612, 0.01345825381577015, 0.1009368970990181]"
1584376503722909811,,536847,,1584376503,722638184,'',"[shoulder_pan_joint, shoulder_lift_joint, elbow_joint, wrist_1_joint, wrist_2_joint,","[1.4047223329544067, -1.1718362013446253, 2.4830222129821777, -2.862767521535055, -1.5670297781573694, 2.7207183837890625]","[0.0, 0.0, -0.0, 0.0, 0.0, 0.0]","[0.5218506455421448, -2.774048089981079, -1.6096199750900269, -0.1772003322839737, 0.01570129580795765, 0.0964508131146431]"
1584376503834925766,,536861,,1584376503,834626698,'',"[shoulder_pan_joint, shoulder_lift_joint, elbow_joint, wrist_1_joint, wrist_2_joint,","[1.404758334159851, -1.1718123594867151, 2.4830222129821777, -2.8627551237689417, -1.5670059362994593, 2.7207303047180176]","[0.0, 0.0, -0.0, 0.0, 0.0, 0.0]","[0.5447388291358948, -2.760315179824829, -1.6028945446014404, -0.1772003322839737, 0.01794433780014515, 0.0919647291302681]"
1584376503946957740,,536875,,1584376503,946592438,'',"[shoulder_pan_joint, shoulder_lift_joint, elbow_joint, wrist_1_joint, wrist_2_joint,","[1.404758334159851, -1.1718247572528284, 2.483046531677246, -2.862767521535055, -1.5670178572284144, 2.7207183837890625]","[0.0, 0.0, -0.0, 0.0, 0.0, 0.0]","[0.5081177353858948, -2.737426996231079, -1.6028945446014404, -0.1816864162683487, 0.02018737979233265, 0.0874786451458931]"
1584376504059028687,,536889,,1584376504,58656392,'',"[shoulder_pan_joint, shoulder_lift_joint, elbow_joint, wrist_1_joint, wrist_2_joint,","[1.4047343730926514, -1.1718123594867151, 2.4830100536346436, -2.86277944246401, -1.5669940153705042, 2.7206943035125732]","[0.0, 0.0, -0.0, 0.0, 0.0, 0.0]","[0.4989624619483948, -2.783203363418579, -1.6051363945007324, -0.1682281643152237, 0.011215210892260075, 0.1076660305261612]"
1584376504171031076,,536903,,1584376504,170668439,'',"[shoulder_pan_joint, shoulder_lift_joint, elbow_joint, wrist_1_joint, wrist_2_joint,","[1.4047462940216064, -1.17180043855776, 2.4829981327056885, -2.8627312819110315, -1.5670178572284144, 2.7207064628601074]","[0.0, 0.0, -0.0, 0.0, 0.0, 0.0]","[0.4577637314796448, -2.700805902481079, -1.6051363945007324, -0.1929016262292862, 0.01794433780014515, 0.0874786451458931]"
1584376504283007506,,536917,,1584376504,282618300,'',"[shoulder_pan_joint, shoulder_lift_joint, elbow_joint, wrist_1_joint, wrist_2_joint,","[1.4047462940216064, -1.1718123594867151, 2.483034372329712, -2.8627551237689417, -1.5669940153705042, 2.7207303047180176]","[0.0, 0.0, -0.0, 0.0, 0.0, 0.0]","[0.5172730088233948, -2.774048089981079, -1.6096199750900269, -0.1749572902917862, 0.02243042178452015, 0.0964508131146431]"
1584376504395019202,,536931,,1584376504,394642910,'',"[shoulder_pan_joint, shoulder_lift_joint, elbow_joint, wrist_1_joint, wrist_2_joint,","[1.4047702550888062, -1.1718247572528284, 2.4830222129821777, -2.8627432028399866, -1.5670059362994593, 2.7207183837890625]","[0.0, 0.0, -0.0, 0.0, 0.0, 0.0]","[0.4898071885108948, -2.746582269668579, -1.6185872554779053, -0.1525268703699112, 0.008972168900072575, 0.0942077711224556]"
1584376504506936513,,536945,,1584376504,506642865,'',"[shoulder_pan_joint, shoulder_lift_joint, elbow_joint, wrist_1_joint, wrist_2_joint,","[1.404758334159851, -1.1718362013446253, 2.4830222129821777, -2.862767521535055, -1.5670178572284144, 2.7207183837890625]","[0.0, 0.0, -0.0, 0.0, 0.0, 0.0]","[0.4943848252296448, -2.737426996231079, -1.6073781251907349, -0.1749572902917862, 0.01345825381577015, 0.1076660305261612]"
1584376504618971723,,536959,,1584376504,618668507,'',"[shoulder_pan_joint, shoulder_lift_joint, elbow_joint, wrist_1_joint, wrist_2_joint,","[1.4047343730926514, -1.17177659669985, 2.483034372329712, -2.8627551237689417, -1.5669940153705042, 2.720754384994507]","[0.0, 0.0, -0.0, 0.0, 0.0, 0.0]","[0.4943848252296448, -2.746582269668579, -1.6208289861679077, -0.1480407863855362, 0.01794433780014515, 0.0762634351849556]"
1584376504731050685,,536973,,1584376504,730643394,'',"[shoulder_pan_joint, shoulder_lift_joint, elbow_joint, wrist_1_joint, wrist_2_joint,","[1.4047343730926514, -1.1718123594867151, 2.483046531677246, -2.8627551237689417, -1.5670059362994593, 2.7207303047180176]","[0.0, 0.0, -0.0, 0.0, 0.0, 0.0]","[0.4623413681983948, -2.760315179824829, -1.6141035556793213, -0.1749572902917862, 0.01345825381577015, 0.0919647291302681]"
1584376504843336533,,536987,,1584376504,842596732,'',"[shoulder_pan_joint, shoulder_lift_joint, elbow_joint, wrist_1_joint, wrist_2_joint,","[1.404758334159851, -1.1718123594867151, 2.4829981327056885, -2.86280328432192, -1.5670059362994593, 2.7207064628601074]","[0.0, 0.0, -0.0, 0.0, 0.0, 0.0]","[0.4806519150733948, -2.714538812637329, -1.6185872554779053, -0.1794433742761612, 0.01794433780014515, 0.0874786451458931]"
1584376504954968460,,537001,,1584376504,954603699,'',"[shoulder_pan_joint, shoulder_lift_joint, elbow_joint, wrist_1_joint, wrist_2_joint,","[1.4047343730926514, -1.1718123594867151, 2.4830222129821777, -2.862767521535055, -1.5670059362994593, 2.7207422256469727]","[0.0, 0.0, -0.0, 0.0, 0.0, 0.0]","[0.4989624619483948, -2.742004632949829, -1.6185872554779053, -0.1502838283777237, 0.011215210892260075, 0.0874786451458931]"
1584376505067028657,,537015,,1584376505,66656302,'',"[shoulder_pan_joint, shoulder_lift_joint, elbow_joint, wrist_1_joint, wrist_2_joint,","[1.4047343730926514, -1.1718362013446253, 2.4830222129821777, -2.8627432028399866, -1.566981617604391, 2.7207064628601074]","[0.0, 0.0, -0.0, 0.0, 0.0, 0.0]","[0.5035400986671448, -2.709961175918579, -1.5916855335235596, -0.1682281643152237, 0.011215210892260075, 0.0964508131146431]"
1584376505178897086,,537029,,1584376505,178566248,'',"[shoulder_pan_joint, shoulder_lift_joint, elbow_joint, wrist_1_joint, wrist_2_joint,","[1.4047343730926514, -1.171788517628805, 2.483046531677246, -2.862767521535055, -1.5670059362994593, 2.7207422256469727]","[0.0, 0.0, -0.0, 0.0, 0.0, 0.0]","[0.4852295517921448, -2.700805902481079, -1.6118618249893188, -0.1682281643152237, 0.011215210892260075, 0.1188812404870987]"
1584376505290951071,,537043,,1584376505,290570661,'',"[shoulder_pan_joint, shoulder_lift_joint, elbow_joint, wrist_1_joint, wrist_2_joint,","[1.4047462940216064, -1.17177659669985, 2.4830222129821777, -2.862767521535055, -1.5670059362994593, 2.7207183837890625]","[0.0, 0.0, -0.0, 0.0, 0.0, 0.0]","[0.4852295517921448, -2.737426996231079, -1.6163454055786133, -0.1592559963464737, 0.01794433780014515, 0.0874786451458931]"
1584376505402815552,,537057,,1584376505,402552712,'',"[shoulder_pan_joint, shoulder_lift_joint, elbow_joint, wrist_1_joint, wrist_2_joint,","[1.404698371887207, -1.1718247572528284, 2.483046531677246, -2.8627432028399866, -1.5670297781573694, 2.7207064628601074]","[0.0, 0.0, -0.0, 0.0, 0.0, 0.0]","[0.4898071885108948, -2.742004632949829, -1.6118618249893188, -0.1659851223230362, 0.01570129580795765, 0.0852356031537056]"
1584376505514861182,,537071,,1584376505,514593983,'',"[shoulder_pan_joint, shoulder_lift_joint, elbow_joint, wrist_1_joint, wrist_2_joint,","[1.4047343730926514, -1.17180043855776, 2.4830703735351562, -2.8627432028399866, -1.5670178572284144, 2.7207303047180176]","[0.0, 0.0, -0.0, 0.0, 0.0, 0.0]","[0.5310059189796448, -2.728271722793579, -1.6118618249893188, -0.1704712063074112, 0.02243042178452015, 0.0717773512005806]"
1584376505626838484,,537085,,1584376505,626569693,'',"[shoulder_pan_joint, shoulder_lift_joint, elbow_joint, wrist_1_joint, wrist_2_joint,","[1.4047462940216064, -1.17177659669985, 2.4830222129821777, -2.8627432028399866, -1.5669940153705042, 2.7207422256469727]","[0.0, 0.0, -0.0, 0.0, 0.0, 0.0]","[0.5310059189796448, -2.751159906387329, -1.596169114112854, -0.1570129543542862, 0.01794433780014515, 0.1166381984949112]"
1584376505738837227,,537099,,1584376505,738545793,'',"[shoulder_pan_joint, shoulder_lift_joint, elbow_joint, wrist_1_joint, wrist_2_joint,","[1.4047462940216064, -1.1718123594867151, 2.483034372329712, -2.8627432028399866, -1.5670178572284144, 2.7207303047180176]","[0.0, 0.0, -0.0, 0.0, 0.0, 0.0]","[0.4898071885108948, -2.732849359512329, -1.6073781251907349, -0.1659851223230362, 0.01794433780014515, 0.1054229810833931]"
1584376505850860805,,537113,,1584376505,850541279,'',"[shoulder_pan_joint, shoulder_lift_joint, elbow_joint, wrist_1_joint, wrist_2_joint,","[1.404758334159851, -1.17180043855776, 2.483046531677246, -2.862767521535055, -1.5670059362994593, 2.7207064628601074]","[0.0, 0.0, -0.0, 0.0, 0.0, 0.0]","[0.5172730088233948, -2.732849359512329, -1.6096199750900269, -0.1592559963464737, 0.01570129580795765, 0.1054229810833931]"
1584376505962841042,,537127,,1584376505,962575256,'',"[shoulder_pan_joint, shoulder_lift_joint, elbow_joint, wrist_1_joint, wrist_2_joint,","[1.4047462940216064, -1.1718362013446253, 2.483034372329712, -2.86277944246401, -1.5670297781573694, 2.7207422256469727]","[0.0, 0.0, -0.0, 0.0, 0.0, 0.0]","[0.4760742783546448, -2.709961175918579, -1.6163454055786133, -0.1749572902917862, 0.01794433780014515, 0.1099090725183487]"
1584376506074790933,,537141,,1584376506,74523885,'',"[shoulder_pan_joint, shoulder_lift_joint, elbow_joint, wrist_1_joint, wrist_2_joint,","[1.4047343730926514, -1.1718123594867151, 2.4830222129821777, -2.8627432028399866, -1.5670297781573694, 2.7207303047180176]","[0.0, 0.0, -0.0, 0.0, 0.0, 0.0]","[0.4989624619483948, -2.705383539199829, -1.6185872554779053, -0.1592559963464737, 0.02018737979233265, 0.1099090725183487]"
1584376506186904460,,537155,,1584376506,186592027,'',"[shoulder_pan_joint, shoulder_lift_joint, elbow_joint, wrist_1_joint, wrist_2_joint,","[1.4047343730926514, -1.1718123594867151, 2.4830222129821777, -2.8627551237689417, -1.5670059362994593, 2.7207303047180176]","[0.0, 0.0, -0.0, 0.0, 0.0, 0.0]","[0.5493164658546448, -2.719116449356079, -1.6185872554779053, -0.1682281643152237, 0.01794433780014515, 0.0919647291302681]"
1584376506298771426,,537169,,1584376506,298509147,'',"[shoulder_pan_joint, shoulder_lift_joint, elbow_joint, wrist_1_joint, wrist_2_joint,","[1.4047462940216064, -1.1718123594867151, 2.4830222129821777, -2.862767521535055, -1.5670178572284144, 2.7207303047180176]","[0.0, 0.0, -0.0, 0.0, 0.0, 0.0]","[0.4714966416358948, -2.742004632949829, -1.6096199750900269, -0.1570129543542862, 0.01570129580795765, 0.1076660305261612]"
1584376506410778654,,537183,,1584376506,410510994,'',"[shoulder_pan_joint, shoulder_lift_joint, elbow_joint, wrist_1_joint, wrist_2_joint,","[1.4047104120254517, -1.17180043855776, 2.4830222129821777, -2.8627551237689417, -1.5670297781573694, 2.7207303047180176]","[0.0, 0.0, -0.0, 0.0, 0.0, 0.0]","[0.5035400986671448, -2.723694086074829, -1.6141035556793213, -0.1637420803308487, 0.02243042178452015, 0.0852356031537056]"
1584376506522803074,,537197,,1584376506,522514455,'',"[shoulder_pan_joint, shoulder_lift_joint, elbow_joint, wrist_1_joint, wrist_2_joint,","[1.4047343730926514, -1.1718123594867151, 2.483058452606201, -2.8627312819110315, -1.5670178572284144, 2.7207064628601074]","[0.0, 0.0, -0.0, 0.0, 0.0, 0.0]","[0.4943848252296448, -2.709961175918579, -1.6141035556793213, -0.1682281643152237, 0.01794433780014515, 0.1121521145105362]"
1584376506634783592,,537211,,1584376506,634477330,'',"[shoulder_pan_joint, shoulder_lift_joint, elbow_joint, wrist_1_joint, wrist_2_joint,","[1.4047343730926514, -1.1718123594867151, 2.4830100536346436, -2.862791363392965, -1.5669940153705042, 2.7207183837890625]","[0.0, 0.0, -0.0, 0.0, 0.0, 0.0]","[0.4989624619483948, -2.732849359512329, -1.6051363945007324, -0.1682281643152237, 0.01345825381577015, 0.0515899695456028]"
1584376506746798655,,537225,,1584376506,746548578,'',"[shoulder_pan_joint, shoulder_lift_joint, elbow_joint, wrist_1_joint, wrist_2_joint,","[1.4047343730926514, -1.17180043855776, 2.483034372329712, -2.8627312819110315, -1.5670059362994593, 2.7207064628601074]","[0.0, 0.0, -0.0, 0.0, 0.0, 0.0]","[0.4989624619483948, -2.764892816543579, -1.6073781251907349, -0.1794433742761612, 0.01794433780014515, 0.0919647291302681]"
1584376506858727456,,537239,,1584376506,858475957,'',"[shoulder_pan_joint, shoulder_lift_joint, elbow_joint, wrist_1_joint, wrist_2_joint,","[1.4047343730926514, -1.1718362013446253, 2.483034372329712, -2.8627432028399866, -1.5670059362994593, 2.7207064628601074]","[0.0, 0.0, -0.0, 0.0, 0.0, 0.0]","[0.5126953721046448, -2.714538812637329, -1.6163454055786133, -0.1614990383386612, 0.02243042178452015, 0.1143951565027237]"
1584376506970771803,,537253,,1584376506,970464139,'',"[shoulder_pan_joint, shoulder_lift_joint, elbow_joint, wrist_1_joint, wrist_2_joint,","[1.4047343730926514, -1.17180043855776, 2.4830222129821777, -2.8627432028399866, -1.5670178572284144, 2.7207183837890625]","[0.0, 0.0, -0.0, 0.0, 0.0, 0.0]","[0.4760742783546448, -2.709961175918579, -1.6163454055786133, -0.1659851223230362, 0.01570129580795765, 0.0852356031537056]"
1584376507082784662,,537267,,1584376507,82468952,'',"[shoulder_pan_joint, shoulder_lift_joint, elbow_joint, wrist_1_joint, wrist_2_joint,","[1.4047104120254517, -1.17180043855776, 2.483046531677246, -2.8627551237689417, -1.5670059362994593, 2.7207183837890625]","[0.0, 0.0, -0.0, 0.0, 0.0, 0.0]","[0.4531860947608948, -2.755737543106079, -1.6073781251907349, -0.1502838283777237, 0.02018737979233265, 0.0986938551068306]"
1584376507194829770,,537281,,1584376507,194559876,'',"[shoulder_pan_joint, shoulder_lift_joint, elbow_joint, wrist_1_joint, wrist_2_joint,","[1.404758334159851, -1.1718247572528284, 2.483034372329712, -2.8627432028399866, -1.5670178572284144, 2.7207183837890625]","[0.0, 0.0, -0.0, 0.0, 0.0, 0.0]","[0.4943848252296448, -2.691650629043579, -1.6028945446014404, -0.1727142482995987, 0.004486084450036287, 0.0964508131146431]"
1584376507306817131,,537295,,1584376507,306523964,'',"[shoulder_pan_joint, shoulder_lift_joint, elbow_joint, wrist_1_joint, wrist_2_joint,","[1.404758334159851, -1.1718362013446253, 2.4830100536346436, -2.8627312819110315, -1.5670178572284144, 2.7207064628601074]","[0.0, 0.0, -0.0, 0.0, 0.0, 0.0]","[0.5035400986671448, -2.705383539199829, -1.593927264213562, -0.1592559963464737, 0.02243042178452015, 0.0986938551068306]"
1584376507418737678,,537309,,1584376507,418447486,'',"[shoulder_pan_joint, shoulder_lift_joint, elbow_joint, wrist_1_joint, wrist_2_joint,","[1.404758334159851, -1.1718123594867151, 2.483034372329712, -2.86277944246401, -1.5670059362994593, 2.7207183837890625]","[0.0, 0.0, -0.0, 0.0, 0.0, 0.0]","[0.4806519150733948, -2.751159906387329, -1.6051363945007324, -0.1637420803308487, 0.01570129580795765, 0.0762634351849556]"
1584376507530802693,,537323,,1584376507,530511650,'',"[shoulder_pan_joint, shoulder_lift_joint, elbow_joint, wrist_1_joint, wrist_2_joint,","[1.4047223329544067, -1.17180043855776, 2.4830100536346436, -2.8627551237689417, -1.5670178572284144, 2.7206943035125732]","[0.0, 0.0, -0.0, 0.0, 0.0, 0.0]","[0.4989624619483948, -2.705383539199829, -1.6185872554779053, -0.1727142482995987, 0.006729126907885075, 0.0897216871380806]"
1584376507642718390,,537337,,1584376507,642431585,'',"[shoulder_pan_joint, shoulder_lift_joint, elbow_joint, wrist_1_joint, wrist_2_joint,","[1.404758334159851, -1.1718247572528284, 2.4829981327056885, -2.8627312819110315, -1.5669940153705042, 2.7207064628601074]","[0.0, 0.0, -0.0, 0.0, 0.0, 0.0]","[0.5035400986671448, -2.742004632949829, -1.6118618249893188, -0.1570129543542862, 0.01794433780014515, 0.1188812404870987]"
1584376507754883262,,537351,,1584376507,754505227,'',"[shoulder_pan_joint, shoulder_lift_joint, elbow_joint, wrist_1_joint, wrist_2_joint,","[1.4047702550888062, -1.17180043855776, 2.483034372329712, -2.8627198378192347, -1.5670178572284144, 2.7207303047180176]","[0.0, 0.0, -0.0, 0.0, 0.0, 0.0]","[0.4760742783546448, -2.719116449356079, -1.6141035556793213, -0.1614990383386612, 0.01794433780014515, 0.0874786451458931]"
1584376507866830709,,537365,,1584376507,866478141,'',"[shoulder_pan_joint, shoulder_lift_joint, elbow_joint, wrist_1_joint, wrist_2_joint,","[1.4047462940216064, -1.1718362013446253, 2.4830100536346436, -2.8627551237689417, -1.5670416990863245, 2.7207064628601074]","[0.0, 0.0, -0.0, 0.0, 0.0, 0.0]","[0.4943848252296448, -2.737426996231079, -1.593927264213562, -0.1682281643152237, 0.01345825381577015, 0.0942077711224556]"
1584376507978658522,,537379,,1584376507,978378900,'',"[shoulder_pan_joint, shoulder_lift_joint, elbow_joint, wrist_1_joint, wrist_2_joint,","[1.4033910036087036, -1.17212421098818, 2.4832980632781982, -2.8632105032550257, -1.566981617604391, 2.7191619873046875]","[-0.009612946771085262, -0.0006647250265814364, -0.0013038837350904942, 0.00028762139845639467, 0.0, -0.011159710586071014]","[-1.0940552949905396, -3.483581781387329, -1.513222098350525, -0.3319702446460724, 0.0381317175924778, -0.3162689507007599]"
1584376508090745940,,537393,,1584376508,90431313,'',"[shoulder_pan_joint, shoulder_lift_joint, elbow_joint, wrist_1_joint, wrist_2_joint,","[1.404986023902893, -1.1721118132220667, 2.4831783771514893, -2.8630669752704065, -1.5670059362994593, 2.7207422256469727]","[0.02811019867658615, -0.0001661812566453591, -0.0008820389630272985, 0.0006711166352033615, 0.0, 0.024045148864388466]","[0.8285523056983948, -3.625488758087158, -1.4347587823867798, -0.3409424126148224, 0.0583190992474556, 0.3162689507007599]"
1584376508202958932,,537407,,1584376508,202575636,'',"[shoulder_pan_joint, shoulder_lift_joint, elbow_joint, wrist_1_joint, wrist_2_joint,","[1.4073251485824585, -1.1720879713641565, 2.4831182956695557, -2.8630669752704065, -1.566981617604391, 2.7228620052337646]","[0.01224627997726202, -8.948221511673182e-05, -0.0003067961661145091, 0.0003067961661145091, 0.00023009712458588183, 0.01384417712688446]","[0.9979249238967896, -3.662109851837158, -1.3137010335922241, -0.3902893364429474, 0.0717773512005806, 0.3947754204273224]"
1584376508314685425,,537421,,1584376508,314405453,'',"[shoulder_pan_joint, shoulder_lift_joint, elbow_joint, wrist_1_joint, wrist_2_joint,","[1.405909538269043, -1.17212421098818, 2.4832382202148438, -2.8631742636310022, -1.5669696966754358, 2.721461057662964]","[-0.03641926124691963, 0.0, 0.000907605339307338, -0.0010162623366340995, 0.00015339808305725455, -0.03305728733539581]","[-1.0757447481155396, -3.625488758087158, -1.2912828922271729, -0.4149627983570099, 0.0471038855612278, -0.2669220268726349]"
1584376508426695989,,537435,,1584376508,426401830,'',"[shoulder_pan_joint, shoulder_lift_joint, elbow_joint, wrist_1_joint, wrist_2_joint,","[1.4023951292037964, -1.1721480528460901, 2.4832022190093994, -2.8631985823260706, -1.5669458548175257, 2.718395709991455]","[-0.022715698927640915, 0.0, -0.0, -0.0001917476038215682, 9.58738019107841e-05, -0.020478643476963043]","[-0.8926392793655396, -3.488159418106079, -1.4123406410217285, -0.3611297905445099, 0.0358886756002903, -0.3588867485523224]"
1584376508538697327,,537449,,1584376508,538388731,'',"[shoulder_pan_joint, shoulder_lift_joint, elbow_joint, wrist_1_joint, wrist_2_joint,","[1.4003559350967407, -1.1721118132220667, 2.4832262992858887, -2.8631985823260706, -1.5669339338885706, 2.716264247894287]","[-0.013089969754219055, 0.0, -0.0, -0.0001917476038215682, 1.917476038215682e-05, -0.014170147478580475]","[-1.1260987520217896, -3.520203113555908, -1.419066071510315, -0.3701019585132599, 0.0471038855612278, -0.3476715385913849]"
1584376508650765198,,537463,,1584376508,650455871,'',"[shoulder_pan_joint, shoulder_lift_joint, elbow_joint, wrist_1_joint, wrist_2_joint,","[1.4004762172698975, -1.1720760504352015, 2.4830822944641113, -2.863126579915182, -1.566981617604391, 2.7166953086853027]","[0.02773948572576046, 0.0, -0.0018791265320032835, 0.0022626216523349285, 1.917476038215682e-05, 0.030161898583173752]","[0.7781983017921448, -3.327942132949829, -1.643247127532959, -0.2377624809741974, 0.0605621412396431, 0.1906585842370987]"
1584376508762807411,,537477,,1584376508,762424066,'',"[shoulder_pan_joint, shoulder_lift_joint, elbow_joint, wrist_1_joint, wrist_2_joint,","[1.4040265083312988, -1.1721480528460901, 2.4831182956695557, -2.8630788961993616, -1.5669696966754358, 2.719820737838745]","[0.030590133741497993, 0.0, -0.00029401297797448933, 0.00032597093377262354, 1.917476038215682e-05, 0.029222333803772926]","[0.8972169160842896, -3.620911121368408, -1.46614408493042, -0.3207550346851349, 0.0605621412396431, 0.2893524467945099]"
1584376508874848662,,537491,,1584376508,874448956,'',"[shoulder_pan_joint, shoulder_lift_joint, elbow_joint, wrist_1_joint, wrist_2_joint,","[1.407277226448059, -1.1721003691302698, 2.4831182956695557, -2.8630788961993616, -1.566981617604391, 2.7228381633758545]","[0.025668611750006676, 0.0, -0.0, 0.00015339808305725455, 1.917476038215682e-05, 0.02713228575885296]","[0.9613038301467896, -3.625488758087158, -1.4257915019989014, -0.3431854546070099, 0.0785064771771431, 0.3745880424976349]"
1584376508986718674,,537505,,1584376508,986398897,'',"[shoulder_pan_joint, shoulder_lift_joint, elbow_joint, wrist_1_joint, wrist_2_joint,","[1.4092800617218018, -1.1720760504352015, 2.4830703735351562, -2.8630431334124964, -1.5670059362994593, 2.7251248359680176]","[0.01486683078110218, 0.0, -0.0, 9.58738019107841e-05, 1.917476038215682e-05, 0.01902136206626892]","[0.7690430283546448, -3.588867664337158, -1.4325169324874878, -0.3521576225757599, 0.0986938551068306, 0.3072967827320099]"
1584376509098652185,,537519,,1584376509,98355762,'',"[shoulder_pan_joint, shoulder_lift_joint, elbow_joint, wrist_1_joint, wrist_2_joint,","[1.4114511013031006, -1.1721118132220667, 2.4829862117767334, -2.8630431334124964, -1.5670178572284144, 2.727411985397339]","[0.023981234058737755, 0.0, -0.00048576059634797275, 7.669904152862728e-05, 1.917476038215682e-05, 0.02454369328916073]","[0.8193970322608948, -3.625488758087158, -1.454935073852539, -0.3229980766773224, 0.0605621412396431, 0.3274841606616974]"
1584376509210814482,,537533,,1584376509,210495637,'',"[shoulder_pan_joint, shoulder_lift_joint, elbow_joint, wrist_1_joint, wrist_2_joint,","[1.4144617319107056, -1.17212421098818, 2.482962131500244, -2.8630788961993616, -1.5670536200152796, 2.730069875717163]","[0.026806315407156944, 0.0, -0.0, 5.752428114647046e-05, 1.917476038215682e-05, 0.0240068007260561]","[1.0345460176467896, -3.744507312774658, -1.2935247421264648, -0.3723450005054474, 0.0919647291302681, 0.2175751030445099]"
1584376509322645591,,537547,,1584376509,322365789,'',"[shoulder_pan_joint, shoulder_lift_joint, elbow_joint, wrist_1_joint, wrist_2_joint,","[1.4175807237625122, -1.1721003691302698, 2.482578754425049, -2.8629348913775843, -1.5670536200152796, 2.733147144317627]","[0.027650004252791405, 0.0, -0.010878480970859528, 0.006864564027637243, 1.917476038215682e-05, 0.030545393005013466]","[0.8697510361671448, -3.382873773574829, -1.641005277633667, -0.2377624809741974, 0.0628051832318306, 0.2983246147632599]"
1584376509434753146,,537561,,1584376509,434383336,'',"[shoulder_pan_joint, shoulder_lift_joint, elbow_joint, wrist_1_joint, wrist_2_joint,","[1.4203273057937622, -1.1716325918780726, 2.47917103767395, -2.8613904158221644, -1.5670297781573694, 2.7362723350524902]","[0.021156152710318565, 0.009970875456929207, -0.05399612337350845, 0.02479296550154686, 1.917476038215682e-05, 0.022607041522860527]","[0.9979249238967896, -2.407837152481079, -1.6768742799758911, 0.006729126907885075, 0.0807495191693306, 0.2826233208179474]"
1584376509546692448,,537575,,1584376509,546366649,'',"[shoulder_pan_joint, shoulder_lift_joint, elbow_joint, wrist_1_joint, wrist_2_joint,","[1.4222946166992188, -1.1688273588763636, 2.468553066253662, -2.8562782446490687, -1.5669940153705042, 2.738523483276367]","[0.01618349738419056, 0.04541861638426781, -0.13423611223697662, 0.0723080188035965, 1.917476038215682e-05, 0.020977187901735306]","[0.9475709199905396, -2.439880609512329, -1.6163454055786133, -0.0919647291302681, 0.0493469275534153, 0.3364563286304474]"
1584376509658662115,,537589,,1584376509,658393714,'',"[shoulder_pan_joint, shoulder_lift_joint, elbow_joint, wrist_1_joint, wrist_2_joint,","[1.42429780960083, -1.1625326315509241, 2.4512040615081787, -2.846520725880758, -1.5670178572284144, 2.740630865097046]","[0.023316508159041405, 0.06959159672260284, -0.1707959771156311, 0.09418642520904541, 1.917476038215682e-05, 0.021878400817513466]","[0.8377075791358948, -2.467346429824829, -1.6297962665557861, -0.02243042178452015, 0.02467346377670765, 0.3319702446460724]"
1584376509770638666,,537603,,1584376509,770355789,'',"[shoulder_pan_joint, shoulder_lift_joint, elbow_joint, wrist_1_joint, wrist_2_joint,","[1.428015947341919, -1.1535642782794397, 2.431443214416504, -2.8347280661212366, -1.5669940153705042, 2.7439236640930176]","[0.03955113887786865, 0.07746603339910507, -0.17325034737586975, 0.1059405505657196, 1.917476038215682e-05, 0.03645122051239014]","[0.9155274629592896, -3.002929925918579, -1.8517354726791382, -0.1233673244714737, 0.0291595496237278, 0.3095398247241974]"
1584376509882680609,,537617,,1584376509,882365180,'',"[shoulder_pan_joint, shoulder_lift_joint, elbow_joint, wrist_1_joint, wrist_2_joint,","[1.4325979948043823, -1.1453035513507288, 2.412581443786621, -2.8233545462237757, -1.5669696966754358, 2.7485218048095703]","[0.042759716510772705, 0.07196926325559616, -0.16504354774951935, 0.09382209926843643, 1.917476038215682e-05, 0.04473471641540527]","[1.0620118379592896, -2.810669183731079, -2.0624656677246094, -0.1368255764245987, 0.02018737979233265, 0.3229980766773224]"
1584376509994624919,,537631,,1584376509,994374222,'',"[shoulder_pan_joint, shoulder_lift_joint, elbow_joint, wrist_1_joint, wrist_2_joint,","[1.4375998973846436, -1.1377618948565882, 2.394559144973755, -2.813082520161764, -1.5669577757464808, 2.7533113956451416]","[0.05119660869240761, 0.06428658217191696, -0.16445553302764893, 0.0901021957397461, 1.917476038215682e-05, 0.04736165702342987]","[0.9063721895217896, -2.792358636856079, -1.8136247396469116, -0.0986938551068306, 0.02018737979233265, 0.4329071640968323]"
1584376510106685407,,537645,,1584376510,106349630,'',"[shoulder_pan_joint, shoulder_lift_joint, elbow_joint, wrist_1_joint, wrist_2_joint,","[1.443717122077942, -1.130136791859762, 2.3764760494232178, -2.8029897848712366, -1.566981617604391, 2.759178400039673]","[0.050634149461984634, 0.06851781159639359, -0.15904824435710907, 0.09004467725753784, 1.917476038215682e-05, 0.05802282318472862]","[0.9841920137405396, -2.920532464981079, -1.9840023517608643, -0.0785064771771431, 0.0291595496237278, 0.3319702446460724]"
1584376510218791549,,537659,,1584376510,218479106,'',"[shoulder_pan_joint, shoulder_lift_joint, elbow_joint, wrist_1_joint, wrist_2_joint,","[1.4485269784927368, -1.122547451649801, 2.3586928844451904, -2.7927773634540003, -1.5670059362994593, 2.7647705078125]","[0.039257124066352844, 0.07044807076454163, -0.16264031827449799, 0.08908593654632568, 1.917476038215682e-05, 0.04346918314695358]","[0.9887696504592896, -3.089905023574829, -1.8920880556106567, -0.1368255764245987, 0.01794433780014515, 0.2848663628101349]"
1584376510330638569,,537673,,1584376510,330290880,'',"[shoulder_pan_joint, shoulder_lift_joint, elbow_joint, wrist_1_joint, wrist_2_joint,","[1.4530730247497559, -1.1147664229022425, 2.340177536010742, -2.7827208677874964, -1.5670178572284144, 2.7693443298339844]","[0.04241456836462021, 0.06334062665700912, -0.1690574735403061, 0.09736943244934082, 0.0, 0.04103398695588112]","[0.9155274629592896, -2.874756097793579, -1.9369243383407593, -0.0829925611615181, 0.011215210892260075, 0.3790741264820099]"
1584376510442625739,,537687,,1584376510,442304319,'',"[shoulder_pan_joint, shoulder_lift_joint, elbow_joint, wrist_1_joint, wrist_2_joint,","[1.4575588703155518, -1.1065781752215784, 2.3204736709594727, -2.7718027273761194, -1.5669940153705042, 2.7738585472106934]","[0.037211816757917404, 0.08311619609594345, -0.18511313199996948, 0.10053326934576035, 0.0, 0.03779345378279686]","[1.0665894746780396, -3.163147211074829, -1.9884859323501587, -0.1188812404870987, 0.0, 0.3902893364429474]"
1584376510554625022,,537701,,1584376510,554305265,'',"[shoulder_pan_joint, shoulder_lift_joint, elbow_joint, wrist_1_joint, wrist_2_joint,","[1.4615174531936646, -1.09747821489443, 2.299053430557251, -2.7598546187030237, -1.5670059362994593, 2.777833938598633]","[0.039921849966049194, 0.08984014391899109, -0.19966039061546326, 0.1123257428407669, 0.0, 0.03689223900437355]","[0.9201050996780396, -3.021240472793579, -2.201457977294922, -0.1054229810833931, -0.01570129580795765, 0.2826233208179474]"
1584376510666655934,,537715,,1584376510,666348580,'',"[shoulder_pan_joint, shoulder_lift_joint, elbow_joint, wrist_1_joint, wrist_2_joint,","[1.4668909311294556, -1.0870712439166468, 2.2759041786193848, -2.7472484747516077, -1.566981617604391, 2.7826831340789795]","[0.052564408630132675, 0.09115681052207947, -0.2170838564634323, 0.12128035724163055, 0.0, 0.05121578648686409]","[0.9155274629592896, -3.218078851699829, -2.1207528114318848, -0.1614990383386612, -0.011215210892260075, 0.3790741264820099]"
1584376510778617426,,537729,,1584376510,778302078,'',"[shoulder_pan_joint, shoulder_lift_joint, elbow_joint, wrist_1_joint, wrist_2_joint,","[1.4728527069091797, -1.0764010588275355, 2.2511582374572754, -2.7336843649493616, -1.5670059362994593, 2.7888381481170654]","[0.05241101235151291, 0.0932021215558052, -0.22532899677753448, 0.12277598679065704, 0.0, 0.05531918257474899]","[0.8972169160842896, -3.199768304824829, -2.282163143157959, -0.0605621412396431, -0.0381317175924778, 0.3521576225757599]"
1584376510890615588,,537743,,1584376510,890308454,'',"[shoulder_pan_joint, shoulder_lift_joint, elbow_joint, wrist_1_joint, wrist_2_joint,","[1.4794975519180298, -1.0649998823748987, 2.2254276275634766, -2.7198331991778772, -1.5670059362994593, 2.7955193519592285]","[0.06034936383366585, 0.10045018047094345, -0.23193790018558502, 0.13019661605358124, 0.0, 0.0650024339556694]","[0.9521485567092896, -3.396606683731079, -2.4077045917510986, -0.1009368970990181, -0.0448608435690403, 0.3050537407398224]"
1584376511002624629,,537757,,1584376511,2308319,'',"[shoulder_pan_joint, shoulder_lift_joint, elbow_joint, wrist_1_joint, wrist_2_joint,","[1.4856147766113281, -1.05316669145693, 2.199108123779297, -2.7053473631488245, -1.5670059362994593, 2.8020575046539307]","[0.05375324562191963, 0.1014600470662117, -0.2330756038427353, 0.13397404551506042, 0.0, 0.05273059010505676]","[1.0620118379592896, -3.474426507949829, -2.463749885559082, -0.0403747595846653, -0.0560760572552681, 0.4015045464038849]"
1584376511114599036,,537771,,1584376511,114291832,'',"[shoulder_pan_joint, shoulder_lift_joint, elbow_joint, wrist_1_joint, wrist_2_joint,","[1.491960048675537, -1.0416329542743128, 2.1731362342834473, -2.691137138997213, -1.5670178572284144, 2.8080687522888184]","[0.05680842325091362, 0.10126829892396927, -0.22483044862747192, 0.11880681663751602, 0.0, 0.058943212032318115]","[0.8743286728858948, -3.648376941680908, -2.385286331176758, -0.0717773512005806, -0.0471038855612278, 0.2669220268726349]"
1584376511226723873,,537785,,1584376511,226380272,'',"[shoulder_pan_joint, shoulder_lift_joint, elbow_joint, wrist_1_joint, wrist_2_joint,","[1.4981131553649902, -1.0303757826434534, 2.148411273956299, -2.677896324788229, -1.5670178572284144, 2.8142833709716797]","[0.0552360936999321, 0.10184354335069656, -0.21762074530124664, 0.11984225362539291, -9.58738019107841e-05, 0.05273059010505676]","[0.8743286728858948, -3.799438953399658, -2.394253730773926, -0.1300964504480362, -0.0650482252240181, 0.2938385307788849]"
1584376511338581281,,537799,,1584376511,338275360,'',"[shoulder_pan_joint, shoulder_lift_joint, elbow_joint, wrist_1_joint, wrist_2_joint,","[1.5051178932189941, -1.0196459929095667, 2.1243467330932617, -2.664488140736715, -1.5670536200152796, 2.820976972579956]","[0.06290599703788757, 0.09727995097637177, -0.21480844914913177, 0.11838497221469879, -9.58738019107841e-05, 0.06734175980091095]","[0.8331299424171448, -3.739929676055908, -2.4099464416503906, -0.1278534084558487, -0.0583190992474556, 0.3723450005054474]"
1584376511450573672,,537813,,1584376511,450287347,'',"[shoulder_pan_joint, shoulder_lift_joint, elbow_joint, wrist_1_joint, wrist_2_joint,","[1.5116310119628906, -1.0091679731952112, 2.1000051498413086, -2.651679340993063, -1.5670297781573694, 2.827958106994629]","[0.05751149728894234, 0.09928690642118454, -0.21889905631542206, 0.12112695723772049, -9.58738019107841e-05, 0.057562630623579025]","[1.0345460176467896, -3.451538324356079, -2.544455051422119, -0.1884155422449112, -0.0628051832318306, 0.3117828667163849]"
1584376511562649398,,537827,,1584376511,562351171,'',"[shoulder_pan_joint, shoulder_lift_joint, elbow_joint, wrist_1_joint, wrist_2_joint,","[1.5180481672286987, -0.9977791945086878, 2.0747628211975098, -2.6380675474749964, -1.5670536200152796, 2.8343048095703125]","[0.05426457151770592, 0.10647105425596237, -0.2304294854402542, 0.12699443101882935, -7.669904152862728e-05, 0.056354619562625885]","[0.8651733994483948, -3.977966785430908, -2.542213201522827, -0.1435547024011612, -0.0762634351849556, 0.3880462944507599]"
1584376511674541360,,537841,,1584376511,674273961,'',"[shoulder_pan_joint, shoulder_lift_joint, elbow_joint, wrist_1_joint, wrist_2_joint,","[1.523901343345642, -0.9858868757831019, 2.0482115745544434, -2.62416917482485, -1.5670416990863245, 2.840268135070801]","[0.05554288998246193, 0.10713578015565872, -0.24395407736301422, 0.13063764572143555, -7.669904152862728e-05, 0.053459230810403824]","[0.8331299424171448, -3.909302234649658, -2.477200746536255, -0.1547699123620987, -0.0807495191693306, 0.2736511528491974]"
1584376511786550482,,537855,,1584376511,786246555,'',"[shoulder_pan_joint, shoulder_lift_joint, elbow_joint, wrist_1_joint, wrist_2_joint,","[1.5306544303894043, -0.9731906096087855, 2.0201354026794434, -2.6092408339129847, -1.5670655409442347, 2.8468902111053467]","[0.059722986072301865, 0.11841053515672684, -0.25675004720687866, 0.13633254170417786, -7.669904152862728e-05, 0.06210704892873764]","[0.8239746689796448, -4.014587879180908, -2.4099464416503906, -0.0829925611615181, -0.0919647291302681, 0.3902893364429474]"
1584376511898496906,,537869,,1584376511,898223846,'',"[shoulder_pan_joint, shoulder_lift_joint, elbow_joint, wrist_1_joint, wrist_2_joint,","[1.5368918180465698, -0.9595721403705042, 1.9909300804138184, -2.593654457722799, -1.5670536200152796, 2.8536195755004883]","[0.0552360936999321, 0.12276960164308548, -0.26847222447395325, 0.14156726002693176, -7.669904152862728e-05, 0.05854054167866707]","[1.0849000215530396, -4.019165515899658, -2.4794423580169678, -0.1031799390912056, -0.1054229810833931, 0.2646789848804474]"
1584376512010506578,,537883,,1584376512,10238037,'',"[shoulder_pan_joint, shoulder_lift_joint, elbow_joint, wrist_1_joint, wrist_2_joint,","[1.5429850816726685, -0.9458344618426722, 1.9610400199890137, -2.5775893370257776, -1.567101780568258, 2.859954357147217]","[0.04706764593720436, 0.12692412734031677, -0.26730895042419434, 0.14772234857082367, -7.669904152862728e-05, 0.05110073462128639]","[0.9063721895217896, -4.248047351837158, -2.6879308223724365, -0.1682281643152237, -0.1166381984949112, 0.2758941948413849]"
1584376512122481697,,537897,,1584376512,122240437,'',"[shoulder_pan_joint, shoulder_lift_joint, elbow_joint, wrist_1_joint, wrist_2_joint,","[1.5470631122589111, -0.9315441290484827, 1.9312334060668945, -2.561643425618307, -1.5670655409442347, 2.8646368980407715]","[0.030372820794582367, 0.12968529760837555, -0.26627349853515625, 0.1409536600112915, -0.00046019424917176366, 0.034572090953588486]","[1.1032105684280396, -4.618835926055908, -2.6139512062072754, -0.1704712063074112, -0.1345825344324112, 0.3297272026538849]"
1584376512234593981,,537911,,1584376512,234345177,'',"[shoulder_pan_joint, shoulder_lift_joint, elbow_joint, wrist_1_joint, wrist_2_joint,","[1.5505175590515137, -0.9178059736834925, 1.9014506340026855, -2.5459135214435022, -1.5671137014972132, 2.8681931495666504]","[0.03446343541145325, 0.12054532766342163, -0.26615846157073975, 0.14156726002693176, -0.0004026699753012508, 0.03092888742685318]","[1.1993409395217896, -4.536438465118408, -2.7753615379333496, -0.1570129543542862, -0.1525268703699112, 0.3117828667163849]"
1584376512346612390,,537925,,1584376512,346261395,'',"[shoulder_pan_joint, shoulder_lift_joint, elbow_joint, wrist_1_joint, wrist_2_joint,","[1.5541517734527588, -0.9042242209063929, 1.8727469444274902, -2.5306504408465784, -1.5671256224261683, 2.8717498779296875]","[0.03027055412530899, 0.11892186105251312, -0.2489650845527649, 0.13759808242321014, -0.00032597093377262354, 0.03136990964412689]","[0.9017945528030396, -4.879761219024658, -2.83813214302063, -0.1996307522058487, -0.1637420803308487, 0.2691650688648224]"
1584376512458548916,,537939,,1584376512,458247623,'',"[shoulder_pan_joint, shoulder_lift_joint, elbow_joint, wrist_1_joint, wrist_2_joint,","[1.5571025609970093, -0.8913252989398401, 1.8459644317626953, -2.516129795704977, -1.5671613852130335, 2.874983072280884]","[0.02069595828652382, 0.10639435052871704, -0.22538013756275177, 0.12356215715408325, -0.00036432043998502195, 0.023489082232117653]","[1.1718751192092896, -4.847717761993408, -2.8986611366271973, -0.0919647291302681, -0.1704712063074112, 0.2781372368335724]"
1584376512570572163,,537953,,1584376512,570262385,'',"[shoulder_pan_joint, shoulder_lift_joint, elbow_joint, wrist_1_joint, wrist_2_joint,","[1.5592495203018188, -0.8797810713397425, 1.82159423828125, -2.503308121358053, -1.5672333876239222, 2.8772101402282715]","[0.01962217129766941, 0.10030956566333771, -0.20885148644447327, 0.11000560224056244, -0.0006327670998871326, 0.01890631392598152]","[0.8834840059280396, -5.131531238555908, -2.9547061920166016, -0.006729126907885075, -0.1704712063074112, 0.3544006645679474]"
1584376512682563743,,537967,,1584376512,682221213,'',"[shoulder_pan_joint, shoulder_lift_joint, elbow_joint, wrist_1_joint, wrist_2_joint,","[1.5619003772735596, -0.8688371817218226, 1.799048900604248, -2.4913256804095667, -1.5672815481769007, 2.879641056060791]","[0.02869822457432747, 0.09648739546537399, -0.1975511610507965, 0.10103181004524231, -0.00036432043998502195, 0.026921363547444344]","[0.9063721895217896, -5.227661609649658, -2.918837308883667, -0.0740203931927681, -0.1794433742761612, 0.3521576225757599]"
1584376512794593422,,537981,,1584376512,794218633,'',"[shoulder_pan_joint, shoulder_lift_joint, elbow_joint, wrist_1_joint, wrist_2_joint,","[1.565678358078003, -0.8594029585467737, 1.7783761024475098, -2.4801085630999964, -1.5672577063189905, 2.883078098297119]","[0.033658094704151154, 0.0821063220500946, -0.1820707470178604, 0.09838569164276123, -0.00023009712458588183, 0.03555000573396683]","[0.9109498262405396, -4.756165027618408, -3.0354115962982178, -0.1323394924402237, -0.1772003322839737, 0.3521576225757599]"
1584376512906622451,,537995,,1584376512,906227113,'',"[shoulder_pan_joint, shoulder_lift_joint, elbow_joint, wrist_1_joint, wrist_2_joint,","[1.5691328048706055, -0.8504121939288538, 1.7586512565612793, -2.4697898069964808, -1.5672934691058558, 2.8868141174316406]","[0.02546408213675022, 0.07814353704452515, -0.17427299916744232, 0.09044734388589859, -0.00015339808305725455, 0.029260683804750443]","[1.0482789278030396, -4.985046863555908, -3.012993335723877, -0.1009368970990181, -0.1772003322839737, 0.2601929008960724]"
1584376513018538278,,538009,,1584376513,18181482,'',"[shoulder_pan_joint, shoulder_lift_joint, elbow_joint, wrist_1_joint, wrist_2_joint,","[1.571339726448059, -0.8407500425921839, 1.7381820678710938, -2.4591477552997034, -1.567341152821676, 2.889436721801758]","[0.017014404758810997, 0.08902201801538467, -0.1935628205537796, 0.10225899517536163, -0.00024927189224399626, 0.019769178703427315]","[0.7644653916358948, -5.204773426055908, -3.1631946563720703, -0.1054229810833931, -0.1973877102136612, 0.2938385307788849]"
1584376513130587695,,538023,,1584376513,130213276,'',"[shoulder_pan_joint, shoulder_lift_joint, elbow_joint, wrist_1_joint, wrist_2_joint,","[1.5734628438949585, -0.8302739302264612, 1.71516752243042, -2.4468897024737757, -1.5674250761615198, 2.8916399478912354]","[0.020926054567098618, 0.09703706949949265, -0.21970440447330475, 0.1150677353143692, -0.0004218447138555348, 0.020555343478918076]","[0.8926392793655396, -5.227661609649658, -3.102665901184082, -0.1480407863855362, -0.1973877102136612, 0.3185119926929474]"
1584376513242576889,,538037,,1584376513,242218791,'',"[shoulder_pan_joint, shoulder_lift_joint, elbow_joint, wrist_1_joint, wrist_2_joint,","[1.5762454271316528, -0.8185380140887659, 1.6895475387573242, -2.4340208212481897, -1.5674846808062952, 2.894179105758667]","[0.028979454189538956, 0.11334840208292007, -0.2451045662164688, 0.12699443101882935, -0.0005752427969127893, 0.026441995054483414]","[1.0208131074905396, -5.126953601837158, -3.0757641792297363, -0.1929016262292862, -0.2086029201745987, 0.3701019585132599]"
1584376513354499910,,538051,,1584376513,354165306,'',"[shoulder_pan_joint, shoulder_lift_joint, elbow_joint, wrist_1_joint, wrist_2_joint,","[1.5793280601501465, -0.8048017660724085, 1.6608786582946777, -2.419044796620504, -1.5676048437701624, 2.8974361419677734]","[0.026384470984339714, 0.12679630517959595, -0.26799923181533813, 0.1396881341934204, -0.001208009896799922, 0.028301946818828583]","[0.9063721895217896, -5.625916004180908, -3.082489490509033, -0.2018737941980362, -0.2265472710132599, 0.3072967827320099]"
1584376513466502048,,538065,,1584376513,466166803,'',"[shoulder_pan_joint, shoulder_lift_joint, elbow_joint, wrist_1_joint, wrist_2_joint,","[1.581894874572754, -0.7902849356280726, 1.6298918724060059, -2.402896229420797, -1.5677488485919397, 2.900465965270996]","[0.01925146020948887, 0.13322623074054718, -0.2867521345615387, 0.1505410373210907, -0.001859951764345169, 0.023124760016798973]","[1.0849000215530396, -5.438232898712158, -3.196821928024292, -0.1861725002527237, -0.2355194389820099, 0.2736511528491974]"
1584376513578497664,,538079,,1584376513,578141400,'',"[shoulder_pan_joint, shoulder_lift_joint, elbow_joint, wrist_1_joint, wrist_2_joint,","[1.583933711051941, -0.7743185202227991, 1.5968408584594727, -2.3855508009540003, -1.568012539540426, 2.902740716934204]","[0.01895744539797306, 0.1464184671640396, -0.2984743118286133, 0.15947647392749786, -0.002281796419993043, 0.019711652770638466]","[0.8789063692092896, -5.625916004180908, -3.268559694290161, -0.1772003322839737, -0.2714081108570099, 0.2400055229663849]"
1584376513690578179,,538093,,1584376513,690198811,'',"[shoulder_pan_joint, shoulder_lift_joint, elbow_joint, wrist_1_joint, wrist_2_joint,","[1.5861051082611084, -0.758376423512594, 1.5631885528564453, -2.3679893652545374, -1.5681684652911585, 2.9051601886749268]","[0.023022495210170746, 0.14539581537246704, -0.2994586229324341, 0.1582876443862915, -0.001208009896799922, 0.02268374152481556]","[0.8651733994483948, -5.570984363555908, -3.376166582107544, -0.1166381984949112, -0.3050537407398224, 0.2848663628101349]"
1584376513802468830,,538107,,1584376513,802159532,'',"[shoulder_pan_joint, shoulder_lift_joint, elbow_joint, wrist_1_joint, wrist_2_joint,","[1.589139699935913, -0.7419670263873499, 1.5299692153930664, -2.350476090108053, -1.5683358351336878, 2.908057928085327]","[0.030884146690368652, 0.14168868958950043, -0.2966846823692322, 0.1519024521112442, -0.002281796419993043, 0.027784228324890137]","[1.0665894746780396, -6.060791492462158, -3.454630136489868, -0.004486084450036287, -0.2915954887866974, 0.2960815727710724]"
1584376513914485005,,538121,,1584376513,914163464,'',"[shoulder_pan_joint, shoulder_lift_joint, elbow_joint, wrist_1_joint, wrist_2_joint,","[1.592474341392517, -0.726684872304098, 1.4980101585388184, -2.3336928526507776, -1.5685036818133753, 2.911482810974121]","[0.026550650596618652, 0.1342744529247284, -0.27603983879089355, 0.14638012647628784, -0.00155315559823066, 0.03217524662613869]","[0.8377075791358948, -5.955505847930908, -3.5330934524536133, -0.0942077711224556, -0.3095398247241974, 0.3297272026538849]"
1584376514026432751,,538135,,1584376514,26106522,'',"[shoulder_pan_joint, shoulder_lift_joint, elbow_joint, wrist_1_joint, wrist_2_joint,","[1.5950531959533691, -0.7117379347430628, 1.4667472839355469, -2.3171852270709437, -1.5686233679400843, 2.914548635482788]","[0.018075406551361084, 0.13188399374485016, -0.2823036015033722, 0.13953472673892975, -0.0021859225817024708, 0.021341508254408836]","[0.9796143770217896, -6.092834949493408, -3.5129170417785645, -0.0269165076315403, -0.2893524467945099, 0.2691650688648224]"
1584376514138414191,,538149,,1584376514,138103040,'',"[shoulder_pan_joint, shoulder_lift_joint, elbow_joint, wrist_1_joint, wrist_2_joint,","[1.5968643426895142, -0.6971028486834925, 1.4352092742919922, -2.3011563459979456, -1.568815056477682, 2.9167041778564453]","[0.015327025204896927, 0.13270212709903717, -0.2858317494392395, 0.14626507461071014, -0.0031638354994356632, 0.018983012065291405]","[0.8834840059280396, -5.886841297149658, -3.4165191650390625, 0.004486084450036287, -0.2669220268726349, 0.1816864162683487]"
1584376514250429073,,538163,,1584376514,250128973,'',"[shoulder_pan_joint, shoulder_lift_joint, elbow_joint, wrist_1_joint, wrist_2_joint,","[1.599047303199768, -0.6814735571490687, 1.4021944999694824, -2.28400165239443, -1.5690186659442347, 2.9188356399536133]","[0.02557913027703762, 0.14685310423374176, -0.3047764301300049, 0.16093376278877258, -0.0043718451634049416, 0.021571604534983635]","[0.9979249238967896, -6.225586414337158, -3.732614517211914, -0.1525268703699112, -0.2579498589038849, 0.2400055229663849]"
1584376514362446110,,538177,,1584376514,362101977,'',"[shoulder_pan_joint, shoulder_lift_joint, elbow_joint, wrist_1_joint, wrist_2_joint,","[1.6023695468902588, -0.6651724020587366, 1.3672471046447754, -2.26608115831484, -1.5691865126239222, 2.9218053817749023]","[0.029989324510097504, 0.14632898569107056, -0.31670311093330383, 0.1624102145433426, -0.001725728390738368, 0.031005587428808212]","[0.9155274629592896, -6.138611316680908, -3.672085762023926, -0.1502838283777237, -0.2377624809741974, 0.2512207329273224]"
1584376514474489315,,538191,,1584376514,474174547,'',"[shoulder_pan_joint, shoulder_lift_joint, elbow_joint, wrist_1_joint, wrist_2_joint,","[1.605571985244751, -0.6481764952289026, 1.3320484161376953, -2.2477062384234827, -1.5693185965167444, 2.9251108169555664]","[0.024275247007608414, 0.15151895582675934, -0.32150959968566895, 0.15991750359535217, -0.002281796419993043, 0.02803349867463112]","[0.8605957627296448, -6.088257312774658, -3.5891387462615967, -0.1772003322839737, -0.2220611870288849, 0.3409424126148224]"
1584376514586435940,,538205,,1584376514,586148643,'',"[shoulder_pan_joint, shoulder_lift_joint, elbow_joint, wrist_1_joint, wrist_2_joint,","[1.6077430248260498, -0.6315291563617151, 1.2969584465026855, -2.229473892842428, -1.5695222059832972, 2.927685499191284]","[0.015352590940892696, 0.14990827441215515, -0.31019648909568787, 0.16315802931785583, -0.0012463594321161509, 0.0174490325152874]","[0.8697510361671448, -6.362915515899658, -3.7841761112213135, -0.1323394924402237, -0.2175751030445099, 0.3678589165210724]"
1584376514698474185,,538219,,1584376514,698135894,'',"[shoulder_pan_joint, shoulder_lift_joint, elbow_joint, wrist_1_joint, wrist_2_joint,","[1.6092780828475952, -0.6147134939776819, 1.261988639831543, -2.2115777174579065, -1.5697014967547815, 2.92942214012146]","[0.013639646582305431, 0.15281005203723907, -0.3080233633518219, 0.1661684662103653, -0.0014764565275982022, 0.012386894784867764]","[0.9613038301467896, -6.532288074493408, -3.9747300148010254, -0.1076660305261612, -0.2243042290210724, 0.3409424126148224]"
1584376514810479960,,538233,,1584376514,810149814,'',"[shoulder_pan_joint, shoulder_lift_joint, elbow_joint, wrist_1_joint, wrist_2_joint,","[1.6107416152954102, -0.598485294972555, 1.2280402183532715, -2.1936448256122034, -1.5698812643634241, 2.9308230876922607]","[0.016017315909266472, 0.14119015634059906, -0.2946265935897827, 0.14850851893424988, -0.0011504855938255787, 0.012329370714724064]","[0.8926392793655396, -6.175232410430908, -3.907475709915161, -0.0672912672162056, -0.2153320610523224, 0.2893524467945099]"
1584376514922445621,,538247,,1584376514,922136303,'',"[shoulder_pan_joint, shoulder_lift_joint, elbow_joint, wrist_1_joint, wrist_2_joint,","[1.6131523847579956, -0.5827129522906702, 1.1961688995361328, -2.177352253590719, -1.5700252691852015, 2.9328229427337646]","[0.02786731906235218, 0.13695892691612244, -0.27154016494750977, 0.13763642311096191, -0.001035437104292214, 0.02237694524228573]","[1.1535645723342896, -6.898499011993408, -3.829012393951416, 0.0605621412396431, -0.2198181450366974, 0.2871094048023224]"
1584376515034462267,,538261,,1584376515,34108747,'',"[shoulder_pan_joint, shoulder_lift_joint, elbow_joint, wrist_1_joint, wrist_2_joint,","[1.6162948608398438, -0.5690262953387659, 1.1674318313598633, -2.162173096333639, -1.570061508809225, 2.9357688426971436]","[0.025668611750006676, 0.11200616508722305, -0.2439413070678711, 0.11955463141202927, -0.0003834952076431364, 0.02774587832391262]","[0.8331299424171448, -6.788635730743408, -4.071127891540527, -0.0560760572552681, -0.2310333549976349, 0.3185119926929474]"
1584376515146384105,,538275,,1584376515,146062906,'',"[shoulder_pan_joint, shoulder_lift_joint, elbow_joint, wrist_1_joint, wrist_2_joint,","[1.6187654733657837, -0.5567181746112269, 1.141923427581787, -2.149041000996725, -1.57007342973818, 2.938523530960083]","[0.01720615103840828, 0.10516716539859772, -0.21947430074214935, 0.11332283169031143, -0.0004793690168298781, 0.022108498960733414]","[0.9841920137405396, -6.994629383087158, -4.189943790435791, -0.0695343092083931, -0.2287903130054474, 0.3319702446460724]"
1584376515258481351,,538289,,1584376515,258087806,'',"[shoulder_pan_joint, shoulder_lift_joint, elbow_joint, wrist_1_joint, wrist_2_joint,","[1.6199051141738892, -0.5464828650103968, 1.1214814186096191, -2.1380513350116175, -1.5701335112201136, 2.9400322437286377]","[0.002582201035693288, 0.07058868557214737, -0.14281360805034637, 0.07921093702316284, -0.00032597093377262354, 0.002205097349360585]","[0.6408692002296448, -6.953430652618408, -4.044226169586182, -0.1211242824792862, -0.2444916069507599, 0.2669220268726349]"
1584376515370495502,,538303,,1584376515,370135941,'',"[shoulder_pan_joint, shoulder_lift_joint, elbow_joint, wrist_1_joint, wrist_2_joint,","[1.6197493076324463, -0.5411618391620081, 1.1106667518615723, -2.132233444844381, -1.5701573530780237, 2.939960479736328]","[-0.001073786523193121, 0.02028689719736576, -0.03422055393457413, 0.018254371359944344, -0.00036432043998502195, -0.0022242721170186996]","[-0.2655029594898224, -7.109070777893066, -4.129415035247803, -0.0314025916159153, -0.2130890041589737, -0.01345825381577015]"
1584376515482491729,,538317,,1584376515,482139361,'',"[shoulder_pan_joint, shoulder_lift_joint, elbow_joint, wrist_1_joint, wrist_2_joint,","[1.6196889877319336, -0.5410659948932093, 1.1119627952575684, -2.1335976759540003, -1.5702174345599573, 2.9399003982543945]","[-0.0003451456723269075, -0.007554855663329363, 0.02387896738946438, -0.022837139666080475, -0.0001917476038215682, -0.0005368932615965605]","[-0.0274658240377903, -9.196473121643066, -3.0376532077789307, -0.6190796494483948, -0.2086029201745987, 0.01570129580795765]"
1584376515594406755,,538331,,1584376515,594098971,'',"[shoulder_pan_joint, shoulder_lift_joint, elbow_joint, wrist_1_joint, wrist_2_joint,","[1.619736909866333, -0.5408857504474085, 1.1124310493469238, -2.1334660688983362, -1.5701811949359339, 2.9399125576019287]","[-0.00012783173588104546, 0.000818123109638691, 0.000907605339307338, 0.00138058268930763, -0.00011504856229294091, -0.0001917476038215682]","[-0.01831054873764515, -8.239747047424316, -3.6743276119232178, -0.3745880424976349, -0.2130890041589737, 0.02018737979233265]"
1584376515706456593,,538345,,1584376515,706114073,'',"[shoulder_pan_joint, shoulder_lift_joint, elbow_joint, wrist_1_joint, wrist_2_joint,","[1.6197010278701782, -0.5408137480365198, 1.1125025749206543, -2.1333583037005823, -1.5701692740069788, 2.9398884773254395]","[-7.669904152862728e-05, 0.0021731394808739424, -0.005023787263780832, 0.003719903528690338, -7.669904152862728e-05, -0.00011504856229294091]","[0.0320434607565403, -8.001709938049316, -3.8760905265808105, -0.2893524467945099, -0.2243042290210724, 0.0426178015768528]"
1584376515818389742,,538359,,1584376515,818084102,'',"[shoulder_pan_joint, shoulder_lift_joint, elbow_joint, wrist_1_joint, wrist_2_joint,","[1.6197129487991333, -0.5408018271075647, 1.1129231452941895, -2.13352615038027, -1.5701811949359339, 2.9398884773254395]","[-5.1132694352418184e-05, 0.007017962168902159, -0.013908092863857746, 0.012808740139007568, -7.669904152862728e-05, -7.669904152862728e-05]","[0.0732421949505806, -7.695008277893066, -4.077853202819824, -0.1929016262292862, -0.2018737941980362, 0.0448608435690403]"
1584376515930429371,,538373,,1584376515,930075560,'',"[shoulder_pan_joint, shoulder_lift_joint, elbow_joint, wrist_1_joint, wrist_2_joint,","[1.6197010278701782, -0.5411136786090296, 1.1139073371887207, -2.134411636983053, -1.5702293554889124, 2.9399003982543945]","[-3.834952076431364e-05, 0.0035665053874254227, -0.012770390138030052, 0.017602430656552315, -7.669904152862728e-05, -5.752428114647046e-05]","[0.1190185695886612, -7.772828102111816, -3.9724884033203125, -0.2758941948413849, -0.2130890041589737, 0.0538330152630806]"
1584376516042398978,,538387,,1584376516,42104348,'',"[shoulder_pan_joint, shoulder_lift_joint, elbow_joint, wrist_1_joint, wrist_2_joint,","[1.619724988937378, -0.5414255301104944, 1.11445951461792, -2.1349509398089808, -1.5702412764178675, 2.9398884773254395]","[-3.834952076431364e-05, -0.007133010774850845, 0.00951068103313446, -0.006883739028126001, -7.669904152862728e-05, -3.834952076431364e-05]","[-0.02288818545639515, -8.885193824768066, -3.0690386295318604, -0.5630035996437073, -0.2220611870288849, 0.0358886756002903]"
1584376516154356714,,538401,,1584376516,154133097,'',"[shoulder_pan_joint, shoulder_lift_joint, elbow_joint, wrist_1_joint, wrist_2_joint,","[1.619761347770691, -0.5417731443988245, 1.114675521850586, -2.135226074849264, -1.5702770392047327, 2.9399003982543945]","[-3.834952076431364e-05, -0.01715501956641674, 0.02624385431408882, -0.02419854700565338, -9.58738019107841e-05, -3.834952076431364e-05]","[-0.1464843899011612, -9.054566383361816, -3.107149362564087, -0.5271149277687073, -0.2108459621667862, -0.01570129580795765]"
1584376516266370414,,538415,,1584376516,266038234,'',"[shoulder_pan_joint, shoulder_lift_joint, elbow_joint, wrist_1_joint, wrist_2_joint,","[1.6197010278701782, -0.544229809437887, 1.1172561645507812, -2.1375964323626917, -1.5702651182757776, 2.9398884773254395]","[-3.834952076431364e-05, -0.02665291726589203, 0.023994017392396927, -0.023968450725078583, -0.0003451456723269075, -3.834952076431364e-05]","[-0.004577637184411287, -8.505249977111816, -3.1587109565734863, -0.5540314316749573, -0.2153320610523224, 0.01345825381577015]"
1584376516378397008,,538429,,1584376516,378076610,'',"[shoulder_pan_joint, shoulder_lift_joint, elbow_joint, wrist_1_joint, wrist_2_joint,","[1.6197010278701782, -0.5472257773028772, 1.1214094161987305, -2.14102012315859, -1.5703132788287562, 2.9399003982543945]","[-3.834952076431364e-05, -0.023815052583813667, 0.04581489413976669, -0.028301946818828583, -0.00028762139845639467, -1.917476038215682e-05]","[-0.01831054873764515, -8.532715797424316, -2.9793663024902344, -0.5271149277687073, -0.2086029201745987, 0.0022430422250181437]"
1584376516490437057,,538443,,1584376516,490043934,'',"[shoulder_pan_joint, shoulder_lift_joint, elbow_joint, wrist_1_joint, wrist_2_joint,","[1.619724988937378, -0.551192585621969, 1.129739761352539, -2.145700756703512, -1.5703132788287562, 2.939924478530884]","[-3.834952076431364e-05, -0.04802638292312622, 0.09540082514286041, -0.05487816408276558, -0.00017257283616345376, -1.917476038215682e-05]","[-0.0915527418255806, -8.724976539611816, -3.021960735321045, -0.4418793320655823, -0.1929016262292862, -0.004486084450036287]"
1584376516602431401,,538457,,1584376516,602035111,'',"[shoulder_pan_joint, shoulder_lift_joint, elbow_joint, wrist_1_joint, wrist_2_joint,","[1.6196889877319336, -0.5578683058368128, 1.141923427581787, -2.152595822011129, -1.5703251997577112, 2.9399003982543945]","[-2.5566347176209092e-05, -0.06923367083072662, 0.13148772716522217, -0.06784030050039291, -0.00011504856229294091, -1.917476038215682e-05]","[-0.0640869215130806, -8.541871070861816, -3.015235185623169, -0.5988922715187073, -0.1749572902917862, -0.01570129580795765]"
1584376516714348371,,538471,,1584376516,714033363,'',"[shoulder_pan_joint, shoulder_lift_joint, elbow_joint, wrist_1_joint, wrist_2_joint,","[1.6197010278701782, -0.5663774649249476, 1.1593289375305176, -2.161825958882467, -1.5703251997577112, 2.9398765563964844]","[-2.5566347176209092e-05, -0.08810163289308548, 0.18187899887561798, -0.0997854545712471, -7.669904152862728e-05, -1.917476038215682e-05]","[-0.1007080152630806, -8.679200172424316, -2.6968979835510254, -0.4216919243335724, -0.1682281643152237, -0.0448608435690403]"
1584376516826295316,,538485,,1584376516,825990027,'',"[shoulder_pan_joint, shoulder_lift_joint, elbow_joint, wrist_1_joint, wrist_2_joint,","[1.6197129487991333, -0.5777872244464319, 1.1830368041992188, -2.174228016530172, -1.5703371206866663, 2.939852476119995]","[-2.5566347176209092e-05, -0.11541927605867386, 0.2408861219882965, -0.12360050529241562, -5.752428114647046e-05, -1.917476038215682e-05]","[-0.0640869215130806, -8.766175270080566, -2.7013816833496094, -0.5428162217140198, -0.1435547024011612, -0.0515899695456028]"
1584376516938327721,,538499,,1584376516,938046637,'',"[shoulder_pan_joint, shoulder_lift_joint, elbow_joint, wrist_1_joint, wrist_2_joint,","[1.6196770668029785, -0.5923011938678187, 1.2128663063049316, -2.189503018056051, -1.5703008810626429, 2.9398765563964844]","[-1.2783173588104546e-05, -0.13667769730091095, 0.28562721610069275, -0.1454022079706192, -3.834952076431364e-05, -0.00017257283616345376]","[-0.0778198316693306, -8.432007789611816, -2.748459815979004, -0.6661835312843323, -0.1435547024011612, -0.0538330152630806]"
1584376517050391384,,538513,,1584376517,50064604,'',"[shoulder_pan_joint, shoulder_lift_joint, elbow_joint, wrist_1_joint, wrist_2_joint,","[1.6196770668029785, -0.6082537809955042, 1.2464790344238281, -2.2068727652179163, -1.5703132788287562, 2.939828634262085]","[-1.2783173588104546e-05, -0.14783740043640137, 0.32133063673973083, -0.16329225897789001, -3.834952076431364e-05, -0.00017257283616345376]","[-0.1190185695886612, -8.468628883361816, -2.661029100418091, -0.5226288437843323, -0.0964508131146431, -0.0695343092083931]"
1584376517162394174,,538527,,1584376517,162042838,'',"[shoulder_pan_joint, shoulder_lift_joint, elbow_joint, wrist_1_joint, wrist_2_joint,","[1.6196650266647339, -0.6260274092303675, 1.28413724899292, -2.2260387579547327, -1.5703008810626429, 2.9397566318511963]","[-1.2783173588104546e-05, -0.1682009994983673, 0.3577754497528076, -0.18503643572330475, -3.834952076431364e-05, -0.002147573046386242]","[-0.0549316480755806, -8.464051246643066, -2.537729501724243, -0.4800110459327698, -0.0695343092083931, -0.0807495191693306]"
1584376517274269996,,538541,,1584376517,273969075,'',"[shoulder_pan_joint, shoulder_lift_joint, elbow_joint, wrist_1_joint, wrist_2_joint,","[1.6196410655975342, -0.6453478972064417, 1.3252296447753906, -2.2472389380084437, -1.5702770392047327, 2.9396252632141113]","[0.0, -0.1796419322490692, 0.38656315207481384, -0.1914791613817215, 0.0, -0.0007861651829443872]","[-0.1052856519818306, -8.404541969299316, -2.7932958602905273, -0.5495453476905823, -0.0583190992474556, -0.0986938551068306]"
1584376517386326437,,538555,,1584376517,386024353,'',"[shoulder_pan_joint, shoulder_lift_joint, elbow_joint, wrist_1_joint, wrist_2_joint,","[1.619629144668579, -0.6665027777301233, 1.369636058807373, -2.270271126423971, -1.5702293554889124, 2.9395172595977783]","[-0.0001917476038215682, -0.19687364995479584, 0.40656882524490356, -0.20952260494232178, 0.0, -0.0025694179348647594]","[-0.1281738430261612, -8.473206520080566, -2.472717046737671, -0.4934692978858948, -0.01345825381577015, -0.1211242824792862]"
1584376517498305973,,538569,,1584376517,497986006,'',"[shoulder_pan_joint, shoulder_lift_joint, elbow_joint, wrist_1_joint, wrist_2_joint,","[1.6195931434631348, -0.6881974379168909, 1.415208339691162, -2.2933033148394983, -1.5702412764178675, 2.939493417739868]","[-0.00014061490946915, -0.18855181336402893, 0.397007018327713, -0.20075973868370056, 0.00015339808305725455, -0.0003451456723269075]","[0.01373291201889515, -8.143616676330566, -2.5803239345550537, -0.5831909775733948, 0.004486084450036287, -0.1076660305261612]"
1584376517610279478,,538583,,1584376517,609996490,'',"[shoulder_pan_joint, shoulder_lift_joint, elbow_joint, wrist_1_joint, wrist_2_joint,","[1.6194493770599365, -0.709029499684469, 1.4592204093933105, -2.3158562819110315, -1.5701454321490687, 2.9394335746765137]","[-0.001508414512500167, -0.17979533970355988, 0.3947571814060211, -0.19702066481113434, 0.0007286408799700439, -0.0006135923322290182]","[-0.0503540076315403, -8.065796852111816, -2.548938512802124, -0.6011353135108948, 0.02467346377670765, -0.1659851223230362]"
1584376517722316090,,538597,,1584376517,721991164,'',"[shoulder_pan_joint, shoulder_lift_joint, elbow_joint, wrist_1_joint, wrist_2_joint,","[1.6179860830307007, -0.7289140860186976, 1.5021038055419922, -2.3380263487445276, -1.570085350667135, 2.9378411769866943]","[-0.031203726306557655, -0.17722591757774353, 0.3718752861022949, -0.19554419815540314, 0.0005368932615965605, -0.029375731945037842]","[-0.9017945528030396, -8.120728492736816, -2.5242786407470703, -0.5742188096046448, 0.0358886756002903, -0.3319702446460724]"
1584376517834280949,,538611,,1584376517,833993172,'',"[shoulder_pan_joint, shoulder_lift_joint, elbow_joint, wrist_1_joint, wrist_2_joint,","[1.612648606300354, -0.7486437002765101, 1.5435233116149902, -2.3594420591937464, -1.5700495878802698, 2.933110237121582]","[-0.05740923061966896, -0.17275181412696838, 0.3575325906276703, -0.1897534281015396, 0.0004026699753012508, -0.059365056455135345]","[-0.5401611924171448, -7.713318824768066, -2.3494174480438232, -0.6437531113624573, 0.0381317175924778, -0.4957123398780823]"
1584376517946321881,,538625,,1584376517,946007333,'',"[shoulder_pan_joint, shoulder_lift_joint, elbow_joint, wrist_1_joint, wrist_2_joint,","[1.6052600145339966, -0.7675226370440882, 1.583345890045166, -2.38025933900942, -1.570061508809225, 2.9254584312438965]","[-0.07478156685829163, -0.17225326597690582, 0.35691899061203003, -0.1842886209487915, 0.00017257283616345376, -0.07953690737485886]","[-1.0253907442092896, -7.411194801330566, -2.3539011478424072, -0.5988922715187073, 0.0381317175924778, -0.3005676567554474]"
1584376518058251924,,538639,,1584376518,57983423,'',"[shoulder_pan_joint, shoulder_lift_joint, elbow_joint, wrist_1_joint, wrist_2_joint,","[1.596468448638916, -0.7861502806292933, 1.6224722862243652, -2.400705639516012, -1.5700972715960901, 2.9163331985473633]","[-0.08072574436664581, -0.16159209609031677, 0.34785571694374084, -0.17799930274486542, 0.00011504856229294091, -0.07907671481370926]","[-1.0620118379592896, -7.365418434143066, -2.295614004135132, -0.6415100693702698, 0.0403747595846653, -0.4194488823413849]"
1584376518170325917,,538653,,1584376518,169994017,'',"[shoulder_pan_joint, shoulder_lift_joint, elbow_joint, wrist_1_joint, wrist_2_joint,","[1.5875567197799683, -0.8038066069232386, 1.6601824760437012, -2.4202659765826624, -1.57007342973818, 2.906980514526367]","[-0.07125341147184372, -0.15624873340129852, 0.3395082950592041, -0.17011846601963043, 7.669904152862728e-05, -0.07995875179767609]","[-0.9109498262405396, -7.424927711486816, -2.360626459121704, -0.6033783555030823, 0.0426178015768528, -0.3566437065601349]"
1584376518282176011,,538667,,1584376518,281943818,'',"[shoulder_pan_joint, shoulder_lift_joint, elbow_joint, wrist_1_joint, wrist_2_joint,","[1.5804556608200073, -0.820984188710348, 1.6971473693847656, -2.43931228319277, -1.57007342973818, 2.8995676040649414]","[-0.06064337491989136, -0.14712154865264893, 0.3338453471660614, -0.16929395496845245, 5.752428114647046e-05, -0.05974855273962021]","[-1.0345460176467896, -7.324219703674316, -2.3247575759887695, -0.6729126572608948, 0.0628051832318306, -0.3701019585132599]"
1584376518394339541,,538681,,1584376518,394012510,'',"[shoulder_pan_joint, shoulder_lift_joint, elbow_joint, wrist_1_joint, wrist_2_joint,","[1.5745302438735962, -0.837921444569723, 1.7342677116394043, -2.4587529341327112, -1.57007342973818, 2.893244743347168]","[-0.04802638292312622, -0.15330860018730164, 0.3361718952655792, -0.17510391771793365, 5.752428114647046e-05, -0.05330583453178406]","[-1.0711671113967896, -7.383728981018066, -2.2306015491485596, -0.5854340195655823, 0.0785064771771431, -0.2938385307788849]"
1584376518506266149,,538695,,1584376518,505994702,'',"[shoulder_pan_joint, shoulder_lift_joint, elbow_joint, wrist_1_joint, wrist_2_joint,","[1.5691567659378052, -0.8552430311786097, 1.7714967727661133, -2.4779184500323694, -1.5700252691852015, 2.8879637718200684]","[-0.05243657901883125, -0.15471474826335907, 0.3399173617362976, -0.17011846601963043, 0.0005752427969127893, -0.04676723852753639]","[-0.7186890244483948, -7.040406227111816, -2.2373268604278564, -0.6504822373390198, 0.0942077711224556, -0.4351502060890198]"
1584376518618266233,,538709,,1584376518,617912844,'',"[shoulder_pan_joint, shoulder_lift_joint, elbow_joint, wrist_1_joint, wrist_2_joint,","[1.5630759000778198, -0.8722174803363245, 1.8084845542907715, -2.4970715681659144, -1.5700128714190882, 2.8820481300354004]","[-0.046786416321992874, -0.15096928179264069, 0.33168500661849976, -0.1677599847316742, 0.0003067961661145091, -0.05372767895460129]","[-0.6317139267921448, -6.980896472930908, -2.08488392829895, -0.7760925889015198, 0.0897216871380806, -0.3544006645679474]"
1584376518730365413,,538723,,1584376518,729952993,'',"[shoulder_pan_joint, shoulder_lift_joint, elbow_joint, wrist_1_joint, wrist_2_joint,","[1.5583739280700684, -0.8888199965106409, 1.8445119857788086, -2.5158422628985804, -1.5699294249164026, 2.8767192363739014]","[-0.03809385746717453, -0.14262185990810394, 0.32781168818473816, -0.16453862190246582, 0.0004410194815136492, -0.04247209429740906]","[-1.1535645723342896, -7.333374977111816, -2.0378057956695557, -0.7043152451515198, 0.1211242824792862, -0.3274841606616974]"
1584376518842346832,,538737,,1584376518,841950012,'',"[shoulder_pan_joint, shoulder_lift_joint, elbow_joint, wrist_1_joint, wrist_2_joint,","[1.554067850112915, -0.9054349104510706, 1.8803820610046387, -2.5344212690936487, -1.5699051062213343, 2.87216854095459]","[-0.035946283489465714, -0.1486683040857315, 0.3203207552433014, -0.16133643686771393, 0.00036432043998502195, -0.040957286953926086]","[-1.1444092988967896, -6.948853015899658, -1.9727933406829834, -0.6280518174171448, 0.1368255764245987, -0.3656158745288849]"
1584376518954300560,,538751,,1584376518,953958061,'',"[shoulder_pan_joint, shoulder_lift_joint, elbow_joint, wrist_1_joint, wrist_2_joint,","[1.5511415004730225, -0.9215105215655726, 1.9152798652648926, -2.5529401938067835, -1.5697854200946253, 2.868492364883423]","[-0.017359549179673195, -0.14222559332847595, 0.3045079708099365, -0.16288958489894867, 0.000862864195369184, -0.025425732135772705]","[-0.9063721895217896, -6.752014636993408, -2.0759165287017822, -0.5966492295265198, 0.1457977443933487, -0.2938385307788849]"
1584376519066217881,,538765,,1584376519,65920275,'',"[shoulder_pan_joint, shoulder_lift_joint, elbow_joint, wrist_1_joint, wrist_2_joint,","[1.5498700141906738, -0.9372504393206995, 1.9492883682250977, -2.570753876362936, -1.5697134176837366, 2.866468667984009]","[-0.007912784814834595, -0.1356039047241211, 0.29590490460395813, -0.16093376278877258, 0.0014572817599400878, -0.011754128150641918]","[-1.0025025606155396, -6.802368640899658, -1.8068993091583252, -0.6235657334327698, 0.1525268703699112, -0.2736511528491974]"
1584376519178250496,,538779,,1584376519,177927764,'',"[shoulder_pan_joint, shoulder_lift_joint, elbow_joint, wrist_1_joint, wrist_2_joint,","[1.5497019290924072, -0.9526312986956995, 1.9831876754760742, -2.588566605244772, -1.5695222059832972, 2.8661932945251465]","[-0.0003195793251506984, -0.1388380527496338, 0.31018370389938354, -0.15899711847305298, 0.0011504855938255787, -0.0003834952076431364]","[-0.1556396633386612, -6.729126453399658, -2.015387773513794, -0.7043152451515198, 0.1816864162683487, -0.0538330152630806]"
1584376519290255750,,538793,,1584376519,289937226,'',"[shoulder_pan_joint, shoulder_lift_joint, elbow_joint, wrist_1_joint, wrist_2_joint,","[1.549665927886963, -0.9683597723590296, 2.017662525177002, -2.6064756552325647, -1.5693543593036097, 2.866229295730591]","[-0.00012783173588104546, -0.14227671921253204, 0.31231850385665894, -0.16018594801425934, 0.0028570392169058323, -0.0002109223569277674]","[-0.0961303785443306, -6.523132801055908, -1.8494937419891357, -0.8097382187843323, 0.1570129543542862, -0.0336456336081028]"
1584376519402229285,,538807,,1584376519,401908907,'',"[shoulder_pan_joint, shoulder_lift_joint, elbow_joint, wrist_1_joint, wrist_2_joint,","[1.5496419668197632, -0.9842079321490687, 2.0519328117370605, -2.6247437636004847, -1.5692103544818323, 2.8661932945251465]","[-7.669904152862728e-05, -0.14212332665920258, 0.30013611912727356, -0.16072283685207367, 0.001418932224623859, -0.00017257283616345376]","[-0.0778198316693306, -6.088257312774658, -1.8248337507247925, -0.7446900010108948, 0.1614990383386612, -0.0381317175924778]"
1584376519514197931,,538821,,1584376519,513882643,'',"[shoulder_pan_joint, shoulder_lift_joint, elbow_joint, wrist_1_joint, wrist_2_joint,","[1.5496779680252075, -0.9996612707721155, 2.085169792175293, -2.6425326506244105, -1.569042984639303, 2.866229295730591]","[0.0, -0.13037559390068054, 0.2850775420665741, -0.15834516286849976, 0.0013038837350904942, -0.00011504856229294091]","[-0.0823974683880806, -6.303406238555908, -1.6544561386108398, -0.6504822373390198, 0.1794433742761612, -0.0515899695456028]"
1584376519626166587,,538835,,1584376519,625861628,'',"[shoulder_pan_joint, shoulder_lift_joint, elbow_joint, wrist_1_joint, wrist_2_joint,","[1.5496299266815186, -1.0136516729937952, 2.116292953491211, -2.6588619391070765, -1.5688632170306605, 2.8662054538726807]","[0.0, -0.1172344833612442, 0.2660561800003052, -0.13658182322978973, 0.0020133499056100845, -7.669904152862728e-05]","[-0.02288818545639515, -6.404114246368408, -1.6499725580215454, -0.7222595810890198, 0.1211242824792862, -0.0358886756002903]"
1584376519738208240,,538849,,1584376519,737888142,'',"[shoulder_pan_joint, shoulder_lift_joint, elbow_joint, wrist_1_joint, wrist_2_joint,","[1.5496059656143188, -1.0265515486346644, 2.144379138946533, -2.674042050038473, -1.5687549749957483, 2.866241216659546]","[0.0, -0.10815843194723129, 0.23789486289024353, -0.1288543939590454, 0.0015339808305725455, -5.752428114647046e-05]","[-0.0411987341940403, -6.152344226837158, -1.5916855335235596, -0.6616974472999573, 0.1480407863855362, -0.0471038855612278]"
1584376519850156868,,538863,,1584376519,849867438,'',"[shoulder_pan_joint, shoulder_lift_joint, elbow_joint, wrist_1_joint, wrist_2_joint,","[1.5495820045471191, -1.037712875996725, 2.169259548187256, -2.6870668570147913, -1.5686114470111292, 2.8661813735961914]","[-5.1132694352418184e-05, -0.08798658102750778, 0.2110757678747177, -0.11054249107837677, 0.0018024274613708258, -3.834952076431364e-05]","[-0.0457763709127903, -6.207275867462158, -1.6253126859664917, -0.7110443711280823, 0.1143951565027237, -0.0471038855612278]"
1584376519962200784,,538877,,1584376519,961894162,'',"[shoulder_pan_joint, shoulder_lift_joint, elbow_joint, wrist_1_joint, wrist_2_joint,","[1.5493180751800537, -1.0475919882403772, 2.191739082336426, -2.6988347212420862, -1.5684440771686, 2.8662054538726807]","[-0.007567638531327248, -0.0794474259018898, 0.189983531832695, -0.10124273598194122, 0.0011504855938255787, -3.834952076431364e-05]","[-0.2975464165210724, -5.960083484649658, -1.4280333518981934, -0.8119812607765198, 0.1278534084558487, -0.1659851223230362]"
1584376520074099600,,538891,,1584376520,73854893,'',"[shoulder_pan_joint, shoulder_lift_joint, elbow_joint, wrist_1_joint, wrist_2_joint,","[1.5448561906814575, -1.0567753950702112, 2.212226390838623, -2.7099326292621058, -1.5683720747577112, 2.8627805709838867]","[-0.08261764794588089, -0.07648172974586487, 0.1754234880208969, -0.09437817335128784, 0.0005368932615965605, -0.07096578925848007]","[-0.4760742783546448, -5.818176746368408, -1.692566990852356, -0.7603912949562073, 0.1121521145105362, -0.2781372368335724]"
1584376520186129260,,538905,,1584376520,185822838,'',"[shoulder_pan_joint, shoulder_lift_joint, elbow_joint, wrist_1_joint, wrist_2_joint,","[1.530738353729248, -1.0644481817828577, 2.2314043045043945, -2.720167938862936, -1.5683720747577112, 2.8498597145080566]","[-0.16347122192382812, -0.07023075222969055, 0.16869954764842987, -0.09102258831262589, 0.0001917476038215682, -0.1547594964504242]","[-0.7095337510108948, -6.056213855743408, -1.5356402397155762, -0.7469330430030823, 0.0493469275534153, -0.3544006645679474]"
1584376520298204154,,538919,,1584376520,297906579,'',"[shoulder_pan_joint, shoulder_lift_joint, elbow_joint, wrist_1_joint, wrist_2_joint,","[1.5117508172988892, -1.0723727385150355, 2.248638153076172, -2.7302125136004847, -1.5684197584735315, 2.8306405544281006]","[-0.17016960680484772, -0.06252250075340271, 0.14543417096138, -0.08055316656827927, 0.00011504856229294091, -0.1782485693693161]","[-1.0757447481155396, -5.557251453399658, -1.5311566591262817, -0.8321686387062073, 0.011215210892260075, -0.3656158745288849]"
1584376520410212013,,538933,,1584376520,409889121,'',"[shoulder_pan_joint, shoulder_lift_joint, elbow_joint, wrist_1_joint, wrist_2_joint,","[1.4927397966384888, -1.079470459614889, 2.2643470764160156, -2.7393468062030237, -1.5684321562396448, 2.8113858699798584]","[-0.16379080712795258, -0.06716279685497284, 0.13946442306041718, -0.08095584064722061, 7.669904152862728e-05, -0.163982555270195]","[-1.2451173067092896, -5.653381824493408, -1.502013087272644, -0.6101074814796448, -0.01345825381577015, -0.4530945420265198]"
1584376520522262702,,538947,,1584376520,521876942,'',"[shoulder_pan_joint, shoulder_lift_joint, elbow_joint, wrist_1_joint, wrist_2_joint,","[1.4761509895324707, -1.0865080992328089, 2.2806320190429688, -2.7484095732318323, -1.5684197584735315, 2.793926954269409]","[-0.1357317417860031, -0.06351958960294724, 0.15435682237148285, -0.08362112939357758, -1.917476038215682e-05, -0.14271773397922516]","[-0.8239746689796448, -5.401611804962158, -1.4437259435653687, -0.7491760849952698, -0.006729126907885075, -0.4104767143726349]"
1584376520634189260,,538961,,1584376520,633858643,'',"[shoulder_pan_joint, shoulder_lift_joint, elbow_joint, wrist_1_joint, wrist_2_joint,","[1.4624050855636597, -1.0946605841266077, 2.2985732555389404, -2.7584779898272913, -1.5684197584735315, 2.7793545722961426]","[-0.10248269885778427, -0.07159855216741562, 0.16953045129776, -0.09606555104255676, -1.917476038215682e-05, -0.10688011348247528]","[-1.4328004121780396, -5.300903797149658, -1.5401238203048706, -0.6931000351905823, 0.011215210892260075, -0.4149627983570099]"
1584376520746200866,,538975,,1584376520,745860731,'',"[shoulder_pan_joint, shoulder_lift_joint, elbow_joint, wrist_1_joint, wrist_2_joint,","[1.4528809785842896, -1.1030648390399378, 2.3191416263580322, -2.770198647175924, -1.5684078375445765, 2.7696316242218018]","[-0.07030745595693588, -0.08948221802711487, 0.200261190533638, -0.11136700958013535, -1.917476038215682e-05, -0.07627719640731812]","[-1.2954713106155396, -4.998779773712158, -1.499771237373352, -0.5405731797218323, 0.0336456336081028, -0.3005676567554474]"
1584376520858288955,,538989,,1584376520,857945113,'',"[shoulder_pan_joint, shoulder_lift_joint, elbow_joint, wrist_1_joint, wrist_2_joint,","[1.445588231086731, -1.1128962675677698, 2.342289447784424, -2.7826131025897425, -1.5684321562396448, 2.762399435043335]","[-0.0676613375544548, -0.09106732904911041, 0.21727560460567474, -0.11731117963790894, -1.917476038215682e-05, -0.06210704892873764]","[-0.9613038301467896, -5.433655261993408, -1.2195448875427246, -0.6863709092140198, 0.0583190992474556, -0.3723450005054474]"
1584376520970166010,,539003,,1584376520,969816978,'',"[shoulder_pan_joint, shoulder_lift_joint, elbow_joint, wrist_1_joint, wrist_2_joint,","[1.4379239082336426, -1.1237462202655237, 2.3666489124298096, -2.7961891333209437, -1.5684078375445765, 2.7547478675842285]","[-0.06166603043675423, -0.09168092161417007, 0.2200239896774292, -0.12367720156908035, -1.917476038215682e-05, -0.0710424855351448]","[-1.1672974824905396, -5.131531238555908, -1.2060940265655518, -0.6527252793312073, 0.0650482252240181, -0.3072967827320099]"
1584376521082214144,,539017,,1584376521,81819948,'',"[shoulder_pan_joint, shoulder_lift_joint, elbow_joint, wrist_1_joint, wrist_2_joint,","[1.4312067031860352, -1.1342251936541956, 2.3909473419189453, -2.8098977247821253, -1.5684197584735315, 2.7478151321411133]","[-0.05799725651741028, -0.08761586993932724, 0.21590779721736908, -0.12383060157299042, -1.917476038215682e-05, -0.05890486389398575]","[-1.3000489473342896, -4.843140125274658, -1.0693436861038208, -0.7985230088233948, 0.0829925611615181, -0.4149627983570099]"
1584376521194132606,,539031,,1584376521,193780289,'',"[shoulder_pan_joint, shoulder_lift_joint, elbow_joint, wrist_1_joint, wrist_2_joint,","[1.4257969856262207, -1.144332234059469, 2.4146809577941895, -2.8232110182391565, -1.5684321562396448, 2.7418041229248047]","[-0.03783819451928139, -0.08922655135393143, 0.2062692940235138, -0.11794394999742508, -1.917476038215682e-05, -0.047936901450157166]","[-1.0345460176467896, -4.815674304962158, -0.9931221008300781, -0.7581482529640198, 0.1054229810833931, -0.2915954887866974]"
1584376521306248948,,539045,,1584376521,305871623,'',"[shoulder_pan_joint, shoulder_lift_joint, elbow_joint, wrist_1_joint, wrist_2_joint,","[1.4216949939727783, -1.1537802855121058, 2.43677020072937, -2.8360331694232386, -1.5683959166156214, 2.737194538116455]","[-0.03919320926070213, -0.08482913672924042, 0.1892804503440857, -0.10502016544342041, 0.0, -0.04020947217941284]","[-1.1627198457717896, -4.655457019805908, -1.181434154510498, -0.8231964707374573, 0.0964508131146431, -0.2714081108570099]"
1584376521418218526,,539059,,1584376521,417787331,'',"[shoulder_pan_joint, shoulder_lift_joint, elbow_joint, wrist_1_joint, wrist_2_joint,","[1.416297197341919, -1.1618250052081507, 2.4564590454101562, -2.8472874800311487, -1.5683959166156214, 2.7322733402252197]","[-0.05781829357147217, -0.06322557479143143, 0.16491572558879852, -0.09708181023597717, 0.0, -0.05271141603589058]","[-0.9704591035842896, -4.678345203399658, -0.9751875996589661, -0.6975861191749573, 0.0942077711224556, -0.3544006645679474]"
1584376521530148049,,539073,,1584376521,529788999,'',"[shoulder_pan_joint, shoulder_lift_joint, elbow_joint, wrist_1_joint, wrist_2_joint,","[1.4092681407928467, -1.1689227263080042, 2.473520040512085, -2.8569963614093226, -1.5684078375445765, 2.7255918979644775]","[-0.07227606326341629, -0.05583690106868744, 0.13900423049926758, -0.08164612948894501, 0.0, -0.06390947848558426]","[-1.0391236543655396, -4.618835926055908, -1.085036277770996, -0.8209534287452698, 0.0740203931927681, -0.3050537407398224]"
1584376521642110192,,539087,,1584376521,641786338,'',"[shoulder_pan_joint, shoulder_lift_joint, elbow_joint, wrist_1_joint, wrist_2_joint,","[1.400428295135498, -1.174150292073385, 2.487701654434204, -2.865664784108297, -1.5683959166156214, 2.7171144485473633]","[-0.07427024096250534, -0.0444343127310276, 0.11286263912916183, -0.0675143301486969, 0.0, -0.07491578906774521]","[-1.3000489473342896, -4.696655750274658, -0.8832733631134033, -0.7716065049171448, 0.0605621412396431, -0.3701019585132599]"
1584376521754083006,,539101,,1584376521,753774370,'',"[shoulder_pan_joint, shoulder_lift_joint, elbow_joint, wrist_1_joint, wrist_2_joint,","[1.392667293548584, -1.1793659369098108, 2.499818801879883, -2.8723695913897913, -1.5683601538287562, 2.709595203399658]","[-0.06396699696779251, -0.049675412476062775, 0.09848156571388245, -0.06197282671928406, 0.0, -0.06513666361570358]","[-1.1947633028030396, -4.444885730743408, -1.0626182556152344, -0.8523560166358948, 0.0583190992474556, -0.3229980766773224]"
1584376521866203786,,539115,,1584376521,865888718,'',"[shoulder_pan_joint, shoulder_lift_joint, elbow_joint, wrist_1_joint, wrist_2_joint,","[1.387281894683838, -1.1836822668658655, 2.5107600688934326, -2.8790863196002405, -1.5683839956866663, 2.703416585922241]","[-0.03447622060775757, -0.03410550579428673, 0.09035146981477737, -0.06162767857313156, 0.0, -0.03746747970581055]","[-1.1398316621780396, -4.344177722930908, -1.0962454080581665, -0.6213226914405823, 0.0717773512005806, -0.3431854546070099]"
1584376521978101159,,539129,,1584376521,977785780,'',"[shoulder_pan_joint, shoulder_lift_joint, elbow_joint, wrist_1_joint, wrist_2_joint,","[1.3845109939575195, -1.1872308889972132, 2.5197699069976807, -2.884617630635397, -1.5683839956866663, 2.700507402420044]","[-0.016081232577562332, -0.028084632009267807, 0.07023075222969055, -0.042222823947668076, 0.0, -0.016030099242925644]","[-1.1901856660842896, -4.399109363555908, -0.8586134314537048, -0.7469330430030823, 0.1121521145105362, -0.3386993706226349]"
1584376522090111252,,539143,,1584376522,89780946,'',"[shoulder_pan_joint, shoulder_lift_joint, elbow_joint, wrist_1_joint, wrist_2_joint,","[1.3831316232681274, -1.189976994191305, 2.5246646404266357, -2.8880532423602503, -1.5683839956866663, 2.6992738246917725]","[-0.01395922526717186, -0.01931537501513958, 0.0196733046323061, -0.014515293762087822, 0.0, -0.012827914208173752]","[-0.8514404892921448, -3.987122058868408, -0.8294699192047119, -0.7446900010108948, 0.0740203931927681, -0.3611297905445099]"
1584376522202198409,,539157,,1584376522,201853906,'',"[shoulder_pan_joint, shoulder_lift_joint, elbow_joint, wrist_1_joint, wrist_2_joint,","[1.381332516670227, -1.1906121412860315, 2.52522873878479, -2.8885801474200647, -1.5683720747577112, 2.6977412700653076]","[-0.016720391809940338, -0.0003707120195031166, -0.0013550163712352514, 0.00138058268930763, 0.0, -0.015205584466457367]","[-1.0025025606155396, -3.359985589981079, -1.322668194770813, -0.4598236680030823, 0.0560760572552681, -0.3364563286304474]"
1584376522313999422,,539171,,1584376522,313725200,'',"[shoulder_pan_joint, shoulder_lift_joint, elbow_joint, wrist_1_joint, wrist_2_joint,","[1.3796892166137695, -1.1905882994281214, 2.5251448154449463, -2.888496224080221, -1.5683239142047327, 2.6961488723754883]","[-0.011210842989385128, 3.834952076431364e-05, -0.0006519418675452471, 0.0007286408799700439, 0.0, -0.012674516998231411]","[-1.0208131074905396, -3.337097406387329, -1.3675044775009155, -0.4172058403491974, 0.0493469275534153, -0.2736511528491974]"
1584376522426062554,,539185,,1584376522,425760961,'',"[shoulder_pan_joint, shoulder_lift_joint, elbow_joint, wrist_1_joint, wrist_2_joint,","[1.3792214393615723, -1.1906121412860315, 2.5250728130340576, -2.8884242216693323, -1.568348232899801, 2.6956701278686523]","[0.013256151229143143, 3.834952076431364e-05, -0.0022754049859941006, 0.0035473306197673082, 0.0, 0.019289808347821236]","[0.6179810166358948, -3.250122308731079, -1.4571768045425415, -0.4486084580421448, 0.0672912672162056, 0.1457977443933487]"
1584376522538043473,,539199,,1584376522,537743453,'',"[shoulder_pan_joint, shoulder_lift_joint, elbow_joint, wrist_1_joint, wrist_2_joint,","[1.3819200992584229, -1.1905644575702112, 2.5250370502471924, -2.888256851826803, -1.5684321562396448, 2.698256254196167]","[0.027586087584495544, 7.669904152862728e-05, -0.0004218447138555348, 0.000517718552146107, 0.0, 0.024658741429448128]","[0.9201050996780396, -3.323364496231079, -1.3473281860351562, -0.4351502060890198, 0.0762634351849556, 0.2624359428882599]"
1584376522650190643,,539213,,1584376522,649815733,'',"[shoulder_pan_joint, shoulder_lift_joint, elbow_joint, wrist_1_joint, wrist_2_joint,","[1.384822964668274, -1.1905644575702112, 2.524808883666992, -2.8881972471820276, -1.568455998097555, 2.700974464416504]","[0.027995150536298752, 7.669904152862728e-05, -0.006302104331552982, 0.0018024274613708258, 0.0, 0.02594345062971115]","[0.7507324814796448, -3.373718500137329, -1.3921643495559692, -0.4127197563648224, 0.0740203931927681, 0.2915954887866974]"
1584376522762141746,,539227,,1584376522,761764902,'',"[shoulder_pan_joint, shoulder_lift_joint, elbow_joint, wrist_1_joint, wrist_2_joint,","[1.3891888856887817, -1.1893776098834437, 2.520321846008301, -2.8853357473956507, -1.5684321562396448, 2.7049732208251953]","[0.05296068638563156, 0.021283984184265137, -0.07363107800483704, 0.038368694484233856, 0.0, 0.045290783047676086]","[1.1993409395217896, -2.449035882949829, -1.504254937171936, -0.2108459621667862, 0.0919647291302681, 0.3521576225757599]"
1584376522874098960,,539241,,1584376522,873775166,'',"[shoulder_pan_joint, shoulder_lift_joint, elbow_joint, wrist_1_joint, wrist_2_joint,","[1.3954143524169922, -1.185204807912008, 2.508612871170044, -2.879050079976217, -1.56846791902651, 2.710876226425171]","[0.05680842325091362, 0.05666780844330788, -0.13848011195659637, 0.07411044836044312, 0.0, 0.054437145590782166]","[1.0299683809280396, -2.677917718887329, -1.463902235031128, -0.01570129580795765, 0.0852356031537056, 0.3858032524585724]"
1584376522986084969,,539255,,1584376522,985738071,'',"[shoulder_pan_joint, shoulder_lift_joint, elbow_joint, wrist_1_joint, wrist_2_joint,","[1.4024430513381958, -1.1777833143817347, 2.4904730319976807, -2.8687413374530237, -1.56846791902651, 2.717700958251953]","[0.07628998160362244, 0.06574386358261108, -0.18416717648506165, 0.10973715037107468, 0.0, 0.07159855216741562]","[1.0482789278030396, -2.407837152481079, -1.5625419616699219, -0.1592559963464737, 0.0807495191693306, 0.3409424126148224]"
1584376523098097116,,539269,,1584376523,97730040,'',"[shoulder_pan_joint, shoulder_lift_joint, elbow_joint, wrist_1_joint, wrist_2_joint,","[1.4116911888122559, -1.169006649647848, 2.4682414531707764, -2.855691734944479, -1.568491284047262, 2.7267892360687256]","[0.08714289218187332, 0.09118237346410751, -0.2089921087026596, 0.11959297955036163, 0.0, 0.08691918849945068]","[0.9384156465530396, -2.677917718887329, -1.6813578605651855, -0.1300964504480362, 0.0560760572552681, 0.3902893364429474]"
1584376523210136755,,539283,,1584376523,209765421,'',"[shoulder_pan_joint, shoulder_lift_joint, elbow_joint, wrist_1_joint, wrist_2_joint,","[1.4216346740722656, -1.1588276068316858, 2.4441490173339844, -2.841923538838522, -1.5684321562396448, 2.737170457839966]","[0.0841260626912117, 0.09928690642118454, -0.2227979302406311, 0.12971726059913635, 0.0, 0.08642064779996872]","[0.9109498262405396, -2.618408441543579, -1.7643048763275146, -0.1525268703699112, 0.0762634351849556, 0.3633728325366974]"
1584376523322113025,,539297,,1584376523,321755868,'',"[shoulder_pan_joint, shoulder_lift_joint, elbow_joint, wrist_1_joint, wrist_2_joint,","[1.4314464330673218, -1.1477850119220179, 2.4179327487945557, -2.8266227881061, -1.56846791902651, 2.7469890117645264]","[0.09060713648796082, 0.10142169892787933, -0.2433149218559265, 0.14043594896793365, 0.0, 0.09341943264007568]","[0.9704591035842896, -2.714538812637329, -1.8091411590576172, -0.1188812404870987, 0.0605621412396431, 0.2938385307788849]"
1584376523434086519,,539311,,1584376523,433732579,'',"[shoulder_pan_joint, shoulder_lift_joint, elbow_joint, wrist_1_joint, wrist_2_joint,","[1.4421217441558838, -1.1361191908465784, 2.3897833824157715, -2.8105323950396937, -1.5684321562396448, 2.757322311401367]","[0.09936361014842987, 0.10786441713571548, -0.2565327286720276, 0.1441558450460434, 0.0, 0.0976187065243721]","[0.9017945528030396, -2.810669183731079, -1.7643048763275146, -0.1592559963464737, 0.0493469275534153, 0.3633728325366974]"
1584376523546043313,,539325,,1584376523,545725019,'',"[shoulder_pan_joint, shoulder_lift_joint, elbow_joint, wrist_1_joint, wrist_2_joint,","[1.4527370929718018, -1.1235182921039026, 2.360793113708496, -2.793938938771383, -1.56846791902651, 2.7683260440826416]","[0.09554143995046616, 0.11223626136779785, -0.2619783580303192, 0.15071362257003784, 0.0, 0.09029394388198853]","[0.8331299424171448, -2.989197015762329, -2.1185109615325928, -0.1727142482995987, 0.0426178015768528, 0.3992615044116974]"
1584376523658056412,,539339,,1584376523,657715395,'',"[shoulder_pan_joint, shoulder_lift_joint, elbow_joint, wrist_1_joint, wrist_2_joint,","[1.4624888896942139, -1.1110137144671839, 2.3313698768615723, -2.777393643056051, -1.568455998097555, 2.778336524963379]","[0.08709175884723663, 0.10962849855422974, -0.2638702690601349, 0.1505410373210907, 0.0, 0.08515510708093643]","[1.0345460176467896, -2.906799554824829, -1.9727933406829834, -0.1861725002527237, 0.0381317175924778, 0.3207550346851349]"
1584376523770136877,,539353,,1584376523,769772767,'',"[shoulder_pan_joint, shoulder_lift_joint, elbow_joint, wrist_1_joint, wrist_2_joint,","[1.4722886085510254, -1.098137680684225, 2.301093339920044, -2.760369602833883, -1.568455998097555, 2.787867784500122]","[0.08168447762727737, 0.11887072771787643, -0.27979809045791626, 0.1483551263809204, 0.0, 0.08354443311691284]","[0.9246827363967896, -3.181457757949829, -1.9862442016601562, -0.0986938551068306, 0.0358886756002903, 0.4261780083179474]"
1584376523882085395,,539367,,1584376523,881717459,'',"[shoulder_pan_joint, shoulder_lift_joint, elbow_joint, wrist_1_joint, wrist_2_joint,","[1.4814409017562866, -1.0842536131488245, 2.26991605758667, -2.743345562611715, -1.5684321562396448, 2.797435760498047]","[0.07558690756559372, 0.12315309047698975, -0.28153660893440247, 0.15606337785720825, 0.0, 0.08258569240570068]","[1.0116578340530396, -3.172302484512329, -2.096092939376831, -0.1772003322839737, 0.02243042178452015, 0.2871094048023224]"
1584376523994087694,,539381,,1584376523,993700281,'',"[shoulder_pan_joint, shoulder_lift_joint, elbow_joint, wrist_1_joint, wrist_2_joint,","[1.4890931844711304, -1.0703948179828089, 2.2380528450012207, -2.725807015095846, -1.56846791902651, 2.8054463863372803]","[0.07034580409526825, 0.13079743087291718, -0.2927602529525757, 0.15587162971496582, 0.0, 0.06718835979700089]","[1.0345460176467896, -3.291321039199829, -2.2149088382720947, -0.0358886756002903, -0.004486084450036287, 0.3947754204273224]"
1584376524106147540,,539395,,1584376524,105763523,'',"[shoulder_pan_joint, shoulder_lift_joint, elbow_joint, wrist_1_joint, wrist_2_joint,","[1.4965900182724, -1.055648152028219, 2.2053370475769043, -2.7079933325396937, -1.5684798399554651, 2.813133955001831]","[0.06193447485566139, 0.13308562338352203, -0.2942175269126892, 0.1607995331287384, 0.0, 0.06389030069112778]","[0.9109498262405396, -3.634644031524658, -2.2126669883728027, -0.0426178015768528, -0.01570129580795765, 0.3274841606616974]"
1584376524217902056,,539409,,1584376524,217679982,'',"[shoulder_pan_joint, shoulder_lift_joint, elbow_joint, wrist_1_joint, wrist_2_joint,","[1.50411057472229, -1.0408299604998987, 2.171731948852539, -2.6899402777301233, -1.568491284047262, 2.820162773132324]","[0.0666770339012146, 0.13055455684661865, -0.29401299357414246, 0.15934225916862488, 0.0, 0.06423544883728027]","[0.8697510361671448, -3.684998035430908, -2.2507777214050293, -0.0314025916159153, -0.0336456336081028, 0.4037475883960724]"
1584376524329944430,,539423,,1584376524,329686318,'',"[shoulder_pan_joint, shoulder_lift_joint, elbow_joint, wrist_1_joint, wrist_2_joint,","[1.5108033418655396, -1.025736157094137, 2.1384496688842773, -2.672006909047262, -1.5684440771686, 2.827239751815796]","[0.05666780844330788, 0.1351948380470276, -0.29910069704055786, 0.16496045887470245, 0.0, 0.05865558981895447]","[1.0299683809280396, -3.927612781524658, -2.4884097576141357, -0.1054229810833931, -0.0493469275534153, 0.3274841606616974]"
1584376524441965003,,539437,,1584376524,441700058,'',"[shoulder_pan_joint, shoulder_lift_joint, elbow_joint, wrist_1_joint, wrist_2_joint,","[1.5172204971313477, -1.0106905142413538, 2.104949951171875, -2.653881851826803, -1.5685036818133753, 2.8336939811706543]","[0.056655023247003555, 0.13596183061599731, -0.2979629933834076, 0.1620650738477707, -7.669904152862728e-05, 0.05794612690806389]","[0.9063721895217896, -3.726196765899658, -2.3539011478424072, -0.1973877102136612, -0.0628051832318306, 0.4059906303882599]"
1584376524554012676,,539451,,1584376524,553705202,'',"[shoulder_pan_joint, shoulder_lift_joint, elbow_joint, wrist_1_joint, wrist_2_joint,","[1.5231459140777588, -0.9951055685626429, 2.0713181495666504, -2.6355655829059046, -1.5685632864581507, 2.8398609161376953]","[0.052577193826436996, 0.14397688210010529, -0.29926687479019165, 0.16302381455898285, -0.0005368932615965605, 0.053593456745147705]","[0.9475709199905396, -4.156494617462158, -2.4884097576141357, -0.1300964504480362, -0.0717773512005806, 0.3005676567554474]"
1584376524665989427,,539465,,1584376524,665715155,'',"[shoulder_pan_joint, shoulder_lift_joint, elbow_joint, wrist_1_joint, wrist_2_joint,","[1.5297309160232544, -0.9796765486346644, 2.037768840789795, -2.617716614400045, -1.5685632864581507, 2.8462674617767334]","[0.06061780825257301, 0.13736797869205475, -0.30343419313430786, 0.16200755536556244, -0.0004793690168298781, 0.06103326007723808]","[0.8239746689796448, -4.234314441680908, -2.6251602172851562, -0.1076660305261612, -0.0852356031537056, 0.3745880424976349]"
