PorkPy/robot-pulling-data/pivot_at_300mm/joint_states_throttle.csv
rosbagTimestamp,header,seq,stamp,secs,nsecs,frame_id,name,wrist_3_joint],position,velocity,effort
1584446677949629528,,598234,,1584446677,949244109,'',"[shoulder_pan_joint, shoulder_lift_joint, elbow_joint, wrist_1_joint, wrist_2_joint,","[1.4047462940216064, -1.1717522780047815, 2.4830822944641113, -2.8628390471087855, -1.5668981711017054, 2.7206225395202637]","[0.0, 0.0, -0.0, 0.0, 0.0, 0.0]","[-0.7186890244483948, -4.188538074493408, -0.8810315728187561, -0.6302948594093323, 0.0426178015768528, 0.0314025916159153]"
1584446678061751587,,598248,,1584446678,61197513,'',"[shoulder_pan_joint, shoulder_lift_joint, elbow_joint, wrist_1_joint, wrist_2_joint,","[1.404698371887207, -1.171788517628805, 2.4830703735351562, -2.8628152052508753, -1.5669339338885706, 2.7206225395202637]","[0.0, 0.0, -0.0, 0.0, 0.0, 0.0]","[-0.7232666611671448, -4.257202625274658, -0.8675807118415833, -0.6235657334327698, 0.0426178015768528, 0.0403747595846653]"
1584446678173480130,,598262,,1584446678,173116622,'',"[shoulder_pan_joint, shoulder_lift_joint, elbow_joint, wrist_1_joint, wrist_2_joint,","[1.4047822952270508, -1.1717646757708948, 2.483058452606201, -2.862863365803854, -1.566885773335592, 2.7206108570098877]","[0.0, 0.0, -0.0, 0.0, 0.0, 0.0]","[-0.7095337510108948, -4.248047351837158, -0.863097071647644, -0.6347809433937073, 0.0515899695456028, 0.0471038855612278]"
1584446678285492794,,598276,,1584446678,285139906,'',"[shoulder_pan_joint, shoulder_lift_joint, elbow_joint, wrist_1_joint, wrist_2_joint,","[1.4047822952270508, -1.17177659669985, 2.4830703735351562, -2.8628152052508753, -1.566885773335592, 2.7206225395202637]","[0.0, 0.0, -0.0, 0.0, 0.0, 0.0]","[-0.7232666611671448, -4.243469715118408, -0.860855221748352, -0.6302948594093323, 0.0381317175924778, 0.0448608435690403]"
1584446678397534993,,598290,,1584446678,397154193,'',"[shoulder_pan_joint, shoulder_lift_joint, elbow_joint, wrist_1_joint, wrist_2_joint,","[1.4047702550888062, -1.17180043855776, 2.4830822944641113, -2.862863365803854, -1.566885773335592, 2.7206108570098877]","[0.0, 0.0, -0.0, 0.0, 0.0, 0.0]","[-0.7232666611671448, -4.293823719024658, -0.8586134314537048, -0.6347809433937073, 0.0269165076315403, 0.0538330152630806]"
1584446678509475433,,598304,,1584446678,509117665,'',"[shoulder_pan_joint, shoulder_lift_joint, elbow_joint, wrist_1_joint, wrist_2_joint,","[1.4047822952270508, -1.17177659669985, 2.4830703735351562, -2.8628271261798304, -1.566873852406637, 2.7206225395202637]","[0.0, 0.0, -0.0, 0.0, 0.0, 0.0]","[-0.7232666611671448, -4.257202625274658, -0.8518880009651184, -0.6258087754249573, 0.02467346377670765, 0.0403747595846653]"
1584446678621578616,,598318,,1584446678,621183018,'',"[shoulder_pan_joint, shoulder_lift_joint, elbow_joint, wrist_1_joint, wrist_2_joint,","[1.4047702550888062, -1.17177659669985, 2.4831063747406006, -2.8628271261798304, -1.5668981711017054, 2.7206108570098877]","[0.0, 0.0, -0.0, 0.0, 0.0, 0.0]","[-0.7232666611671448, -4.248047351837158, -0.8743061423301697, -0.6258087754249573, 0.0426178015768528, 0.0471038855612278]"
1584446678733781735,,598332,,1584446678,733267445,'',"[shoulder_pan_joint, shoulder_lift_joint, elbow_joint, wrist_1_joint, wrist_2_joint,","[1.4047702550888062, -1.17180043855776, 2.4830822944641113, -2.8628271261798304, -1.5668981711017054, 2.7206344604492188]","[0.0, 0.0, -0.0, 0.0, 0.0, 0.0]","[-0.7461548447608948, -4.257202625274658, -0.8698225021362305, -0.6258087754249573, 0.0381317175924778, 0.0381317175924778]"
1584446678845503957,,598346,,1584446678,845145097,'',"[shoulder_pan_joint, shoulder_lift_joint, elbow_joint, wrist_1_joint, wrist_2_joint,","[1.4047343730926514, -1.1717646757708948, 2.4830822944641113, -2.8628152052508753, -1.5668981711017054, 2.7206344604492188]","[0.0, 0.0, -0.0, 0.0, 0.0, 0.0]","[-0.7232666611671448, -4.243469715118408, -0.8653388619422913, -0.6235657334327698, 0.0471038855612278, 0.0381317175924778]"
1584446678957623440,,598360,,1584446678,957146601,'',"[shoulder_pan_joint, shoulder_lift_joint, elbow_joint, wrist_1_joint, wrist_2_joint,","[1.404758334159851, -1.17177659669985, 2.4830822944641113, -2.8628514448748987, -1.5668981711017054, 2.7206108570098877]","[0.0, 0.0, -0.0, 0.0, 0.0, 0.0]","[-0.7186890244483948, -4.270935535430908, -0.8496462106704712, -0.6302948594093323, 0.0358886756002903, 0.0381317175924778]"
1584446679069524115,,598374,,1584446679,69108300,'',"[shoulder_pan_joint, shoulder_lift_joint, elbow_joint, wrist_1_joint, wrist_2_joint,","[1.4047822952270508, -1.171788517628805, 2.4830944538116455, -2.8628390471087855, -1.566885773335592, 2.7206225395202637]","[0.0, 0.0, -0.0, 0.0, 0.0, 0.0]","[-0.7095337510108948, -4.302978992462158, -0.8586134314537048, -0.6258087754249573, 0.0358886756002903, 0.0448608435690403]"
1584446679181479963,,598388,,1584446679,181087140,'',"[shoulder_pan_joint, shoulder_lift_joint, elbow_joint, wrist_1_joint, wrist_2_joint,","[1.4047822952270508, -1.17177659669985, 2.4830944538116455, -2.8628390471087855, -1.5668981711017054, 2.7206344604492188]","[0.0, 0.0, -0.0, 0.0, 0.0, 0.0]","[-0.7324219346046448, -4.220581531524658, -0.8675807118415833, -0.6258087754249573, 0.0336456336081028, 0.0426178015768528]"
1584446679293521321,,598402,,1584446679,293128117,'',"[shoulder_pan_joint, shoulder_lift_joint, elbow_joint, wrist_1_joint, wrist_2_joint,","[1.404758334159851, -1.171788517628805, 2.4830703735351562, -2.862863365803854, -1.5668981711017054, 2.7206225395202637]","[0.0, 0.0, -0.0, 0.0, 0.0, 0.0]","[-0.7369995713233948, -4.229736804962158, -0.8698225021362305, -0.6168366074562073, 0.0426178015768528, 0.0426178015768528]"
1584446679405449928,,598416,,1584446679,405077673,'',"[shoulder_pan_joint, shoulder_lift_joint, elbow_joint, wrist_1_joint, wrist_2_joint,","[1.404758334159851, -1.1717646757708948, 2.483058452606201, -2.8628390471087855, -1.5669100920306605, 2.7206225395202637]","[0.0, 0.0, -0.0, 0.0, 0.0, 0.0]","[-0.7553101181983948, -4.348755359649658, -0.860855221748352, -0.6078644394874573, 0.0314025916159153, 0.0448608435690403]"
1584446679517434319,,598430,,1584446679,517061393,'',"[shoulder_pan_joint, shoulder_lift_joint, elbow_joint, wrist_1_joint, wrist_2_joint,","[1.4047702550888062, -1.171788517628805, 2.4830944538116455, -2.8628152052508753, -1.5668981711017054, 2.7206108570098877]","[0.0, 0.0, -0.0, 0.0, 0.0, 0.0]","[-0.7324219346046448, -4.261780261993408, -0.863097071647644, -0.6258087754249573, 0.0314025916159153, 0.0403747595846653]"
1584446679629413952,,598444,,1584446679,629083665,'',"[shoulder_pan_joint, shoulder_lift_joint, elbow_joint, wrist_1_joint, wrist_2_joint,","[1.4047462940216064, -1.17177659669985, 2.4830944538116455, -2.8628271261798304, -1.5668981711017054, 2.7206344604492188]","[0.0, 0.0, -0.0, 0.0, 0.0, 0.0]","[-0.7507324814796448, -4.238892078399658, -0.8563716411590576, -0.6347809433937073, 0.0291595496237278, 0.0336456336081028]"
1584446679741515020,,598458,,1584446679,741108051,'',"[shoulder_pan_joint, shoulder_lift_joint, elbow_joint, wrist_1_joint, wrist_2_joint,","[1.4047462940216064, -1.171788517628805, 2.4830822944641113, -2.8628271261798304, -1.566885773335592, 2.7206108570098877]","[0.0, 0.0, -0.0, 0.0, 0.0, 0.0]","[-0.7278442978858948, -4.220581531524658, -0.8675807118415833, -0.6280518174171448, 0.0381317175924778, 0.0448608435690403]"
1584446679853472511,,598472,,1584446679,853067856,'',"[shoulder_pan_joint, shoulder_lift_joint, elbow_joint, wrist_1_joint, wrist_2_joint,","[1.4047462940216064, -1.17180043855776, 2.483058452606201, -2.8628271261798304, -1.5669100920306605, 2.7206108570098877]","[0.0, 0.0, -0.0, 0.0, 0.0, 0.0]","[-0.7049561142921448, -4.261780261993408, -0.8429207801818848, -0.6190796494483948, 0.0493469275534153, 0.0358886756002903]"
1584446679965443428,,598486,,1584446679,965080120,'',"[shoulder_pan_joint, shoulder_lift_joint, elbow_joint, wrist_1_joint, wrist_2_joint,","[1.4047822952270508, -1.171788517628805, 2.4830822944641113, -2.8628152052508753, -1.5668981711017054, 2.7206344604492188]","[0.0, 0.0, -0.0, 0.0, 0.0, 0.0]","[-0.7186890244483948, -4.252624988555908, -0.8698225021362305, -0.6213226914405823, 0.0381317175924778, 0.0448608435690403]"
1584446680077380260,,598500,,1584446680,77035717,'',"[shoulder_pan_joint, shoulder_lift_joint, elbow_joint, wrist_1_joint, wrist_2_joint,","[1.4047462940216064, -1.17177659669985, 2.4830703735351562, -2.8628152052508753, -1.566885773335592, 2.7206225395202637]","[0.0, 0.0, -0.0, 0.0, 0.0, 0.0]","[-0.7507324814796448, -4.238892078399658, -0.8698225021362305, -0.6235657334327698, 0.0291595496237278, 0.02467346377670765]"
1584446680189471611,,598514,,1584446680,189042731,'',"[shoulder_pan_joint, shoulder_lift_joint, elbow_joint, wrist_1_joint, wrist_2_joint,","[1.4047702550888062, -1.17177659669985, 2.4831182956695557, -2.8628152052508753, -1.5668981711017054, 2.720658540725708]","[0.0, 0.0, -0.0, 0.0, 0.0, 0.0]","[-0.7415772080421448, -4.243469715118408, -0.8675807118415833, -0.6213226914405823, 0.0493469275534153, 0.0269165076315403]"
1584446680301510133,,598528,,1584446680,301089989,'',"[shoulder_pan_joint, shoulder_lift_joint, elbow_joint, wrist_1_joint, wrist_2_joint,","[1.4047702550888062, -1.1718123594867151, 2.4830822944641113, -2.8628271261798304, -1.5669100920306605, 2.7206108570098877]","[0.0, 0.0, -0.0, 0.0, 0.0, 0.0]","[-0.7324219346046448, -4.252624988555908, -0.860855221748352, -0.6325379014015198, 0.0314025916159153, 0.0493469275534153]"
1584446680413432589,,598542,,1584446680,413044284,'',"[shoulder_pan_joint, shoulder_lift_joint, elbow_joint, wrist_1_joint, wrist_2_joint,","[1.4047702550888062, -1.17177659669985, 2.4830822944641113, -2.8628271261798304, -1.566861931477682, 2.7206225395202637]","[0.0, 0.0, -0.0, 0.0, 0.0, 0.0]","[-0.7232666611671448, -4.275513172149658, -0.8743061423301697, -0.6190796494483948, 0.0381317175924778, 0.0381317175924778]"
1584446680525371445,,598556,,1584446680,525008999,'',"[shoulder_pan_joint, shoulder_lift_joint, elbow_joint, wrist_1_joint, wrist_2_joint,","[1.404758334159851, -1.1717646757708948, 2.4830703735351562, -2.8628271261798304, -1.5669220129596155, 2.7205989360809326]","[0.0, 0.0, -0.0, 0.0, 0.0, 0.0]","[-0.7095337510108948, -4.229736804962158, -0.8720642924308777, -0.6213226914405823, 0.0403747595846653, 0.0336456336081028]"
1584446680637341139,,598570,,1584446680,636988571,'',"[shoulder_pan_joint, shoulder_lift_joint, elbow_joint, wrist_1_joint, wrist_2_joint,","[1.4047702550888062, -1.171788517628805, 2.483046531677246, -2.86280328432192, -1.5668981711017054, 2.7206108570098877]","[0.0, 0.0, -0.0, 0.0, 0.0, 0.0]","[-0.7369995713233948, -4.252624988555908, -0.8698225021362305, -0.6325379014015198, 0.0403747595846653, 0.0403747595846653]"
1584446680749561350,,598584,,1584446680,749056999,'',"[shoulder_pan_joint, shoulder_lift_joint, elbow_joint, wrist_1_joint, wrist_2_joint,","[1.404758334159851, -1.1718247572528284, 2.4830822944641113, -2.8628390471087855, -1.5669100920306605, 2.7206225395202637]","[0.0, 0.0, -0.0, 0.0, 0.0, 0.0]","[-0.7003784775733948, -4.248047351837158, -0.8586134314537048, -0.6213226914405823, 0.0381317175924778, 0.0403747595846653]"
1584446680861323888,,598598,,1584446680,860990596,'',"[shoulder_pan_joint, shoulder_lift_joint, elbow_joint, wrist_1_joint, wrist_2_joint,","[1.4047702550888062, -1.17180043855776, 2.483058452606201, -2.8628390471087855, -1.5669339338885706, 2.7206108570098877]","[0.0, 0.0, -0.0, 0.0, 0.0, 0.0]","[-0.7232666611671448, -4.284668445587158, -0.8586134314537048, -0.6213226914405823, 0.0403747595846653, 0.0381317175924778]"
1584446680973354114,,598612,,1584446680,973005644,'',"[shoulder_pan_joint, shoulder_lift_joint, elbow_joint, wrist_1_joint, wrist_2_joint,","[1.404758334159851, -1.171788517628805, 2.4830944538116455, -2.86280328432192, -1.5668981711017054, 2.7206225395202637]","[0.0, 0.0, -0.0, 0.0, 0.0, 0.0]","[-0.7324219346046448, -4.275513172149658, -0.8698225021362305, -0.6235657334327698, 0.0426178015768528, 0.0471038855612278]"
1584446681085304742,,598626,,1584446681,84981419,'',"[shoulder_pan_joint, shoulder_lift_joint, elbow_joint, wrist_1_joint, wrist_2_joint,","[1.4047702550888062, -1.17180043855776, 2.4830944538116455, -2.8628390471087855, -1.5668981711017054, 2.7206344604492188]","[0.0, 0.0, -0.0, 0.0, 0.0, 0.0]","[-0.7278442978858948, -4.238892078399658, -0.8765479326248169, -0.6168366074562073, 0.0426178015768528, 0.0381317175924778]"
1584446681197448391,,598640,,1584446681,197047533,'',"[shoulder_pan_joint, shoulder_lift_joint, elbow_joint, wrist_1_joint, wrist_2_joint,","[1.4047462940216064, -1.1717646757708948, 2.483058452606201, -2.8628390471087855, -1.566885773335592, 2.7206344604492188]","[0.0, 0.0, -0.0, 0.0, 0.0, 0.0]","[-0.7095337510108948, -4.266357898712158, -0.8743061423301697, -0.6258087754249573, 0.0403747595846653, 0.0471038855612278]"
1584446681309419668,,598654,,1584446681,309004263,'',"[shoulder_pan_joint, shoulder_lift_joint, elbow_joint, wrist_1_joint, wrist_2_joint,","[1.4047462940216064, -1.17180043855776, 2.4830822944641113, -2.8628271261798304, -1.5669220129596155, 2.7206108570098877]","[0.0, 0.0, -0.0, 0.0, 0.0, 0.0]","[-0.7003784775733948, -4.298401355743408, -0.8675807118415833, -0.6190796494483948, 0.0471038855612278, 0.0471038855612278]"
1584446681421393780,,598668,,1584446681,420987652,'',"[shoulder_pan_joint, shoulder_lift_joint, elbow_joint, wrist_1_joint, wrist_2_joint,","[1.4047462940216064, -1.171788517628805, 2.4830822944641113, -2.8628514448748987, -1.5669220129596155, 2.7206225395202637]","[0.0, 0.0, -0.0, 0.0, 0.0, 0.0]","[-0.7049561142921448, -4.252624988555908, -0.8855151534080505, -0.6101074814796448, 0.0314025916159153, 0.0403747595846653]"
1584446681533383030,,598682,,1584446681,532989145,'',"[shoulder_pan_joint, shoulder_lift_joint, elbow_joint, wrist_1_joint, wrist_2_joint,","[1.4047462940216064, -1.171788517628805, 2.4830703735351562, -2.8628271261798304, -1.5668981711017054, 2.7206344604492188]","[0.0, 0.0, -0.0, 0.0, 0.0, 0.0]","[-0.7278442978858948, -4.238892078399658, -0.8765479326248169, -0.6145935654640198, 0.0358886756002903, 0.0381317175924778]"
1584446681645334710,,598696,,1584446681,644984817,'',"[shoulder_pan_joint, shoulder_lift_joint, elbow_joint, wrist_1_joint, wrist_2_joint,","[1.404758334159851, -1.171788517628805, 2.4831182956695557, -2.8628514448748987, -1.5668981711017054, 2.7206225395202637]","[0.0, 0.0, -0.0, 0.0, 0.0, 0.0]","[-0.7278442978858948, -4.257202625274658, -0.8698225021362305, -0.6190796494483948, 0.0314025916159153, 0.0426178015768528]"
1584446681757396085,,598710,,1584446681,757030853,'',"[shoulder_pan_joint, shoulder_lift_joint, elbow_joint, wrist_1_joint, wrist_2_joint,","[1.4047702550888062, -1.17177659669985, 2.4831063747406006, -2.862875286732809, -1.566885773335592, 2.7205748558044434]","[0.0, 0.0, -0.0, 0.0, 0.0, 0.0]","[-0.7141113877296448, -4.257202625274658, -0.8810315728187561, -0.6168366074562073, 0.0336456336081028, 0.0358886756002903]"
1584446681869350510,,598724,,1584446681,868970311,'',"[shoulder_pan_joint, shoulder_lift_joint, elbow_joint, wrist_1_joint, wrist_2_joint,","[1.4047702550888062, -1.1717646757708948, 2.483058452606201, -2.8628514448748987, -1.5668981711017054, 2.7206108570098877]","[0.0, 0.0, -0.0, 0.0, 0.0, 0.0]","[-0.7232666611671448, -4.312134265899658, -0.9012078642845154, -0.6258087754249573, 0.0448608435690403, 0.02467346377670765]"
1584446681981324512,,598738,,1584446681,980947919,'',"[shoulder_pan_joint, shoulder_lift_joint, elbow_joint, wrist_1_joint, wrist_2_joint,","[1.404758334159851, -1.1717522780047815, 2.4830822944641113, -2.8628390471087855, -1.5668981711017054, 2.7206108570098877]","[0.0, 0.0, -0.0, 0.0, 0.0, 0.0]","[-0.7415772080421448, -4.275513172149658, -0.892240583896637, -0.6145935654640198, 0.0448608435690403, 0.0493469275534153]"
1584446682093380878,,598752,,1584446682,92990720,'',"[shoulder_pan_joint, shoulder_lift_joint, elbow_joint, wrist_1_joint, wrist_2_joint,","[1.404758334159851, -1.17180043855776, 2.483058452606201, -2.8628152052508753, -1.566873852406637, 2.7206108570098877]","[0.0, 0.0, -0.0, 0.0, 0.0, 0.0]","[-0.7324219346046448, -4.234314441680908, -0.8877570033073425, -0.6347809433937073, 0.0515899695456028, 0.0336456336081028]"
1584446682205383503,,598766,,1584446682,205003213,'',"[shoulder_pan_joint, shoulder_lift_joint, elbow_joint, wrist_1_joint, wrist_2_joint,","[1.404758334159851, -1.17177659669985, 2.4830822944641113, -2.8628390471087855, -1.5668981711017054, 2.7206225395202637]","[0.0, 0.0, -0.0, 0.0, 0.0, 0.0]","[-0.7369995713233948, -4.270935535430908, -0.894482433795929, -0.6280518174171448, 0.0358886756002903, 0.0448608435690403]"
1584446682317356443,,598780,,1584446682,316962107,'',"[shoulder_pan_joint, shoulder_lift_joint, elbow_joint, wrist_1_joint, wrist_2_joint,","[1.4047462940216064, -1.17177659669985, 2.4831063747406006, -2.8628152052508753, -1.5669339338885706, 2.7206225395202637]","[0.0, 0.0, -0.0, 0.0, 0.0, 0.0]","[-0.7324219346046448, -4.270935535430908, -0.8899987936019897, -0.6280518174171448, 0.0403747595846653, 0.0426178015768528]"
1584446682429287945,,598794,,1584446682,428910411,'',"[shoulder_pan_joint, shoulder_lift_joint, elbow_joint, wrist_1_joint, wrist_2_joint,","[1.404758334159851, -1.17177659669985, 2.4830944538116455, -2.8628271261798304, -1.5668981711017054, 2.7206108570098877]","[0.0, 0.0, -0.0, 0.0, 0.0, 0.0]","[-0.7369995713233948, -4.284668445587158, -0.892240583896637, -0.6235657334327698, 0.0336456336081028, 0.0403747595846653]"
1584446682541265043,,598808,,1584446682,540912766,'',"[shoulder_pan_joint, shoulder_lift_joint, elbow_joint, wrist_1_joint, wrist_2_joint,","[1.4047462940216064, -1.171788517628805, 2.4830822944641113, -2.8628271261798304, -1.5669100920306605, 2.7206225395202637]","[0.0, 0.0, -0.0, 0.0, 0.0, 0.0]","[-0.7278442978858948, -4.270935535430908, -0.8967242240905762, -0.6213226914405823, 0.0336456336081028, 0.0493469275534153]"
1584446682653325867,,598822,,1584446682,652950456,'',"[shoulder_pan_joint, shoulder_lift_joint, elbow_joint, wrist_1_joint, wrist_2_joint,","[1.4047702550888062, -1.1717646757708948, 2.4831182956695557, -2.8628152052508753, -1.566885773335592, 2.7206108570098877]","[0.0, 0.0, -0.0, 0.0, 0.0, 0.0]","[-0.7049561142921448, -4.252624988555908, -0.8765479326248169, -0.6190796494483948, 0.0515899695456028, 0.02467346377670765]"
1584446682765458004,,598836,,1584446682,764989840,'',"[shoulder_pan_joint, shoulder_lift_joint, elbow_joint, wrist_1_joint, wrist_2_joint,","[1.4047462940216064, -1.17180043855776, 2.4830944538116455, -2.862863365803854, -1.5668981711017054, 2.7206344604492188]","[0.0, 0.0, -0.0, 0.0, 0.0, 0.0]","[-0.7507324814796448, -4.238892078399658, -0.892240583896637, -0.6258087754249573, 0.0381317175924778, 0.0403747595846653]"
1584446682877214350,,598850,,1584446682,876878162,'',"[shoulder_pan_joint, shoulder_lift_joint, elbow_joint, wrist_1_joint, wrist_2_joint,","[1.404758334159851, -1.171788517628805, 2.4830822944641113, -2.8628390471087855, -1.5668981711017054, 2.7206225395202637]","[0.0, 0.0, -0.0, 0.0, 0.0, 0.0]","[-0.7186890244483948, -4.206848621368408, -0.9012078642845154, -0.6168366074562073, 0.0358886756002903, 0.0336456336081028]"
1584446682989254435,,598864,,1584446682,988904451,'',"[shoulder_pan_joint, shoulder_lift_joint, elbow_joint, wrist_1_joint, wrist_2_joint,","[1.4047702550888062, -1.17177659669985, 2.4831063747406006, -2.8628152052508753, -1.5668981711017054, 2.7206225395202637]","[0.0, 0.0, -0.0, 0.0, 0.0, 0.0]","[-0.7232666611671448, -4.280090808868408, -0.8899987936019897, -0.6235657334327698, 0.0403747595846653, 0.0403747595846653]"
1584446683101332400,,598878,,1584446683,100927765,'',"[shoulder_pan_joint, shoulder_lift_joint, elbow_joint, wrist_1_joint, wrist_2_joint,","[1.4047462940216064, -1.1717646757708948, 2.483058452606201, -2.8628390471087855, -1.566885773335592, 2.7206108570098877]","[0.0, 0.0, -0.0, 0.0, 0.0, 0.0]","[-0.7186890244483948, -4.257202625274658, -0.894482433795929, -0.6101074814796448, 0.0314025916159153, 0.0358886756002903]"
1584446683213354703,,598892,,1584446683,212953795,'',"[shoulder_pan_joint, shoulder_lift_joint, elbow_joint, wrist_1_joint, wrist_2_joint,","[1.4047702550888062, -1.1717646757708948, 2.4830944538116455, -2.8628514448748987, -1.5668981711017054, 2.7206108570098877]","[0.0, 0.0, -0.0, 0.0, 0.0, 0.0]","[-0.7369995713233948, -4.216003894805908, -0.892240583896637, -0.6213226914405823, 0.0358886756002903, 0.0336456336081028]"
1584446683325409435,,598906,,1584446683,324946100,'',"[shoulder_pan_joint, shoulder_lift_joint, elbow_joint, wrist_1_joint, wrist_2_joint,","[1.4047702550888062, -1.1718123594867151, 2.4830703735351562, -2.8628271261798304, -1.566873852406637, 2.7206344604492188]","[0.0, 0.0, -0.0, 0.0, 0.0, 0.0]","[-0.7003784775733948, -4.270935535430908, -0.8877570033073425, -0.6235657334327698, 0.0381317175924778, 0.0448608435690403]"
1584446683437372957,,598920,,1584446683,436961489,'',"[shoulder_pan_joint, shoulder_lift_joint, elbow_joint, wrist_1_joint, wrist_2_joint,","[1.404758334159851, -1.17180043855776, 2.483058452606201, -2.8628152052508753, -1.566885773335592, 2.720646381378174]","[0.0, 0.0, -0.0, 0.0, 0.0, 0.0]","[-0.7186890244483948, -4.216003894805908, -0.892240583896637, -0.6190796494483948, 0.0471038855612278, 0.0336456336081028]"
1584446683549316232,,598934,,1584446683,548912077,'',"[shoulder_pan_joint, shoulder_lift_joint, elbow_joint, wrist_1_joint, wrist_2_joint,","[1.4062094688415527, -1.1713207403766077, 2.4812588691711426, -2.8610194365130823, -1.5669220129596155, 2.721257209777832]","[0.008078965358436108, 0.001508414512500167, -0.0065322015434503555, 0.008341020904481411, 0.0, -0.03708398714661598]","[0.6774902939796448, -3.067016839981079, -2.024354934692383, -0.1929016262292862, 0.0471038855612278, -0.1188812404870987]"
1584446683661380973,,598948,,1584446683,660949288,'',"[shoulder_pan_joint, shoulder_lift_joint, elbow_joint, wrist_1_joint, wrist_2_joint,","[1.404686450958252, -1.171549145375387, 2.4822542667388916, -2.862288777028219, -1.5668981711017054, 2.716384172439575]","[-0.020133499056100845, -0.0017896442441269755, 0.006289321463555098, -0.007593205198645592, 0.0, -0.027937626466155052]","[-0.9338380098342896, -4.019165515899658, -0.9438022375106812, -0.6280518174171448, 0.0269165076315403, -0.3431854546070099]"
1584446683773392435,,598962,,1584446683,772941453,'',"[shoulder_pan_joint, shoulder_lift_joint, elbow_joint, wrist_1_joint, wrist_2_joint,","[1.403498888015747, -1.1715367476092737, 2.4818224906921387, -2.8618934790240687, -1.5669100920306605, 2.717210054397583]","[0.004729774314910173, 0.0008053399506025016, -0.011146927252411842, 0.010239321738481522, 0.0, 0.06613374501466751]","[0.2380371391773224, -3.140259027481079, -1.8562191724777222, -0.2826233208179474, 0.0358886756002903, 0.3005676567554474]"
1584446683885196950,,598976,,1584446683,884851936,'',"[shoulder_pan_joint, shoulder_lift_joint, elbow_joint, wrist_1_joint, wrist_2_joint,","[1.4053817987442017, -1.1715367476092737, 2.481522560119629, -2.86158258119692, -1.5669100920306605, 2.723999500274658]","[0.015390940941870213, -7.669904152862728e-05, 0.010865697637200356, -0.01464951690286398, 0.0, 0.04613447189331055]","[0.7965088486671448, -4.023743152618408, -1.1231471300125122, -0.4777680039405823, 0.0336456336081028, 0.3678589165210724]"
1584446683997219663,,598990,,1584446683,996875951,'',"[shoulder_pan_joint, shoulder_lift_joint, elbow_joint, wrist_1_joint, wrist_2_joint,","[1.406665325164795, -1.1715129057513636, 2.4817867279052734, -2.8618457953082483, -1.5669100920306605, 2.728621244430542]","[0.008743690326809883, -0.0003067961661145091, -0.010865697637200356, 0.011600730009377003, 0.0, 0.038291994482278824]","[0.8880616426467896, -3.231811761856079, -1.6948087215423584, -0.3476715385913849, 0.0538330152630806, 0.2960815727710724]"
1584446684109243548,,599004,,1584446684,108896480,'',"[shoulder_pan_joint, shoulder_lift_joint, elbow_joint, wrist_1_joint, wrist_2_joint,","[1.4066413640975952, -1.171117130910055, 2.4800949096679688, -2.8602173964129847, -1.5669458548175257, 2.7329437732696533]","[-0.019098062068223953, 0.003400324145331979, -0.015518772415816784, 0.0049470881931483746, 0.0, 0.030008500441908836]","[-0.8926392793655396, -3.245544672012329, -1.788964867591858, -0.2826233208179474, 0.0336456336081028, 0.2960815727710724]"
1584446684221164310,,599018,,1584446684,220845446,'',"[shoulder_pan_joint, shoulder_lift_joint, elbow_joint, wrist_1_joint, wrist_2_joint,","[1.4052859544754028, -1.1697619597064417, 2.4752840995788574, -2.8579185644732874, -1.5670059362994593, 2.736224889755249]","[0.00595695897936821, 0.027125895023345947, -0.0845862627029419, 0.04057379439473152, 0.0, 0.03863714262843132]","[0.0549316480755806, -2.751159906387329, -1.7508540153503418, -0.1794433742761612, 0.0291595496237278, 0.3723450005054474]"
1584446684333185110,,599032,,1584446684,332832892,'',"[shoulder_pan_joint, shoulder_lift_joint, elbow_joint, wrist_1_joint, wrist_2_joint,","[1.4085606336593628, -1.1647141615497034, 2.460514545440674, -2.8501365820514124, -1.5669940153705042, 2.7405591011047363]","[0.0365726612508297, 0.06040049344301224, -0.17202316224575043, 0.09712015837430954, 0.0, 0.030430344864726067]","[0.8651733994483948, -2.595520257949829, -1.7687885761260986, -0.1749572902917862, 0.02018737979233265, 0.3499145805835724]"
1584446684445204606,,599046,,1584446684,444841609,'',"[shoulder_pan_joint, shoulder_lift_joint, elbow_joint, wrist_1_joint, wrist_2_joint,","[1.4140782356262207, -1.155710522328512, 2.4390859603881836, -2.8379247824298304, -1.5669696966754358, 2.743995189666748]","[0.06000421568751335, 0.0932021215558052, -0.19636233150959015, 0.11840414255857468, 0.0, 0.02755413018167019]","[1.3137818574905396, -2.966308832168579, -1.867428183555603, -0.1929016262292862, 0.01570129580795765, 0.3095398247241974]"
1584446684557181293,,599060,,1584446684,556844414,'',"[shoulder_pan_joint, shoulder_lift_joint, elbow_joint, wrist_1_joint, wrist_2_joint,","[1.4203633069992065, -1.1462743918048304, 2.418844699859619, -2.825437847767965, -1.5669696966754358, 2.7472641468048096]","[0.05011003836989403, 0.0792684555053711, -0.16164322197437286, 0.09957452863454819, 0.0, 0.03641286864876747]","[1.1856080293655396, -3.112793207168579, -2.102818250656128, -0.2220611870288849, 0.011215210892260075, 0.2826233208179474]"
1584446684669119138,,599074,,1584446684,668806054,'',"[shoulder_pan_joint, shoulder_lift_joint, elbow_joint, wrist_1_joint, wrist_2_joint,","[1.4251494407653809, -1.1390569845782679, 2.4026224613189697, -2.8160274664508265, -1.5669458548175257, 2.7510478496551514]","[0.043833501636981964, 0.05068528279662132, -0.12804904580116272, 0.06789782643318176, 0.0, 0.03163835406303406]","[1.0528565645217896, -3.016662836074829, -2.091609239578247, -0.0538330152630806, 0.011215210892260075, 0.3207550346851349]"
1584446684781321165,,599088,,1584446684,780881084,'',"[shoulder_pan_joint, shoulder_lift_joint, elbow_joint, wrist_1_joint, wrist_2_joint,","[1.4302228689193726, -1.1340935865985315, 2.390299081802368, -2.8093350569354456, -1.5669577757464808, 2.7536823749542236]","[0.03978123515844345, 0.03833673894405365, -0.07983092218637466, 0.047630105167627335, 0.0, 0.01635606959462166]","[0.8605957627296448, -2.851867914199829, -2.1297199726104736, -0.1368255764245987, 0.008972168900072575, 0.3431854546070099]"
1584446684893308011,,599102,,1584446684,892858111,'',"[shoulder_pan_joint, shoulder_lift_joint, elbow_joint, wrist_1_joint, wrist_2_joint,","[1.433713674545288, -1.1307485739337366, 2.3831119537353516, -2.8053844610797327, -1.5669577757464808, 2.7544608116149902]","[0.022114889696240425, 0.021105019375681877, -0.0509025976061821, 0.026863839477300644, 0.0, -0.031446605920791626]","[0.8331299424171448, -3.153991937637329, -2.1252365112304688, -0.1502838283777237, 0.01345825381577015, -0.1278534084558487]"
1584446685005203947,,599116,,1584446685,4834086,'',"[shoulder_pan_joint, shoulder_lift_joint, elbow_joint, wrist_1_joint, wrist_2_joint,","[1.4360045194625854, -1.1296094099627894, 2.380244016647339, -2.8034446875201624, -1.5669577757464808, 2.749683141708374]","[0.021015537902712822, 0.001035437104292214, -0.002684466540813446, 0.0026269422378391027, 0.0, -0.036853890866041183]","[0.8148193955421448, -3.712463855743408, -2.192490816116333, -0.2108459621667862, 0.02243042178452015, -0.3207550346851349]"
1584446685117287443,,599130,,1584446685,116897546,'',"[shoulder_pan_joint, shoulder_lift_joint, elbow_joint, wrist_1_joint, wrist_2_joint,","[1.438955307006836, -1.1297772566424769, 2.3805439472198486, -2.803648296986715, -1.5669577757464808, 2.7464499473571777]","[0.030539002269506454, -0.0010865697404369712, 0.0018279937794432044, -0.0014572817599400878, 0.0, -0.021379858255386353]","[1.2268067598342896, -4.298401355743408, -1.5625419616699219, -0.4710388779640198, 0.0403747595846653, -0.3454284965991974]"
1584446685229146941,,599144,,1584446685,228797169,'',"[shoulder_pan_joint, shoulder_lift_joint, elbow_joint, wrist_1_joint, wrist_2_joint,","[1.4420019388198853, -1.1297534147845667, 2.3805558681488037, -2.803624455128805, -1.5669339338885706, 2.7453365325927734]","[0.023201460018754005, -0.00017896443023346364, 0.0002812298189383, -0.00026844663079828024, 0.0, 0.028014324605464935]","[0.9338380098342896, -4.229736804962158, -1.7037760019302368, -0.3947754204273224, 0.0403747595846653, 0.1188812404870987]"
1584446685341229175,,599158,,1584446685,340828417,'',"[shoulder_pan_joint, shoulder_lift_joint, elbow_joint, wrist_1_joint, wrist_2_joint,","[1.4440770149230957, -1.1297534147845667, 2.380579948425293, -2.80363637605776, -1.5669458548175257, 2.7506167888641357]","[0.010980745777487755, -8.948221511673182e-05, 0.00015339808305725455, -0.00013422331539914012, 0.0, 0.04412112385034561]","[0.9338380098342896, -4.206848621368408, -1.6858415603637695, -0.4149627983570099, 0.0426178015768528, 0.3095398247241974]"
1584446685453277696,,599172,,1584446685,452823067,'',"[shoulder_pan_joint, shoulder_lift_joint, elbow_joint, wrist_1_joint, wrist_2_joint,","[1.4441848993301392, -1.129789177571432, 2.380603790283203, -2.803648296986715, -1.5669577757464808, 2.7524492740631104]","[-0.0009587380336597562, -6.391586794052273e-05, 0.00010226538870483637, 0.0, 0.0, -0.005349758081138134]","[-0.1281738430261612, -4.188538074493408, -1.6768742799758911, -0.4284210503101349, 0.0314025916159153, 0.0314025916159153]"
1584446685565185114,,599186,,1584446685,564814031,'',"[shoulder_pan_joint, shoulder_lift_joint, elbow_joint, wrist_1_joint, wrist_2_joint,","[1.4441969394683838, -1.129789177571432, 2.380591869354248, -2.8036721388446253, -1.5669339338885706, 2.7524611949920654]","[-0.00017896443023346364, -5.1132694352418184e-05, 7.669904152862728e-05, 0.0, 0.0, -0.00028762139845639467]","[0.004577637184411287, -4.293823719024658, -1.7194687128067017, -0.4082336723804474, 0.0560760572552681, 0.0]"
1584446685677172310,,599200,,1584446685,676799194,'',"[shoulder_pan_joint, shoulder_lift_joint, elbow_joint, wrist_1_joint, wrist_2_joint,","[1.4442209005355835, -1.1297410170184534, 2.380603790283203, -2.803648296986715, -1.566981617604391, 2.7524373531341553]","[-8.948221511673182e-05, -5.1132694352418184e-05, 6.391586794052273e-05, 0.0, 0.0, -0.00015339808305725455]","[-0.009155274368822575, -4.275513172149658, -1.739645004272461, -0.3992615044116974, 0.0448608435690403, -0.008972168900072575]"
1584446685789301591,,599214,,1584446685,788850249,'',"[shoulder_pan_joint, shoulder_lift_joint, elbow_joint, wrist_1_joint, wrist_2_joint,","[1.4442328214645386, -1.1297648588763636, 2.380567789077759, -2.80361253419985, -1.5669339338885706, 2.752412796020508]","[-6.391586794052273e-05, -5.1132694352418184e-05, 5.1132694352418184e-05, 0.0, 0.0, -0.00015339808305725455]","[0.009155274368822575, -4.280090808868408, -1.7194687128067017, -0.4015045464038849, 0.0403747595846653, -0.011215210892260075]"
1584446685901154567,,599228,,1584446685,900805967,'',"[shoulder_pan_joint, shoulder_lift_joint, elbow_joint, wrist_1_joint, wrist_2_joint,","[1.4442448616027832, -1.129789177571432, 2.380591869354248, -2.803648296986715, -1.5669458548175257, 2.752425193786621]","[-5.1132694352418184e-05, -5.1132694352418184e-05, 3.834952076431364e-05, 0.0, 0.0, -0.00013422331539914012]","[-0.0366210974752903, -4.270935535430908, -1.7463704347610474, -0.4059906303882599, 0.0515899695456028, -0.004486084450036287]"
1584446686013155720,,599242,,1584446686,12801019,'',"[shoulder_pan_joint, shoulder_lift_joint, elbow_joint, wrist_1_joint, wrist_2_joint,","[1.4441969394683838, -1.1297648588763636, 2.380567789077759, -2.80363637605776, -1.5669577757464808, 2.752412796020508]","[-3.834952076431364e-05, -5.1132694352418184e-05, 3.834952076431364e-05, 0.0, 0.0, -9.58738019107841e-05]","[-0.0457763709127903, -4.225159168243408, -1.7486122846603394, -0.4037475883960724, 0.0426178015768528, -0.006729126907885075]"
1584446686125164898,,599256,,1584446686,124797372,'',"[shoulder_pan_joint, shoulder_lift_joint, elbow_joint, wrist_1_joint, wrist_2_joint,","[1.4442088603973389, -1.129789177571432, 2.3806161880493164, -2.80363637605776, -1.5669577757464808, 2.752425193786621]","[-2.5566347176209092e-05, -5.1132694352418184e-05, 2.5566347176209092e-05, 0.0, 0.0, -5.752428114647046e-05]","[-0.0274658240377903, -4.344177722930908, -1.7127432823181152, -0.3992615044116974, 0.0336456336081028, -0.011215210892260075]"
1584446686237165980,,599270,,1584446686,236805888,'',"[shoulder_pan_joint, shoulder_lift_joint, elbow_joint, wrist_1_joint, wrist_2_joint,","[1.4442328214645386, -1.129789177571432, 2.380579948425293, -2.803648296986715, -1.5669339338885706, 2.7524373531341553]","[-2.5566347176209092e-05, -5.1132694352418184e-05, 2.5566347176209092e-05, 0.0, 0.0, -5.752428114647046e-05]","[0.0457763709127903, -4.238892078399658, -1.7127432823181152, -0.4015045464038849, 0.0448608435690403, -0.008972168900072575]"
1584446686349202588,,599284,,1584446686,348826827,'',"[shoulder_pan_joint, shoulder_lift_joint, elbow_joint, wrist_1_joint, wrist_2_joint,","[1.4441848993301392, -1.1297534147845667, 2.380591869354248, -2.80361253419985, -1.5669458548175257, 2.752425193786621]","[-2.5566347176209092e-05, -3.834952076431364e-05, 2.5566347176209092e-05, 0.0, 0.0, -3.834952076431364e-05]","[0.01831054873764515, -4.202270984649658, -1.72843599319458, -0.4015045464038849, 0.0448608435690403, -0.011215210892260075]"
1584446686461201076,,599298,,1584446686,460820907,'',"[shoulder_pan_joint, shoulder_lift_joint, elbow_joint, wrist_1_joint, wrist_2_joint,","[1.4442088603973389, -1.1297410170184534, 2.380567789077759, -2.80366021791567, -1.5669458548175257, 2.752425193786621]","[-1.2783173588104546e-05, -3.834952076431364e-05, 2.5566347176209092e-05, 0.0, 0.0, -3.834952076431364e-05]","[-0.0595092847943306, -4.339600086212158, -1.7127432823181152, -0.4037475883960724, 0.0560760572552681, -0.011215210892260075]"
1584446686573139141,,599312,,1584446686,572748312,'',"[shoulder_pan_joint, shoulder_lift_joint, elbow_joint, wrist_1_joint, wrist_2_joint,","[1.4441848993301392, -1.129801098500387, 2.380579948425293, -2.80363637605776, -1.5669339338885706, 2.7524373531341553]","[0.0, -2.5566347176209092e-05, 1.2783173588104546e-05, 0.0, 0.0, -3.834952076431364e-05]","[0.0320434607565403, -4.284668445587158, -1.7172268629074097, -0.4015045464038849, 0.0471038855612278, -0.008972168900072575]"
1584446686685160040,,599326,,1584446686,684764071,'',"[shoulder_pan_joint, shoulder_lift_joint, elbow_joint, wrist_1_joint, wrist_2_joint,","[1.444172978401184, -1.129789177571432, 2.3806161880493164, -2.803648296986715, -1.5669577757464808, 2.7524492740631104]","[0.0, -2.5566347176209092e-05, 1.2783173588104546e-05, 0.0, 0.0, -1.917476038215682e-05]","[0.0, -4.302978992462158, -1.7598212957382202, -0.4037475883960724, 0.0358886756002903, -0.006729126907885075]"
1584446686797159289,,599340,,1584446686,796783899,'',"[shoulder_pan_joint, shoulder_lift_joint, elbow_joint, wrist_1_joint, wrist_2_joint,","[1.4441969394683838, -1.1297534147845667, 2.380603790283203, -2.80361253419985, -1.5669339338885706, 2.752412796020508]","[0.0, -2.5566347176209092e-05, 1.2783173588104546e-05, 0.0, 0.0, -1.917476038215682e-05]","[-0.0320434607565403, -4.225159168243408, -1.7329195737838745, -0.4037475883960724, 0.0358886756002903, -0.004486084450036287]"
1584446686909203392,,599354,,1584446686,908815147,'',"[shoulder_pan_joint, shoulder_lift_joint, elbow_joint, wrist_1_joint, wrist_2_joint,","[1.4441969394683838, -1.129789177571432, 2.380579948425293, -2.80363637605776, -1.5669577757464808, 2.752425193786621]","[0.0, -1.2783173588104546e-05, 1.2783173588104546e-05, 0.0, 0.0, -1.917476038215682e-05]","[0.009155274368822575, -4.293823719024658, -1.721710443496704, -0.3992615044116974, 0.0381317175924778, -0.008972168900072575]"
1584446687021218531,,599368,,1584446687,20813495,'',"[shoulder_pan_joint, shoulder_lift_joint, elbow_joint, wrist_1_joint, wrist_2_joint,","[1.4441969394683838, -1.1297648588763636, 2.380567789077759, -2.80363637605776, -1.5669339338885706, 2.752412796020508]","[0.0, -1.2783173588104546e-05, 1.2783173588104546e-05, 0.0, 0.0, -1.917476038215682e-05]","[0.0549316480755806, -4.193115711212158, -1.723952293395996, -0.3970184624195099, 0.0448608435690403, -0.008972168900072575]"
1584446687133143531,,599382,,1584446687,132727485,'',"[shoulder_pan_joint, shoulder_lift_joint, elbow_joint, wrist_1_joint, wrist_2_joint,","[1.4441848993301392, -1.129789177571432, 2.380567789077759, -2.803648296986715, -1.5669339338885706, 2.752412796020508]","[0.0, -1.2783173588104546e-05, 1.2783173588104546e-05, 0.0, 0.0, -1.917476038215682e-05]","[-0.01373291201889515, -4.330444812774658, -1.7598212957382202, -0.4059906303882599, 0.0314025916159153, -0.006729126907885075]"
1584446687245181252,,599396,,1584446687,244727675,'',"[shoulder_pan_joint, shoulder_lift_joint, elbow_joint, wrist_1_joint, wrist_2_joint,","[1.4442088603973389, -1.1297772566424769, 2.380591869354248, -2.803648296986715, -1.5669458548175257, 2.752412796020508]","[0.0, -1.2783173588104546e-05, 1.2783173588104546e-05, 0.0, 0.0, -1.917476038215682e-05]","[-0.009155274368822575, -4.238892078399658, -1.726194143295288, -0.4082336723804474, 0.0515899695456028, -0.006729126907885075]"
1584446687357249770,,599410,,1584446687,356789401,'',"[shoulder_pan_joint, shoulder_lift_joint, elbow_joint, wrist_1_joint, wrist_2_joint,","[1.4441848993301392, -1.1297772566424769, 2.380567789077759, -2.80366021791567, -1.5669339338885706, 2.7524373531341553]","[0.0, -1.2783173588104546e-05, 1.2783173588104546e-05, 0.0, 0.0, -1.917476038215682e-05]","[-0.009155274368822575, -4.293823719024658, -1.72843599319458, -0.3992615044116974, 0.0538330152630806, -0.008972168900072575]"
1584446687468936526,,599424,,1584446687,468685347,'',"[shoulder_pan_joint, shoulder_lift_joint, elbow_joint, wrist_1_joint, wrist_2_joint,","[1.4441969394683838, -1.1297772566424769, 2.380603790283203, -2.80361253419985, -1.566981617604391, 2.7524373531341553]","[0.0, 0.0, 1.2783173588104546e-05, 0.0, 0.0, -1.917476038215682e-05]","[0.0320434607565403, -4.225159168243408, -1.723952293395996, -0.4015045464038849, 0.0471038855612278, -0.011215210892260075]"
1584446687580937237,,599438,,1584446687,580734028,'',"[shoulder_pan_joint, shoulder_lift_joint, elbow_joint, wrist_1_joint, wrist_2_joint,","[1.444172978401184, -1.1297772566424769, 2.3806281089782715, -2.80361253419985, -1.5669339338885706, 2.752425193786621]","[0.0, 0.0, 1.2783173588104546e-05, 0.0, 0.0, 0.0]","[-0.0274658240377903, -4.243469715118408, -1.72843599319458, -0.3970184624195099, 0.0426178015768528, -0.006729126907885075]"
1584446687692927910,,599452,,1584446687,692702830,'',"[shoulder_pan_joint, shoulder_lift_joint, elbow_joint, wrist_1_joint, wrist_2_joint,","[1.4441848993301392, -1.1297772566424769, 2.3806161880493164, -2.80366021791567, -1.5669339338885706, 2.7524008750915527]","[0.0, 0.0, 1.2783173588104546e-05, 0.0, 0.0, 0.0]","[-0.0366210974752903, -4.238892078399658, -1.726194143295288, -0.3970184624195099, 0.0448608435690403, -0.01345825381577015]"
1584446687804927319,,599466,,1584446687,804696629,'',"[shoulder_pan_joint, shoulder_lift_joint, elbow_joint, wrist_1_joint, wrist_2_joint,","[1.4442088603973389, -1.129801098500387, 2.380603790283203, -2.80366021791567, -1.5669220129596155, 2.7524492740631104]","[0.0, 0.0, 1.2783173588104546e-05, 0.0, 0.0, 0.0]","[0.02288818545639515, -4.257202625274658, -1.72843599319458, -0.4059906303882599, 0.0426178015768528, -0.011215210892260075]"
1584446687916899609,,599480,,1584446687,916691120,'',"[shoulder_pan_joint, shoulder_lift_joint, elbow_joint, wrist_1_joint, wrist_2_joint,","[1.4441848993301392, -1.129789177571432, 2.380603790283203, -2.803648296986715, -1.5669458548175257, 2.7524008750915527]","[0.0, 0.0, 1.2783173588104546e-05, 0.0, 0.0, 0.0]","[-0.01831054873764515, -4.312134265899658, -1.726194143295288, -0.4015045464038849, 0.0358886756002903, -0.006729126907885075]"
1584446688028959791,,599494,,1584446688,28696570,'',"[shoulder_pan_joint, shoulder_lift_joint, elbow_joint, wrist_1_joint, wrist_2_joint,","[1.4441848993301392, -1.129789177571432, 2.380603790283203, -2.803648296986715, -1.5669458548175257, 2.7524008750915527]","[0.0, 0.0, 1.2783173588104546e-05, 0.0, 0.0, 0.0]","[0.0320434607565403, -4.220581531524658, -1.7463704347610474, -0.4082336723804474, 0.0538330152630806, -0.01345825381577015]"
1584446688141011478,,599508,,1584446688,140701349,'',"[shoulder_pan_joint, shoulder_lift_joint, elbow_joint, wrist_1_joint, wrist_2_joint,","[1.4441969394683838, -1.129813019429342, 2.3806281089782715, -2.803648296986715, -1.5669339338885706, 2.7524008750915527]","[0.0, 0.0, -0.0, 0.0, 0.0, 0.0]","[0.004577637184411287, -4.325867176055908, -1.7329195737838745, -0.3992615044116974, 0.0381317175924778, -0.01345825381577015]"
1584446688252952788,,599522,,1584446688,252666394,'',"[shoulder_pan_joint, shoulder_lift_joint, elbow_joint, wrist_1_joint, wrist_2_joint,","[1.4441848993301392, -1.1297648588763636, 2.380591869354248, -2.803624455128805, -1.5669458548175257, 2.752425193786621]","[0.0, 0.0, -0.0, 0.0, 0.0, 0.0]","[-0.01373291201889515, -4.270935535430908, -1.7194687128067017, -0.3970184624195099, 0.0471038855612278, -0.004486084450036287]"
1584446688364988576,,599536,,1584446688,364670943,'',"[shoulder_pan_joint, shoulder_lift_joint, elbow_joint, wrist_1_joint, wrist_2_joint,","[1.4442088603973389, -1.1297534147845667, 2.380603790283203, -2.803648296986715, -1.5669577757464808, 2.752425193786621]","[0.0, 0.0, -0.0, 0.0, 0.0, 0.0]","[0.0320434607565403, -4.284668445587158, -1.739645004272461, -0.3992615044116974, 0.0515899695456028, -0.01345825381577015]"
1584446688476956677,,599550,,1584446688,476641689,'',"[shoulder_pan_joint, shoulder_lift_joint, elbow_joint, wrist_1_joint, wrist_2_joint,","[1.4441969394683838, -1.129789177571432, 2.380591869354248, -2.803648296986715, -1.5669577757464808, 2.7524008750915527]","[0.0, 0.0, -0.0, 0.0, 0.0, 0.0]","[-0.0274658240377903, -4.289246082305908, -1.741886854171753, -0.4059906303882599, 0.0538330152630806, -0.011215210892260075]"
1584446688588949073,,599564,,1584446688,588630578,'',"[shoulder_pan_joint, shoulder_lift_joint, elbow_joint, wrist_1_joint, wrist_2_joint,","[1.444172978401184, -1.129789177571432, 2.380603790283203, -2.80366021791567, -1.5669696966754358, 2.752425193786621]","[0.0, 0.0, -0.0, 0.0, 0.0, 0.0]","[-0.01373291201889515, -4.321289539337158, -1.7082595825195312, -0.3992615044116974, 0.0471038855612278, -0.004486084450036287]"
1584446688700996491,,599578,,1584446688,700683527,'',"[shoulder_pan_joint, shoulder_lift_joint, elbow_joint, wrist_1_joint, wrist_2_joint,","[1.4441969394683838, -1.129801098500387, 2.380603790283203, -2.803648296986715, -1.5669577757464808, 2.752425193786621]","[0.0, 0.0, -0.0, 0.0, 0.0, 0.0]","[0.0366210974752903, -4.225159168243408, -1.739645004272461, -0.4015045464038849, 0.0493469275534153, -0.006729126907885075]"
1584446688812998005,,599592,,1584446688,812679451,'',"[shoulder_pan_joint, shoulder_lift_joint, elbow_joint, wrist_1_joint, wrist_2_joint,","[1.4441848993301392, -1.129789177571432, 2.380591869354248, -2.803648296986715, -1.5669458548175257, 2.7524373531341553]","[0.0, 0.0, -0.0, 0.0, 0.0, 0.0]","[-0.0320434607565403, -4.174805164337158, -1.726194143295288, -0.3992615044116974, 0.0560760572552681, -0.011215210892260075]"
1584446688925018523,,599606,,1584446688,924696463,'',"[shoulder_pan_joint, shoulder_lift_joint, elbow_joint, wrist_1_joint, wrist_2_joint,","[1.444172978401184, -1.1297648588763636, 2.380603790283203, -2.803648296986715, -1.5669220129596155, 2.7524008750915527]","[0.0, 0.0, -0.0, 0.0, 0.0, 0.0]","[-0.004577637184411287, -4.275513172149658, -1.741886854171753, -0.3947754204273224, 0.0493469275534153, -0.006729126907885075]"
1584446689036945658,,599620,,1584446689,36648784,'',"[shoulder_pan_joint, shoulder_lift_joint, elbow_joint, wrist_1_joint, wrist_2_joint,","[1.444172978401184, -1.1297772566424769, 2.380591869354248, -2.80363637605776, -1.5669458548175257, 2.752425193786621]","[0.0, 0.0, -0.0, 0.0, 0.0, 0.0]","[-0.0366210974752903, -4.344177722930908, -1.7553377151489258, -0.4015045464038849, 0.0493469275534153, -0.01345825381577015]"
1584446689148953212,,599634,,1584446689,148631702,'',"[shoulder_pan_joint, shoulder_lift_joint, elbow_joint, wrist_1_joint, wrist_2_joint,","[1.4441848993301392, -1.129789177571432, 2.380603790283203, -2.80363637605776, -1.5669577757464808, 2.7524373531341553]","[0.0, 0.0, -0.0, 0.0, 0.0, 0.0]","[-0.0411987341940403, -4.321289539337158, -1.726194143295288, -0.4082336723804474, 0.0515899695456028, -0.004486084450036287]"
1584446689260941420,,599648,,1584446689,260597849,'',"[shoulder_pan_joint, shoulder_lift_joint, elbow_joint, wrist_1_joint, wrist_2_joint,","[1.444172978401184, -1.1297534147845667, 2.380567789077759, -2.803648296986715, -1.5669339338885706, 2.752425193786621]","[0.0, 0.0, -0.0, 0.0, 0.0, 0.0]","[-0.004577637184411287, -4.238892078399658, -1.7441285848617554, -0.3992615044116974, 0.0628051832318306, -0.004486084450036287]"
1584446689372882972,,599662,,1584446689,372617777,'',"[shoulder_pan_joint, shoulder_lift_joint, elbow_joint, wrist_1_joint, wrist_2_joint,","[1.444172978401184, -1.129801098500387, 2.380567789077759, -2.80361253419985, -1.5669577757464808, 2.7523889541625977]","[0.0, 0.0, -0.0, 0.0, 0.0, 0.0]","[0.0595092847943306, -4.170227527618408, -1.7508540153503418, -0.3970184624195099, 0.0471038855612278, -0.011215210892260075]"
1584446689484978881,,599676,,1584446689,484632234,'',"[shoulder_pan_joint, shoulder_lift_joint, elbow_joint, wrist_1_joint, wrist_2_joint,","[1.4441969394683838, -1.1297772566424769, 2.380567789077759, -2.80366021791567, -1.5669458548175257, 2.752412796020508]","[0.0, 0.0, -0.0, 0.0, 0.0, 0.0]","[-0.009155274368822575, -4.270935535430908, -1.7127432823181152, -0.4015045464038849, 0.0493469275534153, -0.008972168900072575]"
1584446689596985083,,599690,,1584446689,596612097,'',"[shoulder_pan_joint, shoulder_lift_joint, elbow_joint, wrist_1_joint, wrist_2_joint,","[1.4441969394683838, -1.1297648588763636, 2.3806161880493164, -2.803648296986715, -1.5669339338885706, 2.752425193786621]","[0.0, 0.0, -0.0, 0.0, 0.0, 0.0]","[0.0, -4.248047351837158, -1.7351614236831665, -0.4037475883960724, 0.0471038855612278, -0.006729126907885075]"
1584446689708955478,,599704,,1584446689,708609522,'',"[shoulder_pan_joint, shoulder_lift_joint, elbow_joint, wrist_1_joint, wrist_2_joint,","[1.4442088603973389, -1.1297772566424769, 2.380603790283203, -2.803648296986715, -1.5669220129596155, 2.752425193786621]","[0.0, 0.0, -0.0, 0.0, 0.0, 0.0]","[0.0, -4.316711902618408, -1.7105014324188232, -0.4015045464038849, 0.0695343092083931, -0.004486084450036287]"
1584446689820928549,,599718,,1584446689,820579207,'',"[shoulder_pan_joint, shoulder_lift_joint, elbow_joint, wrist_1_joint, wrist_2_joint,","[1.4441609382629395, -1.129789177571432, 2.380591869354248, -2.80363637605776, -1.5669458548175257, 2.7524008750915527]","[0.0, 0.0, -0.0, 0.0, 0.0, 0.0]","[0.0457763709127903, -4.261780261993408, -1.7351614236831665, -0.3970184624195099, 0.0426178015768528, -0.008972168900072575]"
1584446689933004390,,599732,,1584446689,932670337,'',"[shoulder_pan_joint, shoulder_lift_joint, elbow_joint, wrist_1_joint, wrist_2_joint,","[1.4441969394683838, -1.129789177571432, 2.380591869354248, -2.803648296986715, -1.5669458548175257, 2.752425193786621]","[0.0, 0.0, -0.0, 0.0, 0.0, 0.0]","[0.0, -4.298401355743408, -1.721710443496704, -0.4015045464038849, 0.0605621412396431, -0.004486084450036287]"
1584446690044970197,,599746,,1584446690,44627838,'',"[shoulder_pan_joint, shoulder_lift_joint, elbow_joint, wrist_1_joint, wrist_2_joint,","[1.4441609382629395, -1.1297772566424769, 2.380603790283203, -2.80361253419985, -1.5669458548175257, 2.752412796020508]","[0.0, 0.0, -0.0, 0.0, 0.0, 0.0]","[0.01373291201889515, -4.243469715118408, -1.7598212957382202, -0.3970184624195099, 0.0695343092083931, -0.006729126907885075]"
1584446690156990224,,599760,,1584446690,156592011,'',"[shoulder_pan_joint, shoulder_lift_joint, elbow_joint, wrist_1_joint, wrist_2_joint,","[1.4442088603973389, -1.129789177571432, 2.380603790283203, -2.80363637605776, -1.5669339338885706, 2.7524492740631104]","[0.0, 0.0, -0.0, 0.0, 0.0, 0.0]","[-0.02288818545639515, -4.302978992462158, -1.741886854171753, -0.4059906303882599, 0.0426178015768528, -0.011215210892260075]"
1584446690268971761,,599774,,1584446690,268587924,'',"[shoulder_pan_joint, shoulder_lift_joint, elbow_joint, wrist_1_joint, wrist_2_joint,","[1.4441969394683838, -1.129789177571432, 2.380591869354248, -2.80361253419985, -1.5669339338885706, 2.752412796020508]","[0.0, 0.0, -0.0, 0.0, 0.0, 0.0]","[-0.009155274368822575, -4.307556629180908, -1.7172268629074097, -0.3970184624195099, 0.0448608435690403, -0.008972168900072575]"
1584446690380959408,,599788,,1584446690,380554162,'',"[shoulder_pan_joint, shoulder_lift_joint, elbow_joint, wrist_1_joint, wrist_2_joint,","[1.4442088603973389, -1.1297772566424769, 2.3805558681488037, -2.8036721388446253, -1.5669577757464808, 2.7524008750915527]","[0.0, 0.0, -0.0, 0.0, 0.0, 0.0]","[0.01831054873764515, -4.298401355743408, -1.7486122846603394, -0.3925323784351349, 0.0493469275534153, -0.004486084450036287]"
1584446690492916167,,599802,,1584446690,492569611,'',"[shoulder_pan_joint, shoulder_lift_joint, elbow_joint, wrist_1_joint, wrist_2_joint,","[1.4441969394683838, -1.129801098500387, 2.380567789077759, -2.8036721388446253, -1.5669577757464808, 2.7524008750915527]","[0.0, 0.0, -0.0, 0.0, 0.0, 0.0]","[0.004577637184411287, -4.234314441680908, -1.692566990852356, -0.4015045464038849, 0.0471038855612278, -0.006729126907885075]"
1584446690604918582,,599816,,1584446690,604602763,'',"[shoulder_pan_joint, shoulder_lift_joint, elbow_joint, wrist_1_joint, wrist_2_joint,","[1.4441969394683838, -1.1297534147845667, 2.3805558681488037, -2.803648296986715, -1.5669100920306605, 2.7524008750915527]","[0.0, 0.0, -0.0, 0.0, 0.0, 0.0]","[-0.01831054873764515, -4.275513172149658, -1.72843599319458, -0.3992615044116974, 0.0358886756002903, -0.006729126907885075]"
1584446690716961934,,599830,,1584446690,716584139,'',"[shoulder_pan_joint, shoulder_lift_joint, elbow_joint, wrist_1_joint, wrist_2_joint,","[1.4441969394683838, -1.1297648588763636, 2.380591869354248, -2.8036721388446253, -1.5669577757464808, 2.752425193786621]","[0.0, 0.0, -0.0, 0.0, 0.0, 0.0]","[-0.0274658240377903, -4.307556629180908, -1.7127432823181152, -0.3970184624195099, 0.0515899695456028, -0.01345825381577015]"
1584446690829065467,,599844,,1584446690,828688965,'',"[shoulder_pan_joint, shoulder_lift_joint, elbow_joint, wrist_1_joint, wrist_2_joint,","[1.444172978401184, -1.1297772566424769, 2.380603790283203, -2.803624455128805, -1.5669339338885706, 2.752412796020508]","[0.0, 0.0, -0.0, 0.0, 0.0, 0.0]","[-0.02288818545639515, -4.261780261993408, -1.7172268629074097, -0.4037475883960724, 0.0493469275534153, -0.011215210892260075]"
1584446690940857690,,599858,,1584446690,940548102,'',"[shoulder_pan_joint, shoulder_lift_joint, elbow_joint, wrist_1_joint, wrist_2_joint,","[1.4441848993301392, -1.129789177571432, 2.380579948425293, -2.803648296986715, -1.5669696966754358, 2.752412796020508]","[0.0, 0.0, -0.0, 0.0, 0.0, 0.0]","[-0.01373291201889515, -4.261780261993408, -1.726194143295288, -0.3970184624195099, 0.0493469275534153, -0.011215210892260075]"
1584446691052838374,,599872,,1584446691,52518507,'',"[shoulder_pan_joint, shoulder_lift_joint, elbow_joint, wrist_1_joint, wrist_2_joint,","[1.4441969394683838, -1.1297648588763636, 2.380591869354248, -2.803648296986715, -1.5669696966754358, 2.752425193786621]","[0.0, 0.0, -0.0, 0.0, 0.0, 0.0]","[-0.01831054873764515, -4.243469715118408, -1.690325140953064, -0.3925323784351349, 0.0538330152630806, -0.008972168900072575]"
1584446691164845428,,599886,,1584446691,164523818,'',"[shoulder_pan_joint, shoulder_lift_joint, elbow_joint, wrist_1_joint, wrist_2_joint,","[1.4442088603973389, -1.129813019429342, 2.380591869354248, -2.80366021791567, -1.566981617604391, 2.752425193786621]","[0.0, 0.0, -0.0, 0.0, 0.0, 0.0]","[0.01831054873764515, -4.266357898712158, -1.7060178518295288, -0.4015045464038849, 0.0493469275534153, -0.008972168900072575]"
1584446691276796066,,599900,,1584446691,276479095,'',"[shoulder_pan_joint, shoulder_lift_joint, elbow_joint, wrist_1_joint, wrist_2_joint,","[1.444172978401184, -1.1298249403582972, 2.3805558681488037, -2.80361253419985, -1.5669577757464808, 2.752412796020508]","[0.0, 0.0, -0.0, 0.0, 0.0, 0.0]","[0.02288818545639515, -4.229736804962158, -1.7149850130081177, -0.4015045464038849, 0.0515899695456028, -0.011215210892260075]"
1584446691388807087,,599914,,1584446691,388509051,'',"[shoulder_pan_joint, shoulder_lift_joint, elbow_joint, wrist_1_joint, wrist_2_joint,","[1.444172978401184, -1.1297772566424769, 2.380579948425293, -2.80363637605776, -1.5669220129596155, 2.7524492740631104]","[0.0, 0.0, -0.0, 0.0, 0.0, 0.0]","[-0.004577637184411287, -4.280090808868408, -1.721710443496704, -0.4059906303882599, 0.0560760572552681, -0.011215210892260075]"
1584446691500831312,,599928,,1584446691,500526814,'',"[shoulder_pan_joint, shoulder_lift_joint, elbow_joint, wrist_1_joint, wrist_2_joint,","[1.4441848993301392, -1.1297772566424769, 2.380567789077759, -2.80366021791567, -1.5669339338885706, 2.7524008750915527]","[0.0, 0.0, -0.0, 0.0, 0.0, 0.0]","[0.01831054873764515, -4.312134265899658, -1.7082595825195312, -0.4037475883960724, 0.0493469275534153, -0.011215210892260075]"
1584446691612863182,,599942,,1584446691,612545539,'',"[shoulder_pan_joint, shoulder_lift_joint, elbow_joint, wrist_1_joint, wrist_2_joint,","[1.444172978401184, -1.1297648588763636, 2.380603790283203, -2.80366021791567, -1.5669458548175257, 2.7524611949920654]","[0.0, 0.0, -0.0, 0.0, 0.0, 0.0]","[0.01373291201889515, -4.220581531524658, -1.7194687128067017, -0.3992615044116974, 0.0448608435690403, -0.011215210892260075]"
1584446691724816966,,599956,,1584446691,724514492,'',"[shoulder_pan_joint, shoulder_lift_joint, elbow_joint, wrist_1_joint, wrist_2_joint,","[1.4442088603973389, -1.1297772566424769, 2.380591869354248, -2.80361253419985, -1.5669577757464808, 2.7524008750915527]","[0.0, 0.0, -0.0, 0.0, 0.0, 0.0]","[0.0, -4.252624988555908, -1.7082595825195312, -0.4015045464038849, 0.0471038855612278, -0.011215210892260075]"
1584446691836872360,,599970,,1584446691,836540962,'',"[shoulder_pan_joint, shoulder_lift_joint, elbow_joint, wrist_1_joint, wrist_2_joint,","[1.4441848993301392, -1.129801098500387, 2.380567789077759, -2.803648296986715, -1.5669458548175257, 2.752425193786621]","[0.0, 0.0, -0.0, 0.0, 0.0, 0.0]","[0.0274658240377903, -4.289246082305908, -1.7149850130081177, -0.4015045464038849, 0.0695343092083931, -0.01570129580795765]"
1584446691948826414,,599984,,1584446691,948521736,'',"[shoulder_pan_joint, shoulder_lift_joint, elbow_joint, wrist_1_joint, wrist_2_joint,","[1.4441848993301392, -1.129789177571432, 2.380591869354248, -2.803648296986715, -1.5669458548175257, 2.7524492740631104]","[0.0, 0.0, -0.0, 0.0, 0.0, 0.0]","[0.01373291201889515, -4.252624988555908, -1.7149850130081177, -0.4015045464038849, 0.0426178015768528, -0.01345825381577015]"
1584446692060753018,,599998,,1584446692,60473666,'',"[shoulder_pan_joint, shoulder_lift_joint, elbow_joint, wrist_1_joint, wrist_2_joint,","[1.4440770149230957, -1.129789177571432, 2.380603790283203, -2.80366021791567, -1.5669220129596155, 2.7517426013946533]","[-0.0041800979524850845, 0.0, -0.0, 0.0, 0.0, -0.032041024416685104]","[-0.2334595024585724, -4.289246082305908, -1.6948087215423584, -0.4216919243335724, 0.0448608435690403, -0.2444916069507599]"
1584446692172919429,,600012,,1584446692,172591367,'',"[shoulder_pan_joint, shoulder_lift_joint, elbow_joint, wrist_1_joint, wrist_2_joint,","[1.4440171718597412, -1.129789177571432, 2.3805558681488037, -2.803624455128805, -1.5669339338885706, 2.748737096786499]","[0.0, 0.0, -0.0, 0.0, 0.0, -0.01823519729077816]","[-0.01373291201889515, -4.202270984649658, -1.8001738786697388, -0.3835602104663849, 0.0471038855612278, -0.3072967827320099]"
1584446692284739383,,600026,,1584446692,284474439,'',"[shoulder_pan_joint, shoulder_lift_joint, elbow_joint, wrist_1_joint, wrist_2_joint,","[1.444041132926941, -1.1297772566424769, 2.3804001808166504, -2.80361253419985, -1.5669577757464808, 2.746821165084839]","[0.0, 0.0, -0.002543851500377059, 0.0, 0.0, -0.013019662350416183]","[-0.004577637184411287, -4.229736804962158, -1.7575794458389282, -0.3835602104663849, 0.0762634351849556, -0.3207550346851349]"
1584446692396864697,,600040,,1584446692,396537397,'',"[shoulder_pan_joint, shoulder_lift_joint, elbow_joint, wrist_1_joint, wrist_2_joint,","[1.4441369771957397, -1.1293695608722132, 2.3763082027435303, -2.8020079771624964, -1.5669696966754358, 2.749228000640869]","[0.0006519418675452471, 0.013473465107381344, -0.09329160302877426, 0.03925073519349098, 0.0, 0.051656804978847504]","[0.2838135063648224, -2.874756097793579, -1.8584609031677246, -0.0426178015768528, 0.0269165076315403, 0.3229980766773224]"
1584446692508796971,,600054,,1584446692,508469470,'',"[shoulder_pan_joint, shoulder_lift_joint, elbow_joint, wrist_1_joint, wrist_2_joint,","[1.44411301612854, -1.1246097723590296, 2.357685089111328, -2.7931249777423304, -1.5670178572284144, 2.7536704540252686]","[0.00012783173588104546, 0.08260487020015717, -0.23322899639606476, 0.11802064627408981, -0.0016298546688631177, 0.02329733408987522]","[-0.1968383938074112, -2.362060785293579, -1.6365216970443726, -0.0740203931927681, -0.0022430422250181437, 0.3970184624195099]"
1584446692620787434,,600068,,1584446692,620485421,'',"[shoulder_pan_joint, shoulder_lift_joint, elbow_joint, wrist_1_joint, wrist_2_joint,","[1.444172978401184, -1.1120927969561976, 2.326953887939453, -2.7769983450519007, -1.5671375433551233, 2.7545206546783447]","[0.00012783173588104546, 0.12753772735595703, -0.30377933382987976, 0.16260196268558502, -0.0012655341997742653, -0.02949078194797039]","[-0.1007080152630806, -2.522278070449829, -1.8382846117019653, -0.0695343092083931, -0.0426178015768528, -0.1413116604089737]"
1584446692732771956,,600082,,1584446692,732464963,'',"[shoulder_pan_joint, shoulder_lift_joint, elbow_joint, wrist_1_joint, wrist_2_joint,","[1.4445807933807373, -1.0968306700335901, 2.2929327487945557, -2.7582386175738733, -1.567341152821676, 2.7500662803649902]","[0.017436249181628227, 0.1370484083890915, -0.2907916307449341, 0.16152818500995636, -0.0009203884983435273, -0.02924150973558426]","[0.6729126572608948, -2.600097894668579, -2.19921612739563, 0.008972168900072575, -0.0628051832318306, -0.3117828667163849]"
1584446692844827790,,600096,,1584446692,844484780,'',"[shoulder_pan_joint, shoulder_lift_joint, elbow_joint, wrist_1_joint, wrist_2_joint,","[1.450182318687439, -1.0821440855609339, 2.260723114013672, -2.7406161467181605, -1.5673649946795862, 2.749790906906128]","[0.09155309200286865, 0.12680907547473907, -0.2801049053668976, 0.15631264448165894, -0.0003451456723269075, 0.049432530999183655]","[0.6362915635108948, -3.044128656387329, -2.2216341495513916, 0.01570129580795765, -0.02467346377670765, 0.2512207329273224]"
1584446692956796872,,600110,,1584446692,956512261,'',"[shoulder_pan_joint, shoulder_lift_joint, elbow_joint, wrist_1_joint, wrist_2_joint,","[1.4641921520233154, -1.0685723463641565, 2.2299880981445312, -2.723664108906881, -1.567341152821676, 2.756340265274048]","[0.16115747392177582, 0.1248021200299263, -0.27129730582237244, 0.14881531894207, -0.00015339808305725455, 0.05510826036334038]","[0.9704591035842896, -3.263855218887329, -2.1678307056427, 0.1435547024011612, 0.011215210892260075, 0.4553375840187073]"
1584446693068750407,,600124,,1584446693,68472137,'',"[shoulder_pan_joint, shoulder_lift_joint, elbow_joint, wrist_1_joint, wrist_2_joint,","[1.4839115142822266, -1.0548327604876917, 2.199012279510498, -2.7065208593951624, -1.567329231892721, 2.7619683742523193]","[0.18415439128875732, 0.12420131266117096, -0.2813192903995514, 0.15592914819717407, -9.58738019107841e-05, 0.055875252932310104]","[0.8193970322608948, -3.474426507949829, -2.3225157260894775, 0.02018737979233265, 0.0381317175924778, 0.3229980766773224]"
1584446693180812933,,600138,,1584446693,180488448,'',"[shoulder_pan_joint, shoulder_lift_joint, elbow_joint, wrist_1_joint, wrist_2_joint,","[1.5043745040893555, -1.0409138838397425, 2.168431282043457, -2.6892579237567347, -1.5673530737506312, 2.7685298919677734]","[0.18034501373767853, 0.12201539427042007, -0.24965538084506989, 0.1451721042394638, -7.669904152862728e-05, 0.054494667798280716]","[0.9384156465530396, -3.703308582305908, -2.5018606185913086, -0.011215210892260075, 0.0448608435690403, 0.4172058403491974]"
1584446693292797425,,600152,,1584446693,292495481,'',"[shoulder_pan_joint, shoulder_lift_joint, elbow_joint, wrist_1_joint, wrist_2_joint,","[1.5223183631896973, -1.0285299460040491, 2.1437668800354004, -2.6752269903766077, -1.5672815481769007, 2.773822784423828]","[0.1323186308145523, 0.094582699239254, -0.1782997101545334, 0.10670754313468933, -5.752428114647046e-05, 0.038061898201704025]","[1.3092042207717896, -4.275513172149658, -2.6184346675872803, 0.004486084450036287, 0.0538330152630806, 0.3633728325366974]"
1584446693404774572,,600166,,1584446693,404453934,'',"[shoulder_pan_joint, shoulder_lift_joint, elbow_joint, wrist_1_joint, wrist_2_joint,","[1.533125877380371, -1.0203774611102503, 2.1279473304748535, -2.6653507391559046, -1.5672453085528772, 2.777367115020752]","[0.05688512325286865, 0.05435405299067497, -0.0997854545712471, 0.060937389731407166, -3.834952076431364e-05, 0.030890539288520813]","[1.2176514863967896, -4.266357898712158, -2.663270950317383, -0.1480407863855362, 0.0381317175924778, 0.2691650688648224]"
1584446693516830758,,600180,,1584446693,516475104,'',"[shoulder_pan_joint, shoulder_lift_joint, elbow_joint, wrist_1_joint, wrist_2_joint,","[1.5361480712890625, -1.01664907137026, 2.1203980445861816, -2.661076370869772, -1.5672696272479456, 2.7805042266845703]","[0.0027867318131029606, 0.010379936546087265, -0.021590780466794968, 0.012540292926132679, -3.834952076431364e-05, 0.015167235396802425]","[0.8880616426467896, -4.495239734649658, -2.465991497039795, -0.0785064771771431, 0.0358886756002903, 0.2691650688648224]"
1584446693628763262,,600194,,1584446693,628449988,'',"[shoulder_pan_joint, shoulder_lift_joint, elbow_joint, wrist_1_joint, wrist_2_joint,","[1.5359922647476196, -1.0166609922992151, 2.1203136444091797, -2.661088768635885, -1.5672696272479456, 2.780600070953369]","[-0.000472977408207953, -0.0008436894277110696, -0.0012783173006027937, -0.0011313108261674643, -3.834952076431364e-05, -0.0011888351291418076]","[-0.0320434607565403, -5.451965808868408, -2.268712282180786, -0.3499145805835724, 0.0538330152630806, -0.006729126907885075]"
1584446693740931767,,600208,,1584446693,740536690,'',"[shoulder_pan_joint, shoulder_lift_joint, elbow_joint, wrist_1_joint, wrist_2_joint,","[1.536040186882019, -1.016756836568014, 2.120337963104248, -2.6610406080829065, -1.5672815481769007, 2.780588150024414]","[-0.00014061490946915, -0.0003323625132907182, -0.0, -0.00023009712458588183, -1.917476038215682e-05, -0.00024927189224399626]","[-0.0823974683880806, -5.378723621368408, -2.284404993057251, -0.3454284965991974, 0.0605621412396431, -0.01345825381577015]"
1584446693852862939,,600222,,1584446693,852547881,'',"[shoulder_pan_joint, shoulder_lift_joint, elbow_joint, wrist_1_joint, wrist_2_joint,","[1.536040186882019, -1.0167449156390589, 2.120337963104248, -2.6610525290118616, -1.5672815481769007, 2.780576229095459]","[-8.948221511673182e-05, -0.00012783173588104546, -0.0, -0.00013422331539914012, -1.917476038215682e-05, -0.00013422331539914012]","[-0.0320434607565403, -5.374145984649658, -2.284404993057251, -0.3454284965991974, 0.0605621412396431, -0.006729126907885075]"
1584446693964689525,,600236,,1584446693,964400817,'',"[shoulder_pan_joint, shoulder_lift_joint, elbow_joint, wrist_1_joint, wrist_2_joint,","[1.536028265953064, -1.0167449156390589, 2.120349884033203, -2.6610525290118616, -1.5672934691058558, 2.780576229095459]","[-6.391586794052273e-05, -7.669904152862728e-05, -0.0, -0.00013422331539914012, -1.917476038215682e-05, -0.00013422331539914012]","[-0.0961303785443306, -5.218506336212158, -2.279921293258667, -0.3454284965991974, 0.0471038855612278, -0.006729126907885075]"
1584446694076716256,,600250,,1584446694,76451923,'',"[shoulder_pan_joint, shoulder_lift_joint, elbow_joint, wrist_1_joint, wrist_2_joint,","[1.5360162258148193, -1.0167449156390589, 2.120349884033203, -2.661088768635885, -1.5672815481769007, 2.780588150024414]","[-3.834952076431364e-05, -5.1132694352418184e-05, -0.0, -0.00013422331539914012, -1.917476038215682e-05, -0.00013422331539914012]","[-0.1007080152630806, -4.953003406524658, -2.295614004135132, -0.3386993706226349, 0.0560760572552681, -0.008972168900072575]"
1584446694188942358,,600264,,1584446694,188639503,'',"[shoulder_pan_joint, shoulder_lift_joint, elbow_joint, wrist_1_joint, wrist_2_joint,","[1.5360162258148193, -1.0167449156390589, 2.120337963104248, -2.661088768635885, -1.5672934691058558, 2.780564308166504]","[-3.834952076431364e-05, -3.834952076431364e-05, -0.0, -9.58738019107841e-05, -1.917476038215682e-05, -9.58738019107841e-05]","[-0.0961303785443306, -4.774475574493408, -2.291130304336548, -0.3476715385913849, 0.0560760572552681, -0.01570129580795765]"
1584446694300684487,,600278,,1584446694,300405487,'',"[shoulder_pan_joint, shoulder_lift_joint, elbow_joint, wrist_1_joint, wrist_2_joint,","[1.53596830368042, -1.0167210737811487, 2.1203255653381348, -2.6610644499408167, -1.5672934691058558, 2.780588150024414]","[-2.5566347176209092e-05, -3.834952076431364e-05, -0.0, -5.752428114647046e-05, -1.917476038215682e-05, -7.669904152862728e-05]","[-0.0549316480755806, -4.669189929962158, -2.282163143157959, -0.3476715385913849, 0.0650482252240181, -0.006729126907885075]"
1584446694412750761,,600292,,1584446694,412422138,'',"[shoulder_pan_joint, shoulder_lift_joint, elbow_joint, wrist_1_joint, wrist_2_joint,","[1.5360043048858643, -1.0167210737811487, 2.120337963104248, -2.6610525290118616, -1.5672934691058558, 2.780576229095459]","[-2.5566347176209092e-05, 8.948221511673182e-05, -0.0, -5.752428114647046e-05, -1.917476038215682e-05, -5.752428114647046e-05]","[-0.1235962063074112, -4.367065906524658, -2.284404993057251, -0.3499145805835724, 0.0515899695456028, -0.006729126907885075]"
1584446694524744881,,600306,,1584446694,524413693,'',"[shoulder_pan_joint, shoulder_lift_joint, elbow_joint, wrist_1_joint, wrist_2_joint,","[1.5360162258148193, -1.0166609922992151, 2.120337963104248, -2.6610525290118616, -1.5672934691058558, 2.780576229095459]","[-2.5566347176209092e-05, 0.0003962783666793257, -0.0, -3.834952076431364e-05, -1.917476038215682e-05, -3.834952076431364e-05]","[-0.1007080152630806, -4.545593738555908, -2.27319598197937, -0.3454284965991974, 0.0628051832318306, -0.008972168900072575]"
1584446694636695018,,600320,,1584446694,636390289,'',"[shoulder_pan_joint, shoulder_lift_joint, elbow_joint, wrist_1_joint, wrist_2_joint,","[1.536028265953064, -1.0166729132281702, 2.1203255653381348, -2.6610406080829065, -1.5672934691058558, 2.780564308166504]","[-1.2783173588104546e-05, 0.00014061490946915, -0.0, -3.834952076431364e-05, 0.0, -3.834952076431364e-05]","[-0.0915527418255806, -4.513550281524658, -2.277679443359375, -0.3476715385913849, 0.0672912672162056, -0.006729126907885075]"
1584446694748764588,,600334,,1584446694,748448648,'',"[shoulder_pan_joint, shoulder_lift_joint, elbow_joint, wrist_1_joint, wrist_2_joint,","[1.536028265953064, -1.0166729132281702, 2.120361804962158, -2.661076370869772, -1.5673053900348108, 2.780576229095459]","[-1.2783173588104546e-05, 7.669904152862728e-05, -0.0, -3.834952076431364e-05, 0.0, -3.834952076431364e-05]","[-0.0778198316693306, -4.531860828399658, -2.275437593460083, -0.3431854546070099, 0.0471038855612278, -0.01345825381577015]"
1584446694860809312,,600348,,1584446694,860414395,'',"[shoulder_pan_joint, shoulder_lift_joint, elbow_joint, wrist_1_joint, wrist_2_joint,","[1.536028265953064, -1.0166848341571253, 2.1203255653381348, -2.6610525290118616, -1.5672696272479456, 2.780576229095459]","[-1.2783173588104546e-05, 5.1132694352418184e-05, -0.0, -1.917476038215682e-05, 0.0, -1.917476038215682e-05]","[-0.0869751051068306, -4.586792469024658, -2.277679443359375, -0.3521576225757599, 0.0515899695456028, -0.008972168900072575]"
1584446694972749701,,600362,,1584446694,972377707,'',"[shoulder_pan_joint, shoulder_lift_joint, elbow_joint, wrist_1_joint, wrist_2_joint,","[1.536040186882019, -1.0166729132281702, 2.1203136444091797, -2.6610525290118616, -1.5673053900348108, 2.780576229095459]","[-1.2783173588104546e-05, 3.834952076431364e-05, -0.0, -1.917476038215682e-05, 0.0, -1.917476038215682e-05]","[-0.0915527418255806, -4.614258289337158, -2.279921293258667, -0.3499145805835724, 0.0538330152630806, -0.004486084450036287]"
1584446695084838557,,600376,,1584446695,84392365,'',"[shoulder_pan_joint, shoulder_lift_joint, elbow_joint, wrist_1_joint, wrist_2_joint,","[1.536028265953064, -1.0166972319232386, 2.120361804962158, -2.6610525290118616, -1.5672934691058558, 2.780576229095459]","[-1.2783173588104546e-05, 3.834952076431364e-05, -0.0, -1.917476038215682e-05, 0.0, -1.917476038215682e-05]","[-0.1052856519818306, -4.495239734649658, -2.29337215423584, -0.3521576225757599, 0.0740203931927681, -0.006729126907885075]"
1584446695196838087,,600390,,1584446695,196420888,'',"[shoulder_pan_joint, shoulder_lift_joint, elbow_joint, wrist_1_joint, wrist_2_joint,","[1.536040186882019, -1.0166609922992151, 2.1203737258911133, -2.661088768635885, -1.5672577063189905, 2.780564308166504]","[-1.2783173588104546e-05, 2.5566347176209092e-05, -0.0, -1.917476038215682e-05, 0.0, -1.917476038215682e-05]","[-0.1235962063074112, -4.545593738555908, -2.291130304336548, -0.3386993706226349, 0.0605621412396431, -0.011215210892260075]"
1584446695308817809,,600404,,1584446695,308408726,'',"[shoulder_pan_joint, shoulder_lift_joint, elbow_joint, wrist_1_joint, wrist_2_joint,","[1.536028265953064, -1.0166609922992151, 2.120337963104248, -2.661076370869772, -1.5672934691058558, 2.780564308166504]","[-1.2783173588104546e-05, 2.5566347176209092e-05, -0.0, -1.917476038215682e-05, 0.0, -1.917476038215682e-05]","[-0.1510620266199112, -4.563904285430908, -2.27319598197937, -0.3454284965991974, 0.0538330152630806, -0.004486084450036287]"
1584446695420682057,,600418,,1584446695,420319210,'',"[shoulder_pan_joint, shoulder_lift_joint, elbow_joint, wrist_1_joint, wrist_2_joint,","[1.5360522270202637, -1.0166729132281702, 2.1203136444091797, -2.6610406080829065, -1.5673053900348108, 2.780564308166504]","[-1.2783173588104546e-05, 2.5566347176209092e-05, -0.0, -1.917476038215682e-05, 0.0, -1.917476038215682e-05]","[-0.1785278469324112, -4.467773914337158, -2.282163143157959, -0.3386993706226349, 0.0448608435690403, -0.008972168900072575]"
1584446695532742239,,600432,,1584446695,532300344,'',"[shoulder_pan_joint, shoulder_lift_joint, elbow_joint, wrist_1_joint, wrist_2_joint,","[1.5360761880874634, -1.0166848341571253, 2.120265483856201, -2.6610048452960413, -1.567329231892721, 2.7805521488189697]","[-1.2783173588104546e-05, 1.2783173588104546e-05, -0.0, -1.917476038215682e-05, 0.0, -1.917476038215682e-05]","[-0.2746582329273224, -4.545593738555908, -2.266470432281494, -0.3431854546070099, 0.0628051832318306, -0.004486084450036287]"
1584446695644753530,,600446,,1584446695,644345158,'',"[shoulder_pan_joint, shoulder_lift_joint, elbow_joint, wrist_1_joint, wrist_2_joint,","[1.536088228225708, -1.0166729132281702, 2.1203017234802246, -2.6610406080829065, -1.567317310963766, 2.780588150024414]","[0.0, 1.2783173588104546e-05, -0.0, -1.917476038215682e-05, 0.0, -1.917476038215682e-05]","[-0.5218506455421448, -4.577637195587158, -2.268712282180786, -0.3476715385913849, 0.0942077711224556, -0.011215210892260075]"
1584446695756741468,,600460,,1584446695,756326844,'',"[shoulder_pan_joint, shoulder_lift_joint, elbow_joint, wrist_1_joint, wrist_2_joint,","[1.5361361503601074, -1.0166729132281702, 2.120265483856201, -2.6610406080829065, -1.5673530737506312, 2.780564308166504]","[0.0, 1.2783173588104546e-05, -0.0, 0.0, 0.0, 0.0]","[-0.7873535752296448, -4.531860828399658, -2.286646842956543, -0.3454284965991974, 0.0650482252240181, -0.008972168900072575]"
1584446695868768599,,600474,,1584446695,868309433,'',"[shoulder_pan_joint, shoulder_lift_joint, elbow_joint, wrist_1_joint, wrist_2_joint,","[1.539110779762268, -1.0168169180499476, 2.1196417808532715, -2.6607654730426233, -1.5673649946795862, 2.782276153564453]","[0.060029782354831696, 0.00020453077740967274, -0.0160045325756073, 0.013441506773233414, 0.0, 0.027726704254746437]","[0.7003784775733948, -4.614258289337158, -2.7574269771575928, -0.0986938551068306, 0.0695343092083931, 0.3185119926929474]"
1584446695980685004,,600488,,1584446695,980299685,'',"[shoulder_pan_joint, shoulder_lift_joint, elbow_joint, wrist_1_joint, wrist_2_joint,","[1.5481548309326172, -1.01664907137026, 2.1169052124023438, -2.659400765095846, -1.5673649946795862, 2.7859044075012207]","[0.09776571393013, 0.0019558256026357412, -0.030129939317703247, 0.015474031679332256, 0.0, 0.03522403538227081]","[0.7644653916358948, -4.252624988555908, -2.7013816833496094, -0.0515899695456028, 0.0762634351849556, 0.3274841606616974]"
1584446696092684142,,600502,,1584446696,92274708,'',"[shoulder_pan_joint, shoulder_lift_joint, elbow_joint, wrist_1_joint, wrist_2_joint,","[1.5606768131256104, -1.016097370778219, 2.111827850341797, -2.6568506399737757, -1.5673649946795862, 2.790203332901001]","[0.1223221868276596, 0.008411328308284283, -0.059914734214544296, 0.026441995054483414, 0.0, 0.04157087951898575]","[0.6912232041358948, -3.799438953399658, -2.741734266281128, -0.0986938551068306, 0.1390686184167862, 0.3229980766773224]"
1584446696204751298,,600516,,1584446696,204291610,'',"[shoulder_pan_joint, shoulder_lift_joint, elbow_joint, wrist_1_joint, wrist_2_joint,","[1.575226068496704, -1.0145271460162562, 2.1054186820983887, -2.65363055864443, -1.567329231892721, 2.796142578125]","[0.13079743087291718, 0.017257284373044968, -0.04250405356287956, 0.023067235946655273, 0.0, 0.06446554511785507]","[0.9658814668655396, -3.872681140899658, -2.735008955001831, -0.1323394924402237, 0.1614990383386612, 0.3207550346851349]"
1584446696316609073,,600530,,1584446696,316275240,'',"[shoulder_pan_joint, shoulder_lift_joint, elbow_joint, wrist_1_joint, wrist_2_joint,","[1.5890198945999146, -1.0127165953265589, 2.102069854736328, -2.651810948048727, -1.5673530737506312, 2.8032307624816895]","[0.12563303112983704, 0.010367154143750668, -0.018203239887952805, 0.009338107891380787, 0.0, 0.05669976770877838]","[0.9887696504592896, -4.376221179962158, -2.8695175647735596, -0.1413116604089737, 0.1839294582605362, 0.4194488823413849]"
1584446696428822361,,600544,,1584446696,428356933,'',"[shoulder_pan_joint, shoulder_lift_joint, elbow_joint, wrist_1_joint, wrist_2_joint,","[1.6024174690246582, -1.0128606001483362, 2.1023216247558594, -2.6522777716266077, -1.5673053900348108, 2.8086676597595215]","[0.11325892060995102, -0.006187056191265583, 0.015851134434342384, -0.01576165296137333, 0.0, 0.046307045966386795]","[0.7644653916358948, -5.909729480743408, -1.8808790445327759, -0.6953430771827698, 0.1614990383386612, 0.3005676567554474]"
1584446696540686769,,600558,,1584446696,540308974,'',"[shoulder_pan_joint, shoulder_lift_joint, elbow_joint, wrist_1_joint, wrist_2_joint,","[1.6140519380569458, -1.01329213777651, 2.103473663330078, -2.652924362813131, -1.5673530737506312, 2.8135769367218018]","[0.10042461007833481, -0.0007542072562500834, 0.0017512948252260685, -0.0007478156476281583, 0.0, 0.036566268652677536]","[0.9704591035842896, -5.461121082305908, -1.9683096408843994, -0.5203858017921448, 0.1525268703699112, 0.3611297905445099]"
1584446696652732554,,600572,,1584446696,652330614,'',"[shoulder_pan_joint, shoulder_lift_joint, elbow_joint, wrist_1_joint, wrist_2_joint,","[1.6242467164993286, -1.0133522192584437, 2.1032819747924805, -2.652900520955221, -1.5673053900348108, 2.816127300262451]","[0.08456069231033325, 0.00011504856229294091, -0.000907605339307338, 0.0003834952076431364, 0.0, 0.005905826110392809]","[0.8239746689796448, -5.168152332305908, -2.2597451210021973, -0.3813171684741974, 0.1637420803308487, 0.3162689507007599]"
1584446696764770335,,600586,,1584446696,764293295,'',"[shoulder_pan_joint, shoulder_lift_joint, elbow_joint, wrist_1_joint, wrist_2_joint,","[1.6325113773345947, -1.013280216847555, 2.1032938957214355, -2.6528642813311976, -1.5673053900348108, 2.8126070499420166]","[0.055031560361385345, 0.00011504856229294091, -0.00024288029817398638, 0.00017257283616345376, 0.0, -0.04084223881363869]","[0.9750367403030396, -5.268860340118408, -2.1207528114318848, -0.4149627983570099, 0.2489776909351349, -0.3229980766773224]"
1584446696876616459,,600600,,1584446696,876241699,'',"[shoulder_pan_joint, shoulder_lift_joint, elbow_joint, wrist_1_joint, wrist_2_joint,","[1.6373687982559204, -1.0133283774005335, 2.1032938957214355, -2.6528762022601526, -1.5673053900348108, 2.8089308738708496]","[0.035486090928316116, 7.669904152862728e-05, -0.00014061490946915, 9.58738019107841e-05, 0.0, -0.030315296724438667]","[1.1032105684280396, -5.154419422149658, -2.279921293258667, -0.4015045464038849, 0.1480407863855362, -0.3095398247241974]"
1584446696988702990,,600614,,1584446696,988275513,'',"[shoulder_pan_joint, shoulder_lift_joint, elbow_joint, wrist_1_joint, wrist_2_joint,","[1.640067458152771, -1.0133164564715784, 2.103330135345459, -2.6528881231891077, -1.5672815481769007, 2.8058414459228516]","[0.011696604080498219, 5.1132694352418184e-05, -8.948221511673182e-05, 7.669904152862728e-05, 0.0, -0.02285631373524666]","[0.9063721895217896, -5.168152332305908, -2.1655890941619873, -0.4351502060890198, 0.1457977443933487, -0.2400055229663849]"
1584446697100705245,,600628,,1584446697,100338050,'',"[shoulder_pan_joint, shoulder_lift_joint, elbow_joint, wrist_1_joint, wrist_2_joint,","[1.6402355432510376, -1.0133402983294886, 2.103306293487549, -2.652924362813131, -1.5673053900348108, 2.804596424102783]","[-0.0005113269435241818, 3.834952076431364e-05, -7.669904152862728e-05, 7.669904152862728e-05, 0.0, 0.0033172336407005787]","[-0.0595092847943306, -5.067444324493408, -2.2171506881713867, -0.4015045464038849, 0.1525268703699112, -0.004486084450036287]"
1584446697212622771,,600642,,1584446697,212251188,'',"[shoulder_pan_joint, shoulder_lift_joint, elbow_joint, wrist_1_joint, wrist_2_joint,","[1.6401876211166382, -1.0133283774005335, 2.103306293487549, -2.652924362813131, -1.5672934691058558, 2.8046083450317383]","[-0.00015339808305725455, 2.5566347176209092e-05, -0.0, 7.669904152862728e-05, 1.917476038215682e-05, 0.00032597093377262354]","[0.009155274368822575, -5.488586902618408, -2.3449337482452393, -0.4575806260108948, 0.0695343092083931, 0.004486084450036287]"
1584446697324669429,,600656,,1584446697,324248193,'',"[shoulder_pan_joint, shoulder_lift_joint, elbow_joint, wrist_1_joint, wrist_2_joint,","[1.6402355432510376, -1.0133164564715784, 2.1032700538635254, -2.652912441884176, -1.567317310963766, 2.8046202659606934]","[-8.948221511673182e-05, 2.5566347176209092e-05, -0.0, 7.669904152862728e-05, 1.917476038215682e-05, 0.00026844663079828024]","[-0.004577637184411287, -5.516052722930908, -2.3449337482452393, -0.4553375840187073, 0.0605621412396431, 0.008972168900072575]"
1584446697436689407,,600670,,1584446697,436255858,'',"[shoulder_pan_joint, shoulder_lift_joint, elbow_joint, wrist_1_joint, wrist_2_joint,","[1.6401996612548828, -1.0133402983294886, 2.1032819747924805, -2.6528762022601526, -1.5672815481769007, 2.8046083450317383]","[-6.391586794052273e-05, 2.5566347176209092e-05, -0.0, 5.752428114647046e-05, 1.917476038215682e-05, 0.00013422331539914012]","[-0.0457763709127903, -5.447388172149658, -2.3202738761901855, -0.4575806260108948, 0.0628051832318306, 0.004486084450036287]"
1584446697548554796,,600684,,1584446697,548247442,'',"[shoulder_pan_joint, shoulder_lift_joint, elbow_joint, wrist_1_joint, wrist_2_joint,","[1.640211582183838, -1.0133402983294886, 2.103318214416504, -2.652912441884176, -1.5672934691058558, 2.804584264755249]","[-3.834952076431364e-05, 2.5566347176209092e-05, -0.0, 3.834952076431364e-05, 1.917476038215682e-05, 9.58738019107841e-05]","[0.0457763709127903, -5.419922351837158, -2.3471755981445312, -0.4710388779640198, 0.0672912672162056, 0.006729126907885075]"
1584446697660609458,,600698,,1584446697,660248695,'',"[shoulder_pan_joint, shoulder_lift_joint, elbow_joint, wrist_1_joint, wrist_2_joint,","[1.640211582183838, -1.0133283774005335, 2.1032700538635254, -2.6529362837420862, -1.5672815481769007, 2.8046202659606934]","[-3.834952076431364e-05, 2.5566347176209092e-05, -0.0, 3.834952076431364e-05, 1.917476038215682e-05, 7.669904152862728e-05]","[0.0411987341940403, -5.538940906524658, -2.3157904148101807, -0.4912262558937073, 0.0695343092083931, 0.004486084450036287]"
1584446697772622343,,600712,,1584446697,772267360,'',"[shoulder_pan_joint, shoulder_lift_joint, elbow_joint, wrist_1_joint, wrist_2_joint,","[1.640211582183838, -1.0133164564715784, 2.1032581329345703, -2.652912441884176, -1.5673053900348108, 2.804584264755249]","[-2.5566347176209092e-05, 2.5566347176209092e-05, -0.0, 3.834952076431364e-05, 1.917476038215682e-05, 5.752428114647046e-05]","[0.0320434607565403, -5.442810535430908, -2.3359665870666504, -0.5293579697608948, 0.0762634351849556, 0.011215210892260075]"
1584446697884562722,,600726,,1584446697,884214051,'',"[shoulder_pan_joint, shoulder_lift_joint, elbow_joint, wrist_1_joint, wrist_2_joint,","[1.640211582183838, -1.0133040587054651, 2.1032581329345703, -2.652924362813131, -1.567329231892721, 2.8046083450317383]","[-2.5566347176209092e-05, 2.5566347176209092e-05, -0.0, 1.917476038215682e-05, 1.917476038215682e-05, 3.834952076431364e-05]","[0.0411987341940403, -5.570984363555908, -2.3247575759887695, -0.4665527939796448, 0.0672912672162056, 0.0022430422250181437]"
1584446697996636850,,600740,,1584446697,996244408,'',"[shoulder_pan_joint, shoulder_lift_joint, elbow_joint, wrist_1_joint, wrist_2_joint,","[1.6401996612548828, -1.0133402983294886, 2.1032700538635254, -2.652912441884176, -1.567317310963766, 2.8046202659606934]","[-2.5566347176209092e-05, 2.5566347176209092e-05, -0.0, 1.917476038215682e-05, 1.917476038215682e-05, 3.834952076431364e-05]","[-0.009155274368822575, -5.543518543243408, -2.3225157260894775, -0.4732819199562073, 0.0672912672162056, 0.004486084450036287]"
1584446698108639565,,600754,,1584446698,108203923,'',"[shoulder_pan_joint, shoulder_lift_joint, elbow_joint, wrist_1_joint, wrist_2_joint,","[1.6401876211166382, -1.0133164564715784, 2.1032819747924805, -2.652900520955221, -1.5673053900348108, 2.8046321868896484]","[-1.2783173588104546e-05, 2.5566347176209092e-05, -0.0, 1.917476038215682e-05, 1.917476038215682e-05, 3.834952076431364e-05]","[0.0686645582318306, -5.506897449493408, -2.3269994258880615, -0.4620667099952698, 0.0583190992474556, 0.004486084450036287]"
1584446698220525293,,600768,,1584446698,220184597,'',"[shoulder_pan_joint, shoulder_lift_joint, elbow_joint, wrist_1_joint, wrist_2_joint,","[1.6401876211166382, -1.0133283774005335, 2.1032700538635254, -2.652912441884176, -1.5673053900348108, 2.8046202659606934]","[-1.2783173588104546e-05, 1.2783173588104546e-05, -0.0, 1.917476038215682e-05, 1.917476038215682e-05, 1.917476038215682e-05]","[0.01831054873764515, -5.461121082305908, -2.3068230152130127, -0.4598236680030823, 0.0628051832318306, 0.0022430422250181437]"
1584446698332645528,,600782,,1584446698,332210115,'',"[shoulder_pan_joint, shoulder_lift_joint, elbow_joint, wrist_1_joint, wrist_2_joint,","[1.640211582183838, -1.0133040587054651, 2.1032462120056152, -2.652924362813131, -1.567317310963766, 2.804596424102783]","[-1.2783173588104546e-05, 1.2783173588104546e-05, -0.0, 1.917476038215682e-05, 1.917476038215682e-05, 1.917476038215682e-05]","[0.01831054873764515, -5.529785633087158, -2.3180320262908936, -0.4755249619483948, 0.0672912672162056, 0.0022430422250181437]"
1584446698444493785,,600796,,1584446698,444167366,'',"[shoulder_pan_joint, shoulder_lift_joint, elbow_joint, wrist_1_joint, wrist_2_joint,","[1.6401996612548828, -1.0133283774005335, 2.1032581329345703, -2.6529482046710413, -1.567317310963766, 2.8046083450317383]","[-1.2783173588104546e-05, 1.2783173588104546e-05, -0.0, 1.917476038215682e-05, 1.917476038215682e-05, 1.917476038215682e-05]","[0.0366210974752903, -5.525207996368408, -2.3135485649108887, -0.4575806260108948, 0.0695343092083931, 0.0022430422250181437]"
1584446698556744493,,600810,,1584446698,556295946,'',"[shoulder_pan_joint, shoulder_lift_joint, elbow_joint, wrist_1_joint, wrist_2_joint,","[1.640211582183838, -1.0133164564715784, 2.1032700538635254, -2.6529362837420862, -1.567341152821676, 2.8046321868896484]","[-1.2783173588104546e-05, 1.2783173588104546e-05, -0.0, 1.917476038215682e-05, 1.917476038215682e-05, 1.917476038215682e-05]","[0.0320434607565403, -5.474853992462158, -2.3180320262908936, -0.4575806260108948, 0.0695343092083931, 0.004486084450036287]"
1584446698668683440,,600824,,1584446698,668248488,'',"[shoulder_pan_joint, shoulder_lift_joint, elbow_joint, wrist_1_joint, wrist_2_joint,","[1.6402236223220825, -1.0133402983294886, 2.1032581329345703, -2.6529362837420862, -1.567317310963766, 2.804596424102783]","[-1.2783173588104546e-05, 1.2783173588104546e-05, -0.0, 1.917476038215682e-05, 1.917476038215682e-05, 1.917476038215682e-05]","[0.0366210974752903, -5.516052722930908, -2.3225157260894775, -0.5226288437843323, 0.0583190992474556, 0.004486084450036287]"
1584446698780626624,,600838,,1584446698,780215156,'',"[shoulder_pan_joint, shoulder_lift_joint, elbow_joint, wrist_1_joint, wrist_2_joint,","[1.6402236223220825, -1.01329213777651, 2.1032700538635254, -2.6529362837420862, -1.567317310963766, 2.804584264755249]","[-1.2783173588104546e-05, 1.2783173588104546e-05, -0.0, 0.0, 1.917476038215682e-05, 1.917476038215682e-05]","[0.0274658240377903, -5.461121082305908, -2.3113067150115967, -0.4665527939796448, 0.0650482252240181, 0.008972168900072575]"
1584446698892752389,,600852,,1584446698,892290827,'',"[shoulder_pan_joint, shoulder_lift_joint, elbow_joint, wrist_1_joint, wrist_2_joint,","[1.6401996612548828, -1.0133283774005335, 2.1032700538635254, -2.652912441884176, -1.5672934691058558, 2.8046202659606934]","[-1.2783173588104546e-05, 1.2783173588104546e-05, -0.0, 0.0, 1.917476038215682e-05, 1.917476038215682e-05]","[0.0274658240377903, -5.548096179962158, -2.3157904148101807, -0.4351502060890198, 0.0650482252240181, 0.0022430422250181437]"
1584446699004542758,,600866,,1584446699,4127152,'',"[shoulder_pan_joint, shoulder_lift_joint, elbow_joint, wrist_1_joint, wrist_2_joint,","[1.6401876211166382, -1.0133164564715784, 2.1032819747924805, -2.6528881231891077, -1.5672934691058558, 2.8046202659606934]","[-1.2783173588104546e-05, 1.2783173588104546e-05, -0.0, 0.0, 0.0, 1.917476038215682e-05]","[0.0, -5.575562000274658, -2.3202738761901855, -0.4777680039405823, 0.0515899695456028, 0.006729126907885075]"
1584446699116486112,,600880,,1584446699,116131641,'',"[shoulder_pan_joint, shoulder_lift_joint, elbow_joint, wrist_1_joint, wrist_2_joint,","[1.6402236223220825, -1.0133402983294886, 2.1032819747924805, -2.652924362813131, -1.5673053900348108, 2.8046083450317383]","[0.0, 0.0, -0.0, 0.0, 0.0, 0.0]","[0.0411987341940403, -5.493164539337158, -2.282163143157959, -0.4979553818702698, 0.0560760572552681, 0.008972168900072575]"
1584446699228480232,,600894,,1584446699,228120060,'',"[shoulder_pan_joint, shoulder_lift_joint, elbow_joint, wrist_1_joint, wrist_2_joint,","[1.6402355432510376, -1.0133522192584437, 2.1032819747924805, -2.652924362813131, -1.567317310963766, 2.8046202659606934]","[0.0, 0.0, -0.0, 0.0, 0.0, 0.0]","[0.0411987341940403, -5.447388172149658, -2.3202738761901855, -0.4957123398780823, 0.0628051832318306, 0.0022430422250181437]"
1584446699340523914,,600908,,1584446699,340106545,'',"[shoulder_pan_joint, shoulder_lift_joint, elbow_joint, wrist_1_joint, wrist_2_joint,","[1.6402355432510376, -1.0133522192584437, 2.103222370147705, -2.652924362813131, -1.567341152821676, 2.804596424102783]","[0.0, 0.0, -0.0023393207229673862, 0.0, 0.0, 0.0]","[-0.0457763709127903, -5.456543445587158, -2.445815324783325, -0.3947754204273224, 0.0628051832318306, -0.0829925611615181]"
1584446699452479160,,600922,,1584446699,452136902,'',"[shoulder_pan_joint, shoulder_lift_joint, elbow_joint, wrist_1_joint, wrist_2_joint,","[1.6402955055236816, -1.0133283774005335, 2.1031503677368164, -2.652900520955221, -1.567341152821676, 2.8062846660614014]","[0.0, 0.0, -0.0006008091731928289, 0.0, 0.0, 0.02858956716954708]","[-0.0411987341940403, -5.456543445587158, -2.4839260578155518, -0.4441223740577698, 0.0560760572552681, 0.2983246147632599]"
1584446699564685215,,600936,,1584446699,564222071,'',"[shoulder_pan_joint, shoulder_lift_joint, elbow_joint, wrist_1_joint, wrist_2_joint,","[1.6403673887252808, -1.0133760611163538, 2.103137969970703, -2.652912441884176, -1.5673769156085413, 2.80935001373291]","[0.0011888351291418076, 0.0, -0.00020453077740967274, 0.0, 0.0, 0.029107285663485527]","[0.1419067531824112, -5.364990711212158, -2.4996187686920166, -0.4149627983570099, 0.0583190992474556, 0.2691650688648224]"
1584446699676596070,,600950,,1584446699,676146881,'',"[shoulder_pan_joint, shoulder_lift_joint, elbow_joint, wrist_1_joint, wrist_2_joint,","[1.6404153108596802, -1.0133522192584437, 2.103137969970703, -2.652912441884176, -1.5673769156085413, 2.8121519088745117]","[0.00024288029817398638, 0.0, -0.00012783173588104546, 0.0, 0.0, 0.01925146020948887]","[0.009155274368822575, -5.484009265899658, -2.454782485961914, -0.4620667099952698, 0.0695343092083931, 0.3162689507007599]"
1584446699788561756,,600964,,1584446699,788165547,'',"[shoulder_pan_joint, shoulder_lift_joint, elbow_joint, wrist_1_joint, wrist_2_joint,","[1.6404873132705688, -1.0133522192584437, 2.103126049041748, -2.6529362837420862, -1.5674126783954065, 2.813828229904175]","[0.0002812298189383, 0.0, -8.948221511673182e-05, 0.0, 0.0, 0.009012137539684772]","[0.0, -5.511475086212158, -2.376319169998169, -0.4912262558937073, 0.0672912672162056, 0.3072967827320099]"
1584446699900578878,,600978,,1584446699,900176307,'',"[shoulder_pan_joint, shoulder_lift_joint, elbow_joint, wrist_1_joint, wrist_2_joint,","[1.6408830881118774, -1.0133760611163538, 2.1031017303466797, -2.652924362813131, -1.5674126783954065, 2.810978651046753]","[0.010379936546087265, 0.0, -7.669904152862728e-05, 0.0, 0.0, -0.036988113075494766]","[0.3524780571460724, -5.296326160430908, -2.4906516075134277, -0.3925323784351349, 0.0672912672162056, -0.2938385307788849]"
1584446700012558971,,600992,,1584446700,12155328,'',"[shoulder_pan_joint, shoulder_lift_joint, elbow_joint, wrist_1_joint, wrist_2_joint,","[1.6451172828674316, -1.0133402983294886, 2.1028857231140137, -2.652900520955221, -1.5673769156085413, 2.8076016902923584]","[0.06270146369934082, 0.0, -0.0028889973182231188, 0.0, 0.0, -0.019117236137390137]","[0.5126953721046448, -5.369568347930908, -2.5982584953308105, -0.3880462944507599, 0.0695343092083931, -0.3252411186695099]"
1584446700124499331,,601006,,1584446700,124172280,'',"[shoulder_pan_joint, shoulder_lift_joint, elbow_joint, wrist_1_joint, wrist_2_joint,","[1.6548084020614624, -1.0133522192584437, 2.102789878845215, -2.652912441884176, -1.567341152821676, 2.8074822425842285]","[0.10928335040807724, 0.0, -0.0005496764788404107, 0.0, 0.0, 0.04183932766318321]","[0.4806519150733948, -5.543518543243408, -2.5803239345550537, -0.3925323784351349, 0.0964508131146431, 0.1839294582605362]"
1584446700236566246,,601020,,1584446700,236136243,'',"[shoulder_pan_joint, shoulder_lift_joint, elbow_joint, wrist_1_joint, wrist_2_joint,","[1.6684337854385376, -1.0133641401873987, 2.1027779579162598, -2.652924362813131, -1.5673769156085413, 2.813876152038574]","[0.12622106075286865, 0.0, -0.0003707120195031166, 0.0, 0.0, 0.05574102699756622]","[0.7141113877296448, -5.712891101837158, -2.553422212600708, -0.3970184624195099, 0.1211242824792862, 0.3521576225757599]"
1584446700348634884,,601034,,1584446700,348153997,'',"[shoulder_pan_joint, shoulder_lift_joint, elbow_joint, wrist_1_joint, wrist_2_joint,","[1.6819751262664795, -1.0134003798114222, 2.1027779579162598, -2.6529362837420862, -1.5673530737506312, 2.818570375442505]","[0.11378302425146103, 0.0, -0.0001661812566453591, 0.0, 0.0, 0.027880100533366203]","[1.0665894746780396, -5.717468738555908, -2.5758402347564697, -0.3790741264820099, 0.1054229810833931, 0.3992615044116974]"
1584446700460485225,,601048,,1584446700,460151592,'',"[shoulder_pan_joint, shoulder_lift_joint, elbow_joint, wrist_1_joint, wrist_2_joint,","[1.6944129467010498, -1.0133402983294886, 2.1027660369873047, -2.652900520955221, -1.5673053900348108, 2.820486307144165]","[0.10105098783969879, 0.0, -0.00011504856229294091, 0.0, 0.0, 0.01068034116178751]","[1.1032105684280396, -5.685425281524658, -2.6161928176879883, -0.3701019585132599, 0.0807495191693306, 0.3544006645679474]"
1584446700572478533,,601062,,1584446700,572113472,'',"[shoulder_pan_joint, shoulder_lift_joint, elbow_joint, wrist_1_joint, wrist_2_joint,","[1.7040796279907227, -1.0133402983294886, 2.102789878845215, -2.652912441884176, -1.5673530737506312, 2.8181629180908203]","[0.06745680421590805, 0.0, -7.669904152862728e-05, 0.0, 0.0, -0.03597185015678406]","[1.0345460176467896, -5.676270008087158, -2.5265204906463623, -0.4104767143726349, 0.1300964504480362, -0.2938385307788849]"
1584446700684634464,,601076,,1584446700,684162664,'',"[shoulder_pan_joint, shoulder_lift_joint, elbow_joint, wrist_1_joint, wrist_2_joint,","[1.7090096473693848, -1.0133283774005335, 2.10280179977417, -2.652924362813131, -1.567341152821676, 2.8134572505950928]","[0.02791845053434372, 0.0, -0.0, 0.0, 0.0, -0.04682476446032524]","[0.9841920137405396, -5.690002918243408, -2.548938512802124, -0.3992615044116974, 0.1166381984949112, -0.3117828667163849]"
1584446700796588148,,601090,,1584446700,796157855,'',"[shoulder_pan_joint, shoulder_lift_joint, elbow_joint, wrist_1_joint, wrist_2_joint,","[1.7114323377609253, -1.0133402983294886, 2.1027417182922363, -2.652900520955221, -1.5673649946795862, 2.8085596561431885]","[0.016413595527410507, 0.0, -0.0, 0.0, 0.0, -0.03725655749440193]","[0.9155274629592896, -5.662537097930908, -2.560147762298584, -0.4059906303882599, 0.0762634351849556, -0.3050537407398224]"
1584446700908939494,,601104,,1584446700,908101150,'',"[shoulder_pan_joint, shoulder_lift_joint, elbow_joint, wrist_1_joint, wrist_2_joint,","[1.7120802402496338, -1.0133641401873987, 2.1027779579162598, -2.652900520955221, -1.567317310963766, 2.8070387840270996]","[-0.00023009712458588183, 0.0, -0.0, 0.0, 0.0, 0.00023009712458588183]","[0.1235962063074112, -5.712891101837158, -2.5041024684906006, -0.4172058403491974, 0.1031799390912056, -0.01345825381577015]"
1584446701020491910,,601118,,1584446701,20095209,'',"[shoulder_pan_joint, shoulder_lift_joint, elbow_joint, wrist_1_joint, wrist_2_joint,","[1.7120802402496338, -1.0133522192584437, 2.102789878845215, -2.6529362837420862, -1.567329231892721, 2.807050943374634]","[-0.00017896443023346364, 0.0, -0.0, 0.0, 0.0, 0.00023009712458588183]","[0.1647949367761612, -5.511475086212158, -2.454782485961914, -0.4575806260108948, 0.0717773512005806, -0.0426178015768528]"
1584446701132465981,,601132,,1584446701,132099989,'',"[shoulder_pan_joint, shoulder_lift_joint, elbow_joint, wrist_1_joint, wrist_2_joint,","[1.7120922803878784, -1.0133283774005335, 2.1027536392211914, -2.652912441884176, -1.5673530737506312, 2.8070387840270996]","[-8.948221511673182e-05, 0.0, -0.0, 0.0, 0.0, 0.00015339808305725455]","[0.1831054836511612, -5.566406726837158, -2.4278807640075684, -0.4687958359718323, 0.0560760572552681, -0.0314025916159153]"
1584446701244488754,,601146,,1584446701,244047751,'',"[shoulder_pan_joint, shoulder_lift_joint, elbow_joint, wrist_1_joint, wrist_2_joint,","[1.7120802402496338, -1.0133522192584437, 2.102789878845215, -2.652912441884176, -1.567341152821676, 2.807050943374634]","[-6.391586794052273e-05, 0.0, -0.0, 0.0, 0.0, 9.58738019107841e-05]","[0.1235962063074112, -5.488586902618408, -2.4301226139068604, -0.4486084580421448, 0.0695343092083931, -0.0448608435690403]"
1584446701356553776,,601160,,1584446701,356101742,'',"[shoulder_pan_joint, shoulder_lift_joint, elbow_joint, wrist_1_joint, wrist_2_joint,","[1.712056279182434, -1.0133402983294886, 2.1027779579162598, -2.652900520955221, -1.5673769156085413, 2.8070268630981445]","[-5.1132694352418184e-05, 0.0, -0.0, 0.0, 0.0, 7.669904152862728e-05]","[0.1556396633386612, -5.493164539337158, -2.4346063137054443, -0.4934692978858948, 0.0583190992474556, -0.0291595496237278]"
1584446701468452287,,601174,,1584446701,468103957,'',"[shoulder_pan_joint, shoulder_lift_joint, elbow_joint, wrist_1_joint, wrist_2_joint,","[1.7120683193206787, -1.0133283774005335, 2.102789878845215, -2.652912441884176, -1.567341152821676, 2.807050943374634]","[-3.834952076431364e-05, 0.0, -0.0, 0.0, 0.0, 5.752428114647046e-05]","[0.2105713039636612, -5.470276355743408, -2.441331624984741, -0.4643097519874573, 0.0493469275534153, -0.0336456336081028]"
1584446701580423243,,601188,,1584446701,580074773,'',"[shoulder_pan_joint, shoulder_lift_joint, elbow_joint, wrist_1_joint, wrist_2_joint,","[1.7120802402496338, -1.0133641401873987, 2.1027660369873047, -2.652912441884176, -1.567329231892721, 2.8070268630981445]","[-2.5566347176209092e-05, 0.0, -0.0, 0.0, 0.0, 3.834952076431364e-05]","[0.1007080152630806, -5.493164539337158, -2.4323644638061523, -0.4620667099952698, 0.0538330152630806, -0.0336456336081028]"
1584446701692498674,,601202,,1584446701,692062580,'',"[shoulder_pan_joint, shoulder_lift_joint, elbow_joint, wrist_1_joint, wrist_2_joint,","[1.7121042013168335, -1.0133641401873987, 2.1027660369873047, -2.652900520955221, -1.5673649946795862, 2.8084757328033447]","[-2.5566347176209092e-05, 0.0, -0.0, 0.0, 0.0, 0.03413107246160507]","[0.0732421949505806, -5.520630359649658, -2.4839260578155518, -0.4710388779640198, 0.0717773512005806, 0.2736511528491974]"
