PorkPy/robot-pulling-data/deg10_stops/joint_states_throttle.csv
rosbagTimestamp,header,seq,stamp,secs,nsecs,frame_id,name,wrist_3_joint],position,velocity,effort
1584443089477557196,,149655,,1584443089,477174352,'',"[shoulder_pan_joint, shoulder_lift_joint, elbow_joint, wrist_1_joint, wrist_2_joint,","[1.4047822952270508, -1.1718123594867151, 2.483046531677246, -2.8628271261798304, -1.5670059362994593, 2.7206225395202637]","[0.0, 0.0, -0.0, 0.0, 0.0, 0.0]","[-0.7690430283546448, -4.170227527618408, -1.006572961807251, -0.5764618515968323, 0.0314025916159153, 0.011215210892260075]"
1584443089589591949,,149669,,1584443089,589227049,'',"[shoulder_pan_joint, shoulder_lift_joint, elbow_joint, wrist_1_joint, wrist_2_joint,","[1.4047942161560059, -1.17177659669985, 2.483058452606201, -2.8628390471087855, -1.566981617604391, 2.7205989360809326]","[0.0, 0.0, -0.0, 0.0, 0.0, 0.0]","[-0.7736206650733948, -4.156494617462158, -1.0088146924972534, -0.5764618515968323, 0.0358886756002903, 0.01570129580795765]"
1584443089701622565,,149683,,1584443089,701257624,'',"[shoulder_pan_joint, shoulder_lift_joint, elbow_joint, wrist_1_joint, wrist_2_joint,","[1.4047822952270508, -1.17180043855776, 2.483058452606201, -2.8628390471087855, -1.5669940153705042, 2.7206108570098877]","[0.0, 0.0, -0.0, 0.0, 0.0, 0.0]","[-0.7827759385108948, -4.170227527618408, -1.0110565423965454, -0.5831909775733948, 0.0515899695456028, 0.008972168900072575]"
1584443089813513650,,149697,,1584443089,813154269,'',"[shoulder_pan_joint, shoulder_lift_joint, elbow_joint, wrist_1_joint, wrist_2_joint,","[1.404758334159851, -1.1718247572528284, 2.4830822944641113, -2.86280328432192, -1.5669940153705042, 2.7206344604492188]","[0.0, 0.0, -0.0, 0.0, 0.0, 0.0]","[-0.7827759385108948, -4.179382801055908, -1.006572961807251, -0.5764618515968323, 0.0426178015768528, 0.006729126907885075]"
1584443089925501646,,149711,,1584443089,925155911,'',"[shoulder_pan_joint, shoulder_lift_joint, elbow_joint, wrist_1_joint, wrist_2_joint,","[1.4047822952270508, -1.17180043855776, 2.483046531677246, -2.8628514448748987, -1.566981617604391, 2.7206225395202637]","[0.0, 0.0, -0.0, 0.0, 0.0, 0.0]","[-0.7644653916358948, -4.202270984649658, -1.0177819728851318, -0.5809479355812073, 0.0291595496237278, 0.011215210892260075]"
1584443090037638850,,149725,,1584443090,37245376,'',"[shoulder_pan_joint, shoulder_lift_joint, elbow_joint, wrist_1_joint, wrist_2_joint,","[1.4047822952270508, -1.1718362013446253, 2.4830822944641113, -2.8628152052508753, -1.5670059362994593, 2.7206344604492188]","[0.0, 0.0, -0.0, 0.0, 0.0, 0.0]","[-0.7873535752296448, -4.170227527618408, -1.0155401229858398, -0.5742188096046448, 0.0314025916159153, 0.011215210892260075]"
1584443090149443614,,149739,,1584443090,149147001,'',"[shoulder_pan_joint, shoulder_lift_joint, elbow_joint, wrist_1_joint, wrist_2_joint,","[1.4047942161560059, -1.1717646757708948, 2.483058452606201, -2.8628152052508753, -1.566981617604391, 2.7206108570098877]","[0.0, 0.0, -0.0, 0.0, 0.0, 0.0]","[-0.7827759385108948, -4.179382801055908, -1.0177819728851318, -0.5697327256202698, 0.0426178015768528, 0.011215210892260075]"
1584443090261499848,,149753,,1584443090,261153161,'',"[shoulder_pan_joint, shoulder_lift_joint, elbow_joint, wrist_1_joint, wrist_2_joint,","[1.4047942161560059, -1.1718362013446253, 2.483046531677246, -2.8628152052508753, -1.566981617604391, 2.7206108570098877]","[0.0, 0.0, -0.0, 0.0, 0.0, 0.0]","[-0.7965088486671448, -4.161072254180908, -1.0222655534744263, -0.5787048935890198, 0.0381317175924778, 0.01570129580795765]"
1584443090373507000,,149767,,1584443090,373130497,'',"[shoulder_pan_joint, shoulder_lift_joint, elbow_joint, wrist_1_joint, wrist_2_joint,","[1.4047822952270508, -1.1718485991107386, 2.4830703735351562, -2.8628390471087855, -1.5669696966754358, 2.7206344604492188]","[0.0, 0.0, -0.0, 0.0, 0.0, 0.0]","[-0.7873535752296448, -4.183960437774658, -1.0110565423965454, -0.5787048935890198, 0.0314025916159153, 0.008972168900072575]"
1584443090485487441,,149781,,1584443090,485114966,'',"[shoulder_pan_joint, shoulder_lift_joint, elbow_joint, wrist_1_joint, wrist_2_joint,","[1.4047822952270508, -1.171788517628805, 2.483058452606201, -2.8628390471087855, -1.5669940153705042, 2.7206108570098877]","[0.0, 0.0, -0.0, 0.0, 0.0, 0.0]","[-0.8010864853858948, -4.193115711212158, -1.006572961807251, -0.5764618515968323, 0.02467346377670765, 0.011215210892260075]"
1584443090597621610,,149795,,1584443090,597210944,'',"[shoulder_pan_joint, shoulder_lift_joint, elbow_joint, wrist_1_joint, wrist_2_joint,","[1.4048062562942505, -1.1718123594867151, 2.483034372329712, -2.8628390471087855, -1.5669696966754358, 2.7205989360809326]","[0.0, 0.0, -0.0, 0.0, 0.0, 0.0]","[-0.7873535752296448, -4.124451160430908, -1.0132983922958374, -0.5697327256202698, 0.0291595496237278, 0.01570129580795765]"
1584443090709627269,,149809,,1584443090,709231631,'',"[shoulder_pan_joint, shoulder_lift_joint, elbow_joint, wrist_1_joint, wrist_2_joint,","[1.404758334159851, -1.1718123594867151, 2.483058452606201, -2.8628514448748987, -1.5669940153705042, 2.7205989360809326]","[0.0, 0.0, -0.0, 0.0, 0.0, 0.0]","[-0.7690430283546448, -4.147339344024658, -1.0177819728851318, -0.5742188096046448, 0.0358886756002903, 0.006729126907885075]"
1584443090821529425,,149823,,1584443090,821139869,'',"[shoulder_pan_joint, shoulder_lift_joint, elbow_joint, wrist_1_joint, wrist_2_joint,","[1.4047822952270508, -1.171788517628805, 2.4830222129821777, -2.8628152052508753, -1.5669696966754358, 2.7206108570098877]","[0.0, 0.0, -0.0, 0.0, 0.0, 0.0]","[-0.7827759385108948, -4.165649890899658, -1.0110565423965454, -0.5697327256202698, 0.0336456336081028, 0.01570129580795765]"
1584443090933430389,,149837,,1584443090,933089843,'',"[shoulder_pan_joint, shoulder_lift_joint, elbow_joint, wrist_1_joint, wrist_2_joint,","[1.4047702550888062, -1.17180043855776, 2.4830703735351562, -2.8628271261798304, -1.5669940153705042, 2.7206225395202637]","[0.0, 0.0, -0.0, 0.0, 0.0, 0.0]","[-0.7919312119483948, -4.179382801055908, -1.0088146924972534, -0.5764618515968323, 0.0291595496237278, 0.008972168900072575]"
1584443091045589104,,149851,,1584443091,45179890,'',"[shoulder_pan_joint, shoulder_lift_joint, elbow_joint, wrist_1_joint, wrist_2_joint,","[1.4047942161560059, -1.1718123594867151, 2.483034372329712, -2.8628390471087855, -1.566981617604391, 2.7206344604492188]","[0.0, 0.0, -0.0, 0.0, 0.0, 0.0]","[-0.8010864853858948, -4.202270984649658, -1.0200238227844238, -0.5674896836280823, 0.0336456336081028, 0.01345825381577015]"
1584443091157630479,,149865,,1584443091,157206067,'',"[shoulder_pan_joint, shoulder_lift_joint, elbow_joint, wrist_1_joint, wrist_2_joint,","[1.4047702550888062, -1.17180043855776, 2.483058452606201, -2.8628271261798304, -1.5669696966754358, 2.7206225395202637]","[0.0, 0.0, -0.0, 0.0, 0.0, 0.0]","[-0.8102417588233948, -4.170227527618408, -1.0177819728851318, -0.5674896836280823, 0.0291595496237278, 0.0022430422250181437]"
1584443091269511164,,149879,,1584443091,269085841,'',"[shoulder_pan_joint, shoulder_lift_joint, elbow_joint, wrist_1_joint, wrist_2_joint,","[1.4048062562942505, -1.17180043855776, 2.483058452606201, -2.8628271261798304, -1.5669940153705042, 2.7206225395202637]","[0.0, 0.0, -0.0, 0.0, 0.0, 0.0]","[-0.7873535752296448, -4.170227527618408, -1.0177819728851318, -0.5742188096046448, 0.0336456336081028, 0.011215210892260075]"
1584443091381410075,,149893,,1584443091,381070922,'',"[shoulder_pan_joint, shoulder_lift_joint, elbow_joint, wrist_1_joint, wrist_2_joint,","[1.4047702550888062, -1.1718247572528284, 2.483034372329712, -2.86280328432192, -1.5670059362994593, 2.7206344604492188]","[0.0, 0.0, -0.0, 0.0, 0.0, 0.0]","[-0.7919312119483948, -4.170227527618408, -1.0110565423965454, -0.5719757676124573, 0.0403747595846653, 0.004486084450036287]"
1584443091493541147,,149907,,1584443091,493124620,'',"[shoulder_pan_joint, shoulder_lift_joint, elbow_joint, wrist_1_joint, wrist_2_joint,","[1.4048062562942505, -1.1718123594867151, 2.483058452606201, -2.8628152052508753, -1.5670059362994593, 2.7205989360809326]","[0.0, 0.0, -0.0, 0.0, 0.0, 0.0]","[-0.7644653916358948, -4.124451160430908, -0.9953638911247253, -0.5809479355812073, 0.0291595496237278, 0.004486084450036287]"
1584443091605522451,,149921,,1584443091,605139507,'',"[shoulder_pan_joint, shoulder_lift_joint, elbow_joint, wrist_1_joint, wrist_2_joint,","[1.4048062562942505, -1.1718123594867151, 2.4830822944641113, -2.8628152052508753, -1.5670059362994593, 2.7206225395202637]","[0.0, 0.0, -0.0, 0.0, 0.0, 0.0]","[-0.7736206650733948, -4.179382801055908, -1.0200238227844238, -0.5742188096046448, 0.0336456336081028, 0.008972168900072575]"
1584443091717482385,,149935,,1584443091,717092978,'',"[shoulder_pan_joint, shoulder_lift_joint, elbow_joint, wrist_1_joint, wrist_2_joint,","[1.4047702550888062, -1.17177659669985, 2.483046531677246, -2.8628390471087855, -1.566981617604391, 2.7205989360809326]","[0.0, 0.0, -0.0, 0.0, 0.0, 0.0]","[-0.7873535752296448, -4.106140613555908, -1.002089262008667, -0.5742188096046448, 0.0358886756002903, 0.006729126907885075]"
1584443091829491140,,149949,,1584443091,829148711,'',"[shoulder_pan_joint, shoulder_lift_joint, elbow_joint, wrist_1_joint, wrist_2_joint,","[1.4047822952270508, -1.17180043855776, 2.483046531677246, -2.8628514448748987, -1.566981617604391, 2.720646381378174]","[0.0, 0.0, -0.0, 0.0, 0.0, 0.0]","[-0.7827759385108948, -4.202270984649658, -1.0155401229858398, -0.5697327256202698, 0.02467346377670765, 0.006729126907885075]"
1584443091941518228,,149963,,1584443091,941122079,'',"[shoulder_pan_joint, shoulder_lift_joint, elbow_joint, wrist_1_joint, wrist_2_joint,","[1.4047702550888062, -1.17180043855776, 2.483034372329712, -2.86280328432192, -1.5669696966754358, 2.720646381378174]","[0.0, 0.0, -0.0, 0.0, 0.0, 0.0]","[-0.7827759385108948, -4.161072254180908, -1.006572961807251, -0.5787048935890198, 0.0403747595846653, 0.01345825381577015]"
1584443092053391541,,149977,,1584443092,53080520,'',"[shoulder_pan_joint, shoulder_lift_joint, elbow_joint, wrist_1_joint, wrist_2_joint,","[1.4048062562942505, -1.171788517628805, 2.483058452606201, -2.86280328432192, -1.5670059362994593, 2.7206225395202637]","[0.0, 0.0, -0.0, 0.0, 0.0, 0.0]","[-0.7873535752296448, -4.151916980743408, -1.004331111907959, -0.5764618515968323, 0.0381317175924778, 0.008972168900072575]"
1584443092165486085,,149991,,1584443092,165141502,'',"[shoulder_pan_joint, shoulder_lift_joint, elbow_joint, wrist_1_joint, wrist_2_joint,","[1.4047822952270508, -1.1718123594867151, 2.483046531677246, -2.86280328432192, -1.566981617604391, 2.7205989360809326]","[0.0, 0.0, -0.0, 0.0, 0.0, 0.0]","[-0.7781983017921448, -4.151916980743408, -1.002089262008667, -0.5742188096046448, 0.0426178015768528, 0.008972168900072575]"
1584443092277496043,,150005,,1584443092,277133306,'',"[shoulder_pan_joint, shoulder_lift_joint, elbow_joint, wrist_1_joint, wrist_2_joint,","[1.4047942161560059, -1.1718247572528284, 2.483058452606201, -2.8628514448748987, -1.5669940153705042, 2.7206108570098877]","[0.0, 0.0, -0.0, 0.0, 0.0, 0.0]","[-0.7781983017921448, -4.156494617462158, -1.0132983922958374, -0.5742188096046448, 0.0358886756002903, 0.006729126907885075]"
1584443092389520236,,150019,,1584443092,389115761,'',"[shoulder_pan_joint, shoulder_lift_joint, elbow_joint, wrist_1_joint, wrist_2_joint,","[1.4047822952270508, -1.17180043855776, 2.483046531677246, -2.8628271261798304, -1.5669940153705042, 2.7206225395202637]","[0.0, 0.0, -0.0, 0.0, 0.0, 0.0]","[-0.7965088486671448, -4.151916980743408, -1.0088146924972534, -0.5742188096046448, 0.0336456336081028, 0.004486084450036287]"
1584443092501388799,,150033,,1584443092,501060236,'',"[shoulder_pan_joint, shoulder_lift_joint, elbow_joint, wrist_1_joint, wrist_2_joint,","[1.4047822952270508, -1.17177659669985, 2.4830822944641113, -2.8628152052508753, -1.566981617604391, 2.7206108570098877]","[0.0, 0.0, -0.0, 0.0, 0.0, 0.0]","[-0.7827759385108948, -4.142761707305908, -1.006572961807251, -0.5787048935890198, 0.0291595496237278, 0.008972168900072575]"
1584443092613302066,,150047,,1584443092,613013838,'',"[shoulder_pan_joint, shoulder_lift_joint, elbow_joint, wrist_1_joint, wrist_2_joint,","[1.4047822952270508, -1.17180043855776, 2.4830822944641113, -2.8628271261798304, -1.5669577757464808, 2.7206225395202637]","[0.0, 0.0, -0.0, 0.0, 0.0, 0.0]","[-0.7507324814796448, -4.193115711212158, -1.0110565423965454, -0.5876770615577698, 0.0269165076315403, 0.011215210892260075]"
1584443092725369880,,150061,,1584443092,725018044,'',"[shoulder_pan_joint, shoulder_lift_joint, elbow_joint, wrist_1_joint, wrist_2_joint,","[1.4048062562942505, -1.17180043855776, 2.483058452606201, -2.862863365803854, -1.5669940153705042, 2.7206108570098877]","[0.0, 0.0, -0.0, 0.0, 0.0, 0.0]","[-0.7781983017921448, -4.156494617462158, -1.0132983922958374, -0.5742188096046448, 0.0291595496237278, 0.01794433780014515]"
1584443092837498008,,150075,,1584443092,837149488,'',"[shoulder_pan_joint, shoulder_lift_joint, elbow_joint, wrist_1_joint, wrist_2_joint,","[1.4047702550888062, -1.1718123594867151, 2.483046531677246, -2.8628390471087855, -1.5669940153705042, 2.7206108570098877]","[0.0, 0.0, -0.0, 0.0, 0.0, 0.0]","[-0.7873535752296448, -4.147339344024658, -1.0088146924972534, -0.5742188096046448, 0.0358886756002903, 0.0022430422250181437]"
1584443092949484321,,150089,,1584443092,949080838,'',"[shoulder_pan_joint, shoulder_lift_joint, elbow_joint, wrist_1_joint, wrist_2_joint,","[1.4047822952270508, -1.1718247572528284, 2.4830222129821777, -2.8628390471087855, -1.5670178572284144, 2.7205989360809326]","[0.0, 0.0, -0.0, 0.0, 0.0, 0.0]","[-0.7873535752296448, -4.165649890899658, -0.9998475313186646, -0.5719757676124573, 0.0336456336081028, 0.008972168900072575]"
1584443093061352083,,150103,,1584443093,61025313,'',"[shoulder_pan_joint, shoulder_lift_joint, elbow_joint, wrist_1_joint, wrist_2_joint,","[1.4048062562942505, -1.17180043855776, 2.483046531677246, -2.8628271261798304, -1.5670059362994593, 2.7206344604492188]","[0.0, 0.0, -0.0, 0.0, 0.0, 0.0]","[-0.7873535752296448, -4.174805164337158, -1.002089262008667, -0.5719757676124573, 0.0358886756002903, 0.011215210892260075]"
1584443093173350458,,150117,,1584443093,173022316,'',"[shoulder_pan_joint, shoulder_lift_joint, elbow_joint, wrist_1_joint, wrist_2_joint,","[1.4048062562942505, -1.1718123594867151, 2.4830703735351562, -2.8628390471087855, -1.566981617604391, 2.7206225395202637]","[0.0, 0.0, -0.0, 0.0, 0.0, 0.0]","[-0.7736206650733948, -4.147339344024658, -0.9931221008300781, -0.5764618515968323, 0.006729126907885075, 0.01345825381577015]"
1584443093285301075,,150131,,1584443093,284991527,'',"[shoulder_pan_joint, shoulder_lift_joint, elbow_joint, wrist_1_joint, wrist_2_joint,","[1.4047702550888062, -1.171788517628805, 2.483058452606201, -2.86280328432192, -1.5669940153705042, 2.7205989360809326]","[0.0, 0.0, -0.0, 0.0, 0.0, 0.0]","[-0.7827759385108948, -4.179382801055908, -1.0155401229858398, -0.5876770615577698, 0.0381317175924778, 0.01345825381577015]"
1584443093397329075,,150145,,1584443093,396996184,'',"[shoulder_pan_joint, shoulder_lift_joint, elbow_joint, wrist_1_joint, wrist_2_joint,","[1.4047702550888062, -1.171788517628805, 2.483034372329712, -2.8628390471087855, -1.5670178572284144, 2.7206225395202637]","[0.0, 0.0, -0.0, 0.0, 0.0, 0.0]","[-0.7690430283546448, -4.183960437774658, -1.0200238227844238, -0.5764618515968323, 0.0336456336081028, 0.008972168900072575]"
1584443093509369078,,150159,,1584443093,509012834,'',"[shoulder_pan_joint, shoulder_lift_joint, elbow_joint, wrist_1_joint, wrist_2_joint,","[1.4047822952270508, -1.17177659669985, 2.4830222129821777, -2.8628514448748987, -1.566981617604391, 2.7206344604492188]","[0.0, 0.0, -0.0, 0.0, 0.0, 0.0]","[-0.7644653916358948, -4.161072254180908, -1.0110565423965454, -0.5719757676124573, 0.0358886756002903, 0.008972168900072575]"
1584443093621415814,,150173,,1584443093,621040784,'',"[shoulder_pan_joint, shoulder_lift_joint, elbow_joint, wrist_1_joint, wrist_2_joint,","[1.4048062562942505, -1.17180043855776, 2.4830944538116455, -2.8628514448748987, -1.566981617604391, 2.7206344604492188]","[0.0, 0.0, -0.0, 0.0, 0.0, 0.0]","[-0.7827759385108948, -4.170227527618408, -0.9998475313186646, -0.5831909775733948, 0.0336456336081028, 0.006729126907885075]"
1584443093733347535,,150187,,1584443093,732974329,'',"[shoulder_pan_joint, shoulder_lift_joint, elbow_joint, wrist_1_joint, wrist_2_joint,","[1.4047942161560059, -1.17180043855776, 2.4830703735351562, -2.8628271261798304, -1.566981617604391, 2.7206108570098877]","[0.0, 0.0, -0.0, 0.0, 0.0, 0.0]","[-0.7736206650733948, -4.165649890899658, -1.0088146924972534, -0.5787048935890198, 0.0291595496237278, 0.006729126907885075]"
1584443093845319361,,150201,,1584443093,844985428,'',"[shoulder_pan_joint, shoulder_lift_joint, elbow_joint, wrist_1_joint, wrist_2_joint,","[1.4047942161560059, -1.1718123594867151, 2.4830703735351562, -2.8628390471087855, -1.566981617604391, 2.7205989360809326]","[0.0, 0.0, -0.0, 0.0, 0.0, 0.0]","[-0.7965088486671448, -4.161072254180908, -1.0132983922958374, -0.5787048935890198, 0.0291595496237278, 0.011215210892260075]"
1584443093957360636,,150215,,1584443093,956992450,'',"[shoulder_pan_joint, shoulder_lift_joint, elbow_joint, wrist_1_joint, wrist_2_joint,","[1.4047822952270508, -1.1718247572528284, 2.483058452606201, -2.8628271261798304, -1.566981617604391, 2.7206108570098877]","[0.0, 0.0, -0.0, 0.0, 0.0, 0.0]","[-0.7690430283546448, -4.151916980743408, -1.0110565423965454, -0.5742188096046448, 0.0381317175924778, 0.011215210892260075]"
1584443094069401260,,150229,,1584443094,69032072,'',"[shoulder_pan_joint, shoulder_lift_joint, elbow_joint, wrist_1_joint, wrist_2_joint,","[1.4047942161560059, -1.1718247572528284, 2.483058452606201, -2.8628390471087855, -1.5669696966754358, 2.7206108570098877]","[0.0, 0.0, -0.0, 0.0, 0.0, 0.0]","[-0.7736206650733948, -4.202270984649658, -1.0088146924972534, -0.5585175156593323, 0.0291595496237278, 0.01345825381577015]"
1584443094181248794,,150243,,1584443094,180958583,'',"[shoulder_pan_joint, shoulder_lift_joint, elbow_joint, wrist_1_joint, wrist_2_joint,","[1.4047942161560059, -1.17177659669985, 2.4830822944641113, -2.8628514448748987, -1.566981617604391, 2.7206108570098877]","[0.0, 0.0, -0.0, 0.0, 0.0, 0.0]","[-0.8010864853858948, -4.129028797149658, -1.004331111907959, -0.5719757676124573, 0.0358886756002903, 0.01345825381577015]"
1584443094293299077,,150257,,1584443094,292927183,'',"[shoulder_pan_joint, shoulder_lift_joint, elbow_joint, wrist_1_joint, wrist_2_joint,","[1.4047822952270508, -1.171788517628805, 2.4830703735351562, -2.8628390471087855, -1.5669940153705042, 2.7206344604492188]","[0.0, 0.0, -0.0, 0.0, 0.0, 0.0]","[-0.7644653916358948, -4.119873523712158, -0.9998475313186646, -0.5719757676124573, 0.0291595496237278, 0.0]"
1584443094405282324,,150271,,1584443094,404950424,'',"[shoulder_pan_joint, shoulder_lift_joint, elbow_joint, wrist_1_joint, wrist_2_joint,","[1.4047822952270508, -1.17177659669985, 2.483058452606201, -2.8628390471087855, -1.5670059362994593, 2.7206225395202637]","[0.0, 0.0, -0.0, 0.0, 0.0, 0.0]","[-0.7781983017921448, -4.151916980743408, -1.0177819728851318, -0.5809479355812073, 0.0291595496237278, 0.008972168900072575]"
1584443094517280318,,150285,,1584443094,516957857,'',"[shoulder_pan_joint, shoulder_lift_joint, elbow_joint, wrist_1_joint, wrist_2_joint,","[1.4047702550888062, -1.171788517628805, 2.483046531677246, -2.8628271261798304, -1.5670059362994593, 2.7206108570098877]","[0.0, 0.0, -0.0, 0.0, 0.0, 0.0]","[-0.8102417588233948, -4.174805164337158, -0.9998475313186646, -0.5742188096046448, 0.0314025916159153, 0.011215210892260075]"
1584443094629229742,,150299,,1584443094,628940693,'',"[shoulder_pan_joint, shoulder_lift_joint, elbow_joint, wrist_1_joint, wrist_2_joint,","[1.4048062562942505, -1.171788517628805, 2.4830703735351562, -2.8628514448748987, -1.566981617604391, 2.7206344604492188]","[0.0, 0.0, -0.0, 0.0, 0.0, 0.0]","[-0.7919312119483948, -4.179382801055908, -1.0155401229858398, -0.5742188096046448, 0.0583190992474556, 0.011215210892260075]"
1584443094741189276,,150313,,1584443094,740924802,'',"[shoulder_pan_joint, shoulder_lift_joint, elbow_joint, wrist_1_joint, wrist_2_joint,","[1.4047702550888062, -1.17177659669985, 2.483058452606201, -2.8628271261798304, -1.566981617604391, 2.7206225395202637]","[0.0, 0.0, -0.0, 0.0, 0.0, 0.0]","[-0.8102417588233948, -4.161072254180908, -1.002089262008667, -0.5719757676124573, 0.0336456336081028, 0.01570129580795765]"
1584443094853309598,,150327,,1584443094,853005010,'',"[shoulder_pan_joint, shoulder_lift_joint, elbow_joint, wrist_1_joint, wrist_2_joint,","[1.4047822952270508, -1.17180043855776, 2.4830822944641113, -2.862863365803854, -1.5669940153705042, 2.7206225395202637]","[0.0, 0.0, -0.0, 0.0, 0.0, 0.0]","[-0.7827759385108948, -4.174805164337158, -1.006572961807251, -0.5764618515968323, 0.0381317175924778, 0.02243042178452015]"
1584443094965250006,,150341,,1584443094,964916724,'',"[shoulder_pan_joint, shoulder_lift_joint, elbow_joint, wrist_1_joint, wrist_2_joint,","[1.4058016538619995, -1.1714885870562952, 2.4815948009490967, -2.861438576375143, -1.5670059362994593, 2.722550392150879]","[0.010009224526584148, 0.002940129954367876, -0.015301458537578583, 0.015033012256026268, 0.0, 0.02155243046581745]","[0.9201050996780396, -2.774048089981079, -1.9952113628387451, -0.0919647291302681, 0.01794433780014515, 0.4015045464038849]"
1584443095077296641,,150355,,1584443095,76936639,'',"[shoulder_pan_joint, shoulder_lift_joint, elbow_joint, wrist_1_joint, wrist_2_joint,","[1.4049739837646484, -1.171668831502096, 2.4820382595062256, -2.8622406164752405, -1.566981617604391, 2.720323324203491]","[-0.023610521107912064, -0.0034258905798196793, 0.00942119862884283, -0.01635606959462166, 0.0, -0.054302919656038284]","[-1.0070801973342896, -4.083252429962158, -0.9460440278053284, -0.6235657334327698, 0.008972168900072575, -0.3745880424976349]"
1584443095189209878,,150369,,1584443095,188908986,'',"[shoulder_pan_joint, shoulder_lift_joint, elbow_joint, wrist_1_joint, wrist_2_joint,","[1.403822422027588, -1.1716445128070276, 2.4817745685577393, -2.8621090094195765, -1.5670297781573694, 2.7165396213531494]","[0.0027355991769582033, 0.0005624596378766, -0.004307929426431656, 0.005829127039760351, 0.0, -0.015665778890252113]","[0.2471924126148224, -3.213501214981079, -1.7598212957382202, -0.3072967827320099, 0.006729126907885075, -0.2960815727710724]"
1584443095301257575,,150383,,1584443095,300946074,'',"[shoulder_pan_joint, shoulder_lift_joint, elbow_joint, wrist_1_joint, wrist_2_joint,","[1.4055500030517578, -1.1716325918780726, 2.4817745685577393, -2.862048927937643, -1.5670178572284144, 2.7184436321258545]","[0.01733398251235485, 0.0001661812566453591, -0.0004218447138555348, 0.0003451456723269075, 0.0, 0.04247209429740906]","[0.8926392793655396, -3.575134754180908, -1.3966479301452637, -0.4239349663257599, 0.01794433780014515, 0.3274841606616974]"
1584443095413183085,,150397,,1584443095,412899295,'',"[shoulder_pan_joint, shoulder_lift_joint, elbow_joint, wrist_1_joint, wrist_2_joint,","[1.4068214893341064, -1.1716325918780726, 2.4817986488342285, -2.862060848866598, -1.5670297781573694, 2.7224066257476807]","[0.004550809971988201, 8.948221511673182e-05, 0.0003451456723269075, 0.00015339808305725455, 0.0, 0.02504223771393299]","[0.6500244736671448, -3.616333484649658, -1.2957664728164673, -0.4553375840187073, 0.01794433780014515, 0.3835602104663849]"
1584443095525231664,,150411,,1584443095,524903030,'',"[shoulder_pan_joint, shoulder_lift_joint, elbow_joint, wrist_1_joint, wrist_2_joint,","[1.4051780700683594, -1.1716445128070276, 2.481834650039673, -2.862072769795553, -1.5669696966754358, 2.720993995666504]","[-0.024057932198047638, 6.391586794052273e-05, 0.0003579288604669273, -3.834952076431364e-05, 0.0, -0.05363180488348007]","[-1.0803223848342896, -3.524780750274658, -1.3787134885787964, -0.4486084580421448, 0.008972168900072575, -0.3297272026538849]"
1584443095637222795,,150425,,1584443095,636905904,'',"[shoulder_pan_joint, shoulder_lift_joint, elbow_joint, wrist_1_joint, wrist_2_joint,","[1.4034029245376587, -1.171656910573141, 2.4818224906921387, -2.8620970884906214, -1.566981617604391, 2.716264247894287]","[-0.005036570131778717, 0.0, 0.0002812298189383, -3.834952076431364e-05, 0.0, -0.031676702201366425]","[-0.9979249238967896, -3.456115961074829, -1.4257915019989014, -0.4216919243335724, 0.0, -0.3633728325366974]"
1584443095749210812,,150439,,1584443095,748897677,'',"[shoulder_pan_joint, shoulder_lift_joint, elbow_joint, wrist_1_joint, wrist_2_joint,","[1.4048062562942505, -1.171656910573141, 2.4817986488342285, -2.862060848866598, -1.5670178572284144, 2.715174913406372]","[0.02214045636355877, 0.0, -0.00021731395099777728, 0.0, 0.0, 0.03326820954680443]","[0.9292603731155396, -3.543091297149658, -1.4773530960083008, -0.4037475883960724, 0.01794433780014515, 0.1368255764245987]"
1584443095861271984,,150453,,1584443095,860912092,'',"[shoulder_pan_joint, shoulder_lift_joint, elbow_joint, wrist_1_joint, wrist_2_joint,","[1.4070850610733032, -1.171668831502096, 2.4818224906921387, -2.862060848866598, -1.5669940153705042, 2.7200958728790283]","[0.016682041808962822, 0.0, -0.0001917476038215682, 0.0, 0.0, 0.04145583137869835]","[1.0528565645217896, -3.570557117462158, -1.3966479301452637, -0.4194488823413849, 0.02018737979233265, 0.3297272026538849]"
1584443095973186172,,150467,,1584443095,972879320,'',"[shoulder_pan_joint, shoulder_lift_joint, elbow_joint, wrist_1_joint, wrist_2_joint,","[1.4073251485824585, -1.171656910573141, 2.4818105697631836, -2.862060848866598, -1.567089859639303, 2.7222273349761963]","[-0.023431556299328804, 0.0, 2.5566347176209092e-05, 0.0, 0.0, -0.03856044262647629]","[-0.8697510361671448, -3.703308582305908, -1.1724668741226196, -0.5293579697608948, 0.008972168900072575, -0.1031799390912056]"
1584443096085208392,,150481,,1584443096,84867476,'',"[shoulder_pan_joint, shoulder_lift_joint, elbow_joint, wrist_1_joint, wrist_2_joint,","[1.4051661491394043, -1.1716206709491175, 2.481522560119629, -2.8619535605060022, -1.5670655409442347, 2.71698260307312]","[-0.007503722794353962, 0.0, -0.004282363224774599, 0.0014956312952563167, 0.0, -0.035722579807043076]","[-1.1398316621780396, -3.327942132949829, -1.6163454055786133, -0.3431854546070099, 0.008972168900072575, -0.3274841606616974]"
1584443096197174838,,150495,,1584443096,196857917,'',"[shoulder_pan_joint, shoulder_lift_joint, elbow_joint, wrist_1_joint, wrist_2_joint,","[1.4072412252426147, -1.1715605894671839, 2.4801788330078125, -2.8607800642596644, -1.567101780568258, 2.7164077758789062]","[0.038963112980127335, 0.00250550196506083, -0.01865065097808838, 0.017602430656552315, -0.00023009712458588183, 0.049490056931972504]","[1.0482789278030396, -2.902221918106079, -1.8629446029663086, -0.1794433742761612, 0.0336456336081028, 0.2601929008960724]"
1584443096309188883,,150509,,1584443096,308851333,'',"[shoulder_pan_joint, shoulder_lift_joint, elbow_joint, wrist_1_joint, wrist_2_joint,","[1.4121589660644531, -1.1713445822345179, 2.4782230854034424, -2.859558884297506, -1.567089859639303, 2.721820116043091]","[0.05435405299067497, 0.0004474110610317439, -0.022651784121990204, 0.009472331963479519, -0.00015339808305725455, 0.042932286858558655]","[0.9246827363967896, -2.632141351699829, -1.726194143295288, -0.1704712063074112, 0.0291595496237278, 0.4104767143726349]"
1584443096421223496,,150523,,1584443096,420857924,'',"[shoulder_pan_joint, shoulder_lift_joint, elbow_joint, wrist_1_joint, wrist_2_joint,","[1.4190078973770142, -1.1701820532428187, 2.473808526992798, -2.857642952595846, -1.567089859639303, 2.725998878479004]","[0.0604388453066349, 0.01715501956641674, -0.059416189789772034, 0.025847576558589935, -9.58738019107841e-05, 0.03286553919315338]","[0.8193970322608948, -2.600097894668579, -1.8786371946334839, -0.1345825344324112, 0.0515899695456028, 0.3297272026538849]"
1584443096533141792,,150537,,1584443096,532849176,'',"[shoulder_pan_joint, shoulder_lift_joint, elbow_joint, wrist_1_joint, wrist_2_joint,","[1.4260010719299316, -1.167436424885885, 2.4653615951538086, -2.8535130659686487, -1.5671256224261683, 2.7297706604003906]","[0.07086991518735886, 0.0288899727165699, -0.08035502582788467, 0.045655105262994766, -7.669904152862728e-05, 0.03767840564250946]","[1.1947633028030396, -2.572632074356079, -1.7172268629074097, -0.0717773512005806, 0.0381317175924778, 0.2512207329273224]"
1584443096645126913,,150551,,1584443096,644821142,'',"[shoulder_pan_joint, shoulder_lift_joint, elbow_joint, wrist_1_joint, wrist_2_joint,","[1.4343132972717285, -1.1641514937030237, 2.455211639404297, -2.8478739897357386, -1.5671137014972132, 2.734931230545044]","[0.07451311498880386, 0.034335605800151825, -0.09403302520513535, 0.05342088267207146, -5.752428114647046e-05, 0.04908738657832146]","[0.8056641221046448, -2.426147699356079, -1.8382846117019653, -0.004486084450036287, 0.0426178015768528, 0.3140259087085724]"
1584443096757244069,,150565,,1584443096,756913272,'',"[shoulder_pan_joint, shoulder_lift_joint, elbow_joint, wrist_1_joint, wrist_2_joint,","[1.443285346031189, -1.1598470846759241, 2.4452052116394043, -2.841935459767477, -1.5671256224261683, 2.7399845123291016]","[0.0737844780087471, 0.04017751291394234, -0.08649095147848129, 0.052021123468875885, -3.834952076431364e-05, 0.03796602413058281]","[1.0025025606155396, -2.558899164199829, -1.836042881011963, -0.1435547024011612, 0.0807495191693306, 0.3476715385913849]"
1584443096869160472,,150579,,1584443096,868837469,'',"[shoulder_pan_joint, shoulder_lift_joint, elbow_joint, wrist_1_joint, wrist_2_joint,","[1.4503260850906372, -1.155710522328512, 2.4378862380981445, -2.837146584187643, -1.5671494642840784, 2.743959426879883]","[0.054967645555734634, 0.02660178393125534, -0.0523470938205719, 0.033613353967666626, -3.834952076431364e-05, 0.03194515034556389]","[0.8834840059280396, -2.961731195449829, -2.0422894954681396, -0.1592559963464737, 0.0650482252240181, 0.3140259087085724]"
1584443096981116188,,150593,,1584443096,980845963,'',"[shoulder_pan_joint, shoulder_lift_joint, elbow_joint, wrist_1_joint, wrist_2_joint,","[1.455939531326294, -1.1535404364215296, 2.4317426681518555, -2.8334587256061, -1.5671137014972132, 2.7477312088012695]","[0.04639013484120369, 0.01678430661559105, -0.05261554196476936, 0.03315316140651703, 0.0, 0.0369497612118721]","[0.8880616426467896, -2.838135004043579, -1.9234734773635864, -0.0874786451458931, 0.0874786451458931, 0.3319702446460724]"
1584443097093140421,,150607,,1584443097,92811728,'',"[shoulder_pan_joint, shoulder_lift_joint, elbow_joint, wrist_1_joint, wrist_2_joint,","[1.4606897830963135, -1.1520775000201624, 2.427663564682007, -2.830597702656881, -1.5671613852130335, 2.7515268325805664]","[0.044613275676965714, 0.009855826385319233, -0.02352103963494301, 0.01817767322063446, 0.0, 0.033364083617925644]","[0.8102417588233948, -2.975464105606079, -1.9010553359985352, -0.1054229810833931, 0.0829925611615181, 0.3386993706226349]"
1584443097205266675,,150621,,1584443097,204875736,'',"[shoulder_pan_joint, shoulder_lift_joint, elbow_joint, wrist_1_joint, wrist_2_joint,","[1.4663392305374146, -1.1516101996051233, 2.425299644470215, -2.8288257757769983, -1.5671375433551233, 2.754220962524414]","[0.052257612347602844, 0.0008692558039911091, -0.023815052583813667, 0.01179247722029686, 0.0, 0.014055099338293076]","[0.9063721895217896, -2.897644281387329, -1.9391660690307617, -0.1457977443933487, 0.0650482252240181, 0.3431854546070099]"
1584443097317249211,,150635,,1584443097,316871416,'',"[shoulder_pan_joint, shoulder_lift_joint, elbow_joint, wrist_1_joint, wrist_2_joint,","[1.4717729091644287, -1.1507466475116175, 2.4219284057617188, -2.8271973768817347, -1.5671375433551233, 2.755262851715088]","[0.0417754128575325, 0.014764565043151379, -0.03557557240128517, 0.0175065565854311, 0.0, 0.0011696603614836931]","[0.7827759385108948, -2.833557367324829, -1.9279570579528809, -0.1278534084558487, 0.0762634351849556, -0.006729126907885075]"
1584443097429233320,,150649,,1584443097,428835818,'',"[shoulder_pan_joint, shoulder_lift_joint, elbow_joint, wrist_1_joint, wrist_2_joint,","[1.4762232303619385, -1.1486604849444788, 2.4180166721343994, -2.825054947529928, -1.5671256224261683, 2.750976324081421]","[0.03494919463992119, 0.015199193730950356, -0.022587867453694344, 0.014553642831742764, 0.0, -0.051963601261377335]","[1.1901856660842896, -2.897644281387329, -2.019871234893799, -0.1413116604089737, 0.1143951565027237, -0.3252411186695099]"
1584443097541228840,,150663,,1584443097,540830436,'',"[shoulder_pan_joint, shoulder_lift_joint, elbow_joint, wrist_1_joint, wrist_2_joint,","[1.4787178039550781, -1.1482647101031702, 2.4175844192504883, -2.8249228636371058, -1.5671494642840784, 2.7450852394104004]","[0.010610033757984638, 0.0006008091731928289, 0.006672816351056099, -0.0065961177460849285, 0.0, -0.050218697637319565]","[0.9338380098342896, -3.918457508087158, -1.3159427642822266, -0.4934692978858948, 0.0897216871380806, -0.3476715385913849]"
1584443097653163016,,150677,,1584443097,652804727,'',"[shoulder_pan_joint, shoulder_lift_joint, elbow_joint, wrist_1_joint, wrist_2_joint,","[1.4785619974136353, -1.1484082380877894, 2.4184484481811523, -2.826024357472555, -1.567089859639303, 2.7387747764587402]","[-0.012041749432682991, -0.0010993529576808214, 0.007120227441191673, -0.007190535310655832, 0.0, -0.0672842338681221]","[-0.8514404892921448, -4.124451160430908, -1.1186634302139282, -0.5899201035499573, 0.1188812404870987, -0.2781372368335724]"
1584443097765242863,,150691,,1584443097,764870889,'',"[shoulder_pan_joint, shoulder_lift_joint, elbow_joint, wrist_1_joint, wrist_2_joint,","[1.4769306182861328, -1.1483724753009241, 2.418520450592041, -2.8260844389544886, -1.567089859639303, 2.730991840362549]","[-0.013984791934490204, -0.00021731395099777728, 0.0005624596378766, -0.00036432043998502195, 0.0, -0.06571190059185028]","[-0.8056641221046448, -3.758240222930908, -1.4437259435653687, -0.4844971299171448, 0.0695343092083931, -0.3678589165210724]"
1584443097877260975,,150705,,1584443097,876858194,'',"[shoulder_pan_joint, shoulder_lift_joint, elbow_joint, wrist_1_joint, wrist_2_joint,","[1.4751195907592773, -1.1483843962298792, 2.418532371520996, -2.8260844389544886, -1.5671137014972132, 2.7235443592071533]","[-0.02028689719736576, -0.00010226538870483637, 0.00020453077740967274, -0.00015339808305725455, 0.0, -0.07326675951480865]","[-0.9567261934280396, -3.749084949493408, -1.4392423629760742, -0.4800110459327698, 0.0471038855612278, -0.2848663628101349]"
1584443097989164794,,150719,,1584443097,988811234,'',"[shoulder_pan_joint, shoulder_lift_joint, elbow_joint, wrist_1_joint, wrist_2_joint,","[1.4725167751312256, -1.1483963171588343, 2.418508291244507, -2.8260844389544886, -1.5670536200152796, 2.715294361114502]","[-0.02473544143140316, -6.391586794052273e-05, 0.00012783173588104546, -9.58738019107841e-05, 0.0, -0.059844426810741425]","[-1.0482789278030396, -3.639221668243408, -1.5446075201034546, -0.4396362900733948, 0.0538330152630806, -0.3566437065601349]"
1584443098101136109,,150733,,1584443098,100790054,'',"[shoulder_pan_joint, shoulder_lift_joint, elbow_joint, wrist_1_joint, wrist_2_joint,","[1.4692296981811523, -1.1484082380877894, 2.418544292449951, -2.8260963598834437, -1.567077938710348, 2.710289478302002]","[-0.03739078342914581, -5.1132694352418184e-05, 8.948221511673182e-05, -7.669904152862728e-05, 0.0, -0.04020947217941284]","[-0.9750367403030396, -3.730774402618408, -1.3899224996566772, -0.5046845078468323, 0.0448608435690403, -0.3072967827320099]"
1584443098213299041,,150747,,1584443098,212862096,'',"[shoulder_pan_joint, shoulder_lift_joint, elbow_joint, wrist_1_joint, wrist_2_joint,","[1.4647917747497559, -1.1484082380877894, 2.418544292449951, -2.8260605970965784, -1.567077938710348, 2.7059552669525146]","[-0.036802757531404495, -3.834952076431364e-05, 6.391586794052273e-05, -5.752428114647046e-05, 0.0, -0.04266384243965149]","[-0.8605957627296448, -3.639221668243408, -1.454935073852539, -0.4777680039405823, 0.0403747595846653, -0.3252411186695099]"
1584443098325185879,,150761,,1584443098,324759924,'',"[shoulder_pan_joint, shoulder_lift_joint, elbow_joint, wrist_1_joint, wrist_2_joint,","[1.4612294435501099, -1.1484206358539026, 2.418520450592041, -2.8260844389544886, -1.5670536200152796, 2.7017405033111572]","[-0.026576217263936996, -2.5566347176209092e-05, 5.1132694352418184e-05, -3.834952076431364e-05, 0.0, -0.023009711876511574]","[-1.1032105684280396, -3.598022937774658, -1.546849250793457, -0.4575806260108948, 0.0336456336081028, -0.3162689507007599]"
1584443098437174366,,150775,,1584443098,436798785,'',"[shoulder_pan_joint, shoulder_lift_joint, elbow_joint, wrist_1_joint, wrist_2_joint,","[1.4586626291275024, -1.1483963171588343, 2.418544292449951, -2.826120201741354, -1.5670655409442347, 2.699932098388672]","[-0.01943042315542698, -2.5566347176209092e-05, 3.834952076431364e-05, -3.834952076431364e-05, 0.0, -0.003930825740098953]","[-1.0940552949905396, -3.598022937774658, -1.5333983898162842, -0.4643097519874573, 0.02467346377670765, -0.2018737941980362]"
1584443098549136062,,150789,,1584443098,548781451,'',"[shoulder_pan_joint, shoulder_lift_joint, elbow_joint, wrist_1_joint, wrist_2_joint,","[1.4567792415618896, -1.1483843962298792, 2.418544292449951, -2.8260963598834437, -1.5670536200152796, 2.704099178314209]","[-0.018919097259640694, -2.5566347176209092e-05, 3.834952076431364e-05, -3.834952076431364e-05, 0.0, 0.04506068676710129]","[-1.0162354707717896, -3.684998035430908, -1.454935073852539, -0.4934692978858948, 0.0336456336081028, 0.3095398247241974]"
1584443098661060079,,150803,,1584443098,660765139,'',"[shoulder_pan_joint, shoulder_lift_joint, elbow_joint, wrist_1_joint, wrist_2_joint,","[1.4547404050827026, -1.1483843962298792, 2.4185564517974854, -2.8260844389544886, -1.567077938710348, 2.708254098892212]","[-0.01751294732093811, -1.2783173588104546e-05, 3.834952076431364e-05, -1.917476038215682e-05, 0.0, 0.02822524681687355]","[-0.9613038301467896, -3.639221668243408, -1.4437259435653687, -0.4687958359718323, 0.0269165076315403, 0.3409424126148224]"
1584443098773045911,,150817,,1584443098,772747474,'',"[shoulder_pan_joint, shoulder_lift_joint, elbow_joint, wrist_1_joint, wrist_2_joint,","[1.453037142753601, -1.1483963171588343, 2.418544292449951, -2.826120201741354, -1.5670416990863245, 2.7107205390930176]","[-0.012719257734715939, -1.2783173588104546e-05, 2.5566347176209092e-05, -1.917476038215682e-05, 0.0, 0.017065536230802536]","[-1.0482789278030396, -3.602600574493408, -1.4840785264968872, -0.4620667099952698, 0.0336456336081028, 0.3185119926929474]"
1584443098885092897,,150831,,1584443098,884759185,'',"[shoulder_pan_joint, shoulder_lift_joint, elbow_joint, wrist_1_joint, wrist_2_joint,","[1.4526293277740479, -1.1483963171588343, 2.418508291244507, -2.8260725180255335, -1.5670655409442347, 2.7126362323760986]","[0.0037326866295188665, -1.2783173588104546e-05, 2.5566347176209092e-05, -1.917476038215682e-05, 0.0, 0.018273547291755676]","[0.3021240532398224, -3.611755847930908, -1.5378820896148682, -0.4598236680030823, 0.0291595496237278, 0.3117828667163849]"
1584443098997046329,,150845,,1584443098,996763902,'',"[shoulder_pan_joint, shoulder_lift_joint, elbow_joint, wrist_1_joint, wrist_2_joint,","[1.45403254032135, -1.1484082380877894, 2.418544292449951, -2.8260725180255335, -1.5670536200152796, 2.715186834335327]","[0.01507136132568121, -1.2783173588104546e-05, -1.2783173588104546e-05, -1.917476038215682e-05, 0.0, 0.027304857969284058]","[0.9796143770217896, -3.707886219024658, -1.4571768045425415, -0.4598236680030823, 0.0358886756002903, 0.2781372368335724]"
1584443099109186058,,150859,,1584443099,108791031,'',"[shoulder_pan_joint, shoulder_lift_joint, elbow_joint, wrist_1_joint, wrist_2_joint,","[1.455291986465454, -1.1483963171588343, 2.4185683727264404, -2.8260844389544886, -1.5670536200152796, 2.71806001663208]","[0.007721036672592163, -1.2783173588104546e-05, -1.2783173588104546e-05, -1.917476038215682e-05, 0.0, 0.02425607107579708]","[0.8331299424171448, -3.698730945587158, -1.499771237373352, -0.4665527939796448, 0.0336456336081028, 0.3095398247241974]"
1584443099221219098,,150873,,1584443099,220811317,'',"[shoulder_pan_joint, shoulder_lift_joint, elbow_joint, wrist_1_joint, wrist_2_joint,","[1.4554238319396973, -1.148360554371969, 2.418532371520996, -2.826024357472555, -1.567101780568258, 2.720682382583618]","[-0.00023009712458588183, -1.2783173588104546e-05, -1.2783173588104546e-05, -1.917476038215682e-05, 0.0, 0.024754615500569344]","[0.0366210974752903, -3.662109851837158, -1.5177057981491089, -0.4710388779640198, 0.0269165076315403, 0.2848663628101349]"
1584443099333177950,,150887,,1584443099,332785137,'',"[shoulder_pan_joint, shoulder_lift_joint, elbow_joint, wrist_1_joint, wrist_2_joint,","[1.4554238319396973, -1.1483963171588343, 2.4185564517974854, -2.8260844389544886, -1.567077938710348, 2.7233409881591797]","[-0.00020453077740967274, -1.2783173588104546e-05, -1.2783173588104546e-05, -1.917476038215682e-05, 0.0, 0.023124760016798973]","[0.0320434607565403, -3.684998035430908, -1.5221893787384033, -0.4306641221046448, 0.0381317175924778, 0.3005676567554474]"
1584443099445111254,,150901,,1584443099,444750060,'',"[shoulder_pan_joint, shoulder_lift_joint, elbow_joint, wrist_1_joint, wrist_2_joint,","[1.455435872077942, -1.1483963171588343, 2.4185802936553955, -2.8260725180255335, -1.5671256224261683, 2.7261903285980225]","[-0.00021731395099777728, -1.2783173588104546e-05, -1.2783173588104546e-05, 0.0, 0.0, 0.02569417841732502]","[0.02288818545639515, -3.611755847930908, -1.5333983898162842, -0.4441223740577698, 0.0358886756002903, 0.2893524467945099]"
1584443099557170453,,150915,,1584443099,556744799,'',"[shoulder_pan_joint, shoulder_lift_joint, elbow_joint, wrist_1_joint, wrist_2_joint,","[1.455435872077942, -1.1484082380877894, 2.4185564517974854, -2.8260725180255335, -1.567089859639303, 2.729471445083618]","[-0.00010226538870483637, -1.2783173588104546e-05, -1.2783173588104546e-05, 0.0, 0.0, 0.033249035477638245]","[0.1556396633386612, -3.666687488555908, -1.499771237373352, -0.4643097519874573, 0.0336456336081028, 0.2422485649585724]"
1584443099669223089,,150929,,1584443099,668781796,'',"[shoulder_pan_joint, shoulder_lift_joint, elbow_joint, wrist_1_joint, wrist_2_joint,","[1.4554119110107422, -1.1484082380877894, 2.4185683727264404, -2.8260725180255335, -1.567077938710348, 2.7342724800109863]","[0.0, 0.0, -1.2783173588104546e-05, 0.0, 0.0, 0.04628787189722061]","[-0.0274658240377903, -3.671265125274658, -1.4616605043411255, -0.4844971299171448, 0.0426178015768528, 0.2938385307788849]"
1584443099781117050,,150943,,1584443099,780721853,'',"[shoulder_pan_joint, shoulder_lift_joint, elbow_joint, wrist_1_joint, wrist_2_joint,","[1.4553279876708984, -1.1483843962298792, 2.418520450592041, -2.82603627840151, -1.5671137014972132, 2.739109992980957]","[-0.002377670258283615, 0.0, -1.2783173588104546e-05, 0.0, 0.0, 0.036374520510435104]","[-0.2059936672449112, -3.648376941680908, -1.5311566591262817, -0.4508515000343323, 0.0403747595846653, 0.3386993706226349]"
1584443099893084818,,150957,,1584443099,892724766,'',"[shoulder_pan_joint, shoulder_lift_joint, elbow_joint, wrist_1_joint, wrist_2_joint,","[1.455507755279541, -1.1484082380877894, 2.418316602706909, -2.82603627840151, -1.5671375433551233, 2.7427382469177246]","[0.0019174760673195124, 0.0, -0.002019741339609027, 0.0, 0.0, 0.026461169123649597]","[0.4211426079273224, -3.565979480743408, -1.593927264213562, -0.4194488823413849, 0.0403747595846653, 0.3813171684741974]"
1584443100005146581,,150971,,1584443100,4752326,'',"[shoulder_pan_joint, shoulder_lift_joint, elbow_joint, wrist_1_joint, wrist_2_joint,","[1.4555317163467407, -1.148348633443014, 2.418064594268799, -2.8259766737567347, -1.5671494642840784, 2.7441632747650146]","[0.0007158577209338546, 0.0, -0.004461327567696571, 0.0, 0.0, 0.0041609229519963264]","[0.0320434607565403, -3.579712390899658, -1.5647838115692139, -0.4104767143726349, 0.0448608435690403, 0.2714081108570099]"
1584443100117229485,,150985,,1584443100,116771220,'',"[shoulder_pan_joint, shoulder_lift_joint, elbow_joint, wrist_1_joint, wrist_2_joint,","[1.4555920362472534, -1.148024861012594, 2.41601300239563, -2.824959103261129, -1.5671737829791468, 2.741349220275879]","[0.0038605183362960815, 0.011786085553467274, -0.04072719067335129, 0.02141820639371872, -5.752428114647046e-05, -0.037582531571388245]","[0.3067016899585724, -2.774048089981079, -1.6723906993865967, -0.1637420803308487, 0.0538330152630806, -0.2691650688648224]"
1584443100229051481,,150999,,1584443100,228709824,'',"[shoulder_pan_joint, shoulder_lift_joint, elbow_joint, wrist_1_joint, wrist_2_joint,","[1.4575588703155518, -1.1454113165484827, 2.4075655937194824, -2.820887867604391, -1.5672696272479456, 2.7370386123657227]","[0.03544773906469345, 0.04001133143901825, -0.10997363924980164, 0.05639297142624855, -0.0005944175645709038, -0.041129861027002335]","[0.8789063692092896, -2.439880609512329, -1.6858415603637695, -0.1233673244714737, 0.0471038855612278, -0.3028106987476349]"
1584443100341050348,,151013,,1584443100,340705554,'',"[shoulder_pan_joint, shoulder_lift_joint, elbow_joint, wrist_1_joint, wrist_2_joint,","[1.4636281728744507, -1.1396682898150843, 2.394355058670044, -2.813453499470846, -1.5672696272479456, 2.7334704399108887]","[0.07923010736703873, 0.053229134529829025, -0.12455924600362778, 0.07520341128110886, -0.0001917476038215682, -0.018848789855837822]","[1.1672974824905396, -2.778625726699829, -1.8293174505233765, -0.0717773512005806, 0.0426178015768528, -0.2624359428882599]"
1584443100453099818,,151027,,1584443100,452728716,'',"[shoulder_pan_joint, shoulder_lift_joint, elbow_joint, wrist_1_joint, wrist_2_joint,","[1.4735361337661743, -1.1334460417376917, 2.3820197582244873, -2.8059232870685022, -1.567221466694967, 2.731626510620117]","[0.09225616604089737, 0.0551210455596447, -0.07539515942335129, 0.05976772680878639, -0.00011504856229294091, -0.007880826480686665]","[1.0025025606155396, -3.012085199356079, -2.1297199726104736, -0.1368255764245987, 0.0515899695456028, -0.2579498589038849]"
1584443100565137717,,151041,,1584443100,564738463,'',"[shoulder_pan_joint, shoulder_lift_joint, elbow_joint, wrist_1_joint, wrist_2_joint,","[1.4831081628799438, -1.1295254866229456, 2.37660813331604, -2.801852528248922, -1.5671737829791468, 2.735398292541504]","[0.07009013742208481, 0.01082734763622284, -0.017768610268831253, 0.016950488090515137, -7.669904152862728e-05, 0.05338253080844879]","[1.1535645723342896, -3.433227777481079, -2.1543798446655273, -0.0762634351849556, 0.0829925611615181, 0.3005676567554474]"
1584443100677174544,,151055,,1584443100,676789246,'',"[shoulder_pan_joint, shoulder_lift_joint, elbow_joint, wrist_1_joint, wrist_2_joint,","[1.4900530576705933, -1.1295374075519007, 2.376296281814575, -2.801469628010885, -1.5672577063189905, 2.740535020828247]","[0.058291271328926086, -0.0011121360585093498, 0.001252750982530415, -0.000997087568975985, -5.752428114647046e-05, 0.037525005638599396]","[0.9567261934280396, -4.389954090118408, -1.5221893787384033, -0.3858032524585724, 0.0986938551068306, 0.3476715385913849]"
1584443100789102248,,151069,,1584443100,788723702,'',"[shoulder_pan_joint, shoulder_lift_joint, elbow_joint, wrist_1_joint, wrist_2_joint,","[1.4954863786697388, -1.1295493284808558, 2.376284122467041, -2.801493469868795, -1.5672333876239222, 2.7437796592712402]","[0.03898867964744568, -0.0003323625132907182, 0.0003323625132907182, -0.00032597093377262354, -3.834952076431364e-05, 0.015857527032494545]","[1.0253907442092896, -4.280090808868408, -1.6275544166564941, -0.3386993706226349, 0.1054229810833931, 0.3252411186695099]"
1584443100901159353,,151083,,1584443100,900730312,'',"[shoulder_pan_joint, shoulder_lift_joint, elbow_joint, wrist_1_joint, wrist_2_joint,","[1.499792456626892, -1.1295855681048792, 2.376260280609131, -2.801493469868795, -1.5672333876239222, 2.7450971603393555]","[0.04169871285557747, -0.0001661812566453591, 0.0001661812566453591, -0.00015339808305725455, -3.834952076431364e-05, 0.011121360585093498]","[0.9796143770217896, -4.280090808868408, -1.7037760019302368, -0.3162689507007599, 0.1390686184167862, 0.2893524467945099]"
1584443101013036412,,151097,,1584443101,12650452,'',"[shoulder_pan_joint, shoulder_lift_joint, elbow_joint, wrist_1_joint, wrist_2_joint,","[1.5042423009872437, -1.129597012196676, 2.376296281814575, -2.80148154893984, -1.5672577063189905, 2.7452406883239746]","[0.03250760957598686, -0.00012783173588104546, 0.00010226538870483637, -9.58738019107841e-05, -3.834952076431364e-05, -0.009165535680949688]","[0.9155274629592896, -4.165649890899658, -1.7127432823181152, -0.3207550346851349, 0.1031799390912056, -0.1278534084558487]"
1584443101125019329,,151111,,1584443101,124702828,'',"[shoulder_pan_joint, shoulder_lift_joint, elbow_joint, wrist_1_joint, wrist_2_joint,","[1.5064493417739868, -1.1295612494098108, 2.376272201538086, -2.8015173117267054, -1.5672453085528772, 2.741481065750122]","[0.005573463626205921, -7.669904152862728e-05, 7.669904152862728e-05, -7.669904152862728e-05, -1.917476038215682e-05, -0.04484976455569267]","[0.9658814668655396, -4.183960437774658, -1.6253126859664917, -0.3588867485523224, 0.1211242824792862, -0.2758941948413849]"
1584443101237148839,,151125,,1584443101,236671889,'',"[shoulder_pan_joint, shoulder_lift_joint, elbow_joint, wrist_1_joint, wrist_2_joint,","[1.5049980878829956, -1.129597012196676, 2.3762362003326416, -2.8015530745135706, -1.567221466694967, 2.734727621078491]","[-0.030014891177415848, -5.1132694352418184e-05, 6.391586794052273e-05, -5.752428114647046e-05, -1.917476038215682e-05, -0.0679745227098465]","[-0.9475709199905396, -4.042053699493408, -1.6970505714416504, -0.3297272026538849, 0.0807495191693306, -0.3970184624195099]"
1584443101349065842,,151139,,1584443101,348676115,'',"[shoulder_pan_joint, shoulder_lift_joint, elbow_joint, wrist_1_joint, wrist_2_joint,","[1.501531720161438, -1.1295855681048792, 2.3762362003326416, -2.801588837300436, -1.567221466694967, 2.72874116897583]","[-0.02846812829375267, -3.834952076431364e-05, 5.1132694352418184e-05, -5.752428114647046e-05, -1.917476038215682e-05, -0.037946850061416626]","[-0.7461548447608948, -4.087830066680908, -1.6948087215423584, -0.3364563286304474, 0.0672912672162056, -0.3005676567554474]"
1584443101461071551,,151153,,1584443101,460677045,'',"[shoulder_pan_joint, shoulder_lift_joint, elbow_joint, wrist_1_joint, wrist_2_joint,","[1.4982569217681885, -1.129597012196676, 2.376248359680176, -2.8016250769244593, -1.567197624837057, 2.7240712642669678]","[-0.02822524681687355, -3.834952076431364e-05, 3.834952076431364e-05, -0.0004026699753012508, -1.917476038215682e-05, -0.04147500544786453]","[-1.1123658418655396, -4.133606433868408, -1.6544561386108398, -0.3499145805835724, 0.0471038855612278, -0.2915954887866974]"
1584443101572981362,,151167,,1584443101,572610079,'',"[shoulder_pan_joint, shoulder_lift_joint, elbow_joint, wrist_1_joint, wrist_2_joint,","[1.49513840675354, -1.129573170338766, 2.376260280609131, -2.8016250769244593, -1.567197624837057, 2.719078302383423]","[-0.02960583008825779, -2.5566347176209092e-05, 3.834952076431364e-05, -0.00017257283616345376, 0.0, -0.04354587942361832]","[-0.8514404892921448, -4.110718250274658, -1.643247127532959, -0.3476715385913849, 0.0515899695456028, -0.3162689507007599]"
1584443101685003601,,151181,,1584443101,684674487,'',"[shoulder_pan_joint, shoulder_lift_joint, elbow_joint, wrist_1_joint, wrist_2_joint,","[1.4913843870162964, -1.1295855681048792, 2.376296281814575, -2.8016250769244593, -1.5671613852130335, 2.7146480083465576]","[-0.03267379105091095, -2.5566347176209092e-05, 2.5566347176209092e-05, -0.00011504856229294091, 0.0, -0.03395850211381912]","[-0.9475709199905396, -4.023743152618408, -1.6611815690994263, -0.3386993706226349, 0.0448608435690403, -0.3364563286304474]"
1584443101797118554,,151195,,1584443101,796641985,'',"[shoulder_pan_joint, shoulder_lift_joint, elbow_joint, wrist_1_joint, wrist_2_joint,","[1.4884576797485352, -1.129597012196676, 2.376260280609131, -2.801613155995504, -1.5671494642840784, 2.710996150970459]","[-0.02069595828652382, -2.5566347176209092e-05, 2.5566347176209092e-05, -7.669904152862728e-05, 0.0, -0.03936578333377838]","[-0.7827759385108948, -4.129028797149658, -1.5916855335235596, -0.3790741264820099, 0.0426178015768528, -0.3028106987476349]"
1584443101909017925,,151209,,1584443101,908615484,'',"[shoulder_pan_joint, shoulder_lift_joint, elbow_joint, wrist_1_joint, wrist_2_joint,","[1.4865262508392334, -1.129573170338766, 2.376248359680176, -2.8016250769244593, -1.567197624837057, 2.70650577545166]","[-0.013447898440063, -1.2783173588104546e-05, 2.5566347176209092e-05, -7.669904152862728e-05, 0.0, -0.04084223881363869]","[-1.0894776582717896, -4.037476062774658, -1.690325140953064, -0.3431854546070099, 0.0358886756002903, -0.2826233208179474]"
1584443102021055073,,151223,,1584443102,20626533,'',"[shoulder_pan_joint, shoulder_lift_joint, elbow_joint, wrist_1_joint, wrist_2_joint,","[1.4855188131332397, -1.1295855681048792, 2.3762362003326416, -2.801613155995504, -1.567197624837057, 2.702889919281006]","[-0.0019174760673195124, -1.2783173588104546e-05, 2.5566347176209092e-05, -7.669904152862728e-05, 0.0, -0.01950073055922985]","[-0.5218506455421448, -4.110718250274658, -1.688083291053772, -0.3364563286304474, 0.0358886756002903, -0.2938385307788849]"
1584443102132961466,,151237,,1584443102,132595924,'',"[shoulder_pan_joint, shoulder_lift_joint, elbow_joint, wrist_1_joint, wrist_2_joint,","[1.4866704940795898, -1.1296094099627894, 2.376260280609131, -2.8016250769244593, -1.567209545766012, 2.7034645080566406]","[0.02226828783750534, -1.2783173588104546e-05, 2.5566347176209092e-05, -7.669904152862728e-05, 0.0, 0.04218447208404541]","[0.7690430283546448, -4.119873523712158, -1.6970505714416504, -0.3140259087085724, 0.0628051832318306, 0.2915954887866974]"
1584443102245018441,,151251,,1584443102,244632902,'',"[shoulder_pan_joint, shoulder_lift_joint, elbow_joint, wrist_1_joint, wrist_2_joint,","[1.4896332025527954, -1.129573170338766, 2.376260280609131, -2.8015769163714808, -1.5671857039081019, 2.7075953483581543]","[0.02593705989420414, -1.2783173588104546e-05, 1.2783173588104546e-05, -7.669904152862728e-05, 0.0, 0.026729615405201912]","[0.9246827363967896, -4.234314441680908, -1.6141035556793213, -0.3611297905445099, 0.0605621412396431, 0.3409424126148224]"
1584443102357108638,,151265,,1584443102,356609787,'',"[shoulder_pan_joint, shoulder_lift_joint, elbow_joint, wrist_1_joint, wrist_2_joint,","[1.491888165473938, -1.1295855681048792, 2.376284122467041, -2.8015769163714808, -1.567221466694967, 2.7101221084594727]","[0.015301458537578583, -1.2783173588104546e-05, 1.2783173588104546e-05, -5.752428114647046e-05, 0.0, 0.02057451754808426]","[0.7598877549171448, -4.188538074493408, -1.6723906993865967, -0.3319702446460724, 0.0986938551068306, 0.3095398247241974]"
1584443102469088900,,151279,,1584443102,468601641,'',"[shoulder_pan_joint, shoulder_lift_joint, elbow_joint, wrist_1_joint, wrist_2_joint,","[1.4933513402938843, -1.129573170338766, 2.3763322830200195, -2.801613155995504, -1.567221466694967, 2.712073564529419]","[0.010584468021988869, -1.2783173588104546e-05, 1.2783173588104546e-05, -3.834952076431364e-05, 0.0, 0.015205584466457367]","[0.8193970322608948, -4.197693347930908, -1.6813578605651855, -0.3342132866382599, 0.0717773512005806, 0.3319702446460724]"
1584443102581109947,,151293,,1584443102,580679194,'',"[shoulder_pan_joint, shoulder_lift_joint, elbow_joint, wrist_1_joint, wrist_2_joint,","[1.4941190481185913, -1.1296094099627894, 2.376296281814575, -2.801613155995504, -1.567209545766012, 2.713534116744995]","[0.0008309062686748803, -1.2783173588104546e-05, 1.2783173588104546e-05, -3.834952076431364e-05, 0.0, 0.009970875456929207]","[0.3753662407398224, -4.142761707305908, -1.6320381164550781, -0.3476715385913849, 0.0785064771771431, 0.2691650688648224]"
1584443102692974022,,151307,,1584443102,692598983,'',"[shoulder_pan_joint, shoulder_lift_joint, elbow_joint, wrist_1_joint, wrist_2_joint,","[1.492823600769043, -1.1295855681048792, 2.376284122467041, -2.8016250769244593, -1.567197624837057, 2.7126121520996094]","[-0.02269013226032257, -1.2783173588104546e-05, 1.2783173588104546e-05, -3.834952076431364e-05, 0.0, -0.038291994482278824]","[-0.9933472871780396, -4.142761707305908, -1.6611815690994263, -0.3521576225757599, 0.0605621412396431, -0.2646789848804474]"
1584443102804891947,,151321,,1584443102,804535472,'',"[shoulder_pan_joint, shoulder_lift_joint, elbow_joint, wrist_1_joint, wrist_2_joint,","[1.4902807474136353, -1.129573170338766, 2.376260280609131, -2.8016250769244593, -1.5671857039081019, 2.70802640914917]","[-0.0204530768096447, 0.0, 1.2783173588104546e-05, -1.917476038215682e-05, 0.0, -0.042817238718271255]","[-0.9704591035842896, -4.147339344024658, -1.6230708360671997, -0.3656158745288849, 0.0403747595846653, -0.2938385307788849]"
1584443102917014133,,151335,,1584443102,916537334,'',"[shoulder_pan_joint, shoulder_lift_joint, elbow_joint, wrist_1_joint, wrist_2_joint,","[1.4886493682861328, -1.1296094099627894, 2.3762242794036865, -2.801613155995504, -1.5671737829791468, 2.703368902206421]","[-0.01029045507311821, 0.0, 1.2783173588104546e-05, -1.917476038215682e-05, 0.0, -0.032942239195108414]","[-0.7553101181983948, -4.101562976837158, -1.6634234189987183, -0.3499145805835724, 0.0381317175924778, -0.3902893364429474]"
1584443103028980610,,151349,,1584443103,28534628,'',"[shoulder_pan_joint, shoulder_lift_joint, elbow_joint, wrist_1_joint, wrist_2_joint,","[1.4876419305801392, -1.1295855681048792, 2.376260280609131, -2.801613155995504, -1.5671737829791468, 2.700268030166626]","[-0.0065322015434503555, 0.0, 1.2783173588104546e-05, -1.917476038215682e-05, 0.0, -0.020325245335698128]","[-0.8514404892921448, -4.046631336212158, -1.6992924213409424, -0.3297272026538849, 0.0403747595846653, -0.3476715385913849]"
1584443103140956102,,151363,,1584443103,140528855,'',"[shoulder_pan_joint, shoulder_lift_joint, elbow_joint, wrist_1_joint, wrist_2_joint,","[1.4888534545898438, -1.1295855681048792, 2.376296281814575, -2.801613155995504, -1.5671737829791468, 2.7022194862365723]","[0.02148851379752159, 0.0, -0.0, -1.917476038215682e-05, 0.0, 0.04484976455569267]","[0.9292603731155396, -4.225159168243408, -1.5782346725463867, -0.3723450005054474, 0.0560760572552681, 0.3252411186695099]"
1584443103252882944,,151377,,1584443103,252522482,'',"[shoulder_pan_joint, shoulder_lift_joint, elbow_joint, wrist_1_joint, wrist_2_joint,","[1.4908807277679443, -1.1295855681048792, 2.3763082027435303, -2.8016250769244593, -1.567197624837057, 2.7067813873291016]","[0.014611166901886463, 0.0, -0.0, -1.917476038215682e-05, 0.0, 0.03280801326036453]","[0.8743286728858948, -4.170227527618408, -1.6566979885101318, -0.3386993706226349, 0.0515899695456028, 0.3701019585132599]"
1584443103364923889,,151391,,1584443103,364567243,'',"[shoulder_pan_joint, shoulder_lift_joint, elbow_joint, wrist_1_joint, wrist_2_joint,","[1.4919719696044922, -1.129597012196676, 2.376272201538086, -2.8016250769244593, -1.567221466694967, 2.7101340293884277]","[0.007848868146538734, 0.0, -0.0, -1.917476038215682e-05, 0.0, 0.030066024512052536]","[0.7461548447608948, -4.151916980743408, -1.7060178518295288, -0.3297272026538849, 0.0605621412396431, 0.3364563286304474]"
1584443103476901606,,151405,,1584443103,476512640,'',"[shoulder_pan_joint, shoulder_lift_joint, elbow_joint, wrist_1_joint, wrist_2_joint,","[1.4923797845840454, -1.1295855681048792, 2.376260280609131, -2.8016250769244593, -1.567197624837057, 2.712671995162964]","[-0.001508414512500167, 0.0, -0.0, -1.917476038215682e-05, 0.0, 0.012827914208173752]","[-0.01831054873764515, -4.197693347930908, -1.6297962665557861, -0.3566437065601349, 0.0538330152630806, 0.3005676567554474]"
1584443103588985611,,151419,,1584443103,588542164,'',"[shoulder_pan_joint, shoulder_lift_joint, elbow_joint, wrist_1_joint, wrist_2_joint,","[1.4923797845840454, -1.1295855681048792, 2.376296281814575, -2.8015769163714808, -1.567209545766012, 2.7141449451446533]","[-0.00024288029817398638, 0.0, -0.0, -1.917476038215682e-05, 0.0, 0.014860439114272594]","[0.0640869215130806, -4.115295886993408, -1.6746324300765991, -0.3297272026538849, 0.0515899695456028, 0.2781372368335724]"
1584443103700831783,,151433,,1584443103,700512407,'',"[shoulder_pan_joint, shoulder_lift_joint, elbow_joint, wrist_1_joint, wrist_2_joint,","[1.4923558235168457, -1.1295855681048792, 2.376284122467041, -2.8016250769244593, -1.567209545766012, 2.7162044048309326]","[-0.0005241101025603712, 0.0, -0.0, 0.0, 0.0, 0.02147573232650757]","[0.2471924126148224, -4.110718250274658, -1.7441285848617554, -0.3072967827320099, 0.0560760572552681, 0.2893524467945099]"
1584443103812808407,,151447,,1584443103,812480996,'',"[shoulder_pan_joint, shoulder_lift_joint, elbow_joint, wrist_1_joint, wrist_2_joint,","[1.4922480583190918, -1.1295855681048792, 2.376284122467041, -2.8016250769244593, -1.5671857039081019, 2.718156099319458]","[-0.0005241101025603712, 0.0, 1.2783173588104546e-05, 0.0, 0.0, 0.015800002962350845]","[-0.009155274368822575, -4.138184070587158, -1.7015341520309448, -0.3207550346851349, 0.0583190992474556, 0.3140259087085724]"
1584443103924913432,,151461,,1584443103,924483710,'',"[shoulder_pan_joint, shoulder_lift_joint, elbow_joint, wrist_1_joint, wrist_2_joint,","[1.4922480583190918, -1.1295855681048792, 2.376260280609131, -2.8016250769244593, -1.5672333876239222, 2.7199761867523193]","[-0.00015339808305725455, 0.0, 1.2783173588104546e-05, 0.0, 0.0, 0.017909226939082146]","[-0.004577637184411287, -4.115295886993408, -1.6948087215423584, -0.3274841606616974, 0.0829925611615181, 0.3095398247241974]"
1584443104037004841,,151475,,1584443104,36511300,'',"[shoulder_pan_joint, shoulder_lift_joint, elbow_joint, wrist_1_joint, wrist_2_joint,","[1.4922480583190918, -1.129597012196676, 2.376296281814575, -2.8015769163714808, -1.567209545766012, 2.721820116043091]","[0.0, 0.0, 1.2783173588104546e-05, 0.0, 0.0, 0.013307283632457256]","[-0.1831054836511612, -4.197693347930908, -1.6275544166564941, -0.3588867485523224, 0.0762634351849556, 0.3319702446460724]"
1584443104148979803,,151489,,1584443104,148485210,'',"[shoulder_pan_joint, shoulder_lift_joint, elbow_joint, wrist_1_joint, wrist_2_joint,","[1.4922480583190918, -1.1295855681048792, 2.3762123584747314, -2.801600758229391, -1.5672333876239222, 2.7225983142852783]","[0.0, 0.0, 1.2783173588104546e-05, 0.0, 0.0, -0.024946363642811775]","[-0.1281738430261612, -4.161072254180908, -1.6679069995880127, -0.3521576225757599, 0.0560760572552681, -0.1166381984949112]"
1584443104260833037,,151503,,1584443104,260461103,'',"[shoulder_pan_joint, shoulder_lift_joint, elbow_joint, wrist_1_joint, wrist_2_joint,","[1.4922959804534912, -1.129573170338766, 2.375648260116577, -2.801469628010885, -1.5672333876239222, 2.7183477878570557]","[0.0, 2.5566347176209092e-05, -0.022281071171164513, 0.007420632056891918, 0.0, -0.03418859839439392]","[0.2426147758960724, -3.739929676055908, -1.9862442016601562, -0.1839294582605362, 0.0672912672162056, -0.3005676567554474]"
1584443104372809962,,151517,,1584443104,372443779,'',"[shoulder_pan_joint, shoulder_lift_joint, elbow_joint, wrist_1_joint, wrist_2_joint,","[1.4925355911254883, -1.1281583944903772, 2.3691086769104004, -2.798129383717672, -1.5672577063189905, 2.7149951457977295]","[0.0009715211926959455, 0.024403078481554985, -0.0811220183968544, 0.04640292003750801, 0.0, -0.02811019867658615]","[0.1510620266199112, -2.774048089981079, -1.8920880556106567, -0.0919647291302681, 0.0448608435690403, -0.3252411186695099]"
1584443104485126461,,151531,,1584443104,484525520,'',"[shoulder_pan_joint, shoulder_lift_joint, elbow_joint, wrist_1_joint, wrist_2_joint,","[1.4925236701965332, -1.1243460814105433, 2.359821319580078, -2.79272967973818, -1.5672577063189905, 2.7128279209136963]","[0.0, 0.04169871285557747, -0.08780761808156967, 0.0458468534052372, 0.0, -0.01685461401939392]","[0.0366210974752903, -3.044128656387329, -2.0355639457702637, -0.1502838283777237, 0.0381317175924778, -0.2758941948413849]"
1584443104596969186,,151545,,1584443104,596482448,'',"[shoulder_pan_joint, shoulder_lift_joint, elbow_joint, wrist_1_joint, wrist_2_joint,","[1.492559552192688, -1.1192744413958948, 2.3498377799987793, -2.7873662153827112, -1.5672453085528772, 2.7105650901794434]","[0.0, 0.0453546978533268, -0.09560535103082657, 0.049796853214502335, 0.0, -0.021514080464839935]","[0.0961303785443306, -3.240967035293579, -2.1566216945648193, -0.1031799390912056, 0.0291595496237278, -0.2826233208179474]"
1584443104708892412,,151559,,1584443104,708428957,'',"[shoulder_pan_joint, shoulder_lift_joint, elbow_joint, wrist_1_joint, wrist_2_joint,","[1.4925715923309326, -1.1146824995623987, 2.3390376567840576, -2.781332317982809, -1.5672934691058558, 2.708409547805786]","[0.0, 0.03283997252583504, -0.09009581059217453, 0.055204134434461594, 0.0, -0.020478643476963043]","[-0.02288818545639515, -2.998352289199829, -2.1386873722076416, -0.1256103664636612, 0.01794433780014515, -0.2624359428882599]"
1584443104820899914,,151573,,1584443104,820443993,'',"[shoulder_pan_joint, shoulder_lift_joint, elbow_joint, wrist_1_joint, wrist_2_joint,","[1.4925835132598877, -1.1106303373919886, 2.3290536403656006, -2.7756217161761683, -1.5672453085528772, 2.7058475017547607]","[0.0, 0.04130243510007858, -0.07672460377216339, 0.048953164368867874, 0.0, -0.02600097469985485]","[-0.0411987341940403, -3.254699945449829, -2.1521382331848145, -0.1547699123620987, 0.01794433780014515, -0.3252411186695099]"
1584443104932956358,,151587,,1584443104,932474148,'',"[shoulder_pan_joint, shoulder_lift_joint, elbow_joint, wrist_1_joint, wrist_2_joint,","[1.4926079511642456, -1.1062424818622034, 2.321049690246582, -2.7708447615252894, -1.5672333876239222, 2.703847646713257]","[6.391586794052273e-05, 0.03635534644126892, -0.06900356709957123, 0.04084223881363869, 0.0, -0.010488593950867653]","[0.1831054836511612, -3.387451410293579, -2.1185109615325928, -0.0964508131146431, 0.01570129580795765, -0.3095398247241974]"
1584443105044940837,,151601,,1584443105,44447296,'',"[shoulder_pan_joint, shoulder_lift_joint, elbow_joint, wrist_1_joint, wrist_2_joint,","[1.493051290512085, -1.103448216115133, 2.3153977394104004, -2.766977612172262, -1.5672696272479456, 2.7060747146606445]","[0.01525032613426447, 0.01324336789548397, -0.03441230207681656, 0.025176459923386574, 0.0, 0.04496481269598007]","[0.7095337510108948, -3.396606683731079, -2.1588635444641113, -0.1682281643152237, 0.02018737979233265, 0.3858032524585724]"
1584443105156888167,,151615,,1584443105,156432948,'',"[shoulder_pan_joint, shoulder_lift_joint, elbow_joint, wrist_1_joint, wrist_2_joint,","[1.496649980545044, -1.1026094595538538, 2.3120615482330322, -2.764834705983297, -1.5672577063189905, 2.7105770111083984]","[0.04572541266679764, 0.005292234010994434, -0.028250813484191895, 0.01426602154970169, 0.0, 0.03374757990241051]","[0.6546021103858948, -3.190613031387329, -2.2081832885742188, -0.1502838283777237, 0.0381317175924778, 0.3252411186695099]"
1584443105268862398,,151629,,1584443105,268420603,'',"[shoulder_pan_joint, shoulder_lift_joint, elbow_joint, wrist_1_joint, wrist_2_joint,","[1.503714680671692, -1.1020577589618128, 2.3096976280212402, -2.763481918965475, -1.5672453085528772, 2.7139415740966797]","[0.0694509819149971, 0.0011888351291418076, -0.008257930167019367, 0.005292234010994434, 0.0, 0.02563665434718132]","[0.9246827363967896, -3.547668933868408, -2.2575032711029053, -0.2579498589038849, 0.0628051832318306, 0.2781372368335724]"
1584443105380903413,,151643,,1584443105,380445879,'',"[shoulder_pan_joint, shoulder_lift_joint, elbow_joint, wrist_1_joint, wrist_2_joint,","[1.510191798210144, -1.1021540800677698, 2.309685707092285, -2.763709370289938, -1.5672696272479456, 2.7168986797332764]","[0.046249520033597946, -0.0005880259559489787, 0.0009843043517321348, -0.0033172336407005787, 0.0, 0.024716265499591827]","[1.0711671113967896, -4.183960437774658, -1.726194143295288, -0.4957123398780823, 0.0650482252240181, 0.3319702446460724]"
1584443105492966368,,151657,,1584443105,492517902,'',"[shoulder_pan_joint, shoulder_lift_joint, elbow_joint, wrist_1_joint, wrist_2_joint,","[1.514749526977539, -1.10217792192568, 2.3097217082977295, -2.763733212147848, -1.5672333876239222, 2.718730926513672]","[0.034207772463560104, -0.0001917476038215682, -0.0, -0.00028762139845639467, 0.0, 0.007209709845483303]","[0.9613038301467896, -4.270935535430908, -1.6835997104644775, -0.5360870957374573, 0.0897216871380806, 0.2714081108570099]"
1584443105604952752,,151671,,1584443105,604487223,'',"[shoulder_pan_joint, shoulder_lift_joint, elbow_joint, wrist_1_joint, wrist_2_joint,","[1.5173883438110352, -1.10217792192568, 2.3097455501556396, -2.763733212147848, -1.5672453085528772, 2.7164318561553955]","[0.015007445588707924, -0.00010226538870483637, -0.0, -0.00013422331539914012, 0.0, -0.03813859820365906]","[0.9017945528030396, -4.193115711212158, -1.788964867591858, -0.5046845078468323, 0.0471038855612278, -0.3072967827320099]"
1584443105716755752,,151685,,1584443105,716426488,'',"[shoulder_pan_joint, shoulder_lift_joint, elbow_joint, wrist_1_joint, wrist_2_joint,","[1.5182758569717407, -1.10217792192568, 2.3097095489501953, -2.7637575308429163, -1.567209545766012, 2.7130911350250244]","[0.0010610034223645926, -6.391586794052273e-05, -0.0, -9.58738019107841e-05, 0.0, -0.024869663640856743]","[0.2883911430835724, -4.087830066680908, -1.7149850130081177, -0.5046845078468323, 0.0538330152630806, -0.2781372368335724]"
1584443105828803279,,151699,,1584443105,828407220,'',"[shoulder_pan_joint, shoulder_lift_joint, elbow_joint, wrist_1_joint, wrist_2_joint,","[1.518239974975586, -1.10217792192568, 2.3097095489501953, -2.7637694517718714, -1.567221466694967, 2.7102417945861816]","[-0.00026844663079828024, -5.1132694352418184e-05, -0.0, -9.58738019107841e-05, 0.0, -0.020958013832569122]","[0.0595092847943306, -4.092407703399658, -1.7598212957382202, -0.5069275498390198, 0.0717773512005806, -0.2714081108570099]"
1584443105940760939,,151713,,1584443105,940406367,'',"[shoulder_pan_joint, shoulder_lift_joint, elbow_joint, wrist_1_joint, wrist_2_joint,","[1.5182160139083862, -1.10217792192568, 2.3097455501556396, -2.7637575308429163, -1.5672333876239222, 2.7081222534179688]","[-0.00011504856229294091, -3.834952076431364e-05, -0.0, -9.58738019107841e-05, 0.0, -0.01877208985388279]","[-0.0274658240377903, -4.087830066680908, -1.7620631456375122, -0.4979553818702698, 0.0538330152630806, -0.2736511528491974]"
1584443106052817543,,151727,,1584443106,52421734,'',"[shoulder_pan_joint, shoulder_lift_joint, elbow_joint, wrist_1_joint, wrist_2_joint,","[1.518180012702942, -1.1021540800677698, 2.3097336292266846, -2.7637694517718714, -1.567221466694967, 2.7058353424072266]","[-7.669904152862728e-05, -2.5566347176209092e-05, -0.0, -9.58738019107841e-05, 0.0, -0.02287548966705799]","[-0.0457763709127903, -4.129028797149658, -1.721710443496704, -0.4934692978858948, 0.0605621412396431, -0.3229980766773224]"
1584443106164795921,,151741,,1584443106,164386698,'',"[shoulder_pan_joint, shoulder_lift_joint, elbow_joint, wrist_1_joint, wrist_2_joint,","[1.5182160139083862, -1.1021655241595667, 2.3097455501556396, -2.7637932936297815, -1.5672577063189905, 2.7041351795196533]","[-5.1132694352418184e-05, -2.5566347176209092e-05, -0.0, -7.669904152862728e-05, 0.0, -0.00586747657507658]","[0.1190185695886612, -4.110718250274658, -1.771030306816101, -0.5338440537452698, 0.0538330152630806, -0.2871094048023224]"
1584443106276754452,,151755,,1584443106,276370145,'',"[shoulder_pan_joint, shoulder_lift_joint, elbow_joint, wrist_1_joint, wrist_2_joint,","[1.5182160139083862, -1.1021416823016565, 2.3097336292266846, -2.7637932936297815, -1.5672577063189905, 2.706852912902832]","[-3.834952076431364e-05, -2.5566347176209092e-05, -0.0, -5.752428114647046e-05, 0.0, 0.027956800535321236]","[-0.0457763709127903, -4.193115711212158, -1.7486122846603394, -0.5473023056983948, 0.0605621412396431, 0.3656158745288849]"
1584443106388697705,,151769,,1584443106,388378068,'',"[shoulder_pan_joint, shoulder_lift_joint, elbow_joint, wrist_1_joint, wrist_2_joint,","[1.5182039737701416, -1.1021655241595667, 2.3097336292266846, -2.7637813727008265, -1.5672453085528772, 2.7091877460479736]","[-3.834952076431364e-05, -1.2783173588104546e-05, -0.0, -3.834952076431364e-05, -0.0016298546688631177, 0.01691213808953762]","[-0.0869751051068306, -4.151916980743408, -1.721710443496704, -0.5383301377296448, 0.0583190992474556, 0.2893524467945099]"
1584443106500772983,,151783,,1584443106,500409094,'',"[shoulder_pan_joint, shoulder_lift_joint, elbow_joint, wrist_1_joint, wrist_2_joint,","[1.5182039737701416, -1.1021655241595667, 2.3097217082977295, -2.7637932936297815, -1.5672453085528772, 2.71090030670166]","[-2.5566347176209092e-05, -1.2783173588104546e-05, -0.0, -3.834952076431364e-05, -0.00028762139845639467, 0.012827914208173752]","[0.01831054873764515, -4.064941883087158, -1.7956902980804443, -0.4957123398780823, 0.0560760572552681, 0.2938385307788849]"
1584443106612808148,,151797,,1584443106,612397822,'',"[shoulder_pan_joint, shoulder_lift_joint, elbow_joint, wrist_1_joint, wrist_2_joint,","[1.518191933631897, -1.1021297613727015, 2.3097455501556396, -2.763829533253805, -1.5672333876239222, 2.7105531692504883]","[-2.5566347176209092e-05, -1.2783173588104546e-05, -0.0, -3.834952076431364e-05, -0.00013422331539914012, -0.03994102403521538]","[-0.2014160305261612, -4.101562976837158, -1.7082595825195312, -0.5248718857765198, 0.0560760572552681, -0.2601929008960724]"
1584443106724740820,,151811,,1584443106,724378554,'',"[shoulder_pan_joint, shoulder_lift_joint, elbow_joint, wrist_1_joint, wrist_2_joint,","[1.5181679725646973, -1.1021655241595667, 2.3097336292266846, -2.7638052145587366, -1.5672577063189905, 2.706098794937134]","[-2.5566347176209092e-05, -1.2783173588104546e-05, -0.0, -3.834952076431364e-05, -9.58738019107841e-05, -0.04013277217745781]","[0.1327514797449112, -4.060364246368408, -1.8091411590576172, -0.4777680039405823, 0.0538330152630806, -0.3140259087085724]"
1584443106836726332,,151825,,1584443106,836337947,'',"[shoulder_pan_joint, shoulder_lift_joint, elbow_joint, wrist_1_joint, wrist_2_joint,","[1.518191933631897, -1.102189842854635, 2.3097095489501953, -2.763829533253805, -1.567221466694967, 2.702698230743408]","[-2.5566347176209092e-05, -1.2783173588104546e-05, -0.0, -3.834952076431364e-05, -7.669904152862728e-05, -0.017103886231780052]","[0.01831054873764515, -4.060364246368408, -1.739645004272461, -0.4957123398780823, 0.0448608435690403, -0.3319702446460724]"
1584443106948669404,,151839,,1584443106,948318920,'',"[shoulder_pan_joint, shoulder_lift_joint, elbow_joint, wrist_1_joint, wrist_2_joint,","[1.5182039737701416, -1.1022017637835901, 2.3097095489501953, -2.7637932936297815, -1.5672453085528772, 2.7030932903289795]","[-2.5566347176209092e-05, -1.2783173588104546e-05, -0.0, -3.834952076431364e-05, -5.752428114647046e-05, 0.0348980650305748]","[0.1373291164636612, -4.147339344024658, -1.7351614236831665, -0.4934692978858948, 0.0538330152630806, 0.2714081108570099]"
1584443107060756014,,151853,,1584443107,60359014,'',"[shoulder_pan_joint, shoulder_lift_joint, elbow_joint, wrist_1_joint, wrist_2_joint,","[1.518180012702942, -1.1022017637835901, 2.3097455501556396, -2.7638171354876917, -1.5672333876239222, 2.7067935466766357]","[-2.5566347176209092e-05, -1.2783173588104546e-05, -0.0, -3.834952076431364e-05, -3.834952076431364e-05, 0.02671044133603573]","[-0.0961303785443306, -4.106140613555908, -1.72843599319458, -0.4979553818702698, 0.0471038855612278, 0.3544006645679474]"
1584443107172661276,,151867,,1584443107,172325690,'',"[shoulder_pan_joint, shoulder_lift_joint, elbow_joint, wrist_1_joint, wrist_2_joint,","[1.518180012702942, -1.1021416823016565, 2.3097095489501953, -2.7637932936297815, -1.5672453085528772, 2.708876371383667]","[-2.5566347176209092e-05, -1.2783173588104546e-05, -0.0, -3.834952076431364e-05, -3.834952076431364e-05, 0.014572817832231522]","[-0.0366210974752903, -4.188538074493408, -1.7172268629074097, -0.5338440537452698, 0.0448608435690403, 0.3185119926929474]"
1584443107284746032,,151881,,1584443107,284352788,'',"[shoulder_pan_joint, shoulder_lift_joint, elbow_joint, wrist_1_joint, wrist_2_joint,","[1.5182039737701416, -1.1021655241595667, 2.3097336292266846, -2.7637813727008265, -1.5672333876239222, 2.710158109664917]","[-2.5566347176209092e-05, -1.2783173588104546e-05, -0.0, -3.834952076431364e-05, -3.834952076431364e-05, 0.0015723303658887744]","[-0.0869751051068306, -4.092407703399658, -1.7351614236831665, -0.4867401719093323, 0.0448608435690403, 0.1211242824792862]"
1584443107396845306,,151895,,1584443107,396438357,'',"[shoulder_pan_joint, shoulder_lift_joint, elbow_joint, wrist_1_joint, wrist_2_joint,","[1.5181679725646973, -1.1021655241595667, 2.3097574710845947, -2.7638052145587366, -1.5672453085528772, 2.706242561340332]","[-2.5566347176209092e-05, 0.0, -0.0, -3.834952076431364e-05, -1.917476038215682e-05, -0.04893398657441139]","[-0.1876831203699112, -4.197693347930908, -1.6679069995880127, -0.5158997178077698, 0.0493469275534153, -0.3028106987476349]"
1584443107508752290,,151909,,1584443107,508352364,'',"[shoulder_pan_joint, shoulder_lift_joint, elbow_joint, wrist_1_joint, wrist_2_joint,","[1.518191933631897, -1.102189842854635, 2.3097455501556396, -2.7638052145587366, -1.5672333876239222, 2.7020998001098633]","[-2.5566347176209092e-05, 0.0, -0.0, -3.834952076431364e-05, -1.917476038215682e-05, -0.022127673029899597]","[0.0915527418255806, -4.106140613555908, -1.818108320236206, -0.5001984238624573, 0.0493469275534153, -0.3162689507007599]"
1584443107620746008,,151923,,1584443107,620315805,'',"[shoulder_pan_joint, shoulder_lift_joint, elbow_joint, wrist_1_joint, wrist_2_joint,","[1.518191933631897, -1.1021416823016565, 2.309649705886841, -2.7637932936297815, -1.567221466694967, 2.700639247894287]","[-1.2783173588104546e-05, 0.0, -5.1132694352418184e-05, -1.917476038215682e-05, -1.917476038215682e-05, 0.02045946940779686]","[0.2609253227710724, -4.138184070587158, -1.7822394371032715, -0.4867401719093323, 0.0560760572552681, 0.0919647291302681]"
1584443107732730998,,151937,,1584443107,732390162,'',"[shoulder_pan_joint, shoulder_lift_joint, elbow_joint, wrist_1_joint, wrist_2_joint,","[1.5182279348373413, -1.1021655241595667, 2.3094935417175293, -2.7638052145587366, -1.5672333876239222, 2.704601764678955]","[-1.2783173588104546e-05, 0.0, -0.0028250813484191895, -1.917476038215682e-05, -1.917476038215682e-05, 0.037755101919174194]","[0.0320434607565403, -4.042053699493408, -1.820350170135498, -0.4755249619483948, 0.0358886756002903, 0.3297272026538849]"
1584443107844736396,,151951,,1584443107,844322073,'',"[shoulder_pan_joint, shoulder_lift_joint, elbow_joint, wrist_1_joint, wrist_2_joint,","[1.518251895904541, -1.1016982237445276, 2.3067214488983154, -2.7628477255450647, -1.567221466694967, 2.7078709602355957]","[-1.2783173588104546e-05, 0.013051619753241539, -0.0452396497130394, 0.018139323219656944, -1.917476038215682e-05, 0.01846529357135296]","[0.0, -3.131103754043579, -1.9772769212722778, -0.1188812404870987, 0.0336456336081028, 0.3319702446460724]"
1584443107956760990,,151965,,1584443107,956314498,'',"[shoulder_pan_joint, shoulder_lift_joint, elbow_joint, wrist_1_joint, wrist_2_joint,","[1.5182039737701416, -1.098940674458639, 2.301105260848999, -2.7600224653827112, -1.567197624837057, 2.70912766456604]","[-1.2783173588104546e-05, 0.03376036137342453, -0.058291271328926086, 0.02979757823050022, -1.917476038215682e-05, 0.0014956312952563167]","[-0.1281738430261612, -3.291321039199829, -2.1498963832855225, -0.0986938551068306, 0.0269165076315403, 0.01345825381577015]"
1584443108068702781,,151979,,1584443108,68300310,'',"[shoulder_pan_joint, shoulder_lift_joint, elbow_joint, wrist_1_joint, wrist_2_joint,","[1.5182279348373413, -1.0946725050555628, 2.2935092449188232, -2.7561796347247522, -1.5672333876239222, 2.705141067504883]","[-1.2783173588104546e-05, 0.039921849966049194, -0.06698382645845413, 0.03725655749440193, -1.917476038215682e-05, -0.04252961650490761]","[-0.0366210974752903, -3.598022937774658, -2.181281566619873, -0.0605621412396431, 0.0269165076315403, -0.3252411186695099]"
1584443108180742653,,151993,,1584443108,180298985,'',"[shoulder_pan_joint, shoulder_lift_joint, elbow_joint, wrist_1_joint, wrist_2_joint,","[1.518239974975586, -1.0908601919757288, 2.2858047485351562, -2.7519171873675745, -1.5672577063189905, 2.7017884254455566]","[-1.2783173588104546e-05, 0.027713920921087265, -0.08248981833457947, 0.0452716089785099, -1.917476038215682e-05, -0.01708471216261387]","[0.0457763709127903, -3.520203113555908, -2.098334789276123, -0.0695343092083931, 0.0269165076315403, -0.3252411186695099]"
1584443108292645170,,152007,,1584443108,292290959,'',"[shoulder_pan_joint, shoulder_lift_joint, elbow_joint, wrist_1_joint, wrist_2_joint,","[1.5183241367340088, -1.0871432463275355, 2.276780128479004, -2.7467692534076136, -1.5672333876239222, 2.7012975215911865]","[0.0041673146188259125, 0.03748026490211487, -0.07585535198450089, 0.045214083045721054, 0.0, 0.039078161120414734]","[0.4898071885108948, -3.575134754180908, -2.291130304336548, -0.1547699123620987, 0.02243042178452015, 0.2287903130054474]"
1584443108404742520,,152021,,1584443108,404336963,'',"[shoulder_pan_joint, shoulder_lift_joint, elbow_joint, wrist_1_joint, wrist_2_joint,","[1.5183721780776978, -1.083090607319967, 2.2682957649230957, -2.7420409361468714, -1.5672453085528772, 2.7059314250946045]","[0.00023009712458588183, 0.03446343541145325, -0.06460615992546082, 0.04009442403912544, 0.0, 0.037889327853918076]","[0.0686645582318306, -3.492737054824829, -2.284404993057251, -0.0897216871380806, 0.008972168900072575, 0.3364563286304474]"
1584443108516710609,,152035,,1584443108,516317015,'',"[shoulder_pan_joint, shoulder_lift_joint, elbow_joint, wrist_1_joint, wrist_2_joint,","[1.5183961391448975, -1.0798895994769495, 2.261911392211914, -2.7382333914386194, -1.5672453085528772, 2.7089004516601562]","[0.00011504856229294091, 0.022076541557908058, -0.06467007845640182, 0.031983498483896255, 0.0, 0.01432354561984539]","[-0.0503540076315403, -3.698730945587158, -2.3180320262908936, -0.1009368970990181, 0.01794433780014515, 0.3185119926929474]"
1584443108628728170,,152049,,1584443108,628384689,'',"[shoulder_pan_joint, shoulder_lift_joint, elbow_joint, wrist_1_joint, wrist_2_joint,","[1.5183961391448975, -1.0771806875811976, 2.2539544105529785, -2.733755890523092, -1.5672453085528772, 2.7089242935180664]","[5.1132694352418184e-05, 0.027036411687731743, -0.06620405614376068, 0.03790850192308426, 0.0, -0.03961505368351936]","[-0.3524780571460724, -3.479004144668579, -2.172314405441284, -0.1009368970990181, 0.006729126907885075, -0.2332763969898224]"
1584443108740616830,,152063,,1584443108,740256709,'',"[shoulder_pan_joint, shoulder_lift_joint, elbow_joint, wrist_1_joint, wrist_2_joint,","[1.5183961391448975, -1.0734041372882288, 2.2461061477661133, -2.7295778433429163, -1.567221466694967, 2.7043864727020264]","[5.1132694352418184e-05, 0.038848064839839935, -0.06601230800151825, 0.03514733538031578, 0.0, -0.03624029830098152]","[0.1190185695886612, -3.721619129180908, -2.360626459121704, -0.1188812404870987, -0.01345825381577015, -0.3319702446460724]"
1584443108852690998,,152077,,1584443108,852257739,'',"[shoulder_pan_joint, shoulder_lift_joint, elbow_joint, wrist_1_joint, wrist_2_joint,","[1.5183601379394531, -1.0699752012835901, 2.242673397064209, -2.727147881184713, -1.567221466694967, 2.701728582382202]","[5.1132694352418184e-05, 0.010175406001508236, -0.0022114890161901712, 0.002281796419993043, 0.0, -0.012942963279783726]","[0.0274658240377903, -4.476929187774658, -2.36735200881958, -0.2444916069507599, -0.004486084450036287, -0.3386993706226349]"
1584443108964548009,,152091,,1584443108,964243481,'',"[shoulder_pan_joint, shoulder_lift_joint, elbow_joint, wrist_1_joint, wrist_2_joint,","[1.5183601379394531, -1.0699990431415003, 2.2429375648498535, -2.727363411580221, -1.567209545766012, 2.7034764289855957]","[0.0, 0.0003195793251506984, 0.0011377024929970503, -0.0006519418675452471, 0.0, 0.03863714262843132]","[0.0411987341940403, -4.747009754180908, -1.8270756006240845, -0.4732819199562073, -0.011215210892260075, 0.2871094048023224]"
1584443109076604603,,152105,,1584443109,76249310,'',"[shoulder_pan_joint, shoulder_lift_joint, elbow_joint, wrist_1_joint, wrist_2_joint,","[1.5182998180389404, -1.0700109640704554, 2.2429137229919434, -2.7273877302752894, -1.567209545766012, 2.7073919773101807]","[0.0, 0.00012783173588104546, 0.0002556634717620909, -0.0002109223569277674, 0.0, 0.023450732231140137]","[-0.1235962063074112, -4.692078113555908, -1.914506196975708, -0.4149627983570099, -0.004486084450036287, 0.3588867485523224]"
1584443109188607617,,152119,,1584443109,188244860,'',"[shoulder_pan_joint, shoulder_lift_joint, elbow_joint, wrist_1_joint, wrist_2_joint,","[1.5183361768722534, -1.0700109640704554, 2.2429494857788086, -2.727363411580221, -1.5672333876239222, 2.708768606185913]","[0.0, 7.669904152862728e-05, 0.00014061490946915, -0.00011504856229294091, 0.0, -0.011965050362050533]","[-0.0961303785443306, -4.595947742462158, -1.963826060295105, -0.4508515000343323, -0.004486084450036287, -0.0807495191693306]"
1584443109300648823,,152133,,1584443109,300264205,'',"[shoulder_pan_joint, shoulder_lift_joint, elbow_joint, wrist_1_joint, wrist_2_joint,","[1.5182998180389404, -1.0700228849994105, 2.2429375648498535, -2.727375332509176, -1.567209545766012, 2.7046139240264893]","[-8.948221511673182e-05, 5.1132694352418184e-05, 8.948221511673182e-05, -7.669904152862728e-05, 0.0, -0.04040122032165527]","[0.0640869215130806, -4.586792469024658, -1.9705514907836914, -0.4463654160499573, -0.004486084450036287, -0.3431854546070099]"
1584443109412744479,,152147,,1584443109,412327461,'',"[shoulder_pan_joint, shoulder_lift_joint, elbow_joint, wrist_1_joint, wrist_2_joint,","[1.5182998180389404, -1.0699752012835901, 2.2429614067077637, -2.727339569722311, -1.5672577063189905, 2.701812505722046]","[-8.948221511673182e-05, 3.834952076431364e-05, 7.669904152862728e-05, -5.752428114647046e-05, 0.0, -0.011754128150641918]","[0.0320434607565403, -4.577637195587158, -1.9772769212722778, -0.4194488823413849, -0.008972168900072575, -0.3409424126148224]"
1584443109524614756,,152161,,1584443109,524235518,'',"[shoulder_pan_joint, shoulder_lift_joint, elbow_joint, wrist_1_joint, wrist_2_joint,","[1.5182998180389404, -1.0699990431415003, 2.2429494857788086, -2.727351490651266, -1.567197624837057, 2.703416585922241]","[-7.669904152862728e-05, 3.834952076431364e-05, 5.1132694352418184e-05, -5.752428114647046e-05, 0.0, 0.03825364634394646]","[-0.0274658240377903, -4.614258289337158, -1.9077807664871216, -0.4418793320655823, -0.006729126907885075, 0.2826233208179474]"
1584443109636644790,,152175,,1584443109,636235647,'',"[shoulder_pan_joint, shoulder_lift_joint, elbow_joint, wrist_1_joint, wrist_2_joint,","[1.5182998180389404, -1.0699752012835901, 2.2429494857788086, -2.7273877302752894, -1.567221466694967, 2.7072601318359375]","[-5.1132694352418184e-05, 2.5566347176209092e-05, 5.1132694352418184e-05, -3.834952076431364e-05, 0.0, 0.022971361875534058]","[-0.0778198316693306, -4.591370105743408, -1.9369243383407593, -0.4329071640968323, -0.006729126907885075, 0.3431854546070099]"
1584443109748643617,,152189,,1584443109,748240424,'',"[shoulder_pan_joint, shoulder_lift_joint, elbow_joint, wrist_1_joint, wrist_2_joint,","[1.5183241367340088, -1.0700228849994105, 2.2429614067077637, -2.727363411580221, -1.5672333876239222, 2.7082061767578125]","[0.0, 2.5566347176209092e-05, 3.834952076431364e-05, -3.834952076431364e-05, 0.0, -0.028973063454031944]","[-0.3067016899585724, -4.660034656524658, -1.8539773225784302, -0.4822540879249573, -0.0022430422250181437, -0.1323394924402237]"
1584443109860691454,,152203,,1584443109,860236345,'',"[shoulder_pan_joint, shoulder_lift_joint, elbow_joint, wrist_1_joint, wrist_2_joint,","[1.5182878971099854, -1.0699990431415003, 2.2429614067077637, -2.727375332509176, -1.567209545766012, 2.703740119934082]","[0.0, 2.5566347176209092e-05, 3.834952076431364e-05, -1.917476038215682e-05, 0.0, -0.0370648130774498]","[0.0595092847943306, -4.582214832305908, -1.9705514907836914, -0.4104767143726349, -0.0022430422250181437, -0.3431854546070099]"
1584443109972602928,,152217,,1584443109,972199174,'',"[shoulder_pan_joint, shoulder_lift_joint, elbow_joint, wrist_1_joint, wrist_2_joint,","[1.518311858177185, -1.0699628035174769, 2.2429614067077637, -2.7273877302752894, -1.567209545766012, 2.701345443725586]","[0.0, 1.2783173588104546e-05, 2.5566347176209092e-05, -1.917476038215682e-05, 0.0, -0.012463593855500221]","[-0.0320434607565403, -4.627991199493408, -1.9301989078521729, -0.4351502060890198, -0.008972168900072575, -0.3499145805835724]"
1584443110084676553,,152231,,1584443110,84224360,'',"[shoulder_pan_joint, shoulder_lift_joint, elbow_joint, wrist_1_joint, wrist_2_joint,","[1.5182998180389404, -1.0699990431415003, 2.242973804473877, -2.727375332509176, -1.5672453085528772, 2.703416585922241]","[0.0, 1.2783173588104546e-05, 2.5566347176209092e-05, -1.917476038215682e-05, 0.0, 0.038963112980127335]","[0.0503540076315403, -4.632568836212158, -1.9279570579528809, -0.4530945420265198, -0.011215210892260075, 0.2938385307788849]"
1584443110196556057,,152245,,1584443110,196235208,'',"[shoulder_pan_joint, shoulder_lift_joint, elbow_joint, wrist_1_joint, wrist_2_joint,","[1.518311858177185, -1.0700109640704554, 2.2429375648498535, -2.727363411580221, -1.5672453085528772, 2.7071645259857178]","[0.0, 1.2783173588104546e-05, 2.5566347176209092e-05, -1.917476038215682e-05, 0.0, 0.02099636197090149]","[-0.1327514797449112, -4.609680652618408, -1.9301989078521729, -0.4508515000343323, -0.0022430422250181437, 0.3454284965991974]"
1584443110308632879,,152259,,1584443110,308255314,'',"[shoulder_pan_joint, shoulder_lift_joint, elbow_joint, wrist_1_joint, wrist_2_joint,","[1.518311858177185, -1.0699990431415003, 2.2429614067077637, -2.7273877302752894, -1.567209545766012, 2.707918882369995]","[0.0, 1.2783173588104546e-05, 2.5566347176209092e-05, -1.917476038215682e-05, 0.0, -0.03219442069530487]","[-0.2700805962085724, -4.623413562774658, -1.8898463249206543, -0.4261780083179474, -0.004486084450036287, -0.1637420803308487]"
1584443110420564419,,152273,,1584443110,420224926,'',"[shoulder_pan_joint, shoulder_lift_joint, elbow_joint, wrist_1_joint, wrist_2_joint,","[1.5182998180389404, -1.0699990431415003, 2.2429494857788086, -2.727363411580221, -1.567197624837057, 2.70353627204895]","[0.0, 1.2783173588104546e-05, 1.2783173588104546e-05, -1.917476038215682e-05, 0.0, -0.034399520605802536]","[0.02288818545639515, -4.600525379180908, -1.966067910194397, -0.4373932480812073, -0.0022430422250181437, -0.3454284965991974]"
1584443110532501330,,152287,,1584443110,532196171,'',"[shoulder_pan_joint, shoulder_lift_joint, elbow_joint, wrist_1_joint, wrist_2_joint,","[1.5182998180389404, -1.0699752012835901, 2.2429256439208984, -2.727351490651266, -1.567209545766012, 2.701225757598877]","[0.0, 1.2783173588104546e-05, 1.2783173588104546e-05, -1.917476038215682e-05, 0.0, -0.01242524478584528]","[0.0503540076315403, -4.605103015899658, -1.966067910194397, -0.4216919243335724, -0.0022430422250181437, -0.3386993706226349]"
1584443110644548065,,152301,,1584443110,644211508,'',"[shoulder_pan_joint, shoulder_lift_joint, elbow_joint, wrist_1_joint, wrist_2_joint,","[1.518311858177185, -1.0699990431415003, 2.2429256439208984, -2.727351490651266, -1.5672333876239222, 2.7036561965942383]","[0.0, 1.2783173588104546e-05, 1.2783173588104546e-05, -1.917476038215682e-05, 0.0, 0.039078161120414734]","[-0.01373291201889515, -4.600525379180908, -1.9324406385421753, -0.4530945420265198, 0.0, 0.3005676567554474]"
1584443110756516095,,152315,,1584443110,756188263,'',"[shoulder_pan_joint, shoulder_lift_joint, elbow_joint, wrist_1_joint, wrist_2_joint,","[1.5182998180389404, -1.0699990431415003, 2.2429256439208984, -2.7273276487933558, -1.5672453085528772, 2.7074637413024902]","[0.0, 1.2783173588104546e-05, 1.2783173588104546e-05, -1.917476038215682e-05, 0.0, 0.021514080464839935]","[-0.1785278469324112, -4.641724109649658, -1.8898463249206543, -0.4216919243335724, -0.004486084450036287, 0.3476715385913849]"
1584443110868624635,,152329,,1584443110,868226432,'',"[shoulder_pan_joint, shoulder_lift_joint, elbow_joint, wrist_1_joint, wrist_2_joint,","[1.5182998180389404, -1.0699990431415003, 2.2429614067077637, -2.727375332509176, -1.567197624837057, 2.7083020210266113]","[0.0, 0.0, 1.2783173588104546e-05, 0.0, 0.0, -0.029222333803772926]","[-0.3845215141773224, -4.678345203399658, -1.869670033454895, -0.4800110459327698, 0.0022430422250181437, -0.1413116604089737]"
1584443110980600639,,152343,,1584443110,980198940,'',"[shoulder_pan_joint, shoulder_lift_joint, elbow_joint, wrist_1_joint, wrist_2_joint,","[1.5182998180389404, -1.0699990431415003, 2.2429256439208984, -2.727375332509176, -1.567209545766012, 2.70400333404541]","[-1.2783173588104546e-05, 0.0, 1.2783173588104546e-05, 0.0, 0.0, -0.03622112050652504]","[0.1647949367761612, -4.591370105743408, -1.999695062637329, -0.4149627983570099, -0.004486084450036287, -0.3611297905445099]"
1584443111092535105,,152357,,1584443111,92199319,'',"[shoulder_pan_joint, shoulder_lift_joint, elbow_joint, wrist_1_joint, wrist_2_joint,","[1.5182878971099854, -1.0700352827655237, 2.2429494857788086, -2.7273991743670862, -1.567197624837057, 2.701333522796631]","[-1.2783173588104546e-05, 0.0, 1.2783173588104546e-05, 0.0, 0.0, -0.014553642831742764]","[0.0, -4.609680652618408, -1.8943299055099487, -0.4396362900733948, -0.01794433780014515, -0.3386993706226349]"
1584443111204398499,,152371,,1584443111,204135027,'',"[shoulder_pan_joint, shoulder_lift_joint, elbow_joint, wrist_1_joint, wrist_2_joint,","[1.518311858177185, -1.0699990431415003, 2.2429256439208984, -2.727363411580221, -1.567221466694967, 2.7024588584899902]","[-1.2783173588104546e-05, 0.0, 1.2783173588104546e-05, 0.0, 0.0, 0.037946850061416626]","[-0.0915527418255806, -4.673767566680908, -1.8607027530670166, -0.4486084580421448, -0.008972168900072575, 0.2893524467945099]"
1584443111316498614,,152385,,1584443111,316175451,'',"[shoulder_pan_joint, shoulder_lift_joint, elbow_joint, wrist_1_joint, wrist_2_joint,","[1.518348217010498, -1.0699752012835901, 2.2429018020629883, -2.727375332509176, -1.567197624837057, 2.7064459323883057]","[-1.2783173588104546e-05, 0.0, 1.2783173588104546e-05, 0.0, 0.0, 0.027304857969284058]","[-0.01831054873764515, -4.618835926055908, -1.914506196975708, -0.4329071640968323, 0.0, 0.3745880424976349]"
1584443111428543836,,152399,,1584443111,428151324,'',"[shoulder_pan_joint, shoulder_lift_joint, elbow_joint, wrist_1_joint, wrist_2_joint,","[1.5183241367340088, -1.0699752012835901, 2.2428536415100098, -2.727351490651266, -1.5672453085528772, 2.70802640914917]","[-1.2783173588104546e-05, 0.0, -0.0, 0.0, 0.0, -0.00046019424917176366]","[-0.1876831203699112, -4.646301746368408, -1.8876044750213623, -0.4687958359718323, -0.006729126907885075, -0.0628051832318306]"
1584443111540575805,,152413,,1584443111,540213970,'',"[shoulder_pan_joint, shoulder_lift_joint, elbow_joint, wrist_1_joint, wrist_2_joint,","[1.5183601379394531, -1.0699628035174769, 2.2427096366882324, -2.727339569722311, -1.5672333876239222, 2.7040631771087646]","[-1.2783173588104546e-05, 0.0, -0.00199417513795197, 0.0, 0.0, -0.03654709458351135]","[0.0595092847943306, -4.458618640899658, -2.0736746788024902, -0.3970184624195099, -0.0022430422250181437, -0.3566437065601349]"
1584443111652556597,,152427,,1584443111,652153154,'',"[shoulder_pan_joint, shoulder_lift_joint, elbow_joint, wrist_1_joint, wrist_2_joint,","[1.5183961391448975, -1.06995135942568, 2.242433547973633, -2.7273157278644007, -1.5672333876239222, 2.70150089263916]","[2.5566347176209092e-05, 0.0, -0.00285064778290689, 0.0, 0.0, -0.011293933726847172]","[0.009155274368822575, -4.476929187774658, -2.01090407371521, -0.3925323784351349, -0.006729126907885075, -0.3117828667163849]"
1584443111764588045,,152441,,1584443111,764165626,'',"[shoulder_pan_joint, shoulder_lift_joint, elbow_joint, wrist_1_joint, wrist_2_joint,","[1.5188158750534058, -1.0695555845843714, 2.2396011352539062, -2.726261917744772, -1.5672333876239222, 2.7032132148742676]","[0.014790131710469723, 0.01498187892138958, -0.06675373017787933, 0.028071848675608635, 0.0, 0.04471554234623909]","[0.6317139267921448, -3.520203113555908, -2.089367389678955, -0.0583190992474556, -0.0022430422250181437, 0.3095398247241974]"
1584443111876575399,,152455,,1584443111,876141369,'',"[shoulder_pan_joint, shoulder_lift_joint, elbow_joint, wrist_1_joint, wrist_2_joint,","[1.5228220224380493, -1.065707031880514, 2.227479934692383, -2.7205870787249964, -1.5672333876239222, 2.7079668045043945]","[0.05632266402244568, 0.049138519912958145, -0.13853125274181366, 0.07453229278326035, 0.0, 0.033364083617925644]","[0.6454468369483948, -3.282165765762329, -2.2597451210021973, -0.008972168900072575, -0.011215210892260075, 0.3902893364429474]"
1584443111988585797,,152469,,1584443111,988158460,'',"[shoulder_pan_joint, shoulder_lift_joint, elbow_joint, wrist_1_joint, wrist_2_joint,","[1.530906081199646, -1.0585139433490198, 2.2101378440856934, -2.7110818068133753, -1.5672453085528772, 2.7098708152770996]","[0.07660955935716629, 0.07699305564165115, -0.15770600736141205, 0.08854904025793076, 0.0, 0.0012463594321161509]","[0.8102417588233948, -3.414917230606079, -2.3987371921539307, -0.0471038855612278, -0.011215210892260075, -0.0471038855612278]"
1584443112100485348,,152483,,1584443112,100161734,'',"[shoulder_pan_joint, shoulder_lift_joint, elbow_joint, wrist_1_joint, wrist_2_joint,","[1.5393389463424683, -1.051380459462301, 2.1947755813598633, -2.7020190397845667, -1.5672453085528772, 2.7066617012023926]","[0.07407849282026291, 0.047029294073581696, -0.11576441675424576, 0.06935510784387589, 0.0, -0.037103161215782166]","[1.0208131074905396, -3.570557117462158, -2.5242786407470703, -0.1076660305261612, -0.0022430422250181437, -0.2781372368335724]"
1584443112212526814,,152497,,1584443112,212152025,'',"[shoulder_pan_joint, shoulder_lift_joint, elbow_joint, wrist_1_joint, wrist_2_joint,","[1.546499490737915, -1.0462010542498987, 2.183673858642578, -2.695698086415426, -1.5672453085528772, 2.7028660774230957]","[0.0535614974796772, 0.043833501636981964, -0.08755195885896683, 0.04615364968776703, 0.0, -0.02323981001973152]","[0.9521485567092896, -3.675842761993408, -2.472717046737671, -0.0448608435690403, 0.006729126907885075, -0.3162689507007599]"
1584443112324504170,,152511,,1584443112,324133549,'',"[shoulder_pan_joint, shoulder_lift_joint, elbow_joint, wrist_1_joint, wrist_2_joint,","[1.5523645877838135, -1.0420768896686, 2.176400661468506, -2.691603962575094, -1.5672453085528772, 2.701488971710205]","[0.05104321241378784, 0.020542560145258904, -0.04880615696310997, 0.02502306178212166, 0.0, -0.0025310683995485306]","[1.0070801973342896, -3.964233875274658, -2.5960166454315186, -0.0269165076315403, 0.02243042178452015, -0.1637420803308487]"
