PorkPy/robot-pulling-data/random_moves_to90/joint_states_throttle.csv
rosbagTimestamp,header,seq,stamp,secs,nsecs,frame_id,name,wrist_3_joint],position,velocity,effort
1584442370581327816,,59789,,1584442370,580987361,'',"[shoulder_pan_joint, shoulder_lift_joint, elbow_joint, wrist_1_joint, wrist_2_joint,","[1.4047942161560059, -1.1717522780047815, 2.483058452606201, -2.86280328432192, -1.5669940153705042, 2.720646381378174]","[0.0, 0.0, -0.0, 0.0, 0.0, 0.0]","[-0.6042481064796448, -4.064941883087158, -0.9863966703414917, -0.4418793320655823, 0.0, -0.0515899695456028]"
1584442370693253877,,59803,,1584442370,692977812,'',"[shoulder_pan_joint, shoulder_lift_joint, elbow_joint, wrist_1_joint, wrist_2_joint,","[1.4048062562942505, -1.1717522780047815, 2.483034372329712, -2.86280328432192, -1.5669458548175257, 2.7206225395202637]","[0.0, 0.0, -0.0, 0.0, 0.0, 0.0]","[-0.5996704697608948, -4.037476062774658, -0.9908802509307861, -0.4418793320655823, -0.006729126907885075, -0.0515899695456028]"
1584442370805264575,,59817,,1584442370,804961820,'',"[shoulder_pan_joint, shoulder_lift_joint, elbow_joint, wrist_1_joint, wrist_2_joint,","[1.4048062562942505, -1.1717646757708948, 2.483058452606201, -2.862791363392965, -1.5669940153705042, 2.7206225395202637]","[0.0, 0.0, -0.0, 0.0, 0.0, 0.0]","[-0.6088257431983948, -4.055786609649658, -0.9886384606361389, -0.4373932480812073, -0.0022430422250181437, -0.0538330152630806]"
1584442370917283349,,59831,,1584442370,916986645,'',"[shoulder_pan_joint, shoulder_lift_joint, elbow_joint, wrist_1_joint, wrist_2_joint,","[1.4048062562942505, -1.1717646757708948, 2.483046531677246, -2.8628152052508753, -1.566981617604391, 2.7206344604492188]","[0.0, 0.0, -0.0, 0.0, 0.0, 0.0]","[-0.5813599228858948, -4.046631336212158, -1.002089262008667, -0.4418793320655823, 0.0, -0.0560760572552681]"
1584442371029331177,,59845,,1584442371,29002093,'',"[shoulder_pan_joint, shoulder_lift_joint, elbow_joint, wrist_1_joint, wrist_2_joint,","[1.4047702550888062, -1.1717646757708948, 2.483058452606201, -2.8628152052508753, -1.5669696966754358, 2.720646381378174]","[0.0, 0.0, -0.0, 0.0, 0.0, 0.0]","[-0.6134033799171448, -4.074097156524658, -0.9819130301475525, -0.4486084580421448, 0.0, -0.0538330152630806]"
1584442371141289518,,59859,,1584442371,140989178,'',"[shoulder_pan_joint, shoulder_lift_joint, elbow_joint, wrist_1_joint, wrist_2_joint,","[1.4047822952270508, -1.1717522780047815, 2.483034372329712, -2.8628152052508753, -1.566981617604391, 2.7206344604492188]","[0.0, 0.0, -0.0, 0.0, 0.0, 0.0]","[-0.5950928330421448, -4.074097156524658, -0.9886384606361389, -0.4373932480812073, 0.0, -0.0515899695456028]"
1584442371253274438,,59873,,1584442371,252980941,'',"[shoulder_pan_joint, shoulder_lift_joint, elbow_joint, wrist_1_joint, wrist_2_joint,","[1.4047822952270508, -1.1717408339129847, 2.4830222129821777, -2.8628271261798304, -1.5669458548175257, 2.7206344604492188]","[0.0, 0.0, -0.0, 0.0, 0.0, 0.0]","[-0.5813599228858948, -4.064941883087158, -0.9841548204421997, -0.4396362900733948, -0.004486084450036287, -0.0538330152630806]"
1584442371365228331,,59887,,1584442371,364947327,'',"[shoulder_pan_joint, shoulder_lift_joint, elbow_joint, wrist_1_joint, wrist_2_joint,","[1.4047942161560059, -1.1717522780047815, 2.483058452606201, -2.8628152052508753, -1.5669577757464808, 2.720658540725708]","[0.0, 0.0, -0.0, 0.0, 0.0, 0.0]","[-0.5859375596046448, -4.023743152618408, -0.9908802509307861, -0.4373932480812073, 0.0, -0.0538330152630806]"
1584442371477230644,,59901,,1584442371,476940923,'',"[shoulder_pan_joint, shoulder_lift_joint, elbow_joint, wrist_1_joint, wrist_2_joint,","[1.404758334159851, -1.17177659669985, 2.4830703735351562, -2.8628152052508753, -1.5669339338885706, 2.720646381378174]","[0.0, 0.0, -0.0, 0.0, 0.0, 0.0]","[-0.5767822861671448, -4.092407703399658, -0.9931221008300781, -0.4396362900733948, 0.0, -0.0426178015768528]"
1584442371589264907,,59915,,1584442371,588956671,'',"[shoulder_pan_joint, shoulder_lift_joint, elbow_joint, wrist_1_joint, wrist_2_joint,","[1.4048302173614502, -1.1717284361468714, 2.4830703735351562, -2.86280328432192, -1.5669577757464808, 2.720658540725708]","[0.0, 0.0, -0.0, 0.0, 0.0, 0.0]","[-0.5767822861671448, -4.037476062774658, -0.9841548204421997, -0.4373932480812073, 0.004486084450036287, -0.0538330152630806]"
1584442371701238576,,59929,,1584442371,700939789,'',"[shoulder_pan_joint, shoulder_lift_joint, elbow_joint, wrist_1_joint, wrist_2_joint,","[1.4047822952270508, -1.1717522780047815, 2.483034372329712, -2.86277944246401, -1.5669940153705042, 2.7206344604492188]","[0.0, 0.0, -0.0, 0.0, 0.0, 0.0]","[-0.5950928330421448, -4.069519519805908, -0.9931221008300781, -0.4486084580421448, -0.004486084450036287, -0.0515899695456028]"
1584442371813164527,,59943,,1584442371,812905363,'',"[shoulder_pan_joint, shoulder_lift_joint, elbow_joint, wrist_1_joint, wrist_2_joint,","[1.4048062562942505, -1.1717408339129847, 2.483058452606201, -2.86280328432192, -1.566981617604391, 2.7206344604492188]","[0.0, 0.0, -0.0, 0.0, 0.0, 0.0]","[-0.6088257431983948, -4.060364246368408, -0.9931221008300781, -0.4373932480812073, -0.008972168900072575, -0.0515899695456028]"
1584442371925196585,,59957,,1584442371,924928245,'',"[shoulder_pan_joint, shoulder_lift_joint, elbow_joint, wrist_1_joint, wrist_2_joint,","[1.4047702550888062, -1.1717522780047815, 2.4830822944641113, -2.8628271261798304, -1.5669339338885706, 2.7206344604492188]","[0.0, 0.0, -0.0, 0.0, 0.0, 0.0]","[-0.5905151963233948, -4.078674793243408, -0.9908802509307861, -0.4418793320655823, -0.004486084450036287, -0.0538330152630806]"
1584442372037265042,,59971,,1584442372,36966355,'',"[shoulder_pan_joint, shoulder_lift_joint, elbow_joint, wrist_1_joint, wrist_2_joint,","[1.4048062562942505, -1.1717646757708948, 2.483034372329712, -2.8628271261798304, -1.5669696966754358, 2.720646381378174]","[0.0, 0.0, -0.0, 0.0, 0.0, 0.0]","[-0.5905151963233948, -4.046631336212158, -0.9908802509307861, -0.4418793320655823, -0.006729126907885075, -0.0538330152630806]"
1584442372149219526,,59985,,1584442372,148932250,'',"[shoulder_pan_joint, shoulder_lift_joint, elbow_joint, wrist_1_joint, wrist_2_joint,","[1.4048062562942505, -1.1717408339129847, 2.4830703735351562, -2.8628152052508753, -1.5669577757464808, 2.720682382583618]","[0.0, 0.0, -0.0, 0.0, 0.0, 0.0]","[-0.5859375596046448, -4.096985340118408, -0.9886384606361389, -0.4463654160499573, -0.006729126907885075, -0.0583190992474556]"
1584442372261254860,,59999,,1584442372,260935053,'',"[shoulder_pan_joint, shoulder_lift_joint, elbow_joint, wrist_1_joint, wrist_2_joint,","[1.4047942161560059, -1.1717284361468714, 2.4830703735351562, -2.8628152052508753, -1.5669577757464808, 2.720646381378174]","[0.0, 0.0, -0.0, 0.0, 0.0, 0.0]","[-0.5630493760108948, -4.083252429962158, -0.9953638911247253, -0.4463654160499573, 0.0, -0.0538330152630806]"
1584442372373215876,,60013,,1584442372,372932327,'',"[shoulder_pan_joint, shoulder_lift_joint, elbow_joint, wrist_1_joint, wrist_2_joint,","[1.4047942161560059, -1.1717522780047815, 2.483058452606201, -2.86280328432192, -1.5669696966754358, 2.7206225395202637]","[0.0, 0.0, -0.0, 0.0, 0.0, 0.0]","[-0.5905151963233948, -4.037476062774658, -0.9931221008300781, -0.4284210503101349, -0.006729126907885075, -0.0515899695456028]"
1584442372485253154,,60027,,1584442372,484949628,'',"[shoulder_pan_joint, shoulder_lift_joint, elbow_joint, wrist_1_joint, wrist_2_joint,","[1.4047942161560059, -1.1717165152179163, 2.483046531677246, -2.8628271261798304, -1.5669577757464808, 2.7206344604492188]","[0.0, 0.0, -0.0, 0.0, 0.0, 0.0]","[-0.6225586533546448, -4.078674793243408, -0.9976056814193726, -0.4441223740577698, 0.0, -0.0560760572552681]"
1584442372597288339,,60041,,1584442372,596965286,'',"[shoulder_pan_joint, shoulder_lift_joint, elbow_joint, wrist_1_joint, wrist_2_joint,","[1.4047942161560059, -1.1717165152179163, 2.483034372329712, -2.86280328432192, -1.5669339338885706, 2.720646381378174]","[0.0, 0.0, -0.0, 0.0, 0.0, 0.0]","[-0.5676270127296448, -4.064941883087158, -0.9953638911247253, -0.4351502060890198, 0.0022430422250181437, -0.0583190992474556]"
1584442372709267889,,60055,,1584442372,708937112,'',"[shoulder_pan_joint, shoulder_lift_joint, elbow_joint, wrist_1_joint, wrist_2_joint,","[1.4048062562942505, -1.1717408339129847, 2.483046531677246, -2.8628514448748987, -1.5669696966754358, 2.7206225395202637]","[0.0, 0.0, -0.0, 0.0, 0.0, 0.0]","[-0.6042481064796448, -4.028320789337158, -0.9774293899536133, -0.4373932480812073, 0.0, -0.0538330152630806]"
1584442372821205532,,60069,,1584442372,820908137,'',"[shoulder_pan_joint, shoulder_lift_joint, elbow_joint, wrist_1_joint, wrist_2_joint,","[1.4048181772232056, -1.1717646757708948, 2.483034372329712, -2.86280328432192, -1.5669577757464808, 2.7206225395202637]","[0.0, 0.0, -0.0, 0.0, 0.0, 0.0]","[-0.6179810166358948, -4.055786609649658, -1.004331111907959, -0.4373932480812073, -0.0022430422250181437, -0.0605621412396431]"
1584442372933197715,,60083,,1584442372,932918174,'',"[shoulder_pan_joint, shoulder_lift_joint, elbow_joint, wrist_1_joint, wrist_2_joint,","[1.4048181772232056, -1.1717165152179163, 2.483058452606201, -2.862791363392965, -1.5669458548175257, 2.720646381378174]","[0.0, 0.0, -0.0, 0.0, 0.0, 0.0]","[-0.5813599228858948, -4.092407703399658, -0.9908802509307861, -0.4441223740577698, 0.0, -0.0471038855612278]"
1584442373045172798,,60097,,1584442373,44886423,'',"[shoulder_pan_joint, shoulder_lift_joint, elbow_joint, wrist_1_joint, wrist_2_joint,","[1.4048181772232056, -1.1717522780047815, 2.483058452606201, -2.8628152052508753, -1.5669339338885706, 2.7206225395202637]","[0.0, 0.0, -0.0, 0.0, 0.0, 0.0]","[-0.5676270127296448, -4.010010242462158, -1.006572961807251, -0.4486084580421448, -0.008972168900072575, -0.0515899695456028]"
1584442373157152048,,60111,,1584442373,156863940,'',"[shoulder_pan_joint, shoulder_lift_joint, elbow_joint, wrist_1_joint, wrist_2_joint,","[1.4047942161560059, -1.1717408339129847, 2.483058452606201, -2.862791363392965, -1.5669458548175257, 2.7206344604492188]","[0.0, 0.0, -0.0, 0.0, 0.0, 0.0]","[-0.5813599228858948, -4.119873523712158, -0.9998475313186646, -0.4351502060890198, 0.0, -0.0583190992474556]"
1584442373269190388,,60125,,1584442373,268886982,'',"[shoulder_pan_joint, shoulder_lift_joint, elbow_joint, wrist_1_joint, wrist_2_joint,","[1.4048062562942505, -1.17177659669985, 2.483046531677246, -2.86280328432192, -1.5669696966754358, 2.7206344604492188]","[0.0, 0.0, -0.0, 0.0, 0.0, 0.0]","[-0.5767822861671448, -4.051208972930908, -0.9908802509307861, -0.4306641221046448, -0.0022430422250181437, -0.0538330152630806]"
1584442373381192471,,60139,,1584442373,380896489,'',"[shoulder_pan_joint, shoulder_lift_joint, elbow_joint, wrist_1_joint, wrist_2_joint,","[1.4048181772232056, -1.1717522780047815, 2.483058452606201, -2.8628271261798304, -1.5669458548175257, 2.7206344604492188]","[0.0, 0.0, -0.0, 0.0, 0.0, 0.0]","[-0.5950928330421448, -4.074097156524658, -1.004331111907959, -0.4418793320655823, -0.004486084450036287, -0.0493469275534153]"
1584442373493147646,,60153,,1584442373,492894363,'',"[shoulder_pan_joint, shoulder_lift_joint, elbow_joint, wrist_1_joint, wrist_2_joint,","[1.4047822952270508, -1.1717646757708948, 2.4830703735351562, -2.8628390471087855, -1.566981617604391, 2.7206225395202637]","[0.0, 0.0, -0.0, 0.0, 0.0, 0.0]","[-0.5767822861671448, -4.051208972930908, -0.9886384606361389, -0.4463654160499573, -0.0022430422250181437, -0.0538330152630806]"
1584442373605238704,,60167,,1584442373,604937642,'',"[shoulder_pan_joint, shoulder_lift_joint, elbow_joint, wrist_1_joint, wrist_2_joint,","[1.4048062562942505, -1.1717522780047815, 2.483034372329712, -2.86280328432192, -1.5669696966754358, 2.7206225395202637]","[0.0, 0.0, -0.0, 0.0, 0.0, 0.0]","[-0.5767822861671448, -4.042053699493408, -0.9886384606361389, -0.4351502060890198, 0.0022430422250181437, -0.0538330152630806]"
1584442373717171397,,60181,,1584442373,716855037,'',"[shoulder_pan_joint, shoulder_lift_joint, elbow_joint, wrist_1_joint, wrist_2_joint,","[1.4047822952270508, -1.1717522780047815, 2.483034372329712, -2.8628271261798304, -1.566981617604391, 2.7206225395202637]","[0.0, 0.0, -0.0, 0.0, 0.0, 0.0]","[-0.5859375596046448, -4.042053699493408, -0.9886384606361389, -0.4373932480812073, 0.0022430422250181437, -0.0515899695456028]"
1584442373829198096,,60195,,1584442373,828890813,'',"[shoulder_pan_joint, shoulder_lift_joint, elbow_joint, wrist_1_joint, wrist_2_joint,","[1.4048181772232056, -1.1717646757708948, 2.4830703735351562, -2.8628152052508753, -1.5669577757464808, 2.720646381378174]","[0.0, 0.0, -0.0, 0.0, 0.0, 0.0]","[-0.5859375596046448, -3.991699695587158, -0.9976056814193726, -0.4373932480812073, 0.004486084450036287, -0.0515899695456028]"
1584442373941206791,,60209,,1584442373,940892414,'',"[shoulder_pan_joint, shoulder_lift_joint, elbow_joint, wrist_1_joint, wrist_2_joint,","[1.4047822952270508, -1.17177659669985, 2.4830822944641113, -2.8628271261798304, -1.5669577757464808, 2.720658540725708]","[0.0, 0.0, -0.0, 0.0, 0.0, 0.0]","[-0.6042481064796448, -4.042053699493408, -0.9953638911247253, -0.4418793320655823, -0.0022430422250181437, -0.0515899695456028]"
1584442374053167707,,60223,,1584442374,52897913,'',"[shoulder_pan_joint, shoulder_lift_joint, elbow_joint, wrist_1_joint, wrist_2_joint,","[1.4048062562942505, -1.1717522780047815, 2.483058452606201, -2.86277944246401, -1.566981617604391, 2.720658540725708]","[0.0, 0.0, -0.0, 0.0, 0.0, 0.0]","[-0.6042481064796448, -4.042053699493408, -0.9931221008300781, -0.4396362900733948, 0.0022430422250181437, -0.0493469275534153]"
1584442374165114486,,60237,,1584442374,164835386,'',"[shoulder_pan_joint, shoulder_lift_joint, elbow_joint, wrist_1_joint, wrist_2_joint,","[1.4048181772232056, -1.17177659669985, 2.483058452606201, -2.8628152052508753, -1.566981617604391, 2.7206225395202637]","[0.0, 0.0, -0.0, 0.0, 0.0, 0.0]","[-0.5996704697608948, -4.046631336212158, -0.9953638911247253, -0.4329071640968323, 0.0, -0.0583190992474556]"
1584442374277166602,,60251,,1584442374,276830475,'',"[shoulder_pan_joint, shoulder_lift_joint, elbow_joint, wrist_1_joint, wrist_2_joint,","[1.4048302173614502, -1.1717646757708948, 2.483058452606201, -2.8628152052508753, -1.5669696966754358, 2.720670461654663]","[0.0, 0.0, -0.0, 0.0, 0.0, 0.0]","[-0.6088257431983948, -4.051208972930908, -0.9998475313186646, -0.4418793320655823, 0.004486084450036287, -0.0515899695456028]"
1584442374389250467,,60265,,1584442374,388897228,'',"[shoulder_pan_joint, shoulder_lift_joint, elbow_joint, wrist_1_joint, wrist_2_joint,","[1.4048062562942505, -1.1717284361468714, 2.4830100536346436, -2.8628152052508753, -1.5669458548175257, 2.7206344604492188]","[0.0, 0.0, -0.0, 0.0, 0.0, 0.0]","[-0.5859375596046448, -4.087830066680908, -0.9953638911247253, -0.4418793320655823, -0.006729126907885075, -0.0538330152630806]"
1584442374501143556,,60279,,1584442374,500818269,'',"[shoulder_pan_joint, shoulder_lift_joint, elbow_joint, wrist_1_joint, wrist_2_joint,","[1.4047942161560059, -1.1717408339129847, 2.4830703735351562, -2.8628152052508753, -1.5669339338885706, 2.7206344604492188]","[0.0, 0.0, -0.0, 0.0, 0.0, 0.0]","[-0.5996704697608948, -4.074097156524658, -0.9863966703414917, -0.4373932480812073, -0.004486084450036287, -0.0560760572552681]"
1584442374613156349,,60293,,1584442374,612853724,'',"[shoulder_pan_joint, shoulder_lift_joint, elbow_joint, wrist_1_joint, wrist_2_joint,","[1.4048181772232056, -1.1717284361468714, 2.4830703735351562, -2.86280328432192, -1.5669577757464808, 2.7206225395202637]","[0.0, 0.0, -0.0, 0.0, 0.0, 0.0]","[-0.5538941025733948, -4.028320789337158, -0.9751875996589661, -0.4396362900733948, 0.0, -0.0471038855612278]"
1584442374725120982,,60307,,1584442374,724828927,'',"[shoulder_pan_joint, shoulder_lift_joint, elbow_joint, wrist_1_joint, wrist_2_joint,","[1.4047942161560059, -1.1717408339129847, 2.4830703735351562, -2.86280328432192, -1.566981617604391, 2.720646381378174]","[0.0, 0.0, -0.0, 0.0, 0.0, 0.0]","[-0.5722046494483948, -4.096985340118408, -1.004331111907959, -0.4396362900733948, -0.004486084450036287, -0.0538330152630806]"
1584442374837201150,,60321,,1584442374,836872527,'',"[shoulder_pan_joint, shoulder_lift_joint, elbow_joint, wrist_1_joint, wrist_2_joint,","[1.4048062562942505, -1.1717408339129847, 2.4830822944641113, -2.8628152052508753, -1.5669577757464808, 2.7206225395202637]","[0.0, 0.0, -0.0, 0.0, 0.0, 0.0]","[-0.5630493760108948, -4.078674793243408, -0.9953638911247253, -0.4306641221046448, -0.006729126907885075, -0.0560760572552681]"
1584442374949080804,,60335,,1584442374,948821881,'',"[shoulder_pan_joint, shoulder_lift_joint, elbow_joint, wrist_1_joint, wrist_2_joint,","[1.4048181772232056, -1.1717408339129847, 2.483046531677246, -2.8628271261798304, -1.5669696966754358, 2.720682382583618]","[0.0, 0.0, -0.0, 0.0, 0.0, 0.0]","[-0.6179810166358948, -4.074097156524658, -0.9886384606361389, -0.4396362900733948, -0.004486084450036287, -0.0538330152630806]"
1584442375061049755,,60349,,1584442375,60795340,'',"[shoulder_pan_joint, shoulder_lift_joint, elbow_joint, wrist_1_joint, wrist_2_joint,","[1.4048302173614502, -1.1717408339129847, 2.4830703735351562, -2.8628271261798304, -1.566981617604391, 2.720646381378174]","[0.0, 0.0, -0.0, 0.0, 0.0, 0.0]","[-0.5813599228858948, -4.032898426055908, -0.9863966703414917, -0.4396362900733948, 0.0022430422250181437, -0.0493469275534153]"
1584442375173112821,,60363,,1584442375,172833069,'',"[shoulder_pan_joint, shoulder_lift_joint, elbow_joint, wrist_1_joint, wrist_2_joint,","[1.4048302173614502, -1.1717646757708948, 2.483034372329712, -2.8628390471087855, -1.5669696966754358, 2.7206344604492188]","[0.0, 0.0, -0.0, 0.0, 0.0, 0.0]","[-0.5859375596046448, -4.101562976837158, -0.9886384606361389, -0.4373932480812073, -0.004486084450036287, -0.0560760572552681]"
1584442375285104775,,60377,,1584442375,284815936,'',"[shoulder_pan_joint, shoulder_lift_joint, elbow_joint, wrist_1_joint, wrist_2_joint,","[1.4048181772232056, -1.1717522780047815, 2.483034372329712, -2.86277944246401, -1.5669577757464808, 2.7206225395202637]","[0.0, 0.0, -0.0, 0.0, 0.0, 0.0]","[-0.5996704697608948, -4.083252429962158, -0.9908802509307861, -0.4463654160499573, 0.0, -0.0560760572552681]"
1584442375397156881,,60391,,1584442375,396877610,'',"[shoulder_pan_joint, shoulder_lift_joint, elbow_joint, wrist_1_joint, wrist_2_joint,","[1.4048181772232056, -1.1717522780047815, 2.483046531677246, -2.8628152052508753, -1.5669577757464808, 2.7206108570098877]","[0.0, 0.0, -0.0, 0.0, 0.0, 0.0]","[-0.5859375596046448, -4.055786609649658, -1.002089262008667, -0.4508515000343323, 0.0022430422250181437, -0.0515899695456028]"
1584442375509219967,,60405,,1584442375,508896975,'',"[shoulder_pan_joint, shoulder_lift_joint, elbow_joint, wrist_1_joint, wrist_2_joint,","[1.4048181772232056, -1.1717646757708948, 2.4830703735351562, -2.86280328432192, -1.5670059362994593, 2.7206108570098877]","[0.0, 0.0, -0.0, 0.0, 0.0, 0.0]","[-0.6042481064796448, -4.074097156524658, -0.9931221008300781, -0.4418793320655823, 0.0022430422250181437, -0.0515899695456028]"
1584442375621148563,,60419,,1584442375,620804551,'',"[shoulder_pan_joint, shoulder_lift_joint, elbow_joint, wrist_1_joint, wrist_2_joint,","[1.4047942161560059, -1.1717522780047815, 2.483034372329712, -2.8628271261798304, -1.5669940153705042, 2.720646381378174]","[0.0, 0.0, -0.0, 0.0, 0.0, 0.0]","[-0.5767822861671448, -4.064941883087158, -0.9908802509307861, -0.4441223740577698, -0.004486084450036287, -0.0538330152630806]"
1584442375733076197,,60433,,1584442375,732800392,'',"[shoulder_pan_joint, shoulder_lift_joint, elbow_joint, wrist_1_joint, wrist_2_joint,","[1.4048062562942505, -1.1717646757708948, 2.483046531677246, -2.8628271261798304, -1.5669577757464808, 2.7206344604492188]","[0.0, 0.0, -0.0, 0.0, 0.0, 0.0]","[-0.6042481064796448, -4.101562976837158, -0.9819130301475525, -0.4486084580421448, 0.0, -0.0515899695456028]"
1584442375845123944,,60447,,1584442375,844852027,'',"[shoulder_pan_joint, shoulder_lift_joint, elbow_joint, wrist_1_joint, wrist_2_joint,","[1.4048062562942505, -1.1717408339129847, 2.4830703735351562, -2.8628271261798304, -1.5669696966754358, 2.720658540725708]","[0.0, 0.0, -0.0, 0.0, 0.0, 0.0]","[-0.5813599228858948, -4.092407703399658, -0.9931221008300781, -0.4306641221046448, -0.011215210892260075, -0.0538330152630806]"
1584442375957014990,,60461,,1584442375,956774912,'',"[shoulder_pan_joint, shoulder_lift_joint, elbow_joint, wrist_1_joint, wrist_2_joint,","[1.4048062562942505, -1.1717522780047815, 2.4830703735351562, -2.8628152052508753, -1.5669696966754358, 2.720646381378174]","[0.0, 0.0, -0.0, 0.0, 0.0, 0.0]","[-0.5859375596046448, -4.110718250274658, -0.9908802509307861, -0.4351502060890198, 0.0022430422250181437, -0.0538330152630806]"
1584442376069116177,,60475,,1584442376,68764361,'',"[shoulder_pan_joint, shoulder_lift_joint, elbow_joint, wrist_1_joint, wrist_2_joint,","[1.4049739837646484, -1.1717165152179163, 2.482818365097046, -2.8624799887286585, -1.5670059362994593, 2.7211015224456787]","[0.017295634374022484, 0.001342233270406723, -0.020836573094129562, 0.022702915593981743, 0.0, 0.03618277236819267]","[0.8148193955421448, -3.025818109512329, -1.9100226163864136, -0.2377624809741974, 0.011215210892260075, 0.2871094048023224]"
1584442376181061644,,60489,,1584442376,180734273,'',"[shoulder_pan_joint, shoulder_lift_joint, elbow_joint, wrist_1_joint, wrist_2_joint,","[1.4062575101852417, -1.171668831502096, 2.4815585613250732, -2.861701790486471, -1.566981617604391, 2.722886085510254]","[0.002940129954367876, -8.948221511673182e-05, 0.0024671524297446012, -0.0032213598024100065, 0.0, -0.03472549095749855]","[0.0823974683880806, -3.890991687774658, -1.4863203763961792, -0.4687958359718323, 0.0022430422250181437, -0.1031799390912056]"
1584442376293093693,,60503,,1584442376,292733891,'',"[shoulder_pan_joint, shoulder_lift_joint, elbow_joint, wrist_1_joint, wrist_2_joint,","[1.4041463136672974, -1.17177659669985, 2.4820144176483154, -2.862312618886129, -1.5669458548175257, 2.7184195518493652]","[-0.015275892801582813, -0.0004090615548193455, -0.0031190942972898483, -0.0006519418675452471, 0.0, -0.012252671644091606]","[-0.9658814668655396, -3.730774402618408, -1.515463948249817, -0.4037475883960724, -0.0022430422250181437, -0.3521576225757599]"
1584442376405040703,,60517,,1584442376,404712731,'',"[shoulder_pan_joint, shoulder_lift_joint, elbow_joint, wrist_1_joint, wrist_2_joint,","[1.4043145179748535, -1.1717646757708948, 2.481750726699829, -2.8621328512774866, -1.5669696966754358, 2.72137713432312]","[0.022050974890589714, -0.00014061490946915, -0.0010098706698045135, 0.0016106799012050033, 0.0, 0.046000249683856964]","[0.8514404892921448, -3.712463855743408, -1.643247127532959, -0.3880462944507599, 0.008972168900072575, 0.3768310844898224]"
1584442376517137351,,60531,,1584442376,516773242,'',"[shoulder_pan_joint, shoulder_lift_joint, elbow_joint, wrist_1_joint, wrist_2_joint,","[1.4064855575561523, -1.17177659669985, 2.4818105697631836, -2.8621209303485315, -1.5669696966754358, 2.7231853008270264]","[0.016758739948272705, -7.669904152862728e-05, -0.0003451456723269075, 0.00024927189224399626, 0.0, -0.02943325787782669]","[0.8972169160842896, -3.840637683868408, -1.4795949459075928, -0.4463654160499573, 0.008972168900072575, -0.0852356031537056]"
1584442376629269827,,60545,,1584442376,628874600,'',"[shoulder_pan_joint, shoulder_lift_joint, elbow_joint, wrist_1_joint, wrist_2_joint,","[1.4077210426330566, -1.1717646757708948, 2.4817986488342285, -2.8621209303485315, -1.566981617604391, 2.718491554260254]","[0.001163268811069429, -5.1132694352418184e-05, -0.0001661812566453591, 0.00013422331539914012, 0.0, -0.02786092646420002]","[0.4943848252296448, -3.771973133087158, -1.4885622262954712, -0.4329071640968323, 0.011215210892260075, -0.3835602104663849]"
1584442376741083939,,60559,,1584442376,740763862,'',"[shoulder_pan_joint, shoulder_lift_joint, elbow_joint, wrist_1_joint, wrist_2_joint,","[1.405741810798645, -1.1717646757708948, 2.4817986488342285, -2.862156693135397, -1.5669220129596155, 2.71651554107666]","[-0.025170069187879562, -3.834952076431364e-05, -0.00010226538870483637, -1.917476038215682e-05, 0.0, -0.0070946612395346165]","[-1.1032105684280396, -3.689575672149658, -1.5670255422592163, -0.4149627983570099, -0.004486084450036287, -0.2915954887866974]"
1584442376853009098,,60573,,1584442376,852732112,'',"[shoulder_pan_joint, shoulder_lift_joint, elbow_joint, wrist_1_joint, wrist_2_joint,","[1.4034029245376587, -1.1717408339129847, 2.481762647628784, -2.8621447722064417, -1.566981617604391, 2.719784736633301]","[-0.01624741405248642, -3.834952076431364e-05, 7.669904152862728e-05, 0.0, 0.0, 0.02991262637078762]","[-1.0894776582717896, -3.758240222930908, -1.5177057981491089, -0.4351502060890198, 0.006729126907885075, 0.3611297905445099]"
1584442376964997866,,60587,,1584442376,964697716,'',"[shoulder_pan_joint, shoulder_lift_joint, elbow_joint, wrist_1_joint, wrist_2_joint,","[1.4013997316360474, -1.17177659669985, 2.4817867279052734, -2.862156693135397, -1.5669577757464808, 2.7209219932556152]","[-0.023457122966647148, -2.5566347176209092e-05, 7.669904152862728e-05, 0.0, 0.0, -0.03209855034947395]","[-0.9475709199905396, -3.781128406524658, -1.4123406410217285, -0.4732819199562073, -0.006729126907885075, -0.1345825344324112]"
1584442377077089726,,60601,,1584442377,76712983,'',"[shoulder_pan_joint, shoulder_lift_joint, elbow_joint, wrist_1_joint, wrist_2_joint,","[1.3996245861053467, -1.1717646757708948, 2.481750726699829, -2.862156693135397, -1.5669220129596155, 2.7172818183898926]","[-0.005471198353916407, -2.5566347176209092e-05, 7.669904152862728e-05, 0.0, 0.0, -0.013268934562802315]","[-0.8514404892921448, -3.671265125274658, -1.5244312286376953, -0.4104767143726349, -0.004486084450036287, -0.3185119926929474]"
1584442377189139788,,60615,,1584442377,188769067,'',"[shoulder_pan_joint, shoulder_lift_joint, elbow_joint, wrist_1_joint, wrist_2_joint,","[1.401591420173645, -1.1717646757708948, 2.4817745685577393, -2.8621090094195765, -1.5669696966754358, 2.720646381378174]","[0.02327815815806389, -2.5566347176209092e-05, 0.0003451456723269075, 0.0, 0.0, 0.03840704634785652]","[0.9750367403030396, -3.822327136993408, -1.4818367958068848, -0.4329071640968323, 0.011215210892260075, 0.3947754204273224]"
1584442377301168140,,60629,,1584442377,300783312,'',"[shoulder_pan_joint, shoulder_lift_joint, elbow_joint, wrist_1_joint, wrist_2_joint,","[1.4034029245376587, -1.1717408339129847, 2.4817867279052734, -2.8621447722064417, -1.5669577757464808, 2.7212092876434326]","[0.01335841603577137, -1.2783173588104546e-05, 0.0002556634717620909, 0.0, 0.0, -0.04881893843412399]","[0.7507324814796448, -3.840637683868408, -1.4325169324874878, -0.4575806260108948, 0.0291595496237278, -0.2265472710132599]"
1584442377413158571,,60643,,1584442377,412778872,'',"[shoulder_pan_joint, shoulder_lift_joint, elbow_joint, wrist_1_joint, wrist_2_joint,","[1.4052261114120483, -1.1717646757708948, 2.481762647628784, -2.8621328512774866, -1.5669696966754358, 2.7172818183898926]","[0.018637867644429207, -1.2783173588104546e-05, 0.00014061490946915, 0.0, 0.0, -0.012693691067397594]","[0.8239746689796448, -3.790283679962158, -1.5580583810806274, -0.4059906303882599, 0.0314025916159153, -0.3162689507007599]"
1584442377525081265,,60657,,1584442377,524736662,'',"[shoulder_pan_joint, shoulder_lift_joint, elbow_joint, wrist_1_joint, wrist_2_joint,","[1.4077929258346558, -1.17177659669985, 2.4817867279052734, -2.8621328512774866, -1.5669696966754358, 2.719557046890259]","[0.02178252674639225, -1.2783173588104546e-05, 8.948221511673182e-05, 0.0, 0.0, 0.0393466092646122]","[1.0025025606155396, -3.845215320587158, -1.46614408493042, -0.4396362900733948, 0.0426178015768528, 0.3274841606616974]"
1584442377637124625,,60671,,1584442377,636741219,'',"[shoulder_pan_joint, shoulder_lift_joint, elbow_joint, wrist_1_joint, wrist_2_joint,","[1.4103598594665527, -1.1717408339129847, 2.4817745685577393, -2.8621447722064417, -1.5669940153705042, 2.72137713432312]","[0.03262265771627426, -1.2783173588104546e-05, 7.669904152862728e-05, 0.0, 0.0, -0.01944320648908615]","[0.9567261934280396, -3.854370594024658, -1.4930458068847656, -0.4172058403491974, 0.02243042178452015, -0.02018737979233265]"
1584442377749122399,,60685,,1584442377,748736059,'',"[shoulder_pan_joint, shoulder_lift_joint, elbow_joint, wrist_1_joint, wrist_2_joint,","[1.413778305053711, -1.1717522780047815, 2.481762647628784, -2.8621209303485315, -1.5669696966754358, 2.7172818183898926]","[0.019302591681480408, -1.2783173588104546e-05, 5.1132694352418184e-05, 0.0, 0.0, -0.02327815815806389]","[1.0299683809280396, -3.858948230743408, -1.5109803676605225, -0.4104767143726349, 0.0314025916159153, -0.3297272026538849]"
1584442377861121607,,60699,,1584442377,860761896,'',"[shoulder_pan_joint, shoulder_lift_joint, elbow_joint, wrist_1_joint, wrist_2_joint,","[1.414330005645752, -1.17177659669985, 2.4817745685577393, -2.8621328512774866, -1.5670059362994593, 2.716252326965332]","[-0.0024415862280875444, -1.2783173588104546e-05, 5.1132694352418184e-05, 0.0, 0.0, 0.03069879114627838]","[0.2105713039636612, -3.804016590118408, -1.5401238203048706, -0.4149627983570099, 0.02018737979233265, 0.1076660305261612]"
1584442377973099323,,60713,,1584442377,972720727,'',"[shoulder_pan_joint, shoulder_lift_joint, elbow_joint, wrist_1_joint, wrist_2_joint,","[1.4131907224655151, -1.1717646757708948, 2.4817745685577393, -2.8621209303485315, -1.5669696966754358, 2.720072031021118]","[-0.026614567264914513, -1.2783173588104546e-05, 3.834952076431364e-05, 0.0, 0.0, 0.013863352127373219]","[-0.8605957627296448, -3.804016590118408, -1.452693223953247, -0.4575806260108948, 0.01570129580795765, 0.3521576225757599]"
1584442378085063105,,60727,,1584442378,84698975,'',"[shoulder_pan_joint, shoulder_lift_joint, elbow_joint, wrist_1_joint, wrist_2_joint,","[1.4102040529251099, -1.1717646757708948, 2.481750726699829, -2.8621090094195765, -1.5669696966754358, 2.717329740524292]","[-0.018497252836823463, -1.2783173588104546e-05, 3.834952076431364e-05, 0.0, 0.0, -0.03965340554714203]","[-0.9109498262405396, -3.762817859649658, -1.5087385177612305, -0.4351502060890198, 0.0022430422250181437, -0.3858032524585724]"
1584442378197047284,,60741,,1584442378,196712329,'',"[shoulder_pan_joint, shoulder_lift_joint, elbow_joint, wrist_1_joint, wrist_2_joint,","[1.4085487127304077, -1.1717284361468714, 2.481750726699829, -2.86216909090151, -1.5669696966754358, 2.715773344039917]","[-0.0158894844353199, 0.0, 2.5566347176209092e-05, 0.0, 0.0, 0.0347830168902874]","[-0.8605957627296448, -3.730774402618408, -1.5804764032363892, -0.4037475883960724, 0.01570129580795765, 0.0942077711224556]"
1584442378309085464,,60755,,1584442378,308746642,'',"[shoulder_pan_joint, shoulder_lift_joint, elbow_joint, wrist_1_joint, wrist_2_joint,","[1.405681848526001, -1.1717408339129847, 2.4817745685577393, -2.86216909090151, -1.5669458548175257, 2.719604969024658]","[-0.031063111498951912, 0.0, 2.5566347176209092e-05, 0.0, 0.0, 0.021399032324552536]","[-1.1032105684280396, -3.684998035430908, -1.5670255422592163, -0.4194488823413849, -0.0022430422250181437, 0.3342132866382599]"
1584442378421120127,,60769,,1584442378,420770776,'',"[shoulder_pan_joint, shoulder_lift_joint, elbow_joint, wrist_1_joint, wrist_2_joint,","[1.4022393226623535, -1.1717522780047815, 2.4817745685577393, -2.8621447722064417, -1.5669458548175257, 2.71948504447937]","[-0.033440783619880676, 0.0, 2.5566347176209092e-05, 0.0, 0.0, -0.044025249779224396]","[-0.9933472871780396, -3.707886219024658, -1.5244312286376953, -0.4463654160499573, -0.0022430422250181437, -0.2669220268726349]"
1584442378533045307,,60783,,1584442378,532701215,'',"[shoulder_pan_joint, shoulder_lift_joint, elbow_joint, wrist_1_joint, wrist_2_joint,","[1.3989527225494385, -1.17177659669985, 2.481750726699829, -2.8621447722064417, -1.5669220129596155, 2.715989112854004]","[-0.015991749241948128, 0.0, 2.5566347176209092e-05, 0.0, 0.0, -0.01200340036302805]","[-0.9567261934280396, -3.675842761993408, -1.5311566591262817, -0.4329071640968323, -0.006729126907885075, -0.3633728325366974]"
1584442378645036278,,60797,,1584442378,644709318,'',"[shoulder_pan_joint, shoulder_lift_joint, elbow_joint, wrist_1_joint, wrist_2_joint,","[1.399276614189148, -1.17180043855776, 2.481750726699829, -2.86216909090151, -1.5669696966754358, 2.7195329666137695]","[0.023418772965669632, 0.0, 1.2783173588104546e-05, 0.0, 0.0, 0.048531319946050644]","[0.6774902939796448, -3.762817859649658, -1.5558165311813354, -0.4127197563648224, 0.0022430422250181437, 0.3656158745288849]"
1584442378757075410,,60811,,1584442378,756674932,'',"[shoulder_pan_joint, shoulder_lift_joint, elbow_joint, wrist_1_joint, wrist_2_joint,","[1.4022992849349976, -1.17177659669985, 2.481738567352295, -2.8621328512774866, -1.5669696966754358, 2.7221314907073975]","[0.020555343478918076, 0.0, 1.2783173588104546e-05, 0.0, 0.0, -0.023930100724101067]","[0.8010864853858948, -3.813171863555908, -1.4728695154190063, -0.4329071640968323, 0.0269165076315403, -0.011215210892260075]"
1584442378869135471,,60825,,1584442378,868710458,'',"[shoulder_pan_joint, shoulder_lift_joint, elbow_joint, wrist_1_joint, wrist_2_joint,","[1.4048062562942505, -1.17177659669985, 2.4817028045654297, -2.862156693135397, -1.5669577757464808, 2.717784881591797]","[0.02767557092010975, 0.0, 1.2783173588104546e-05, 0.0, 0.0, -0.023450732231140137]","[0.7827759385108948, -3.804016590118408, -1.4840785264968872, -0.4329071640968323, 0.02243042178452015, -0.3476715385913849]"
1584442378981131412,,60839,,1584442378,980718782,'',"[shoulder_pan_joint, shoulder_lift_joint, elbow_joint, wrist_1_joint, wrist_2_joint,","[1.408464789390564, -1.171788517628805, 2.481630802154541, -2.8620851675616663, -1.5669696966754358, 2.718635320663452]","[0.03351747989654541, 0.0, -0.000690291344653815, 0.0, 0.0, 0.0434500053524971]","[0.9292603731155396, -3.767395496368408, -1.546849250793457, -0.3992615044116974, 0.0269165076315403, 0.2960815727710724]"
1584442379093026645,,60853,,1584442379,92650093,'',"[shoulder_pan_joint, shoulder_lift_joint, elbow_joint, wrist_1_joint, wrist_2_joint,","[1.413286566734314, -1.17177659669985, 2.4814987182617188, -2.8620851675616663, -1.5670059362994593, 2.7216403484344482]","[0.04295146465301514, 0.0, -0.0026589001063257456, 0.0, 0.0, 0.007574030198156834]","[0.9567261934280396, -3.858948230743408, -1.5872018337249756, -0.3678589165210724, 0.0381317175924778, 0.3858032524585724]"
1584442379204981590,,60867,,1584442379,204592674,'',"[shoulder_pan_joint, shoulder_lift_joint, elbow_joint, wrist_1_joint, wrist_2_joint,","[1.4165009260177612, -1.1717408339129847, 2.4804189205169678, -2.861701790486471, -1.5669940153705042, 2.7180001735687256]","[0.026806315407156944, 0.0, -0.026077674701809883, 0.014726215973496437, 0.0, -0.03202185034751892]","[0.9338380098342896, -3.080749750137329, -1.8853626251220703, -0.1749572902917862, 0.0471038855612278, -0.3633728325366974]"
1584442379316958475,,60881,,1584442379,316584979,'',"[shoulder_pan_joint, shoulder_lift_joint, elbow_joint, wrist_1_joint, wrist_2_joint,","[1.4194037914276123, -1.1707213560687464, 2.474792003631592, -2.8591278235064905, -1.566981617604391, 2.7164437770843506]","[0.02713867649435997, 0.01985226757824421, -0.0805467739701271, 0.03332573175430298, 0.0, 0.028436169028282166]","[0.9338380098342896, -2.435302972793579, -1.8988134860992432, -0.0628051832318306, 0.0269165076315403, 0.0942077711224556]"
1584442379429008998,,60895,,1584442379,428607609,'',"[shoulder_pan_joint, shoulder_lift_joint, elbow_joint, wrist_1_joint, wrist_2_joint,","[1.422270655632019, -1.1668370405780237, 2.4628422260284424, -2.852638546620504, -1.566981617604391, 2.720790147781372]","[0.03337686508893967, 0.049458097666502, -0.11811652034521103, 0.07391870021820068, 0.0, 0.026499519124627113]","[1.0940552949905396, -2.426147699356079, -1.8808790445327759, -0.0605621412396431, 0.008972168900072575, 0.3701019585132599]"
1584442379541106679,,60909,,1584442379,540672038,'',"[shoulder_pan_joint, shoulder_lift_joint, elbow_joint, wrist_1_joint, wrist_2_joint,","[1.4262287616729736, -1.160865608845846, 2.4496684074401855, -2.8452757040606897, -1.5669940153705042, 2.7202038764953613]","[0.030283337458968163, 0.0521169975399971, -0.11539370566606522, 0.06270146369934082, 0.0, -0.046958986669778824]","[0.9155274629592896, -2.774048089981079, -2.10506010055542, -0.01345825381577015, 0.008972168900072575, -0.2691650688648224]"
1584442379652993897,,60923,,1584442379,652612035,'',"[shoulder_pan_joint, shoulder_lift_joint, elbow_joint, wrist_1_joint, wrist_2_joint,","[1.4295154809951782, -1.1555183569537562, 2.4370341300964355, -2.837398354207174, -1.5670059362994593, 2.71698260307312]","[0.033555831760168076, 0.04506068676710129, -0.10443852841854095, 0.06879904121160507, 0.0, -0.009549031034111977]","[0.8697510361671448, -2.801513910293579, -2.0691912174224854, -0.1772003322839737, 0.01345825381577015, -0.3072967827320099]"
1584442379764938974,,60937,,1584442379,764608728,'',"[shoulder_pan_joint, shoulder_lift_joint, elbow_joint, wrist_1_joint, wrist_2_joint,","[1.4335455894470215, -1.1505549589740198, 2.426091432571411, -2.830729309712545, -1.5669696966754358, 2.7199761867523193]","[0.03695615381002426, 0.0423506535589695, -0.08629920333623886, 0.054130349308252335, 0.0, 0.04061214253306389]","[0.9567261934280396, -2.961731195449829, -1.963826060295105, -0.0583190992474556, 0.004486084450036287, 0.3902893364429474]"
1584442379877023430,,60951,,1584442379,876593017,'',"[shoulder_pan_joint, shoulder_lift_joint, elbow_joint, wrist_1_joint, wrist_2_joint,","[1.4390392303466797, -1.1466463247882288, 2.4159531593322754, -2.824731175099508, -1.566981617604391, 2.7219395637512207]","[0.04857606068253517, 0.03099919483065605, -0.08476522564888, 0.0522320456802845, 0.0, -0.015090536326169968]","[0.9429932832717896, -2.430725336074829, -1.9571006298065186, -0.1166381984949112, -0.0022430422250181437, 0.006729126907885075]"
1584442379989021285,,60965,,1584442379,988635235,'',"[shoulder_pan_joint, shoulder_lift_joint, elbow_joint, wrist_1_joint, wrist_2_joint,","[1.4442088603973389, -1.1426776091205042, 2.405993938446045, -2.819212261830465, -1.5669696966754358, 2.7178688049316406]","[0.04013916477560997, 0.03615081310272217, -0.09284418821334839, 0.05278811603784561, 0.0, -0.020478643476963043]","[1.0391236543655396, -2.806091547012329, -1.9750350713729858, -0.0628051832318306, 0.011215210892260075, -0.3454284965991974]"
1584442380100994723,,60979,,1584442380,100591631,'',"[shoulder_pan_joint, shoulder_lift_joint, elbow_joint, wrist_1_joint, wrist_2_joint,","[1.4479633569717407, -1.1388772169696253, 2.395854949951172, -2.81360894838442, -1.5669940153705042, 2.7177369594573975]","[0.040778324007987976, 0.0365726612508297, -0.1009998545050621, 0.0542837455868721, 0.0, 0.041916027665138245]","[1.0986329317092896, -2.806091547012329, -1.8763954639434814, -0.0471038855612278, -0.0022430422250181437, 0.2198181450366974]"
1584442380212982008,,60993,,1584442380,212584587,'',"[shoulder_pan_joint, shoulder_lift_joint, elbow_joint, wrist_1_joint, wrist_2_joint,","[1.4520891904830933, -1.133925739918844, 2.3848040103912354, -2.8073356787311, -1.5669940153705042, 2.7216522693634033]","[0.02756052277982235, 0.04826926440000534, -0.10497541725635529, 0.05694903805851936, 0.0, 0.017621604725718498]","[0.9475709199905396, -2.732849359512329, -1.9032971858978271, -0.1816864162683487, 0.0, 0.4059906303882599]"
1584442380325038162,,61007,,1584442380,324630692,'',"[shoulder_pan_joint, shoulder_lift_joint, elbow_joint, wrist_1_joint, wrist_2_joint,","[1.4544883966445923, -1.1285422484027308, 2.3735365867614746, -2.8009184042560022, -1.5670178572284144, 2.719557046890259]","[0.016285762190818787, 0.04042039439082146, -0.09844321757555008, 0.05489733815193176, 0.0, -0.048895638436079025]","[0.9933472871780396, -3.126526117324829, -2.004178524017334, -0.0874786451458931, -0.008972168900072575, -0.3858032524585724]"
1584442380436952982,,61021,,1584442380,436573664,'',"[shoulder_pan_joint, shoulder_lift_joint, elbow_joint, wrist_1_joint, wrist_2_joint,","[1.4562156200408936, -1.12400991121401, 2.362952947616577, -2.794549290333883, -1.5669940153705042, 2.717102527618408]","[0.016017315909266472, 0.042389001697301865, -0.08917541801929474, 0.05186772719025612, 0.0, 0.009894176386296749]","[0.9704591035842896, -3.149414300918579, -2.114027261734009, -0.1861725002527237, -0.0022430422250181437, 0.0314025916159153]"
1584442380548968670,,61035,,1584442380,548566420,'',"[shoulder_pan_joint, shoulder_lift_joint, elbow_joint, wrist_1_joint, wrist_2_joint,","[1.4579188823699951, -1.1192143599139612, 2.3525731563568115, -2.788874928151266, -1.5669696966754358, 2.721125364303589]","[0.01173495315015316, 0.04307929426431656, -0.08687444776296616, 0.048838116228580475, 0.0, 0.024582043290138245]","[0.9155274629592896, -3.295898675918579, -1.9907277822494507, -0.0964508131146431, -0.01794433780014515, 0.3790741264820099]"
1584442380660986252,,61049,,1584442380,660579342,'',"[shoulder_pan_joint, shoulder_lift_joint, elbow_joint, wrist_1_joint, wrist_2_joint,","[1.4592262506484985, -1.1152098814593714, 2.3421456813812256, -2.783379856740133, -1.566981617604391, 2.7205629348754883]","[0.012629775330424309, 0.02840421162545681, -0.08687444776296616, 0.054609715938568115, 0.0, -0.04849296808242798]","[0.8056641221046448, -2.888489007949829, -2.001936912536621, -0.02467346377670765, -0.0269165076315403, -0.2736511528491974]"
1584442380772961835,,61063,,1584442380,772561718,'',"[shoulder_pan_joint, shoulder_lift_joint, elbow_joint, wrist_1_joint, wrist_2_joint,","[1.4609534740447998, -1.1117928663836878, 2.332929849624634, -2.7779324690448206, -1.566981617604391, 2.7172458171844482]","[0.02070874162018299, 0.03555000573396683, -0.08496975153684616, 0.04692063853144646, 0.0, -0.007133010774850845]","[0.8331299424171448, -3.044128656387329, -2.0355639457702637, -0.1704712063074112, -0.0269165076315403, -0.3095398247241974]"
1584442380884893896,,61077,,1584442380,884552359,'',"[shoulder_pan_joint, shoulder_lift_joint, elbow_joint, wrist_1_joint, wrist_2_joint,","[1.4643239974975586, -1.1076930204974573, 2.324913740158081, -2.7733591238604944, -1.566981617604391, 2.7204909324645996]","[0.03635534644126892, 0.03477023169398308, -0.06886295229196548, 0.03645122051239014, 0.0, 0.03491723909974098]","[1.0757447481155396, -3.250122308731079, -2.2485358715057373, -0.1166381984949112, -0.02018737979233265, 0.3544006645679474]"
1584442380996959968,,61091,,1584442380,996549863,'',"[shoulder_pan_joint, shoulder_lift_joint, elbow_joint, wrist_1_joint, wrist_2_joint,","[1.468366026878357, -1.10419208208193, 2.3172454833984375, -2.7690017859088343, -1.5669940153705042, 2.722203254699707]","[0.03351747989654541, 0.02334207482635975, -0.054724764078855515, 0.033555831760168076, 0.0, -0.012022574432194233]","[0.7919312119483948, -3.286743402481079, -2.1185109615325928, -0.1031799390912056, -0.02018737979233265, 0.02467346377670765]"
1584442381108903552,,61105,,1584442381,108554330,'',"[shoulder_pan_joint, shoulder_lift_joint, elbow_joint, wrist_1_joint, wrist_2_joint,","[1.4716770648956299, -1.1023934523211878, 2.311713695526123, -2.7656009832965296, -1.5669940153705042, 2.717904806137085]","[0.027368774637579918, 0.014738999307155609, -0.056297097355127335, 0.026499519124627113, 0.0, -0.023910926654934883]","[0.7598877549171448, -3.067016839981079, -2.078158378601074, -0.1121521145105362, -0.01570129580795765, -0.3656158745288849]"
1584442381220854259,,61119,,1584442381,220509686,'',"[shoulder_pan_joint, shoulder_lift_joint, elbow_joint, wrist_1_joint, wrist_2_joint,","[1.4752274751663208, -1.0998156706439417, 2.304849624633789, -2.7620814482318323, -1.5670059362994593, 2.718850612640381]","[0.03632977977395058, 0.029503565281629562, -0.05339531600475311, 0.030679617077112198, 0.0, 0.045348308980464935]","[1.1581422090530396, -3.213501214981079, -2.1633472442626953, -0.1256103664636612, -0.01794433780014515, 0.2758941948413849]"
1584442381332953503,,61133,,1584442381,332583442,'',"[shoulder_pan_joint, shoulder_lift_joint, elbow_joint, wrist_1_joint, wrist_2_joint,","[1.4788620471954346, -1.0967229048358362, 2.2991013526916504, -2.7590888182269495, -1.5669940153705042, 2.721867799758911]","[0.02515728585422039, 0.027419907972216606, -0.060259878635406494, 0.02943325787782669, 0.0, 0.007784952875226736]","[0.9475709199905396, -3.240967035293579, -2.183523416519165, -0.1323394924402237, -0.011215210892260075, 0.3611297905445099]"
1584442381444884984,,61147,,1584442381,444526946,'',"[shoulder_pan_joint, shoulder_lift_joint, elbow_joint, wrist_1_joint, wrist_2_joint,","[1.4805892705917358, -1.0931857267962855, 2.2920212745666504, -2.7553775946246546, -1.566981617604391, 2.718276262283325]","[0.007209709845483303, 0.029017804190516472, -0.05776716023683548, 0.03428447246551514, 0.0, -0.031446605920791626]","[0.8972169160842896, -3.515625476837158, -2.1386873722076416, -0.0740203931927681, -0.02243042178452015, -0.3476715385913849]"
1584442381556883659,,61161,,1584442381,556507337,'',"[shoulder_pan_joint, shoulder_lift_joint, elbow_joint, wrist_1_joint, wrist_2_joint,","[1.4806970357894897, -1.0905364195453089, 2.285024404525757, -2.7514503637896937, -1.5669940153705042, 2.7173657417297363]","[-0.0005496764788404107, 0.021629130467772484, -0.0756891667842865, 0.0412832573056221, 0.0, 0.0367196649312973]","[0.1785278469324112, -3.236389398574829, -2.0422894954681396, -0.0964508131146431, -0.0314025916159153, 0.1659851223230362]"
1584442381668941827,,61175,,1584442381,668517355,'',"[shoulder_pan_joint, shoulder_lift_joint, elbow_joint, wrist_1_joint, wrist_2_joint,","[1.4806970357894897, -1.087442700062887, 2.2771401405334473, -2.746949021016256, -1.566981617604391, 2.721484661102295]","[-0.00015339808305725455, 0.028902756050229073, -0.0644271969795227, 0.036623790860176086, 0.0, 0.020670391619205475]","[0.0961303785443306, -3.364563226699829, -2.2485358715057373, -0.1884155422449112, -0.0358886756002903, 0.3678589165210724]"
1584442381780857318,,61189,,1584442381,780513456,'',"[shoulder_pan_joint, shoulder_lift_joint, elbow_joint, wrist_1_joint, wrist_2_joint,","[1.4806491136550903, -1.0842178503619593, 2.269519805908203, -2.7429025808917444, -1.5669696966754358, 2.719688892364502]","[-0.0007030745618976653, 0.029414081946015358, -0.06449110805988312, 0.036796364933252335, 0.0, -0.04592354968190193]","[-0.0411987341940403, -3.112793207168579, -2.194732427597046, -0.1727142482995987, -0.0381317175924778, -0.3611297905445099]"
1584442381892871493,,61203,,1584442381,892525427,'',"[shoulder_pan_joint, shoulder_lift_joint, elbow_joint, wrist_1_joint, wrist_2_joint,","[1.480661153793335, -1.0811370054828089, 2.2636871337890625, -2.7392872015582483, -1.566981617604391, 2.7173776626586914]","[-0.00026844663079828024, 0.023150326684117317, -0.05128609389066696, 0.029529130086302757, 0.0, -0.0016873788554221392]","[0.1144409328699112, -3.479004144668579, -2.3225157260894775, -0.1009368970990181, -0.0403747595846653, -0.0785064771771431]"
1584442382004843810,,61217,,1584442382,4497364,'',"[shoulder_pan_joint, shoulder_lift_joint, elbow_joint, wrist_1_joint, wrist_2_joint,","[1.4806371927261353, -1.0786555449115198, 2.257014751434326, -2.7356837431537073, -1.5669577757464808, 2.7211973667144775]","[-0.00011504856229294091, 0.02449255995452404, -0.06327670812606812, 0.03593350201845169, 0.0, 0.029145635664463043]","[-0.0274658240377903, -3.428650140762329, -2.2149088382720947, -0.1121521145105362, -0.0493469275534153, 0.3409424126148224]"
1584442382116793044,,61231,,1584442382,116497493,'',"[shoulder_pan_joint, shoulder_lift_joint, elbow_joint, wrist_1_joint, wrist_2_joint,","[1.4806491136550903, -1.0760892073260706, 2.2503418922424316, -2.7320082823382776, -1.566981617604391, 2.721592426300049]","[-0.0001661812566453591, 0.027765052393078804, -0.06750793755054474, 0.030372820794582367, 0.0, -0.04839709401130676]","[-0.4302978813648224, -3.506469964981079, -2.185765266418457, -0.1659851223230362, -0.0493469275534153, -0.1906585842370987]"
1584442382228782713,,61245,,1584442382,228476602,'',"[shoulder_pan_joint, shoulder_lift_joint, elbow_joint, wrist_1_joint, wrist_2_joint,","[1.4806491136550903, -1.0720489660846155, 2.24184513092041, -2.727818314229147, -1.566981617604391, 2.7177488803863525]","[-0.0001661812566453591, 0.039078161120414734, -0.07001344114542007, 0.0394616574048996, 0.0, -0.011504855938255787]","[0.1373291164636612, -3.405761957168579, -2.2193925380706787, -0.1368255764245987, -0.0515899695456028, -0.3454284965991974]"
1584442382340745512,,61259,,1584442382,340489084,'',"[shoulder_pan_joint, shoulder_lift_joint, elbow_joint, wrist_1_joint, wrist_2_joint,","[1.4806491136550903, -1.0677807966815394, 2.233816623687744, -2.7235921064959925, -1.5669940153705042, 2.7200000286102295]","[-0.00010226538870483637, 0.03653430938720703, -0.07873156666755676, 0.04178180173039436, 0.0, 0.043354131281375885]","[0.0320434607565403, -3.593445301055908, -2.116269111633301, -0.0605621412396431, -0.0583190992474556, 0.3364563286304474]"
1584442382452773754,,61273,,1584442382,452510683,'',"[shoulder_pan_joint, shoulder_lift_joint, elbow_joint, wrist_1_joint, wrist_2_joint,","[1.480661153793335, -1.0643523375140589, 2.226135730743408, -2.7191384474383753, -1.5670059362994593, 2.7224905490875244]","[-6.391586794052273e-05, 0.02665291726589203, -0.06984726339578629, 0.037525005638599396, 0.0, 0.0019558256026357412]","[-0.0320434607565403, -3.579712390899658, -2.362868309020996, -0.1525268703699112, -0.0672912672162056, 0.1592559963464737]"
1584442382564817785,,61287,,1584442382,564497658,'',"[shoulder_pan_joint, shoulder_lift_joint, elbow_joint, wrist_1_joint, wrist_2_joint,","[1.4806491136550903, -1.0606597105609339, 2.2174110412597656, -2.7144816557513636, -1.5669940153705042, 2.7184195518493652]","[0.00048576059634797275, 0.038784150034189224, -0.07497331500053406, 0.043047334998846054, 0.0, -0.026039324700832367]","[-0.009155274368822575, -3.689575672149658, -2.192490816116333, -0.1884155422449112, -0.0740203931927681, -0.3364563286304474]"
1584442382676802014,,61301,,1584442382,676475806,'',"[shoulder_pan_joint, shoulder_lift_joint, elbow_joint, wrist_1_joint, wrist_2_joint,","[1.4806970357894897, -1.0559962431537073, 2.208049774169922, -2.7094300428973597, -1.5669940153705042, 2.7190065383911133]","[5.1132694352418184e-05, 0.04187767580151558, -0.09205163270235062, 0.051062386482954025, 0.0, 0.047745153307914734]","[0.3387451469898224, -3.712463855743408, -2.2283596992492676, -0.1390686184167862, -0.0740203931927681, 0.2691650688648224]"
1584442382788841276,,61315,,1584442382,788504849,'',"[shoulder_pan_joint, shoulder_lift_joint, elbow_joint, wrist_1_joint, wrist_2_joint,","[1.480661153793335, -1.0521119276629847, 2.197956085205078, -2.703635040913717, -1.5669940153705042, 2.722442626953125]","[5.1132694352418184e-05, 0.03116537630558014, -0.09959370642900467, 0.05062136799097061, 0.0, 0.00945315696299076]","[-0.1373291164636612, -3.460693597793579, -2.1386873722076416, -0.1547699123620987, -0.0919647291302681, 0.3499145805835724]"
1584442382900817601,,61329,,1584442382,900476174,'',"[shoulder_pan_joint, shoulder_lift_joint, elbow_joint, wrist_1_joint, wrist_2_joint,","[1.48067307472229, -1.0475800673114222, 2.1868906021118164, -2.697757069264547, -1.5669696966754358, 2.7191498279571533]","[-2.5566347176209092e-05, 0.04917686805129051, -0.10441295802593231, 0.05083229020237923, 0.0, -0.036010198295116425]","[0.1327514797449112, -3.639221668243408, -2.268712282180786, -0.1121521145105362, -0.1009368970990181, -0.3745880424976349]"
1584442383012916003,,61343,,1584442383,12522378,'',"[shoulder_pan_joint, shoulder_lift_joint, elbow_joint, wrist_1_joint, wrist_2_joint,","[1.48067307472229, -1.0416930357562464, 2.175452709197998, -2.6917598883258265, -1.5670059362994593, 2.7185754776000977]","[2.5566347176209092e-05, 0.04578932747244835, -0.09555422514677048, 0.0499502494931221, 0.0, 0.04084223881363869]","[0.3067016899585724, -3.890991687774658, -2.535487651824951, -0.0515899695456028, -0.1076660305261612, 0.1973877102136612]"
1584442383124834439,,61357,,1584442383,124504624,'',"[shoulder_pan_joint, shoulder_lift_joint, elbow_joint, wrist_1_joint, wrist_2_joint,","[1.4806970357894897, -1.0374730269061487, 2.1657910346984863, -2.686551872883932, -1.5670059362994593, 2.722346782684326]","[2.5566347176209092e-05, 0.03592071682214737, -0.06959159672260284, 0.042280346155166626, 0.0, 0.015800002962350845]","[-0.0686645582318306, -3.762817859649658, -2.3247575759887695, -0.1682281643152237, -0.1076660305261612, 0.3701019585132599]"
1584442383236942840,,61371,,1584442383,236560918,'',"[shoulder_pan_joint, shoulder_lift_joint, elbow_joint, wrist_1_joint, wrist_2_joint,","[1.48067307472229, -1.0335286299334925, 2.15797758102417, -2.6825535933123987, -1.5670059362994593, 2.720407247543335]","[2.5566347176209092e-05, 0.03562670573592186, -0.06622961908578873, 0.03693058714270592, 0.0, -0.047515057027339935]","[0.0411987341940403, -3.808594226837158, -2.443573474884033, -0.1121521145105362, -0.1188812404870987, -0.3476715385913849]"
1584442383348886995,,61385,,1584442383,348497669,'',"[shoulder_pan_joint, shoulder_lift_joint, elbow_joint, wrist_1_joint, wrist_2_joint,","[1.48067307472229, -1.0300281683551233, 2.1517486572265625, -2.6789143721209925, -1.5670297781573694, 2.718024253845215]","[0.0, 0.021641911938786507, -0.0522320456802845, 0.03104393742978573, 0.0, 0.003662379225715995]","[0.0961303785443306, -4.092407703399658, -2.454782485961914, -0.1278534084558487, -0.1256103664636612, 0.0022430422250181437]"
1584442383460843493,,61399,,1584442383,460479794,'',"[shoulder_pan_joint, shoulder_lift_joint, elbow_joint, wrist_1_joint, wrist_2_joint,","[1.4807090759277344, -1.0278223196612757, 2.145134925842285, -2.6754425207721155, -1.5670297781573694, 2.721975564956665]","[0.0, 0.01985226757824421, -0.05885373055934906, 0.032884713262319565, -1.917476038215682e-05, 0.026614567264914513]","[0.009155274368822575, -3.781128406524658, -2.385286331176758, -0.0785064771771431, -0.1211242824792862, 0.4015045464038849]"
1584442383572817333,,61413,,1584442383,572460437,'',"[shoulder_pan_joint, shoulder_lift_joint, elbow_joint, wrist_1_joint, wrist_2_joint,","[1.4807090759277344, -1.0253527800189417, 2.139482021331787, -2.671911064778463, -1.567077938710348, 2.721736192703247]","[0.0, 0.02376391924917698, -0.051848553121089935, 0.029471606016159058, -1.917476038215682e-05, -0.05037209391593933]","[-0.2929687798023224, -4.064941883087158, -2.450299024581909, -0.1345825344324112, -0.1188812404870987, -0.2467346489429474]"
1584442383684797494,,61427,,1584442383,684447571,'',"[shoulder_pan_joint, shoulder_lift_joint, elbow_joint, wrist_1_joint, wrist_2_joint,","[1.4807090759277344, -1.0224030653582972, 2.132364273071289, -2.6683195273028772, -1.5670416990863245, 2.718156099319458]","[6.391586794052273e-05, 0.03064126707613468, -0.06827493011951447, 0.034514568746089935, -1.917476038215682e-05, -0.008283496834337711]","[0.0732421949505806, -3.726196765899658, -2.445815324783325, -0.1413116604089737, -0.1300964504480362, -0.3544006645679474]"
1584442383796833510,,61441,,1584442383,796474500,'',"[shoulder_pan_joint, shoulder_lift_joint, elbow_joint, wrist_1_joint, wrist_2_joint,","[1.4807690382003784, -1.0189746061908167, 2.1250905990600586, -2.664560143147604, -1.5670655409442347, 2.721269369125366]","[6.391586794052273e-05, 0.03244369477033615, -0.07386117428541183, 0.035722579807043076, -1.917476038215682e-05, 0.03840704634785652]","[0.0457763709127903, -3.973389148712158, -2.371835470199585, -0.1031799390912056, -0.1345825344324112, 0.3678589165210724]"
1584442383908865729,,61455,,1584442383,908498604,'',"[shoulder_pan_joint, shoulder_lift_joint, elbow_joint, wrist_1_joint, wrist_2_joint,","[1.480733036994934, -1.0153182188617151, 2.1163649559020996, -2.660034958516256, -1.567077938710348, 2.723137378692627]","[6.391586794052273e-05, 0.03135712444782257, -0.0719948336482048, 0.0390014611184597, -1.917476038215682e-05, -0.01432354561984539]","[-0.1556396633386612, -3.890991687774658, -2.3964955806732178, -0.1031799390912056, -0.1345825344324112, -0.008972168900072575]"
1584442384020820633,,61469,,1584442384,20487181,'',"[shoulder_pan_joint, shoulder_lift_joint, elbow_joint, wrist_1_joint, wrist_2_joint,","[1.4807929992675781, -1.0113022963153284, 2.107170581817627, -2.6551030317889612, -1.567077938710348, 2.718862771987915]","[6.391586794052273e-05, 0.043833501636981964, -0.0836658701300621, 0.04952840507030487, -3.834952076431364e-05, -0.02371917851269245]","[0.1739502102136612, -3.868103504180908, -2.5265204906463623, -0.2130890041589737, -0.1413116604089737, -0.3880462944507599]"
1584442384132766451,,61483,,1584442384,132414725,'',"[shoulder_pan_joint, shoulder_lift_joint, elbow_joint, wrist_1_joint, wrist_2_joint,","[1.4808528423309326, -1.0065425078021448, 2.0984325408935547, -2.650122944508688, -1.5671737829791468, 2.719796657562256]","[0.0018535602139309049, 0.040957286953926086, -0.08023998141288757, 0.04381432756781578, -0.000517718552146107, 0.04881893843412399]","[0.1007080152630806, -4.211426258087158, -2.383044719696045, -0.2153320610523224, -0.1390686184167862, 0.2736511528491974]"
1584442384244761330,,61497,,1584442384,244421186,'',"[shoulder_pan_joint, shoulder_lift_joint, elbow_joint, wrist_1_joint, wrist_2_joint,","[1.4808169603347778, -1.0028021971331995, 2.0908827781677246, -2.645585838948385, -1.5671737829791468, 2.7233290672302246]","[0.0001917476038215682, 0.0224472526460886, -0.05083868280053139, 0.032462868839502335, -0.00024927189224399626, 0.01248276885598898]","[0.0274658240377903, -4.138184070587158, -2.5197949409484863, -0.1143951565027237, -0.1525268703699112, 0.3544006645679474]"
1584442384356768773,,61511,,1584442384,356427496,'',"[shoulder_pan_joint, shoulder_lift_joint, elbow_joint, wrist_1_joint, wrist_2_joint,","[1.4808049201965332, -1.000488583241598, 2.0856375694274902, -2.6423891226397913, -1.5671494642840784, 2.720754384994507]","[0.00010226538870483637, 0.02251116931438446, -0.03653430938720703, 0.02214684896171093, -0.00013422331539914012, -0.04634539410471916]","[0.004577637184411287, -4.275513172149658, -2.6072256565093994, -0.1682281643152237, -0.1592559963464737, -0.3566437065601349]"
1584442384468842619,,61525,,1584442384,468450738,'',"[shoulder_pan_joint, shoulder_lift_joint, elbow_joint, wrist_1_joint, wrist_2_joint,","[1.4807690382003784, -0.9990857283221644, 2.0839929580688477, -2.641239945088522, -1.5671137014972132, 2.7183477878570557]","[0.00010226538870483637, 0.0008564726449549198, 0.0003451456723269075, -0.004141748417168856, -9.58738019107841e-05, -0.0011504855938255787]","[0.0457763709127903, -4.985046863555908, -2.205941677093506, -0.3745880424976349, -0.1592559963464737, -0.1233673244714737]"
1584442384580698108,,61539,,1584442384,580409850,'',"[shoulder_pan_joint, shoulder_lift_joint, elbow_joint, wrist_1_joint, wrist_2_joint,","[1.4807690382003784, -0.9991095701800745, 2.0840892791748047, -2.641395394002096, -1.5671256224261683, 2.722215175628662]","[7.669904152862728e-05, -0.00015339808305725455, 0.0004985437844879925, -0.0005944175645709038, -5.752428114647046e-05, 0.028206072747707367]","[-0.1007080152630806, -5.072021961212158, -2.0490148067474365, -0.4396362900733948, -0.1547699123620987, 0.3813171684741974]"
1584442384692718755,,61553,,1584442384,692413015,'',"[shoulder_pan_joint, shoulder_lift_joint, elbow_joint, wrist_1_joint, wrist_2_joint,","[1.4807569980621338, -0.9991095701800745, 2.0841012001037598, -2.641419235860006, -1.5671256224261683, 2.7233049869537354]","[5.1132694352418184e-05, -0.00011504856229294091, 0.0003195793251506984, -0.0002109223569277674, -5.752428114647046e-05, -0.02864709123969078]","[-0.1281738430261612, -5.035400867462158, -2.091609239578247, -0.4261780083179474, -0.1547699123620987, -0.1054229810833931]"
1584442384804675233,,61567,,1584442384,804387556,'',"[shoulder_pan_joint, shoulder_lift_joint, elbow_joint, wrist_1_joint, wrist_2_joint,","[1.4807809591293335, -0.9991095701800745, 2.0840773582458496, -2.641407314931051, -1.5671256224261683, 2.7189464569091797]","[-5.1132694352418184e-05, -7.669904152862728e-05, 0.00015339808305725455, -0.0002109223569277674, -3.834952076431364e-05, -0.022664567455649376]","[0.0961303785443306, -5.017090320587158, -2.100576400756836, -0.4239349663257599, -0.1614990383386612, -0.3701019585132599]"
1584442384916833417,,61581,,1584442384,916433310,'',"[shoulder_pan_joint, shoulder_lift_joint, elbow_joint, wrist_1_joint, wrist_2_joint,","[1.4807569980621338, -0.9991095701800745, 2.0841012001037598, -2.641419235860006, -1.5671137014972132, 2.720538854598999]","[-5.1132694352418184e-05, -5.1132694352418184e-05, -0.0, -0.00013422331539914012, -3.834952076431364e-05, 0.04832039400935173]","[0.0320434607565403, -5.062866687774658, -2.080400228500366, -0.4373932480812073, -0.1502838283777237, 0.3095398247241974]"
1584442385028844116,,61595,,1584442385,28440853,'',"[shoulder_pan_joint, shoulder_lift_joint, elbow_joint, wrist_1_joint, wrist_2_joint,","[1.4807569980621338, -0.9990976492511194, 2.0840773582458496, -2.641419235860006, -1.5671494642840784, 2.7235684394836426]","[-5.1132694352418184e-05, -3.834952076431364e-05, -0.0, -9.58738019107841e-05, -3.834952076431364e-05, 0.010181797668337822]","[-0.01373291201889515, -5.026245594024658, -2.1185109615325928, -0.4284210503101349, -0.1480407863855362, 0.3229980766773224]"
1584442385140741563,,61609,,1584442385,140369999,'',"[shoulder_pan_joint, shoulder_lift_joint, elbow_joint, wrist_1_joint, wrist_2_joint,","[1.4807450771331787, -0.9990976492511194, 2.0840535163879395, -2.6414554754840296, -1.5671256224261683, 2.7202632427215576]","[0.0, -2.5566347176209092e-05, -0.0, -7.669904152862728e-05, -1.917476038215682e-05, -0.04135995730757713]","[0.1052856519818306, -4.971313953399658, -2.17903995513916, -0.4082336723804474, -0.1502838283777237, -0.3656158745288849]"
1584442385252793248,,61623,,1584442385,252390226,'',"[shoulder_pan_joint, shoulder_lift_joint, elbow_joint, wrist_1_joint, wrist_2_joint,","[1.4807809591293335, -0.9990976492511194, 2.0840892791748047, -2.641419235860006, -1.5671375433551233, 2.7187187671661377]","[0.0, -2.5566347176209092e-05, -0.0, -5.752428114647046e-05, -1.917476038215682e-05, 0.03244369477033615]","[0.2883911430835724, -5.003357410430908, -2.17903995513916, -0.4082336723804474, -0.1547699123620987, 0.1233673244714737]"
1584442385364751188,,61637,,1584442385,364383382,'',"[shoulder_pan_joint, shoulder_lift_joint, elbow_joint, wrist_1_joint, wrist_2_joint,","[1.4807690382003784, -0.9990738073932093, 2.0841012001037598, -2.641419235860006, -1.5671137014972132, 2.7228620052337646]","[0.0, -2.5566347176209092e-05, -0.0, -3.834952076431364e-05, -1.917476038215682e-05, 0.023335684090852737]","[-0.0595092847943306, -5.007935047149658, -2.109543800354004, -0.4239349663257599, -0.1682281643152237, 0.3319702446460724]"
1584442385476873846,,61651,,1584442385,476466927,'',"[shoulder_pan_joint, shoulder_lift_joint, elbow_joint, wrist_1_joint, wrist_2_joint,","[1.4807929992675781, -0.9991095701800745, 2.0840535163879395, -2.6414316336261194, -1.5671494642840784, 2.7231853008270264]","[0.0, -1.2783173588104546e-05, -0.0, -3.834952076431364e-05, -1.917476038215682e-05, -0.04327743500471115]","[-0.3433227837085724, -5.081177234649658, -2.026596784591675, -0.4575806260108948, -0.1525268703699112, -0.1884155422449112]"
1584442385588812771,,61665,,1584442385,588408777,'',"[shoulder_pan_joint, shoulder_lift_joint, elbow_joint, wrist_1_joint, wrist_2_joint,","[1.480828881263733, -0.9991095701800745, 2.0839571952819824, -2.641407314931051, -1.5671494642840784, 2.718886613845825]","[6.391586794052273e-05, -1.2783173588104546e-05, -1.2783173588104546e-05, -3.834952076431364e-05, -1.917476038215682e-05, -0.014055099338293076]","[0.0961303785443306, -5.007935047149658, -2.1229946613311768, -0.4216919243335724, -0.1592559963464737, -0.3678589165210724]"
1584442385700669853,,61679,,1584442385,700337052,'',"[shoulder_pan_joint, shoulder_lift_joint, elbow_joint, wrist_1_joint, wrist_2_joint,","[1.480888843536377, -0.9990976492511194, 2.0836453437805176, -2.641360108052389, -1.567221466694967, 2.7212932109832764]","[0.000945954816415906, -1.2783173588104546e-05, -0.005241101142019033, -1.917476038215682e-05, -1.917476038215682e-05, 0.043181560933589935]","[0.02288818545639515, -4.856873035430908, -2.2126669883728027, -0.3544006645679474, -0.1547699123620987, 0.4015045464038849]"
1584442385812718943,,61693,,1584442385,812394518,'',"[shoulder_pan_joint, shoulder_lift_joint, elbow_joint, wrist_1_joint, wrist_2_joint,","[1.4809012413024902, -0.9987381140338343, 2.080812454223633, -2.6401503721820276, -1.5672815481769007, 2.723736047744751]","[0.00017896443023346364, 0.01080178190022707, -0.044805023819208145, 0.020497819408774376, -0.0006327670998871326, -0.0009395632660016418]","[-0.0320434607565403, -3.918457508087158, -2.389770030975342, -0.1659851223230362, -0.1570129543542862, 0.1233673244714737]"
1584442385924683966,,61707,,1584442385,924354481,'',"[shoulder_pan_joint, shoulder_lift_joint, elbow_joint, wrist_1_joint, wrist_2_joint,","[1.4809850454330444, -0.9959090391742151, 2.072050094604492, -2.636343781148092, -1.5674007574664515, 2.7195091247558594]","[0.0010610034223645926, 0.04397411644458771, -0.11839774996042252, 0.049547579139471054, -0.0006711166352033615, -0.031254857778549194]","[0.1510620266199112, -3.698730945587158, -2.2126669883728027, -0.1143951565027237, -0.1682281643152237, -0.4059906303882599]"
1584442386036689856,,61721,,1584442386,36359249,'',"[shoulder_pan_joint, shoulder_lift_joint, elbow_joint, wrist_1_joint, wrist_2_joint,","[1.483299970626831, -0.9892433325396937, 2.0554256439208984, -2.6284669081317347, -1.5674966017352503, 2.720503091812134]","[0.04288754612207413, 0.071700818836689, -0.17697025835514069, 0.08737938106060028, -0.0005944175645709038, 0.05309491232037544]","[0.6820679306983948, -3.675842761993408, -2.3964955806732178, 0.0426178015768528, -0.1749572902917862, 0.3140259087085724]"
1584442386148784872,,61735,,1584442386,148386809,'',"[shoulder_pan_joint, shoulder_lift_joint, elbow_joint, wrist_1_joint, wrist_2_joint,","[1.4903526306152344, -0.9791486899005335, 2.033134937286377, -2.616866413746969, -1.5674846808062952, 2.7248375415802]","[0.08440729230642319, 0.10236765444278717, -0.2058730125427246, 0.11230657249689102, -0.0003834952076431364, 0.019750002771615982]","[0.7690430283546448, -4.129028797149658, -2.551180362701416, -0.0515899695456028, -0.1816864162683487, 0.3768310844898224]"
1584442386260591300,,61749,,1584442386,260303643,'',"[shoulder_pan_joint, shoulder_lift_joint, elbow_joint, wrist_1_joint, wrist_2_joint,","[1.4999722242355347, -0.9678323904620569, 2.011733055114746, -2.604572121297018, -1.567460838948385, 2.725040912628174]","[0.0875903069972992, 0.09554143995046616, -0.17295633256435394, 0.10037986934185028, -0.00017257283616345376, -0.03551165759563446]","[1.0025025606155396, -4.614258289337158, -2.7708778381347656, -0.0829925611615181, -0.1727142482995987, -0.1727142482995987]"
1584442386372722152,,61763,,1584442386,372334970,'',"[shoulder_pan_joint, shoulder_lift_joint, elbow_joint, wrist_1_joint, wrist_2_joint,","[1.50985586643219, -0.9592846075641077, 1.994795799255371, -2.595198933278219, -1.567460838948385, 2.7207303047180176]","[0.08357638865709305, 0.06295713037252426, -0.1345045566558838, 0.07485826313495636, -9.58738019107841e-05, -0.026192722842097282]","[0.8193970322608948, -4.197693347930908, -2.7036235332489014, -0.0538330152630806, -0.1659851223230362, -0.3454284965991974]"
1584442386484634788,,61777,,1584442386,484304161,'',"[shoulder_pan_joint, shoulder_lift_joint, elbow_joint, wrist_1_joint, wrist_2_joint,","[1.5189597606658936, -0.9531825224505823, 1.9809308052062988, -2.5874531904803675, -1.567460838948385, 2.7208621501922607]","[0.07505001127719879, 0.04567427933216095, -0.11355292797088623, 0.06410122662782669, -7.669904152862728e-05, 0.04707403481006622]","[1.0437012910842896, -4.238892078399658, -2.741734266281128, -0.1570129543542862, -0.1547699123620987, 0.2422485649585724]"
1584442386596683978,,61791,,1584442386,596314749,'',"[shoulder_pan_joint, shoulder_lift_joint, elbow_joint, wrist_1_joint, wrist_2_joint,","[1.5271401405334473, -0.9479315916644495, 1.9689269065856934, -2.5809291044818323, -1.567460838948385, 2.724968910217285]","[0.050161171704530716, 0.048039164394140244, -0.09569483995437622, 0.05729418247938156, -5.752428114647046e-05, 0.01817767322063446]","[1.0574342012405396, -4.408264636993408, -2.638611078262329, -0.0695343092083931, -0.1637420803308487, 0.3386993706226349]"
1584442386708804231,,61805,,1584442386,708385049,'',"[shoulder_pan_joint, shoulder_lift_joint, elbow_joint, wrist_1_joint, wrist_2_joint,","[1.5341452360153198, -0.9426334539996546, 1.958531379699707, -2.575003449116842, -1.567460838948385, 2.7245264053344727]","[0.05145227164030075, 0.04393576830625534, -0.0907093957066536, 0.05048714205622673, -3.834952076431364e-05, -0.04442792013287544]","[0.8239746689796448, -4.714966297149658, -2.735008955001831, -0.1704712063074112, -0.1525268703699112, -0.2220611870288849]"
1584442386820766810,,61819,,1584442386,820332360,'',"[shoulder_pan_joint, shoulder_lift_joint, elbow_joint, wrist_1_joint, wrist_2_joint,","[1.5397228002548218, -0.9382098356830042, 1.9486274719238281, -2.569616142903463, -1.5674727598773401, 2.720072031021118]","[0.04663301631808281, 0.04296424612402916, -0.09759952872991562, 0.0455017052590847, -3.834952076431364e-05, -0.025598304346203804]","[0.8605957627296448, -4.655457019805908, -2.634127378463745, -0.1076660305261612, -0.1592559963464737, -0.3723450005054474]"
1584442386932619074,,61833,,1584442386,932324484,'',"[shoulder_pan_joint, shoulder_lift_joint, elbow_joint, wrist_1_joint, wrist_2_joint,","[1.5441486835479736, -0.932899300252096, 1.9376678466796875, -2.5641215483294886, -1.5674727598773401, 2.7213051319122314]","[0.033427998423576355, 0.04953479766845703, -0.10589580982923508, 0.052136171609163284, -3.834952076431364e-05, 0.04904903843998909]","[1.0345460176467896, -4.687500476837158, -2.721558094024658, -0.1099090725183487, -0.1749572902917862, 0.3454284965991974]"
1584442387044555864,,61847,,1584442387,44265543,'',"[shoulder_pan_joint, shoulder_lift_joint, elbow_joint, wrist_1_joint, wrist_2_joint,","[1.5470870733261108, -0.9275162855731409, 1.9247512817382812, -2.557537857686178, -1.5674846808062952, 2.725040912628174]","[0.022178806364536285, 0.04531634971499443, -0.12569694221019745, 0.0645422413945198, -1.917476038215682e-05, 0.017429856583476067]","[1.0070801973342896, -4.513550281524658, -2.808988571166992, -0.1525268703699112, -0.1727142482995987, 0.3723450005054474]"
1584442387156611958,,61861,,1584442387,156339359,'',"[shoulder_pan_joint, shoulder_lift_joint, elbow_joint, wrist_1_joint, wrist_2_joint,","[1.549450159072876, -0.9213784376727503, 1.909637451171875, -2.5501511732684534, -1.567460838948385, 2.723376989364624]","[0.022421685978770256, 0.06555211544036865, -0.14636734127998352, 0.07737015932798386, -1.917476038215682e-05, -0.04910656064748764]","[0.9201050996780396, -4.325867176055908, -2.6744799613952637, -0.0358886756002903, -0.1816864162683487, -0.2871094048023224]"
1584442387268612497,,61875,,1584442387,268278003,'',"[shoulder_pan_joint, shoulder_lift_joint, elbow_joint, wrist_1_joint, wrist_2_joint,","[1.552184820175171, -0.9136584440814417, 1.8932275772094727, -2.5410292784320276, -1.5674727598773401, 2.719221830368042]","[0.026934146881103516, 0.06653641909360886, -0.1449739634990692, 0.07476238906383514, -1.917476038215682e-05, -0.01378665305674076]","[0.9704591035842896, -4.632568836212158, -2.7910542488098145, -0.1300964504480362, -0.1794433742761612, -0.3723450005054474]"
1584442387380628946,,61889,,1584442387,380296356,'',"[shoulder_pan_joint, shoulder_lift_joint, elbow_joint, wrist_1_joint, wrist_2_joint,","[1.5550873279571533, -0.9056866804706019, 1.8774409294128418, -2.5329249540912073, -1.5674966017352503, 2.72184419631958]","[0.024582043290138245, 0.06998787820339203, -0.13398043811321259, 0.07434054464101791, -1.917476038215682e-05, 0.04490728676319122]","[0.8010864853858948, -4.994202136993408, -3.0466206073760986, -0.1009368970990181, -0.1906585842370987, 0.3790741264820099]"
1584442387492675011,,61903,,1584442387,492309800,'',"[shoulder_pan_joint, shoulder_lift_joint, elbow_joint, wrist_1_joint, wrist_2_joint,","[1.5574864149093628, -0.8987458387957972, 1.8635993003845215, -2.525036160145895, -1.5674846808062952, 2.7251248359680176]","[0.01817767322063446, 0.056782856583595276, -0.11599451303482056, 0.06373690068721771, -1.917476038215682e-05, 0.01384417712688446]","[1.0070801973342896, -4.998779773712158, -3.0555877685546875, -0.1727142482995987, -0.1951446682214737, 0.3633728325366974]"
1584442387604648420,,61917,,1584442387,604284261,'',"[shoulder_pan_joint, shoulder_lift_joint, elbow_joint, wrist_1_joint, wrist_2_joint,","[1.5594773292541504, -0.893231217061178, 1.8523869514465332, -2.518787209187643, -1.5674846808062952, 2.7228620052337646]","[0.018343854695558548, 0.04012638330459595, -0.08669548481702805, 0.052442967891693115, -1.917476038215682e-05, -0.04803277552127838]","[0.8560181260108948, -5.076599597930908, -3.116116762161255, -0.1076660305261612, -0.1973877102136612, -0.2915954887866974]"
1584442387716683705,,61931,,1584442387,716284280,'',"[shoulder_pan_joint, shoulder_lift_joint, elbow_joint, wrist_1_joint, wrist_2_joint,","[1.5619962215423584, -0.8895748297320765, 1.8431434631347656, -2.51361591020693, -1.5674966017352503, 2.719449520111084]","[0.028736574575304985, 0.030705181881785393, -0.07308140397071838, 0.039864327758550644, -1.917476038215682e-05, -0.005905826110392809]","[0.8697510361671448, -4.856873035430908, -2.8941774368286133, -0.1592559963464737, -0.1839294582605362, -0.3252411186695099]"
1584442387828682241,,61945,,1584442387,828289158,'',"[shoulder_pan_joint, shoulder_lift_joint, elbow_joint, wrist_1_joint, wrist_2_joint,","[1.5658705234527588, -0.8856075445758265, 1.8346195220947266, -2.5092466513263147, -1.5674727598773401, 2.7229819297790527]","[0.0336836613714695, 0.03833673894405365, -0.08052121102809906, 0.03813859820365906, -1.917476038215682e-05, 0.036738839000463486]","[0.8697510361671448, -4.957581043243408, -2.8560667037963867, -0.1166381984949112, -0.1973877102136612, 0.3813171684741974]"
1584442387940753403,,61959,,1584442387,940336505,'',"[shoulder_pan_joint, shoulder_lift_joint, elbow_joint, wrist_1_joint, wrist_2_joint,","[1.569084882736206, -0.8812554518329065, 1.8259525299072266, -2.504829231892721, -1.5674727598773401, 2.725328207015991]","[0.022076541557908058, 0.03828560560941696, -0.08407492935657501, 0.03846456855535507, -1.917476038215682e-05, 0.008590292185544968]","[1.0116578340530396, -5.053711414337158, -3.012993335723877, -0.1188812404870987, -0.1951446682214737, 0.3431854546070099]"
1584442388052684112,,61973,,1584442388,52302429,'',"[shoulder_pan_joint, shoulder_lift_joint, elbow_joint, wrist_1_joint, wrist_2_joint,","[1.570608377456665, -0.877240006123678, 1.816431999206543, -2.4998372236834925, -1.5674727598773401, 2.7215685844421387]","[0.007542072329670191, 0.03549887239933014, -0.08963561058044434, 0.04571262747049332, -1.917476038215682e-05, -0.047630105167627335]","[0.7873535752296448, -4.994202136993408, -2.930046319961548, -0.2086029201745987, -0.1973877102136612, -0.3633728325366974]"
1584442388164541003,,61987,,1584442388,164265580,'',"[shoulder_pan_joint, shoulder_lift_joint, elbow_joint, wrist_1_joint, wrist_2_joint,","[1.5708600282669067, -0.8717015425311487, 1.8038749694824219, -2.4936960379229944, -1.5675566832171839, 2.719221830368042]","[0.0006519418675452471, 0.05997864902019501, -0.12974920868873596, 0.06436967104673386, -5.752428114647046e-05, 0.022223547101020813]","[0.2014160305261612, -4.856873035430908, -2.8560667037963867, -0.1323394924402237, -0.2153320610523224, 0.0628051832318306]"
1584442388276530262,,62001,,1584442388,276234570,'',"[shoulder_pan_joint, shoulder_lift_joint, elbow_joint, wrist_1_joint, wrist_2_joint,","[1.5708720684051514, -0.8641379515277308, 1.7871031761169434, -2.4851725737201136, -1.5676286856280726, 2.7236762046813965]","[0.0001661812566453591, 0.06965551525354385, -0.16497963666915894, 0.08722598105669022, -0.0008245147182606161, 0.030315296724438667]","[-0.0320434607565403, -4.985046863555908, -2.8762428760528564, -0.1300964504480362, -0.2332763969898224, 0.3790741264820099]"
1584442388388557602,,62015,,1584442388,388238697,'',"[shoulder_pan_joint, shoulder_lift_joint, elbow_joint, wrist_1_joint, wrist_2_joint,","[1.5708839893341064, -0.8551953474627894, 1.7673311233520508, -2.4749258200274866, -1.5677488485919397, 2.725519895553589]","[8.948221511673182e-05, 0.08881749212741852, -0.18485747277736664, 0.09196215122938156, -0.001035437104292214, 0.0020900489762425423]","[-0.0320434607565403, -5.081177234649658, -2.8740010261535645, 0.008972168900072575, -0.2512207329273224, 0.1502838283777237]"
1584442388500613766,,62029,,1584442388,500273821,'',"[shoulder_pan_joint, shoulder_lift_joint, elbow_joint, wrist_1_joint, wrist_2_joint,","[1.5708720684051514, -0.844909969960348, 1.7462377548217773, -2.464031998311178, -1.5678685347186487, 2.721269369125366]","[6.391586794052273e-05, 0.09855826944112778, -0.19484113156795502, 0.10116603225469589, -0.0012847089674323797, -0.041187383234500885]","[0.0595092847943306, -5.250549793243408, -2.930046319961548, -0.1390686184167862, -0.2400055229663849, -0.3813171684741974]"
1584442388612595160,,62043,,1584442388,612253242,'',"[shoulder_pan_joint, shoulder_lift_joint, elbow_joint, wrist_1_joint, wrist_2_joint,","[1.5709079504013062, -0.8340852896319788, 1.7236437797546387, -2.4519293943988245, -1.568000618611471, 2.7199161052703857]","[5.1132694352418184e-05, 0.10028399527072906, -0.20473530888557434, 0.11462672054767609, -0.000862864195369184, 0.03771675378084183]","[0.2288818657398224, -5.104065418243408, -3.095940351486206, -0.1794433742761612, -0.2489776909351349, 0.1323394924402237]"
1584442388724573427,,62057,,1584442388,724229045,'',"[shoulder_pan_joint, shoulder_lift_joint, elbow_joint, wrist_1_joint, wrist_2_joint,","[1.5709079504013062, -0.8234532515155237, 1.700448989868164, -2.439838711415426, -1.5680845419513147, 2.72434663772583]","[3.834952076431364e-05, 0.1011148989200592, -0.2151152491569519, 0.10874006897211075, -0.000862864195369184, 0.025368208065629005]","[0.02288818545639515, -5.017090320587158, -3.1295676231384277, -0.0897216871380806, -0.2646789848804474, 0.3902893364429474]"
1584442388836490782,,62071,,1584442388,836204678,'',"[shoulder_pan_joint, shoulder_lift_joint, elbow_joint, wrist_1_joint, wrist_2_joint,","[1.5709079504013062, -0.8119333426104944, 1.6761736869812012, -2.427460495625631, -1.5681560675250452, 2.7255918979644775]","[2.5566347176209092e-05, 0.10473254323005676, -0.22681184113025665, 0.11376385390758514, -0.0005752427969127893, -0.01321140956133604]","[0.01373291201889515, -5.186462879180908, -3.2461416721343994, -0.0583190992474556, -0.2871094048023224, -0.01345825381577015]"
1584442388948591879,,62085,,1584442388,948223502,'',"[shoulder_pan_joint, shoulder_lift_joint, elbow_joint, wrist_1_joint, wrist_2_joint,","[1.5709079504013062, -0.7997186819659632, 1.6503257751464844, -2.4136460463153284, -1.5682161490069788, 2.721233367919922]","[2.5566347176209092e-05, 0.10693124681711197, -0.23820164799690247, 0.12204734981060028, -0.0005560680292546749, -0.03762087970972061]","[0.1098632961511612, -5.195618152618408, -3.199063539505005, -0.0964508131146431, -0.2803802788257599, -0.3813171684741974]"
1584442389060686014,,62099,,1584442389,60272051,'',"[shoulder_pan_joint, shoulder_lift_joint, elbow_joint, wrist_1_joint, wrist_2_joint,","[1.5709199905395508, -0.7871568838702601, 1.6236615180969238, -2.399987522755758, -1.5682523886310022, 2.720299243927002]","[2.5566347176209092e-05, 0.11631409823894501, -0.2402469664812088, 0.12684103846549988, -0.0004793690168298781, 0.04302816092967987]","[0.2197265923023224, -5.332947254180908, -3.275285243988037, -0.0942077711224556, -0.2893524467945099, 0.1996307522058487]"
1584442389172578251,,62113,,1584442389,172202711,'',"[shoulder_pan_joint, shoulder_lift_joint, elbow_joint, wrist_1_joint, wrist_2_joint,","[1.570896029472351, -0.7740190664874476, 1.5968527793884277, -2.385777775441305, -1.5683358351336878, 2.7246577739715576]","[1.2783173588104546e-05, 0.11575163900852203, -0.2381121665239334, 0.12551797926425934, -0.000517718552146107, 0.02442864514887333]","[0.0595092847943306, -5.653381824493408, -3.28873610496521, -0.1256103664636612, -0.2983246147632599, 0.3521576225757599]"
1584442389284564324,,62127,,1584442389,284213470,'',"[shoulder_pan_joint, shoulder_lift_joint, elbow_joint, wrist_1_joint, wrist_2_joint,","[1.5709439516067505, -0.7618287245379847, 1.5703320503234863, -2.3721550146686, -1.5684321562396448, 2.72495698928833]","[1.2783173588104546e-05, 0.1083373948931694, -0.2327304631471634, 0.11614152044057846, -0.0007669904152862728, -0.0410531610250473]","[-0.0961303785443306, -5.429077625274658, -3.2349326610565186, -0.1121521145105362, -0.2960815727710724, -0.1951446682214737]"
1584442389396636848,,62141,,1584442389,396263602,'',"[shoulder_pan_joint, shoulder_lift_joint, elbow_joint, wrist_1_joint, wrist_2_joint,","[1.5709558725357056, -0.749434773121969, 1.5440998077392578, -2.3587358633624476, -1.568491284047262, 2.7202277183532715]","[0.0, 0.10984580963850021, -0.23601573705673218, 0.12137623131275177, -0.0005752427969127893, -0.025732528418302536]","[0.0869751051068306, -5.612183094024658, -3.2259654998779297, -0.0919647291302681, -0.2983246147632599, -0.3678589165210724]"
1584442389508675619,,62155,,1584442389,508224567,'',"[shoulder_pan_joint, shoulder_lift_joint, elbow_joint, wrist_1_joint, wrist_2_joint,","[1.5712798833847046, -0.7368605772601526, 1.5176873207092285, -2.3448737303363245, -1.5686834494220179, 2.7214009761810303]","[0.009344499558210373, 0.10337752103805542, -0.23829114437103271, 0.11681263893842697, -0.0009203884983435273, 0.04849296808242798]","[0.2746582329273224, -5.566406726837158, -3.302186965942383, -0.0538330152630806, -0.2736511528491974, 0.3454284965991974]"
1584442389620544152,,62169,,1584442389,620215740,'',"[shoulder_pan_joint, shoulder_lift_joint, elbow_joint, wrist_1_joint, wrist_2_joint,","[1.574830174446106, -0.7245867888080042, 1.4913229942321777, -2.3314064184771937, -1.568826977406637, 2.725184679031372]","[0.05362541228532791, 0.10587023943662643, -0.23565779626369476, 0.1216830313205719, -0.0008245147182606161, 0.018273547291755676]","[0.7781983017921448, -5.612183094024658, -3.47704815864563, -0.0740203931927681, -0.2646789848804474, 0.3768310844898224]"
1584442389732518744,,62183,,1584442389,732199588,'',"[shoulder_pan_joint, shoulder_lift_joint, elbow_joint, wrist_1_joint, wrist_2_joint,","[1.5824824571609497, -0.7122891584979456, 1.465895652770996, -2.3177717367755335, -1.5687912146197718, 2.7255797386169434]","[0.07971587032079697, 0.10543561726808548, -0.22304080426692963, 0.1101589947938919, -0.0002109223569277674, -0.03129320964217186]","[0.8377075791358948, -5.937195301055908, -3.5353353023529053, -0.0336456336081028, -0.2444916069507599, -0.1457977443933487]"
1584442389844644457,,62197,,1584442389,844244351,'',"[shoulder_pan_joint, shoulder_lift_joint, elbow_joint, wrist_1_joint, wrist_2_joint,","[1.592366099357605, -0.7010462919818323, 1.4425086975097656, -2.3055017630206507, -1.5688031355487269, 2.721233367919922]","[0.09560535103082657, 0.08890697360038757, -0.1998521387577057, 0.10105098783969879, -0.00011504856229294091, -0.03267379105091095]","[0.6729126572608948, -5.877686023712158, -3.6294913291931152, -0.0672912672162056, -0.2489776909351349, -0.3701019585132599]"
1584442389956606225,,62211,,1584442389,956227558,'',"[shoulder_pan_joint, shoulder_lift_joint, elbow_joint, wrist_1_joint, wrist_2_joint,","[1.6033649444580078, -0.6904986540423792, 1.4206953048706055, -2.293830219899313, -1.5687792936908167, 2.72088623046875]","[0.09738221764564514, 0.09049208462238312, -0.18971507251262665, 0.104464091360569, -7.669904152862728e-05, 0.041743453592061996]","[0.9063721895217896, -6.143188953399658, -3.5891387462615967, -0.1121521145105362, -0.2332763969898224, 0.2086029201745987]"
1584442390068586246,,62225,,1584442390,68188764,'',"[shoulder_pan_joint, shoulder_lift_joint, elbow_joint, wrist_1_joint, wrist_2_joint,","[1.6134883165359497, -0.6796868483172815, 1.399001121520996, -2.2825172583209437, -1.5687912146197718, 2.7251248359680176]","[0.08774369955062866, 0.09560535103082657, -0.19265520572662354, 0.10665001720190048, -5.752428114647046e-05, 0.023335684090852737]","[1.1993409395217896, -6.491089344024658, -3.5981059074401855, -0.1368255764245987, -0.2400055229663849, 0.4216919243335724]"
1584442390180621350,,62239,,1584442390,180201897,'',"[shoulder_pan_joint, shoulder_lift_joint, elbow_joint, wrist_1_joint, wrist_2_joint,","[1.6222319602966309, -0.6697633902179163, 1.3776679039001465, -2.2710612455951136, -1.5687668959247034, 2.7254719734191895]","[0.06574386358261108, 0.09115681052207947, -0.19050763547420502, 0.09683253616094589, -5.752428114647046e-05, -0.03485971316695213]","[1.0391236543655396, -6.317139148712158, -3.651909351348877, -0.0717773512005806, -0.2287903130054474, -0.1547699123620987]"
1584442390292575333,,62253,,1584442390,292177751,'',"[shoulder_pan_joint, shoulder_lift_joint, elbow_joint, wrist_1_joint, wrist_2_joint,","[1.6286487579345703, -0.6597788969623011, 1.356454849243164, -2.259557072316305, -1.5687912146197718, 2.720790147781372]","[0.04291311278939247, 0.08975066244602203, -0.18901200592517853, 0.09961287677288055, -3.834952076431364e-05, -0.030430344864726067]","[1.0116578340530396, -6.221008777618408, -3.651909351348877, -0.1166381984949112, -0.2512207329273224, -0.3768310844898224]"
1584442390404538152,,62267,,1584442390,404171157,'',"[shoulder_pan_joint, shoulder_lift_joint, elbow_joint, wrist_1_joint, wrist_2_joint,","[1.6318515539169312, -0.6492798964129847, 1.3352060317993164, -2.248711887990133, -1.5687549749957483, 2.720766305923462]","[0.014738999307155609, 0.09318933635950089, -0.19041815400123596, 0.09790632873773575, -3.834952076431364e-05, 0.04513738676905632]","[1.1581422090530396, -6.504822254180908, -3.7707252502441406, -0.1525268703699112, -0.2534637749195099, 0.2332763969898224]"
1584442390516428256,,62281,,1584442390,516139156,'',"[shoulder_pan_joint, shoulder_lift_joint, elbow_joint, wrist_1_joint, wrist_2_joint,","[1.632379174232483, -0.6394637266742151, 1.3146052360534668, -2.2381413618670862, -1.568815056477682, 2.7246339321136475]","[0.0006135923322290182, 0.08053399622440338, -0.17727704346179962, 0.08806967735290527, -1.917476038215682e-05, 0.019328158348798752]","[0.0320434607565403, -6.546020984649658, -3.7684836387634277, -0.0852356031537056, -0.2714081108570099, 0.3386993706226349]"
1584442390628540474,,62295,,1584442390,628202554,'',"[shoulder_pan_joint, shoulder_lift_joint, elbow_joint, wrist_1_joint, wrist_2_joint,","[1.6323672533035278, -0.6305339972125452, 1.2962136268615723, -2.2284324804889124, -1.5688031355487269, 2.723975419998169]","[-0.00023009712458588183, 0.07154741883277893, -0.14360617101192474, 0.07100413739681244, -1.917476038215682e-05, -0.04977767914533615]","[-0.0366210974752903, -6.665039539337158, -3.824528694152832, -0.0807495191693306, -0.2758941948413849, -0.2400055229663849]"
1584442390740499166,,62309,,1584442390,740156727,'',"[shoulder_pan_joint, shoulder_lift_joint, elbow_joint, wrist_1_joint, wrist_2_joint,","[1.6323672533035278, -0.6235826651202601, 1.2827086448669434, -2.2214182058917444, -1.5688031355487269, 2.719425678253174]","[-0.00010226538870483637, 0.05156732350587845, -0.0927930548787117, 0.05062136799097061, -1.917476038215682e-05, -0.016279371455311775]","[0.0457763709127903, -6.747437000274658, -3.8917829990386963, -0.0942077711224556, -0.2826233208179474, -0.3813171684741974]"
1584442390852398036,,62323,,1584442390,852127501,'',"[shoulder_pan_joint, shoulder_lift_joint, elbow_joint, wrist_1_joint, wrist_2_joint,","[1.6323552131652832, -0.6188243071185511, 1.2741131782531738, -2.2169645468341272, -1.568838898335592, 2.721628427505493]","[-6.391586794052273e-05, 0.02929903380572796, -0.0511326938867569, 0.02966335415840149, -0.00013422331539914012, 0.04182015359401703]","[0.02288818545639515, -6.976318836212158, -4.003873825073242, -0.1637420803308487, -0.2579498589038849, 0.3364563286304474]"
1584442390964372967,,62337,,1584442390,964132228,'',"[shoulder_pan_joint, shoulder_lift_joint, elbow_joint, wrist_1_joint, wrist_2_joint,","[1.6323552131652832, -0.6181052366839808, 1.273153305053711, -2.216450039540426, -1.5687912146197718, 2.7244184017181396]","[-5.1132694352418184e-05, -0.01031602080911398, 0.021872010082006454, -0.02749660611152649, -0.00013422331539914012, 0.00851359311491251]","[-0.0686645582318306, -8.761597633361816, -2.9547061920166016, -0.6437531113624573, -0.2624359428882599, 0.3454284965991974]"
1584442391076413772,,62351,,1584442391,76139971,'',"[shoulder_pan_joint, shoulder_lift_joint, elbow_joint, wrist_1_joint, wrist_2_joint,","[1.6323431730270386, -0.6180575529681605, 1.273393154144287, -2.2165215651141565, -1.568826977406637, 2.7215206623077393]","[-3.834952076431364e-05, 0.001035437104292214, -0.002684466540813446, 0.0015723303658887744, -9.58738019107841e-05, -0.04924078285694122]","[0.0, -7.548523902893066, -3.8940248489379883, -0.3117828667163849, -0.2691650688648224, -0.3476715385913849]"
1584442391188459055,,62365,,1584442391,188133177,'',"[shoulder_pan_joint, shoulder_lift_joint, elbow_joint, wrist_1_joint, wrist_2_joint,","[1.6323312520980835, -0.6180813948260706, 1.2735614776611328, -2.216653649006979, -1.568826977406637, 2.7188985347747803]","[-2.5566347176209092e-05, 0.004550809971988201, -0.01200340036302805, 0.013671603985130787, -7.669904152862728e-05, 0.0004218447138555348]","[0.1876831203699112, -7.273865699768066, -3.9859392642974854, -0.2557068169116974, -0.2871094048023224, 0.02018737979233265]"
1584442391300510380,,62379,,1584442391,300142814,'',"[shoulder_pan_joint, shoulder_lift_joint, elbow_joint, wrist_1_joint, wrist_2_joint,","[1.6323312520980835, -0.6181772390948694, 1.2739572525024414, -2.217060391102926, -1.568815056477682, 2.7228140830993652]","[-2.5566347176209092e-05, -0.0006391586503013968, -0.0004474110610317439, 0.00032597093377262354, -5.752428114647046e-05, 0.029394907876849174]","[0.0595092847943306, -7.772828102111816, -3.7079546451568604, -0.3701019585132599, -0.2781372368335724, 0.3701019585132599]"
1584442391412543040,,62393,,1584442391,412142032,'',"[shoulder_pan_joint, shoulder_lift_joint, elbow_joint, wrist_1_joint, wrist_2_joint,","[1.6323431730270386, -0.6182010809527796, 1.2739572525024414, -2.217060391102926, -1.568838898335592, 2.7239394187927246]","[-2.5566347176209092e-05, -0.0009203884983435273, 0.006992395967245102, -0.007152185775339603, -3.834952076431364e-05, -0.029203159734606743]","[-0.0411987341940403, -8.345032691955566, -3.107149362564087, -0.5787048935890198, -0.2781372368335724, -0.0942077711224556]"
1584442391524466366,,62407,,1584442391,524115952,'',"[shoulder_pan_joint, shoulder_lift_joint, elbow_joint, wrist_1_joint, wrist_2_joint,","[1.6323431730270386, -0.6182130018817347, 1.2739691734313965, -2.217156235371725, -1.568815056477682, 2.7192816734313965]","[-1.2783173588104546e-05, -0.001725728390738368, 0.009970875456929207, -0.010066749528050423, -3.834952076431364e-05, -0.025598304346203804]","[-0.01373291201889515, -8.551026344299316, -3.0376532077789307, -0.5831909775733948, -0.2691650688648224, -0.3970184624195099]"
1584442391636559648,,62421,,1584442391,636186221,'',"[shoulder_pan_joint, shoulder_lift_joint, elbow_joint, wrist_1_joint, wrist_2_joint,","[1.6323552131652832, -0.6182010809527796, 1.2738614082336426, -2.2170360724078577, -1.5688508192645472, 2.7203831672668457]","[-1.2783173588104546e-05, -0.000997087568975985, 0.003630421357229352, -0.0070946612395346165, -3.834952076431364e-05, 0.04598107561469078]","[0.0366210974752903, -8.267212867736816, -3.2640762329101562, -0.4732819199562073, -0.2691650688648224, 0.2826233208179474]"
1584442391748503722,,62435,,1584442391,748151124,'',"[shoulder_pan_joint, shoulder_lift_joint, elbow_joint, wrist_1_joint, wrist_2_joint,","[1.6323672533035278, -0.6181772390948694, 1.2737650871276855, -2.2169645468341272, -1.5688508192645472, 2.7237002849578857]","[-1.2783173588104546e-05, 0.004448544234037399, -0.008411328308284283, 0.011217234656214714, -1.917476038215682e-05, 0.01179247722029686]","[0.0686645582318306, -7.305909156799316, -4.02180814743042, -0.2557068169116974, -0.3095398247241974, 0.3521576225757599]"
1584442391860530701,,62449,,1584442391,860149951,'',"[shoulder_pan_joint, shoulder_lift_joint, elbow_joint, wrist_1_joint, wrist_2_joint,","[1.6323312520980835, -0.6182969252215784, 1.2739572525024414, -2.21714431444277, -1.568815056477682, 2.720898151397705]","[-1.2783173588104546e-05, 0.0024032366927713156, -0.011325892060995102, 0.015550730749964714, -1.917476038215682e-05, -0.048953164368867874]","[0.0549316480755806, -7.260132789611816, -3.9814555644989014, -0.3185119926929474, -0.2601929008960724, -0.3701019585132599]"
1584442391972492399,,62463,,1584442391,972179244,'',"[shoulder_pan_joint, shoulder_lift_joint, elbow_joint, wrist_1_joint, wrist_2_joint,","[1.6323552131652832, -0.6183093229876917, 1.2742691040039062, -2.2173121611224573, -1.5688751379596155, 2.7185513973236084]","[-1.2783173588104546e-05, -0.000997087568975985, 0.002147573046386242, 0.0031638354994356632, -1.917476038215682e-05, 0.022664567455649376]","[0.1373291164636612, -7.923890113830566, -3.5106754302978516, -0.4441223740577698, -0.2736511528491974, 0.0740203931927681]"
1584442392084463494,,62477,,1584442392,84120624,'',"[shoulder_pan_joint, shoulder_lift_joint, elbow_joint, wrist_1_joint, wrist_2_joint,","[1.6323431730270386, -0.6182611624347132, 1.2740416526794434, -2.2171199957477015, -1.568838898335592, 2.7226462364196777]","[-1.2783173588104546e-05, -0.00020453077740967274, 0.001470064977183938, -0.0007478156476281583, -1.917476038215682e-05, 0.02636529505252838]","[0.004577637184411287, -7.708741188049316, -3.6765692234039307, -0.3745880424976349, -0.2646789848804474, 0.4149627983570099]"
1584442392196384545,,62491,,1584442392,196090837,'',"[shoulder_pan_joint, shoulder_lift_joint, elbow_joint, wrist_1_joint, wrist_2_joint,","[1.6323431730270386, -0.6180575529681605, 1.2736210823059082, -2.216653649006979, -1.5688632170306605, 2.723161220550537]","[-1.2783173588104546e-05, 0.00250550196506083, -0.010264888405799866, 0.0057524279691278934, -1.917476038215682e-05, -0.03863714262843132]","[-0.0503540076315403, -7.438660621643066, -3.9500701427459717, -0.2781372368335724, -0.2714081108570099, -0.1413116604089737]"
1584442392308492835,,62505,,1584442392,308109590,'',"[shoulder_pan_joint, shoulder_lift_joint, elbow_joint, wrist_1_joint, wrist_2_joint,","[1.6323672533035278, -0.6179373900042933, 1.2734293937683105, -2.2164738813983362, -1.5688989798175257, 2.7187068462371826]","[-1.2783173588104546e-05, 0.008360195904970169, -0.01985226757824421, 0.024121848866343498, -1.917476038215682e-05, -0.017583254724740982]","[0.1602173000574112, -7.031250953674316, -3.9792137145996094, -0.2669220268726349, -0.2714081108570099, -0.3880462944507599]"
1584442392420391886,,62519,,1584442392,420087307,'',"[shoulder_pan_joint, shoulder_lift_joint, elbow_joint, wrist_1_joint, wrist_2_joint,","[1.6323552131652832, -0.6173742453204554, 1.2708001136779785, -2.21442681947817, -1.5688989798175257, 2.7205870151519775]","[-1.2783173588104546e-05, 0.006544984877109528, -0.030129939317703247, 0.018273547291755676, -7.669904152862728e-05, 0.04404442384839058]","[0.0823974683880806, -6.811523914337158, -3.746065378189087, -0.2691650688648224, -0.2601929008960724, 0.3409424126148224]"
1584442392532435997,,62533,,1584442392,532086785,'',"[shoulder_pan_joint, shoulder_lift_joint, elbow_joint, wrist_1_joint, wrist_2_joint,","[1.6323431730270386, -0.6158159414874476, 1.2652897834777832, -2.2117093245135706, -1.5689228216754358, 2.723281145095825]","[-1.2783173588104546e-05, 0.02311197854578495, -0.06885017454624176, 0.03206019848585129, -7.669904152862728e-05, 0.00809174869209528]","[-0.004577637184411287, -6.729126453399658, -3.737098217010498, -0.1794433742761612, -0.2669220268726349, 0.3274841606616974]"
1584442392644347110,,62547,,1584442392,644077346,'',"[shoulder_pan_joint, shoulder_lift_joint, elbow_joint, wrist_1_joint, wrist_2_joint,","[1.6323312520980835, -0.6122801939593714, 1.2573909759521484, -2.2076152006732386, -1.5688989798175257, 2.7200119495391846]","[-2.5566347176209092e-05, 0.03129320964217186, -0.05914774537086487, 0.03744830563664436, -7.669904152862728e-05, -0.042817238718271255]","[0.0, -6.756592273712158, -3.8536722660064697, -0.1816864162683487, -0.2714081108570099, -0.3947754204273224]"
1584442392756483393,,62561,,1584442392,756076854,'',"[shoulder_pan_joint, shoulder_lift_joint, elbow_joint, wrist_1_joint, wrist_2_joint,","[1.6323192119598389, -0.6089962164508265, 1.2501883506774902, -2.203928295766012, -1.5689109007464808, 2.718754768371582]","[-2.5566347176209092e-05, 0.03670049086213112, -0.07695470750331879, 0.0371798612177372, -7.669904152862728e-05, 0.03537743166089058]","[0.1327514797449112, -6.752014636993408, -3.7057127952575684, -0.2400055229663849, -0.2893524467945099, 0.1659851223230362]"
1584442392868453987,,62575,,1584442392,868088695,'',"[shoulder_pan_joint, shoulder_lift_joint, elbow_joint, wrist_1_joint, wrist_2_joint,","[1.6323312520980835, -0.6046698729144495, 1.2416768074035645, -2.199319664631979, -1.568946663533346, 2.722694158554077]","[-2.5566347176209092e-05, 0.03690502047538757, -0.08298835903406143, 0.04051626846194267, -7.669904152862728e-05, 0.021149760112166405]","[0.02288818545639515, -6.761169910430908, -3.914201259613037, -0.2243042290210724, -0.2803802788257599, 0.3701019585132599]"
1584442392980570573,,62589,,1584442392,980142084,'',"[shoulder_pan_joint, shoulder_lift_joint, elbow_joint, wrist_1_joint, wrist_2_joint,","[1.6323072910308838, -0.5999835173236292, 1.2315692901611328, -2.1945188681231897, -1.5690067450152796, 2.7225983142852783]","[-2.5566347176209092e-05, 0.04562314599752426, -0.09119515866041183, 0.041321609169244766, -0.00028762139845639467, -0.04586602747440338]","[-0.0503540076315403, -6.848145008087158, -3.8850576877593994, -0.0829925611615181, -0.2826233208179474, -0.1794433742761612]"
1584442393092394573,,62603,,1584442393,92065399,'',"[shoulder_pan_joint, shoulder_lift_joint, elbow_joint, wrist_1_joint, wrist_2_joint,","[1.6322952508926392, -0.5944584051715296, 1.2204413414001465, -2.189347569142477, -1.5690067450152796, 2.7184674739837646]","[-2.5566347176209092e-05, 0.053459230810403824, -0.10721247643232346, 0.053593456745147705, -0.0003834952076431364, -0.010354370810091496]","[0.0732421949505806, -7.012939929962158, -3.755032777786255, -0.1435547024011612, -0.2848663628101349, -0.3454284965991974]"
