PorkPy/robot-pulling-data/good_move_ztwist30/joint_states_throttle.csv
rosbagTimestamp,header,seq,stamp,secs,nsecs,frame_id,name,wrist_3_joint],position,velocity,effort
1584453234258118392,,1417808,,1584453234,257691625,'',"[shoulder_pan_joint, shoulder_lift_joint, elbow_joint, wrist_1_joint, wrist_2_joint,","[1.4047702550888062, -1.171788517628805, 2.4830822944641113, -2.8628152052508753, -1.5669696966754358, 2.720646381378174]","[0.0, 0.0, -0.0, 0.0, 0.0, 0.0]","[-0.0595092847943306, -4.243469715118408, -0.8317117094993591, -0.5226288437843323, 0.02467346377670765, 0.1749572902917862]"
1584453234370150238,,1417822,,1584453234,369769366,'',"[shoulder_pan_joint, shoulder_lift_joint, elbow_joint, wrist_1_joint, wrist_2_joint,","[1.4047822952270508, -1.1718247572528284, 2.4831063747406006, -2.8628390471087855, -1.5669577757464808, 2.720682382583618]","[0.0, 0.0, -0.0, 0.0, 0.0, 0.0]","[-0.1281738430261612, -4.234314441680908, -0.8339534997940063, -0.5203858017921448, 0.0291595496237278, 0.1682281643152237]"
1584453234482234991,,1417836,,1584453234,481759604,'',"[shoulder_pan_joint, shoulder_lift_joint, elbow_joint, wrist_1_joint, wrist_2_joint,","[1.4047702550888062, -1.171788517628805, 2.4830822944641113, -2.8628514448748987, -1.5669940153705042, 2.7207183837890625]","[0.0, 0.0, -0.0, 0.0, 0.0, 0.0]","[-0.1327514797449112, -4.229736804962158, -0.8205026388168335, -0.5158997178077698, 0.0291595496237278, 0.1973877102136612]"
1584453234594107348,,1417850,,1584453234,593701390,'',"[shoulder_pan_joint, shoulder_lift_joint, elbow_joint, wrist_1_joint, wrist_2_joint,","[1.4048062562942505, -1.1718123594867151, 2.483058452606201, -2.862875286732809, -1.5669940153705042, 2.720658540725708]","[0.0, 0.0, -0.0, 0.0, 0.0, 0.0]","[-0.0823974683880806, -4.229736804962158, -0.8137772083282471, -0.5114136338233948, 0.02467346377670765, 0.1816864162683487]"
1584453234706099580,,1417864,,1584453234,705726283,'',"[shoulder_pan_joint, shoulder_lift_joint, elbow_joint, wrist_1_joint, wrist_2_joint,","[1.4047822952270508, -1.171788517628805, 2.4831063747406006, -2.862863365803854, -1.5670059362994593, 2.720682382583618]","[0.0, 0.0, -0.0, 0.0, 0.0, 0.0]","[-0.1235962063074112, -4.252624988555908, -0.8205026388168335, -0.5203858017921448, 0.02467346377670765, 0.1480407863855362]"
1584453234818020037,,1417878,,1584453234,817612666,'',"[shoulder_pan_joint, shoulder_lift_joint, elbow_joint, wrist_1_joint, wrist_2_joint,","[1.4047702550888062, -1.17180043855776, 2.483058452606201, -2.8628514448748987, -1.5669940153705042, 2.720670461654663]","[0.0, 0.0, -0.0, 0.0, 0.0, 0.0]","[-0.1052856519818306, -4.197693347930908, -0.8294699192047119, -0.5136566758155823, 0.02467346377670765, 0.1929016262292862]"
1584453234930013932,,1417892,,1584453234,929602884,'',"[shoulder_pan_joint, shoulder_lift_joint, elbow_joint, wrist_1_joint, wrist_2_joint,","[1.4047942161560059, -1.1718247572528284, 2.4830822944641113, -2.8628271261798304, -1.5669577757464808, 2.720670461654663]","[0.0, 0.0, -0.0, 0.0, 0.0, 0.0]","[-0.1419067531824112, -4.293823719024658, -0.8317117094993591, -0.5091705918312073, 0.0358886756002903, 0.1884155422449112]"
1584453235042012905,,1417906,,1584453235,41586078,'',"[shoulder_pan_joint, shoulder_lift_joint, elbow_joint, wrist_1_joint, wrist_2_joint,","[1.4047942161560059, -1.17180043855776, 2.4830944538116455, -2.8628271261798304, -1.5669696966754358, 2.720658540725708]","[0.0, 0.0, -0.0, 0.0, 0.0, 0.0]","[-0.1373291164636612, -4.270935535430908, -0.8406789302825928, -0.5114136338233948, 0.02018737979233265, 0.1839294582605362]"
1584453235154014263,,1417920,,1584453235,153594409,'',"[shoulder_pan_joint, shoulder_lift_joint, elbow_joint, wrist_1_joint, wrist_2_joint,","[1.4047822952270508, -1.1718123594867151, 2.4831063747406006, -2.8628514448748987, -1.5669940153705042, 2.720670461654663]","[0.0, 0.0, -0.0, 0.0, 0.0, 0.0]","[-0.1007080152630806, -4.238892078399658, -0.8361953496932983, -0.5091705918312073, 0.0269165076315403, 0.1794433742761612]"
1584453235266314009,,1417934,,1584453235,265865341,'',"[shoulder_pan_joint, shoulder_lift_joint, elbow_joint, wrist_1_joint, wrist_2_joint,","[1.4047822952270508, -1.17180043855776, 2.4831063747406006, -2.8628390471087855, -1.5669458548175257, 2.720682382583618]","[0.0, 0.0, -0.0, 0.0, 0.0, 0.0]","[-0.1007080152630806, -4.229736804962158, -0.8406789302825928, -0.5069275498390198, 0.0269165076315403, 0.1951446682214737]"
1584453235378013774,,1417948,,1584453235,377619728,'',"[shoulder_pan_joint, shoulder_lift_joint, elbow_joint, wrist_1_joint, wrist_2_joint,","[1.4047942161560059, -1.17180043855776, 2.4830703735351562, -2.862863365803854, -1.5669940153705042, 2.720670461654663]","[0.0, 0.0, -0.0, 0.0, 0.0, 0.0]","[-0.0778198316693306, -4.229736804962158, -0.8294699192047119, -0.5226288437843323, 0.0314025916159153, 0.1704712063074112]"
1584453235490111793,,1417962,,1584453235,489614835,'',"[shoulder_pan_joint, shoulder_lift_joint, elbow_joint, wrist_1_joint, wrist_2_joint,","[1.4047942161560059, -1.1718247572528284, 2.4831063747406006, -2.862875286732809, -1.566981617604391, 2.7207064628601074]","[0.0, 0.0, -0.0, 0.0, 0.0, 0.0]","[-0.1419067531824112, -4.225159168243408, -0.8249862790107727, -0.5226288437843323, 0.0269165076315403, 0.1772003322839737]"
1584453235602040325,,1417976,,1584453235,601603128,'',"[shoulder_pan_joint, shoulder_lift_joint, elbow_joint, wrist_1_joint, wrist_2_joint,","[1.4047942161560059, -1.171788517628805, 2.4830944538116455, -2.862863365803854, -1.566981617604391, 2.720682382583618]","[0.0, 0.0, -0.0, 0.0, 0.0, 0.0]","[-0.1007080152630806, -4.220581531524658, -0.8160190582275391, -0.5024414658546448, 0.0314025916159153, 0.1682281643152237]"
1584453235714147841,,1417990,,1584453235,713687992,'',"[shoulder_pan_joint, shoulder_lift_joint, elbow_joint, wrist_1_joint, wrist_2_joint,","[1.4047942161560059, -1.171788517628805, 2.4830703735351562, -2.8628514448748987, -1.5669940153705042, 2.720682382583618]","[0.0, 0.0, -0.0, 0.0, 0.0, 0.0]","[-0.1327514797449112, -4.257202625274658, -0.8182608485221863, -0.5181427597999573, 0.0269165076315403, 0.1839294582605362]"
1584453235825954386,,1418004,,1584453235,825567263,'',"[shoulder_pan_joint, shoulder_lift_joint, elbow_joint, wrist_1_joint, wrist_2_joint,","[1.4048062562942505, -1.1718485991107386, 2.4830822944641113, -2.8628271261798304, -1.5669577757464808, 2.7207064628601074]","[0.0, 0.0, -0.0, 0.0, 0.0, 0.0]","[-0.1144409328699112, -4.298401355743408, -0.8272280693054199, -0.5114136338233948, 0.02467346377670765, 0.1682281643152237]"
1584453235937936087,,1418018,,1584453235,937548383,'',"[shoulder_pan_joint, shoulder_lift_joint, elbow_joint, wrist_1_joint, wrist_2_joint,","[1.4048062562942505, -1.17180043855776, 2.4830822944641113, -2.8628271261798304, -1.5669696966754358, 2.720670461654663]","[0.0, 0.0, -0.0, 0.0, 0.0, 0.0]","[-0.1235962063074112, -4.275513172149658, -0.845162570476532, -0.5069275498390198, 0.01794433780014515, 0.1682281643152237]"
1584453236050002096,,1418032,,1584453236,49586640,'',"[shoulder_pan_joint, shoulder_lift_joint, elbow_joint, wrist_1_joint, wrist_2_joint,","[1.4047942161560059, -1.17180043855776, 2.4830822944641113, -2.8628390471087855, -1.5669696966754358, 2.720682382583618]","[0.0, 0.0, -0.0, 0.0, 0.0, 0.0]","[-0.1144409328699112, -4.216003894805908, -0.8317117094993591, -0.5024414658546448, 0.0291595496237278, 0.1772003322839737]"
1584453236162059239,,1418046,,1584453236,161586556,'',"[shoulder_pan_joint, shoulder_lift_joint, elbow_joint, wrist_1_joint, wrist_2_joint,","[1.4047942161560059, -1.1718123594867151, 2.4830822944641113, -2.862863365803854, -1.5669696966754358, 2.720670461654663]","[0.0, 0.0, -0.0, 0.0, 0.0, 0.0]","[-0.0869751051068306, -4.252624988555908, -0.8249862790107727, -0.5136566758155823, 0.0426178015768528, 0.1749572902917862]"
1584453236273991798,,1418060,,1584453236,273616547,'',"[shoulder_pan_joint, shoulder_lift_joint, elbow_joint, wrist_1_joint, wrist_2_joint,","[1.4048062562942505, -1.1718123594867151, 2.4830944538116455, -2.862863365803854, -1.566981617604391, 2.720682382583618]","[0.0, 0.0, -0.0, 0.0, 0.0, 0.0]","[-0.1281738430261612, -4.206848621368408, -0.8272280693054199, -0.5136566758155823, 0.01794433780014515, 0.1727142482995987]"
1584453236385941721,,1418074,,1584453236,385544859,'',"[shoulder_pan_joint, shoulder_lift_joint, elbow_joint, wrist_1_joint, wrist_2_joint,","[1.4047822952270508, -1.17180043855776, 2.4830822944641113, -2.8628514448748987, -1.5670059362994593, 2.720670461654663]","[0.0, 0.0, -0.0, 0.0, 0.0, 0.0]","[-0.1693725734949112, -4.284668445587158, -0.8339534997940063, -0.5091705918312073, 0.02467346377670765, 0.1794433742761612]"
1584453236497971963,,1418088,,1584453236,497593626,'',"[shoulder_pan_joint, shoulder_lift_joint, elbow_joint, wrist_1_joint, wrist_2_joint,","[1.4047942161560059, -1.171788517628805, 2.4830703735351562, -2.8628271261798304, -1.566981617604391, 2.7206943035125732]","[0.0, 0.0, -0.0, 0.0, 0.0, 0.0]","[-0.1052856519818306, -4.229736804962158, -0.8272280693054199, -0.5114136338233948, 0.0336456336081028, 0.1772003322839737]"
1584453236610031359,,1418102,,1584453236,609652040,'',"[shoulder_pan_joint, shoulder_lift_joint, elbow_joint, wrist_1_joint, wrist_2_joint,","[1.4047822952270508, -1.17177659669985, 2.4830944538116455, -2.8628514448748987, -1.5669940153705042, 2.720670461654663]","[0.0, 0.0, -0.0, 0.0, 0.0, 0.0]","[-0.1052856519818306, -4.257202625274658, -0.8339534997940063, -0.5091705918312073, 0.0358886756002903, 0.1704712063074112]"
1584453236722032016,,1418116,,1584453236,721621870,'',"[shoulder_pan_joint, shoulder_lift_joint, elbow_joint, wrist_1_joint, wrist_2_joint,","[1.4047942161560059, -1.1717646757708948, 2.4831063747406006, -2.8628514448748987, -1.5669696966754358, 2.7206943035125732]","[0.0, 0.0, -0.0, 0.0, 0.0, 0.0]","[-0.1235962063074112, -4.225159168243408, -0.8205026388168335, -0.5046845078468323, 0.0291595496237278, 0.1794433742761612]"
1584453236834090691,,1418130,,1584453236,833616926,'',"[shoulder_pan_joint, shoulder_lift_joint, elbow_joint, wrist_1_joint, wrist_2_joint,","[1.4047822952270508, -1.17180043855776, 2.4831063747406006, -2.8628390471087855, -1.5670059362994593, 2.7206943035125732]","[0.0, 0.0, -0.0, 0.0, 0.0, 0.0]","[-0.1235962063074112, -4.197693347930908, -0.8406789302825928, -0.5114136338233948, 0.02467346377670765, 0.1929016262292862]"
1584453236945978798,,1418144,,1584453236,945543344,'',"[shoulder_pan_joint, shoulder_lift_joint, elbow_joint, wrist_1_joint, wrist_2_joint,","[1.4047702550888062, -1.171788517628805, 2.483046531677246, -2.8628271261798304, -1.5669577757464808, 2.720658540725708]","[0.0, 0.0, -0.0, 0.0, 0.0, 0.0]","[-0.1190185695886612, -4.229736804962158, -0.8272280693054199, -0.5203858017921448, 0.02243042178452015, 0.1772003322839737]"
1584453237057993782,,1418158,,1584453237,57540666,'',"[shoulder_pan_joint, shoulder_lift_joint, elbow_joint, wrist_1_joint, wrist_2_joint,","[1.4047822952270508, -1.17180043855776, 2.4830822944641113, -2.862863365803854, -1.5669940153705042, 2.720646381378174]","[0.0, 0.0, -0.0, 0.0, 0.0, 0.0]","[-0.1556396633386612, -4.229736804962158, -0.8227444887161255, -0.5024414658546448, 0.0269165076315403, 0.1816864162683487]"
1584453237170034243,,1418172,,1584453237,169605973,'',"[shoulder_pan_joint, shoulder_lift_joint, elbow_joint, wrist_1_joint, wrist_2_joint,","[1.4048062562942505, -1.17177659669985, 2.48313045501709, -2.862863365803854, -1.5670178572284144, 2.720682382583618]","[0.0, 0.0, -0.0, 0.0, 0.0, 0.0]","[-0.0915527418255806, -4.234314441680908, -0.8272280693054199, -0.5203858017921448, 0.0381317175924778, 0.1839294582605362]"
1584453237282117184,,1418186,,1584453237,281607612,'',"[shoulder_pan_joint, shoulder_lift_joint, elbow_joint, wrist_1_joint, wrist_2_joint,","[1.4047822952270508, -1.17177659669985, 2.4830703735351562, -2.86280328432192, -1.5669940153705042, 2.720682382583618]","[0.0, 0.0, -0.0, 0.0, 0.0, 0.0]","[-0.1144409328699112, -4.193115711212158, -0.8294699192047119, -0.5114136338233948, 0.0336456336081028, 0.1839294582605362]"
1584453237394122509,,1418200,,1584453237,393535262,'',"[shoulder_pan_joint, shoulder_lift_joint, elbow_joint, wrist_1_joint, wrist_2_joint,","[1.4047702550888062, -1.17180043855776, 2.4830944538116455, -2.8628271261798304, -1.5670059362994593, 2.720682382583618]","[0.0, 0.0, -0.0, 0.0, 0.0, 0.0]","[-0.1281738430261612, -4.211426258087158, -0.8227444887161255, -0.5136566758155823, 0.0314025916159153, 0.2041168361902237]"
1584453237505952718,,1418214,,1584453237,505522294,'',"[shoulder_pan_joint, shoulder_lift_joint, elbow_joint, wrist_1_joint, wrist_2_joint,","[1.4048062562942505, -1.1717646757708948, 2.4830703735351562, -2.8628514448748987, -1.5669940153705042, 2.7206943035125732]","[0.0, 0.0, -0.0, 0.0, 0.0, 0.0]","[-0.1052856519818306, -4.298401355743408, -0.8339534997940063, -0.5069275498390198, 0.0336456336081028, 0.1906585842370987]"
1584453237618024858,,1418228,,1584453237,617615003,'',"[shoulder_pan_joint, shoulder_lift_joint, elbow_joint, wrist_1_joint, wrist_2_joint,","[1.4047822952270508, -1.1718247572528284, 2.4830822944641113, -2.8628152052508753, -1.5669940153705042, 2.7207183837890625]","[0.0, 0.0, -0.0, 0.0, 0.0, 0.0]","[-0.1235962063074112, -4.284668445587158, -0.8317117094993591, -0.5136566758155823, 0.0336456336081028, 0.1772003322839737]"
1584453237729990189,,1418242,,1584453237,729583950,'',"[shoulder_pan_joint, shoulder_lift_joint, elbow_joint, wrist_1_joint, wrist_2_joint,","[1.4047942161560059, -1.1718362013446253, 2.4830703735351562, -2.8628152052508753, -1.5669940153705042, 2.720646381378174]","[0.0, 0.0, -0.0, 0.0, 0.0, 0.0]","[-0.1510620266199112, -4.220581531524658, -0.8272280693054199, -0.5136566758155823, 0.0291595496237278, 0.1929016262292862]"
1584453237841985456,,1418256,,1584453237,841518053,'',"[shoulder_pan_joint, shoulder_lift_joint, elbow_joint, wrist_1_joint, wrist_2_joint,","[1.4047942161560059, -1.171788517628805, 2.4830822944641113, -2.8628271261798304, -1.566981617604391, 2.720682382583618]","[0.0, 0.0, -0.0, 0.0, 0.0, 0.0]","[-0.1052856519818306, -4.298401355743408, -0.8249862790107727, -0.5158997178077698, 0.0291595496237278, 0.1929016262292862]"
1584453237954029304,,1418270,,1584453237,953493793,'',"[shoulder_pan_joint, shoulder_lift_joint, elbow_joint, wrist_1_joint, wrist_2_joint,","[1.4047702550888062, -1.171788517628805, 2.483058452606201, -2.8628152052508753, -1.5670059362994593, 2.7206943035125732]","[0.0, 0.0, -0.0, 0.0, 0.0, 0.0]","[-0.1052856519818306, -4.183960437774658, -0.8361953496932983, -0.5091705918312073, 0.0314025916159153, 0.1861725002527237]"
1584453238065877085,,1418284,,1584453238,65465506,'',"[shoulder_pan_joint, shoulder_lift_joint, elbow_joint, wrist_1_joint, wrist_2_joint,","[1.4047702550888062, -1.17177659669985, 2.4830822944641113, -2.862863365803854, -1.5669696966754358, 2.720682382583618]","[0.0, 0.0, -0.0, 0.0, 0.0, 0.0]","[-0.1235962063074112, -4.284668445587158, -0.8205026388168335, -0.5136566758155823, 0.02467346377670765, 0.1704712063074112]"
1584453238177966889,,1418298,,1584453238,177545742,'',"[shoulder_pan_joint, shoulder_lift_joint, elbow_joint, wrist_1_joint, wrist_2_joint,","[1.4047822952270508, -1.1718123594867151, 2.4830703735351562, -2.8628390471087855, -1.5669940153705042, 2.7206943035125732]","[0.0, 0.0, -0.0, 0.0, 0.0, 0.0]","[-0.1327514797449112, -4.211426258087158, -0.8294699192047119, -0.5181427597999573, 0.02018737979233265, 0.1816864162683487]"
1584453238289947227,,1418312,,1584453238,289485345,'',"[shoulder_pan_joint, shoulder_lift_joint, elbow_joint, wrist_1_joint, wrist_2_joint,","[1.4047702550888062, -1.17180043855776, 2.483058452606201, -2.862863365803854, -1.5669696966754358, 2.720658540725708]","[0.0, 0.0, -0.0, 0.0, 0.0, 0.0]","[-0.0915527418255806, -4.261780261993408, -0.8317117094993591, -0.5114136338233948, 0.0314025916159153, 0.1861725002527237]"
1584453238402023535,,1418326,,1584453238,401502712,'',"[shoulder_pan_joint, shoulder_lift_joint, elbow_joint, wrist_1_joint, wrist_2_joint,","[1.4047822952270508, -1.171788517628805, 2.483058452606201, -2.8628514448748987, -1.5669940153705042, 2.720658540725708]","[0.0, 0.0, -0.0, 0.0, 0.0, 0.0]","[-0.1235962063074112, -4.238892078399658, -0.8317117094993591, -0.5181427597999573, 0.0269165076315403, 0.1592559963464737]"
1584453238513849787,,1418340,,1584453238,513444800,'',"[shoulder_pan_joint, shoulder_lift_joint, elbow_joint, wrist_1_joint, wrist_2_joint,","[1.4047942161560059, -1.1718247572528284, 2.4830944538116455, -2.8628514448748987, -1.566981617604391, 2.7206943035125732]","[0.0, 0.0, -0.0, 0.0, 0.0, 0.0]","[-0.1007080152630806, -4.229736804962158, -0.8205026388168335, -0.5158997178077698, 0.02243042178452015, 0.1637420803308487]"
1584453238625890478,,1418354,,1584453238,625443824,'',"[shoulder_pan_joint, shoulder_lift_joint, elbow_joint, wrist_1_joint, wrist_2_joint,","[1.4047702550888062, -1.1718123594867151, 2.4830822944641113, -2.8628271261798304, -1.5670178572284144, 2.720682382583618]","[0.0, 0.0, -0.0, 0.0, 0.0, 0.0]","[-0.1052856519818306, -4.243469715118408, -0.8406789302825928, -0.5114136338233948, 0.0314025916159153, 0.1749572902917862]"
1584453238737970493,,1418368,,1584453238,737556490,'',"[shoulder_pan_joint, shoulder_lift_joint, elbow_joint, wrist_1_joint, wrist_2_joint,","[1.404758334159851, -1.171788517628805, 2.4830703735351562, -2.8628514448748987, -1.566981617604391, 2.720682382583618]","[0.0, 0.0, -0.0, 0.0, 0.0, 0.0]","[-0.0823974683880806, -4.229736804962158, -0.8294699192047119, -0.5136566758155823, 0.0269165076315403, 0.1861725002527237]"
1584453238849821691,,1418382,,1584453238,849423868,'',"[shoulder_pan_joint, shoulder_lift_joint, elbow_joint, wrist_1_joint, wrist_2_joint,","[1.4047702550888062, -1.17180043855776, 2.4830703735351562, -2.8628271261798304, -1.5669696966754358, 2.720670461654663]","[0.0, 0.0, -0.0, 0.0, 0.0, 0.0]","[-0.1144409328699112, -4.243469715118408, -0.8294699192047119, -0.5114136338233948, 0.02243042178452015, 0.1794433742761612]"
1584453238961847655,,1418396,,1584453238,961510255,'',"[shoulder_pan_joint, shoulder_lift_joint, elbow_joint, wrist_1_joint, wrist_2_joint,","[1.4047702550888062, -1.17180043855776, 2.483046531677246, -2.8628390471087855, -1.5669940153705042, 2.720658540725708]","[0.0, 0.0, -0.0, 0.0, 0.0, 0.0]","[-0.1190185695886612, -4.243469715118408, -0.8160190582275391, -0.5181427597999573, 0.02467346377670765, 0.1861725002527237]"
1584453239073755960,,1418410,,1584453239,73410024,'',"[shoulder_pan_joint, shoulder_lift_joint, elbow_joint, wrist_1_joint, wrist_2_joint,","[1.4047942161560059, -1.1718362013446253, 2.483058452606201, -2.8628390471087855, -1.5669940153705042, 2.720682382583618]","[0.0, 0.0, -0.0, 0.0, 0.0, 0.0]","[-0.1327514797449112, -4.238892078399658, -0.8294699192047119, -0.5226288437843323, 0.02467346377670765, 0.1704712063074112]"
1584453239185785210,,1418424,,1584453239,185435597,'',"[shoulder_pan_joint, shoulder_lift_joint, elbow_joint, wrist_1_joint, wrist_2_joint,","[1.4047702550888062, -1.171788517628805, 2.4830822944641113, -2.8628514448748987, -1.5669577757464808, 2.7206943035125732]","[0.0, 0.0, -0.0, 0.0, 0.0, 0.0]","[-0.1098632961511612, -4.238892078399658, -0.8227444887161255, -0.5114136338233948, 0.0269165076315403, 0.1951446682214737]"
1584453239297710115,,1418438,,1584453239,297403913,'',"[shoulder_pan_joint, shoulder_lift_joint, elbow_joint, wrist_1_joint, wrist_2_joint,","[1.4047702550888062, -1.17180043855776, 2.483058452606201, -2.8628390471087855, -1.5669577757464808, 2.7207064628601074]","[0.0, 0.0, -0.0, 0.0, 0.0, 0.0]","[-0.0961303785443306, -4.188538074493408, -0.8249862790107727, -0.5158997178077698, 0.0269165076315403, 0.2018737941980362]"
1584453239409754655,,1418452,,1584453239,409413768,'',"[shoulder_pan_joint, shoulder_lift_joint, elbow_joint, wrist_1_joint, wrist_2_joint,","[1.4047702550888062, -1.17180043855776, 2.483046531677246, -2.862863365803854, -1.5669940153705042, 2.7206943035125732]","[0.0, 0.0, -0.0, 0.0, 0.0, 0.0]","[-0.1098632961511612, -4.238892078399658, -0.8317117094993591, -0.5069275498390198, 0.02467346377670765, 0.2108459621667862]"
1584453239521722510,,1418466,,1584453239,521384459,'',"[shoulder_pan_joint, shoulder_lift_joint, elbow_joint, wrist_1_joint, wrist_2_joint,","[1.404758334159851, -1.1717646757708948, 2.4830822944641113, -2.86277944246401, -1.5669696966754358, 2.7206225395202637]","[0.0, 0.0, -0.01769191212952137, 0.01601092517375946, 0.0, -0.016336895525455475]","[0.1144409328699112, -3.314209222793579, -1.6208289861679077, -0.2736511528491974, 0.0426178015768528, -0.0942077711224556]"
1584453239633789541,,1418480,,1584453239,633430551,'',"[shoulder_pan_joint, shoulder_lift_joint, elbow_joint, wrist_1_joint, wrist_2_joint,","[1.4050942659378052, -1.1713445822345179, 2.481414794921875, -2.8609002272235315, -1.566981617604391, 2.717784881591797]","[0.004870389122515917, 0.0008948221220634878, -0.00250550196506083, 0.0026269422378391027, 0.0, -0.012616991996765137]","[0.6362915635108948, -3.222656488418579, -1.9391660690307617, -0.2355194389820099, 0.0560760572552681, -0.2915954887866974]"
1584453239745789316,,1418494,,1584453239,745428633,'',"[shoulder_pan_joint, shoulder_lift_joint, elbow_joint, wrist_1_joint, wrist_2_joint,","[1.4053338766098022, -1.1715129057513636, 2.4822185039520264, -2.8618457953082483, -1.566981617604391, 2.717689037322998]","[0.00848802737891674, -0.0006263754912652075, 0.0020836573094129562, -0.0035473306197673082, 0.0, 0.04640292003750801]","[0.8056641221046448, -3.794861316680908, -1.1388397216796875, -0.5046845078468323, 0.0381317175924778, 0.2041168361902237]"
1584453239857682482,,1418508,,1584453239,857354950,'',"[shoulder_pan_joint, shoulder_lift_joint, elbow_joint, wrist_1_joint, wrist_2_joint,","[1.4066293239593506, -1.1715129057513636, 2.4820501804351807, -2.861666504536764, -1.5670178572284144, 2.723137378692627]","[0.009012137539684772, -0.00021731395099777728, -0.0008436894277110696, 0.0007669904152862728, 0.0, 0.03503228724002838]","[0.9155274629592896, -3.579712390899658, -1.3988897800445557, -0.4306641221046448, 0.0291595496237278, 0.3431854546070099]"
1584453239969719457,,1418522,,1584453239,969384572,'',"[shoulder_pan_joint, shoulder_lift_joint, elbow_joint, wrist_1_joint, wrist_2_joint,","[1.4061375856399536, -1.1714766661273401, 2.4820501804351807, -2.8616421858416956, -1.566981617604391, 2.7251248359680176]","[-0.019698871299624443, -0.00010226538870483637, -0.0002812298189383, 0.0002109223569277674, 0.0, 0.0014764565275982022]","[-0.9155274629592896, -3.620911121368408, -1.3988897800445557, -0.4284210503101349, 0.0426178015768528, 0.0919647291302681]"
1584453240081791247,,1418536,,1584453240,81447775,'',"[shoulder_pan_joint, shoulder_lift_joint, elbow_joint, wrist_1_joint, wrist_2_joint,","[1.4039546251296997, -1.1715367476092737, 2.4820263385772705, -2.861701790486471, -1.566981617604391, 2.719796657562256]","[-0.014611166901886463, -6.391586794052273e-05, -0.0, -3.834952076431364e-05, 0.0, -0.056239571422338486]","[-1.0345460176467896, -3.561401844024658, -1.3944061994552612, -0.4284210503101349, 0.0381317175924778, -0.3745880424976349]"
1584453240193657683,,1418550,,1584453240,193356851,'',"[shoulder_pan_joint, shoulder_lift_joint, elbow_joint, wrist_1_joint, wrist_2_joint,","[1.4035707712173462, -1.1715129057513636, 2.4820144176483154, -2.861666504536764, -1.5669577757464808, 2.7160844802856445]","[0.010597250424325466, -5.1132694352418184e-05, -0.0, -3.834952076431364e-05, 0.0, -0.01315388549119234]","[0.5081177353858948, -3.561401844024658, -1.4751113653182983, -0.3925323784351349, 0.0426178015768528, -0.3342132866382599]"
1584453240305704276,,1418564,,1584453240,305377435,'',"[shoulder_pan_joint, shoulder_lift_joint, elbow_joint, wrist_1_joint, wrist_2_joint,","[1.4060536623001099, -1.171549145375387, 2.4820144176483154, -2.8616541067706507, -1.5670178572284144, 2.7201318740844727]","[0.0245564766228199, -3.834952076431364e-05, -0.00011504856229294091, -3.834952076431364e-05, 0.0, 0.05514661222696304]","[0.8514404892921448, -3.570557117462158, -1.4257915019989014, -0.3947754204273224, 0.0672912672162056, 0.3566437065601349]"
1584453240417669597,,1418578,,1584453240,417346012,'',"[shoulder_pan_joint, shoulder_lift_joint, elbow_joint, wrist_1_joint, wrist_2_joint,","[1.4082247018814087, -1.171464745198385, 2.4820263385772705, -2.8616183439837855, -1.5669940153705042, 2.7248854637145996]","[0.0133328502997756, -2.5566347176209092e-05, -0.00011504856229294091, -3.834952076431364e-05, 0.0, 0.029088111594319344]","[0.9063721895217896, -3.639221668243408, -1.3675044775009155, -0.4306641221046448, 0.0628051832318306, 0.3005676567554474]"
1584453240529662710,,1418592,,1584453240,529339156,'',"[shoulder_pan_joint, shoulder_lift_joint, elbow_joint, wrist_1_joint, wrist_2_joint,","[1.4104317426681519, -1.1713326613055628, 2.4810187816619873, -2.8606484572040003, -1.567077938710348, 2.7282021045684814]","[0.030909713357686996, 0.007388674188405275, -0.024684308096766472, 0.024083498865365982, 0.0, 0.03253956884145737]","[0.7644653916358948, -3.039551019668579, -1.8405264616012573, -0.2557068169116974, 0.0650482252240181, 0.3028106987476349]"
1584453240641663887,,1418606,,1584453240,641344681,'',"[shoulder_pan_joint, shoulder_lift_joint, elbow_joint, wrist_1_joint, wrist_2_joint,","[1.4152414798736572, -1.1697500387774866, 2.47689151763916, -2.858218018208639, -1.567089859639303, 2.7328479290008545]","[0.04770680516958237, 0.01804984174668789, -0.05103042721748352, 0.025713354349136353, 0.0, 0.047745153307914734]","[0.9246827363967896, -2.957153558731079, -1.6835997104644775, -0.1794433742761612, 0.0785064771771431, 0.3117828667163849]"
1584453240753651790,,1418620,,1584453240,753337213,'',"[shoulder_pan_joint, shoulder_lift_joint, elbow_joint, wrist_1_joint, wrist_2_joint,","[1.4206392765045166, -1.166884724293844, 2.4678213596343994, -2.853931728993551, -1.567077938710348, 2.738295793533325]","[0.04701651260256767, 0.03290388733148575, -0.10165179520845413, 0.053171608597040176, 0.0, 0.04644126817584038]","[1.0391236543655396, -2.728271722793579, -1.8248337507247925, -0.1211242824792862, 0.0762634351849556, 0.3723450005054474]"
1584453240865653369,,1418634,,1584453240,865307744,'',"[shoulder_pan_joint, shoulder_lift_joint, elbow_joint, wrist_1_joint, wrist_2_joint,","[1.4256411790847778, -1.1626885573016565, 2.455463171005249, -2.847023312245504, -1.5670416990863245, 2.7425944805145264]","[0.046850331127643585, 0.04713156074285507, -0.11710665374994278, 0.062011174857616425, 0.0, 0.03179175406694412]","[1.1489869356155396, -2.650451898574829, -1.8876044750213623, -0.0762634351849556, 0.0269165076315403, 0.3342132866382599]"
1584453240977634660,,1418648,,1584453240,977352553,'',"[shoulder_pan_joint, shoulder_lift_joint, elbow_joint, wrist_1_joint, wrist_2_joint,","[1.4314703941345215, -1.1567052046405237, 2.4422056674957275, -2.839553181325094, -1.5670536200152796, 2.7458035945892334]","[0.05901991203427315, 0.05746036395430565, -0.11991894990205765, 0.07100413739681244, 0.0, 0.037218209356069565]","[0.7919312119483948, -3.112793207168579, -1.9257152080535889, -0.1816864162683487, 0.0560760572552681, 0.2579498589038849]"
1584453241089728881,,1418662,,1584453241,89380751,'',"[shoulder_pan_joint, shoulder_lift_joint, elbow_joint, wrist_1_joint, wrist_2_joint,","[1.4389911890029907, -1.1509383360492151, 2.4280474185943604, -2.831028763447897, -1.5670655409442347, 2.750868320465088]","[0.07306861877441406, 0.048039164394140244, -0.1306440383195877, 0.07457064092159271, 0.0, 0.04663301631808281]","[1.2222291231155396, -2.801513910293579, -1.9301989078521729, -0.0762634351849556, 0.0605621412396431, 0.3095398247241974]"
1584453241201647455,,1418676,,1584453241,201332056,'',"[shoulder_pan_joint, shoulder_lift_joint, elbow_joint, wrist_1_joint, wrist_2_joint,","[1.4470397233963013, -1.1445120016681116, 2.4130852222442627, -2.822192970906393, -1.5670536200152796, 2.7549996376037598]","[0.06666424870491028, 0.0641971006989479, -0.13493917882442474, 0.07100413739681244, 0.0, 0.02701723761856556]","[0.7827759385108948, -3.131103754043579, -2.1274781227111816, -0.1435547024011612, 0.0560760572552681, 0.3588867485523224]"
1584453241313641570,,1418690,,1584453241,313312876,'',"[shoulder_pan_joint, shoulder_lift_joint, elbow_joint, wrist_1_joint, wrist_2_joint,","[1.4541164636611938, -1.1382177511798304, 2.398050546646118, -2.8137171904193323, -1.5670178572284144, 2.757645845413208]","[0.06036214530467987, 0.051247742027044296, -0.13511814177036285, 0.07480073720216751, 0.0, 0.018216021358966827]","[1.0757447481155396, -3.025818109512329, -2.1319618225097656, -0.1323394924402237, 0.0560760572552681, 0.3252411186695099]"
1584453241425609306,,1418704,,1584453241,425312441,'',"[shoulder_pan_joint, shoulder_lift_joint, elbow_joint, wrist_1_joint, wrist_2_joint,","[1.4608935117721558, -1.1316474119769495, 2.383352041244507, -2.8053720633136194, -1.5670536200152796, 2.7594776153564453]","[0.06699661165475845, 0.06289321184158325, -0.13095082342624664, 0.0761813223361969, 0.0, 0.017679128795862198]","[0.8285523056983948, -3.341675043106079, -2.026596784591675, -0.2175751030445099, 0.0538330152630806, 0.3050537407398224]"
1584453241537611415,,1418718,,1584453241,537301246,'',"[shoulder_pan_joint, shoulder_lift_joint, elbow_joint, wrist_1_joint, wrist_2_joint,","[1.4693738222122192, -1.1255210081683558, 2.368748664855957, -2.79682428041567, -1.567077938710348, 2.762171745300293]","[0.08282218128442764, 0.05351036414504051, -0.13124483823776245, 0.0768716111779213, 0.0, 0.035051461309194565]","[1.0070801973342896, -3.204345941543579, -2.102818250656128, -0.1368255764245987, 0.0471038855612278, 0.2871094048023224]"
1584453241649607924,,1418732,,1584453241,649296863,'',"[shoulder_pan_joint, shoulder_lift_joint, elbow_joint, wrist_1_joint, wrist_2_joint,","[1.4794855117797852, -1.1187709013568323, 2.3542654514312744, -2.7884677092181605, -1.567089859639303, 2.7667460441589355]","[0.09051765501499176, 0.06010648235678673, -0.12797234952449799, 0.07290244102478027, 0.0, 0.04040122032165527]","[0.9521485567092896, -3.479004144668579, -2.2149088382720947, -0.1054229810833931, 0.0672912672162056, 0.3431854546070099]"
1584453241761598633,,1418746,,1584453241,761290868,'',"[shoulder_pan_joint, shoulder_lift_joint, elbow_joint, wrist_1_joint, wrist_2_joint,","[1.4889013767242432, -1.1133635679828089, 2.3403098583221436, -2.7806018034564417, -1.567101780568258, 2.7707929611206055]","[0.08227250725030899, 0.04416586458683014, -0.1197783350944519, 0.07081238925457001, 0.0, 0.028858013451099396]","[1.1993409395217896, -3.259277582168579, -2.1543798446655273, -0.1480407863855362, 0.0628051832318306, 0.3476715385913849]"
1584453241873631179,,1418760,,1584453241,873305050,'',"[shoulder_pan_joint, shoulder_lift_joint, elbow_joint, wrist_1_joint, wrist_2_joint,","[1.497873067855835, -1.1075003782855433, 2.3271219730377197, -2.773047749196188, -1.567077938710348, 2.7732958793640137]","[0.08127541840076447, 0.05781829357147217, -0.11462672054767609, 0.06784030050039291, 0.0, 0.019999274984002113]","[0.9109498262405396, -3.570557117462158, -2.192490816116333, -0.1480407863855362, 0.1009368970990181, 0.3342132866382599]"
1584453241985706505,,1418774,,1584453241,985385736,'',"[shoulder_pan_joint, shoulder_lift_joint, elbow_joint, wrist_1_joint, wrist_2_joint,","[1.5076369047164917, -1.1019499937640589, 2.31386137008667, -2.7653616110431116, -1.5670655409442347, 2.775163412094116]","[0.08654208481311798, 0.042389001697301865, -0.11456280201673508, 0.06718835979700089, 0.0, 0.015493206679821014]","[1.0070801973342896, -3.309631586074829, -2.4009790420532227, -0.1457977443933487, 0.0942077711224556, 0.3117828667163849]"
1584453242097542465,,1418788,,1584453242,97265988,'',"[shoulder_pan_joint, shoulder_lift_joint, elbow_joint, wrist_1_joint, wrist_2_joint,","[1.5173163414001465, -1.0963028112994593, 2.3009252548217773, -2.7580588499652308, -1.567101780568258, 2.777379035949707]","[0.08615858852863312, 0.05602864921092987, -0.10990972816944122, 0.062490545213222504, 0.0, 0.02648034319281578]","[0.8926392793655396, -3.460693597793579, -2.383044719696045, -0.2018737941980362, 0.0942077711224556, 0.2938385307788849]"
1584453242209566836,,1418802,,1584453242,209277535,'',"[shoulder_pan_joint, shoulder_lift_joint, elbow_joint, wrist_1_joint, wrist_2_joint,","[1.5268760919570923, -1.0904524962054651, 2.2883248329162598, -2.751259152089254, -1.567077938710348, 2.7807796001434326]","[0.08779483288526535, 0.03924434259533882, -0.11421765387058258, 0.06482986360788345, 0.0, 0.030583743005990982]","[0.9887696504592896, -3.565979480743408, -2.457024335861206, -0.1749572902917862, 0.0672912672162056, 0.3229980766773224]"
1584453242321564608,,1418816,,1584453242,321243738,'',"[shoulder_pan_joint, shoulder_lift_joint, elbow_joint, wrist_1_joint, wrist_2_joint,","[1.5366522073745728, -1.0854890982257288, 2.2753405570983887, -2.74392015138735, -1.5670655409442347, 2.7842636108398438]","[0.08702784776687622, 0.05123496055603027, -0.11741344630718231, 0.06866481900215149, 0.0, 0.03033447079360485]","[1.0482789278030396, -3.547668933868408, -2.454782485961914, -0.2243042290210724, 0.1009368970990181, 0.3790741264820099]"
1584453242433557780,,1418830,,1584453242,433240447,'',"[shoulder_pan_joint, shoulder_lift_joint, elbow_joint, wrist_1_joint, wrist_2_joint,","[1.5463312864303589, -1.0798056761371058, 2.2625951766967773, -2.736832920704977, -1.567101780568258, 2.7870657444000244]","[0.08297558128833771, 0.04584046080708504, -0.11003755778074265, 0.06268229335546494, 0.0, 0.02713228575885296]","[0.7781983017921448, -3.804016590118408, -2.562389373779297, -0.1143951565027237, 0.1009368970990181, 0.3185119926929474]"
1584453242545620773,,1418844,,1584453242,545247847,'',"[shoulder_pan_joint, shoulder_lift_joint, elbow_joint, wrist_1_joint, wrist_2_joint,","[1.5555311441421509, -1.0752623716937464, 2.2507381439208984, -2.730117146168844, -1.5670655409442347, 2.789963483810425]","[0.08144159615039825, 0.0435650534927845, -0.10396555066108704, 0.05535753443837166, 0.0, 0.02544490620493889]","[0.7919312119483948, -3.620911121368408, -2.542213201522827, -0.2086029201745987, 0.1076660305261612, 0.3095398247241974]"
1584453242657553965,,1418858,,1584453242,657244226,'',"[shoulder_pan_joint, shoulder_lift_joint, elbow_joint, wrist_1_joint, wrist_2_joint,","[1.5650068521499634, -1.0699031988727015, 2.2389049530029297, -2.7239392439471644, -1.5670655409442347, 2.793639659881592]","[0.08826781064271927, 0.050877030938863754, -0.0991462916135788, 0.054724764078855515, 0.0, 0.04145583137869835]","[0.7919312119483948, -3.886414051055908, -2.4256389141082764, -0.0874786451458931, 0.1233673244714737, 0.2601929008960724]"
1584453242769717606,,1418872,,1584453242,769390054,'',"[shoulder_pan_joint, shoulder_lift_joint, elbow_joint, wrist_1_joint, wrist_2_joint,","[1.5749739408493042, -1.0649760405169886, 2.2283196449279785, -2.7179535071002405, -1.567077938710348, 2.7992913722991943]","[0.08647816628217697, 0.03341521695256233, -0.07539515942335129, 0.051062386482954025, 0.0, 0.05138835683465004]","[1.0437012910842896, -3.762817859649658, -2.445815324783325, -0.1884155422449112, 0.1121521145105362, 0.3342132866382599]"
1584453242881529149,,1418886,,1584453242,881243676,'',"[shoulder_pan_joint, shoulder_lift_joint, elbow_joint, wrist_1_joint, wrist_2_joint,","[1.5838618278503418, -1.0612834135638636, 2.2195591926574707, -2.712985340748922, -1.5671256224261683, 2.80399751663208]","[0.07726150006055832, 0.034092724323272705, -0.06928479671478271, 0.04249126836657524, 0.0, 0.034993939101696014]","[0.8239746689796448, -3.968811511993408, -2.5265204906463623, -0.1973877102136612, 0.1390686184167862, 0.3185119926929474]"
1584453242993745269,,1418900,,1584453242,993420312,'',"[shoulder_pan_joint, shoulder_lift_joint, elbow_joint, wrist_1_joint, wrist_2_joint,","[1.5930140018463135, -1.0578301588641565, 2.2132105827331543, -2.709082905446188, -1.567077938710348, 2.8076016902923584]","[0.08589014410972595, 0.027394341304898262, -0.056182049214839935, 0.032156072556972504, 0.0, 0.032290294766426086]","[0.7369995713233948, -4.074097156524658, -2.544455051422119, -0.2018737941980362, 0.1368255764245987, 0.2758941948413849]"
1584453243105592068,,1418914,,1584453243,105272100,'',"[shoulder_pan_joint, shoulder_lift_joint, elbow_joint, wrist_1_joint, wrist_2_joint,","[1.603329062461853, -1.0552170912372034, 2.2067651748657227, -2.7053592840777796, -1.5670655409442347, 2.811816930770874]","[0.09358561038970947, 0.01738511584699154, -0.05007169023156166, 0.03411189839243889, 0.0, 0.036316994577646255]","[0.7827759385108948, -3.959656238555908, -2.5960166454315186, -0.1547699123620987, 0.1570129543542862, 0.3386993706226349]"
1584453243217519248,,1418928,,1584453243,217224077,'',"[shoulder_pan_joint, shoulder_lift_joint, elbow_joint, wrist_1_joint, wrist_2_joint,","[1.6135241985321045, -1.0540655295001429, 2.2026610374450684, -2.7026174704181116, -1.567077938710348, 2.8156843185424805]","[0.09422477334737778, 0.005432848818600178, -0.033543046563863754, 0.019040536135435104, 0.0, 0.025905100628733635]","[1.0528565645217896, -3.945923328399658, -2.5153114795684814, -0.2086029201745987, 0.1861725002527237, 0.4082336723804474]"
1584453243329582161,,1418942,,1584453243,329220045,'',"[shoulder_pan_joint, shoulder_lift_joint, elbow_joint, wrist_1_joint, wrist_2_joint,","[1.6239112615585327, -1.053406063710348, 2.1983160972595215, -2.7005465666400355, -1.5670655409442347, 2.8178396224975586]","[0.094582699239254, 0.008718124590814114, -0.045699845999479294, 0.021168936043977737, 0.0, 0.019462382420897484]","[0.8285523056983948, -3.726196765899658, -2.46150803565979, -0.2108459621667862, 0.2018737941980362, 0.3431854546070099]"
1584453243441540990,,1418956,,1584453243,441227664,'',"[shoulder_pan_joint, shoulder_lift_joint, elbow_joint, wrist_1_joint, wrist_2_joint,","[1.6346101760864258, -1.0520160833941858, 2.1932992935180664, -2.6979368368731897, -1.567089859639303, 2.820138692855835]","[0.09293366968631744, 0.01362686324864626, -0.03477023169398308, 0.019270634278655052, 0.0, 0.02231942117214203]","[0.8148193955421448, -3.671265125274658, -2.4951350688934326, -0.1749572902917862, 0.1861725002527237, 0.3499145805835724]"
1584453243553542158,,1418970,,1584453243,553222571,'',"[shoulder_pan_joint, shoulder_lift_joint, elbow_joint, wrist_1_joint, wrist_2_joint,","[1.6444814205169678, -1.0503132979022425, 2.190262794494629, -2.695902172719137, -1.567101780568258, 2.822486162185669]","[0.08300114423036575, 0.01444498635828495, -0.02394288405776024, 0.01654781773686409, 0.0, 0.022415295243263245]","[0.9796143770217896, -4.032898426055908, -2.564631223678589, -0.2691650688648224, 0.1861725002527237, 0.2781372368335724]"
1584453243665519241,,1418984,,1584453243,665218769,'',"[shoulder_pan_joint, shoulder_lift_joint, elbow_joint, wrist_1_joint, wrist_2_joint,","[1.6537890434265137, -1.04913837114443, 2.1874542236328125, -2.6941540876971644, -1.5671256224261683, 2.82585072517395]","[0.08367865532636642, 0.010904046706855297, -0.026333337649703026, 0.01606844924390316, 0.0, 0.03624029830098152]","[0.7736206650733948, -3.987122058868408, -2.537729501724243, -0.2512207329273224, 0.2332763969898224, 0.3319702446460724]"
1584453243777489911,,1418998,,1584453243,777182627,'',"[shoulder_pan_joint, shoulder_lift_joint, elbow_joint, wrist_1_joint, wrist_2_joint,","[1.6634920835494995, -1.0475319067584437, 2.184849739074707, -2.6920231024371546, -1.5671256224261683, 2.829754590988159]","[0.08807606250047684, 0.012565859593451023, -0.015084144659340382, 0.017736652866005898, 0.0, 0.029145635664463043]","[1.0528565645217896, -4.275513172149658, -2.571356773376465, -0.2803802788257599, 0.2400055229663849, 0.3476715385913849]"
1584453243889506438,,1419012,,1584453243,889196028,'',"[shoulder_pan_joint, shoulder_lift_joint, elbow_joint, wrist_1_joint, wrist_2_joint,","[1.6725956201553345, -1.047328297291891, 2.1847896575927734, -2.6917479673968714, -1.5671256224261683, 2.8314428329467773]","[0.07115114480257034, -0.0001661812566453591, 0.0027867318131029606, -0.0012847089674323797, 0.0, -0.009740778245031834]","[0.9750367403030396, -4.971313953399658, -1.999695062637329, -0.5787048935890198, 0.2781372368335724, -0.004486084450036287]"
1584453244001517685,,1419026,,1584453244,1231139,'',"[shoulder_pan_joint, shoulder_lift_joint, elbow_joint, wrist_1_joint, wrist_2_joint,","[1.6796003580093384, -1.0472920576678675, 2.184813976287842, -2.6917360464679163, -1.5671494642840784, 2.826653242111206]","[0.05393220856785774, -0.00015339808305725455, 0.00029401297797448933, -0.00024927189224399626, 0.0, -0.039749279618263245]","[0.7736206650733948, -4.852295398712158, -2.1229946613311768, -0.5293579697608948, 0.2534637749195099, -0.3274841606616974]"
1584453244113525956,,1419040,,1584453244,113225605,'',"[shoulder_pan_joint, shoulder_lift_joint, elbow_joint, wrist_1_joint, wrist_2_joint,","[1.6847697496414185, -1.0473044554339808, 2.1848015785217285, -2.691712204610006, -1.5671737829791468, 2.82285737991333]","[0.041021205484867096, -8.948221511673182e-05, 0.0001917476038215682, -0.00013422331539914012, 0.0, -0.02364247851073742]","[0.8468628525733948, -4.806519031524658, -2.1364455223083496, -0.5360870957374573, 0.2355194389820099, -0.3140259087085724]"
1584453244225499342,,1419054,,1584453244,225168674,'',"[shoulder_pan_joint, shoulder_lift_joint, elbow_joint, wrist_1_joint, wrist_2_joint,","[1.6894233226776123, -1.0472920576678675, 2.184922218322754, -2.6917479673968714, -1.5671857039081019, 2.8201746940612793]","[0.03786376118659973, -6.391586794052273e-05, 0.001943042385391891, -9.58738019107841e-05, 0.0, -0.02985510230064392]","[0.8285523056983948, -4.902649402618408, -2.111785650253296, -0.5585175156593323, 0.2669220268726349, -0.2803802788257599]"
1584453244337465073,,1419068,,1584453244,337169682,'',"[shoulder_pan_joint, shoulder_lift_joint, elbow_joint, wrist_1_joint, wrist_2_joint,","[1.6930575370788574, -1.047328297291891, 2.1849942207336426, -2.6917598883258265, -1.5671494642840784, 2.817061424255371]","[0.024466993287205696, -3.834952076431364e-05, 0.0005496764788404107, -5.752428114647046e-05, 0.0, -0.029701704159379005]","[0.9246827363967896, -4.875183582305908, -2.0647075176239014, -0.5607605576515198, 0.2198181450366974, -0.2624359428882599]"
1584453244449515584,,1419082,,1584453244,449192360,'',"[shoulder_pan_joint, shoulder_lift_joint, elbow_joint, wrist_1_joint, wrist_2_joint,","[1.6944488286972046, -1.047340218220846, 2.185042381286621, -2.6917956511126917, -1.5671613852130335, 2.8125951290130615]","[0.000818123109638691, -3.834952076431364e-05, 0.0005496764788404107, -5.752428114647046e-05, 0.0, -0.04471554234623909]","[0.3616333305835724, -4.875183582305908, -2.0333220958709717, -0.5719757676124573, 0.2422485649585724, -0.3207550346851349]"
1584453244561632878,,1419096,,1584453244,561305777,'',"[shoulder_pan_joint, shoulder_lift_joint, elbow_joint, wrist_1_joint, wrist_2_joint,","[1.6927695274353027, -1.0473640600787562, 2.1849822998046875, -2.6919873396502894, -1.5671256224261683, 2.8078653812408447]","[-0.02707476168870926, -2.5566347176209092e-05, 0.00020453077740967274, -0.002205097349360585, 0.0, -0.02929903380572796]","[-0.7507324814796448, -4.788208484649658, -2.0714330673217773, -0.5226288437843323, 0.2153320610523224, -0.3656158745288849]"
1584453244673539249,,1419110,,1584453244,673203582,'',"[shoulder_pan_joint, shoulder_lift_joint, elbow_joint, wrist_1_joint, wrist_2_joint,","[1.6912823915481567, -1.0473883787738245, 2.1850061416625977, -2.6921308676349085, -1.567077938710348, 2.806823253631592]","[0.002147573046386242, -2.5566347176209092e-05, 0.00012783173588104546, -0.000862864195369184, 0.0, 0.001859951764345169]","[-0.02288818545639515, -4.792786121368408, -2.096092939376831, -0.5069275498390198, 0.1973877102136612, -0.02467346377670765]"
1584453244785384756,,1419124,,1584453244,785140841,'',"[shoulder_pan_joint, shoulder_lift_joint, elbow_joint, wrist_1_joint, wrist_2_joint,","[1.6912944316864014, -1.0473883787738245, 2.1849584579467773, -2.6921308676349085, -1.5671256224261683, 2.806835174560547]","[0.0, -2.5566347176209092e-05, 8.948221511673182e-05, 0.00032597093377262354, 0.0, 0.00026844663079828024]","[-0.1373291164636612, -4.925537586212158, -2.183523416519165, -0.3588867485523224, 0.0493469275534153, -0.0291595496237278]"
1584453244897429966,,1419138,,1584453244,897201189,'',"[shoulder_pan_joint, shoulder_lift_joint, elbow_joint, wrist_1_joint, wrist_2_joint,","[1.6913303136825562, -1.0473883787738245, 2.184946060180664, -2.6920951048480433, -1.5671375433551233, 2.8068110942840576]","[0.0, -2.5566347176209092e-05, 6.391586794052273e-05, 0.00015339808305725455, 0.0, 0.00013422331539914012]","[-0.1190185695886612, -4.902649402618408, -2.2081832885742188, -0.3499145805835724, 0.0538330152630806, -0.0314025916159153]"
1584453245009397371,,1419152,,1584453245,9134390,'',"[shoulder_pan_joint, shoulder_lift_joint, elbow_joint, wrist_1_joint, wrist_2_joint,","[1.6912823915481567, -1.047352139149801, 2.1849703788757324, -2.6921189467059534, -1.567101780568258, 2.806847095489502]","[0.0, -2.5566347176209092e-05, 5.1132694352418184e-05, 9.58738019107841e-05, 0.0, 9.58738019107841e-05]","[-0.1327514797449112, -4.893494129180908, -2.2171506881713867, -0.3611297905445099, 0.0448608435690403, -0.02467346377670765]"
1584453245121470213,,1419166,,1584453245,121128024,'',"[shoulder_pan_joint, shoulder_lift_joint, elbow_joint, wrist_1_joint, wrist_2_joint,","[1.6913063526153564, -1.0473640600787562, 2.1849703788757324, -2.6921308676349085, -1.5671137014972132, 2.806823253631592]","[0.0, -2.5566347176209092e-05, 3.834952076431364e-05, 7.669904152862728e-05, 0.0, 5.752428114647046e-05]","[-0.1281738430261612, -4.861450672149658, -2.192490816116333, -0.3588867485523224, 0.0448608435690403, -0.0269165076315403]"
1584453245233484124,,1419180,,1584453245,233163385,'',"[shoulder_pan_joint, shoulder_lift_joint, elbow_joint, wrist_1_joint, wrist_2_joint,","[1.6913063526153564, -1.047328297291891, 2.1849822998046875, -2.6921189467059534, -1.5671137014972132, 2.806823253631592]","[0.0, -2.5566347176209092e-05, 3.834952076431364e-05, 5.752428114647046e-05, 0.0, 5.752428114647046e-05]","[-0.1007080152630806, -4.879761219024658, -2.2104251384735107, -0.3521576225757599, 0.0471038855612278, -0.0269165076315403]"
1584453245345450628,,1419194,,1584453245,345153453,'',"[shoulder_pan_joint, shoulder_lift_joint, elbow_joint, wrist_1_joint, wrist_2_joint,","[1.691318392753601, -1.0473759810077112, 2.1849822998046875, -2.6921070257769983, -1.5671137014972132, 2.806847095489502]","[0.0, -2.5566347176209092e-05, 3.834952076431364e-05, 3.834952076431364e-05, 0.0, 3.834952076431364e-05]","[-0.1373291164636612, -4.898071765899658, -2.2149088382720947, -0.3521576225757599, 0.0381317175924778, -0.0291595496237278]"
1584453245457478345,,1419208,,1584453245,457144892,'',"[shoulder_pan_joint, shoulder_lift_joint, elbow_joint, wrist_1_joint, wrist_2_joint,","[1.691318392753601, -1.0473759810077112, 2.1849822998046875, -2.6921308676349085, -1.5671256224261683, 2.806823253631592]","[0.0, -2.5566347176209092e-05, 2.5566347176209092e-05, 3.834952076431364e-05, 0.0, 3.834952076431364e-05]","[-0.1373291164636612, -4.893494129180908, -2.205941677093506, -0.3521576225757599, 0.0381317175924778, -0.0269165076315403]"
1584453245569615237,,1419222,,1584453245,569262588,'',"[shoulder_pan_joint, shoulder_lift_joint, elbow_joint, wrist_1_joint, wrist_2_joint,","[1.6912944316864014, -1.047352139149801, 2.1849942207336426, -2.6920951048480433, -1.5671137014972132, 2.8068110942840576]","[0.0, -2.5566347176209092e-05, 2.5566347176209092e-05, 3.834952076431364e-05, 0.0, 3.834952076431364e-05]","[-0.0915527418255806, -4.852295398712158, -2.203699827194214, -0.3499145805835724, 0.0471038855612278, -0.0314025916159153]"
1584453245681404158,,1419236,,1584453245,681114467,'',"[shoulder_pan_joint, shoulder_lift_joint, elbow_joint, wrist_1_joint, wrist_2_joint,","[1.691318392753601, -1.0473883787738245, 2.1849942207336426, -2.6921308676349085, -1.5671256224261683, 2.8068110942840576]","[0.0, -2.5566347176209092e-05, 2.5566347176209092e-05, 1.917476038215682e-05, 0.0, 1.917476038215682e-05]","[-0.1144409328699112, -4.925537586212158, -2.188007116317749, -0.3566437065601349, 0.0583190992474556, -0.02467346377670765]"
1584453245793445290,,1419250,,1584453245,793160168,'',"[shoulder_pan_joint, shoulder_lift_joint, elbow_joint, wrist_1_joint, wrist_2_joint,","[1.691318392753601, -1.0473883787738245, 2.1849822998046875, -2.6921070257769983, -1.5671256224261683, 2.8068110942840576]","[0.0, -1.2783173588104546e-05, 2.5566347176209092e-05, 1.917476038215682e-05, 0.0, 1.917476038215682e-05]","[-0.1419067531824112, -4.870605945587158, -2.205941677093506, -0.3566437065601349, 0.0426178015768528, -0.0314025916159153]"
1584453245905523272,,1419264,,1584453245,905202523,'',"[shoulder_pan_joint, shoulder_lift_joint, elbow_joint, wrist_1_joint, wrist_2_joint,","[1.6912704706192017, -1.047328297291891, 2.1849942207336426, -2.6921070257769983, -1.5671137014972132, 2.8067872524261475]","[0.0, -1.2783173588104546e-05, 1.2783173588104546e-05, 1.917476038215682e-05, 0.0, 1.917476038215682e-05]","[-0.1327514797449112, -4.907227039337158, -2.188007116317749, -0.3611297905445099, 0.0515899695456028, -0.02243042178452015]"
1584453246017470870,,1419278,,1584453246,17155851,'',"[shoulder_pan_joint, shoulder_lift_joint, elbow_joint, wrist_1_joint, wrist_2_joint,","[1.6912944316864014, -1.047352139149801, 2.1849822998046875, -2.6920951048480433, -1.5671375433551233, 2.8068110942840576]","[0.0, -1.2783173588104546e-05, 1.2783173588104546e-05, 1.917476038215682e-05, 0.0, 1.917476038215682e-05]","[-0.1190185695886612, -4.898071765899658, -2.205941677093506, -0.3386993706226349, 0.0426178015768528, -0.0291595496237278]"
1584453246129438354,,1419292,,1584453246,129132273,'',"[shoulder_pan_joint, shoulder_lift_joint, elbow_joint, wrist_1_joint, wrist_2_joint,","[1.6912944316864014, -1.047340218220846, 2.1849942207336426, -2.692143265401022, -1.567089859639303, 2.806823253631592]","[0.0, -1.2783173588104546e-05, 1.2783173588104546e-05, 1.917476038215682e-05, 0.0, 1.917476038215682e-05]","[-0.1052856519818306, -4.898071765899658, -2.203699827194214, -0.3476715385913849, 0.0448608435690403, -0.0291595496237278]"
1584453246241433451,,1419306,,1584453246,241130505,'',"[shoulder_pan_joint, shoulder_lift_joint, elbow_joint, wrist_1_joint, wrist_2_joint,","[1.691318392753601, -1.047352139149801, 2.1849703788757324, -2.6921189467059534, -1.5671375433551233, 2.806823253631592]","[0.0, -1.2783173588104546e-05, 1.2783173588104546e-05, 1.917476038215682e-05, 0.0, 1.917476038215682e-05]","[-0.1281738430261612, -4.884338855743408, -2.19921612739563, -0.3588867485523224, 0.0403747595846653, -0.0269165076315403]"
1584453246353444197,,1419320,,1584453246,353141882,'',"[shoulder_pan_joint, shoulder_lift_joint, elbow_joint, wrist_1_joint, wrist_2_joint,","[1.6913063526153564, -1.0473640600787562, 2.1849822998046875, -2.692143265401022, -1.5671137014972132, 2.806823253631592]","[0.0, -1.2783173588104546e-05, 1.2783173588104546e-05, 1.917476038215682e-05, 0.0, 1.917476038215682e-05]","[-0.1144409328699112, -4.843140125274658, -2.194732427597046, -0.3521576225757599, 0.0448608435690403, -0.02467346377670765]"
1584453246465496851,,1419334,,1584453246,465162978,'',"[shoulder_pan_joint, shoulder_lift_joint, elbow_joint, wrist_1_joint, wrist_2_joint,","[1.691318392753601, -1.0473640600787562, 2.1849942207336426, -2.692143265401022, -1.5671375433551233, 2.806835174560547]","[0.0, -1.2783173588104546e-05, 1.2783173588104546e-05, 1.917476038215682e-05, 0.0, 1.917476038215682e-05]","[-0.1327514797449112, -4.838562488555908, -2.205941677093506, -0.3678589165210724, 0.0515899695456028, -0.0291595496237278]"
1584453246577410265,,1419348,,1584453246,577103061,'',"[shoulder_pan_joint, shoulder_lift_joint, elbow_joint, wrist_1_joint, wrist_2_joint,","[1.691318392753601, -1.0473759810077112, 2.1849822998046875, -2.692143265401022, -1.5671137014972132, 2.8068110942840576]","[0.0, -1.2783173588104546e-05, 1.2783173588104546e-05, 0.0, 0.0, 0.0]","[-0.1464843899011612, -4.875183582305908, -2.2081832885742188, -0.3499145805835724, 0.0471038855612278, -0.02467346377670765]"
1584453246689426541,,1419362,,1584453246,689116311,'',"[shoulder_pan_joint, shoulder_lift_joint, elbow_joint, wrist_1_joint, wrist_2_joint,","[1.6913303136825562, -1.047352139149801, 2.1849703788757324, -2.6920951048480433, -1.5671256224261683, 2.806823253631592]","[0.0, -1.2783173588104546e-05, 1.2783173588104546e-05, 0.0, 0.0, 0.0]","[-0.1373291164636612, -4.898071765899658, -2.188007116317749, -0.3544006645679474, 0.0426178015768528, -0.0291595496237278]"
1584453246801365563,,1419376,,1584453246,801061976,'',"[shoulder_pan_joint, shoulder_lift_joint, elbow_joint, wrist_1_joint, wrist_2_joint,","[1.6913303136825562, -1.047352139149801, 2.1849942207336426, -2.6921070257769983, -1.567101780568258, 2.8067991733551025]","[0.0, 0.0, 1.2783173588104546e-05, 0.0, 0.0, 0.0]","[-0.1144409328699112, -4.884338855743408, -2.192490816116333, -0.3544006645679474, 0.0471038855612278, -0.2803802788257599]"
1584453246913430520,,1419390,,1584453246,913128415,'',"[shoulder_pan_joint, shoulder_lift_joint, elbow_joint, wrist_1_joint, wrist_2_joint,","[1.691318392753601, -1.0474241415606897, 2.1849584579467773, -2.6921308676349085, -1.5671375433551233, 2.8007404804229736]","[0.0, 0.0, 1.2783173588104546e-05, 0.0, 0.0, -0.13282357156276703]","[-0.1327514797449112, -4.888916492462158, -2.203699827194214, -0.3476715385913849, 0.0381317175924778, -0.2960815727710724]"
1584453247025371395,,1419404,,1584453247,25087785,'',"[shoulder_pan_joint, shoulder_lift_joint, elbow_joint, wrist_1_joint, wrist_2_joint,","[1.6913063526153564, -1.0473640600787562, 2.1849703788757324, -2.6921308676349085, -1.5671137014972132, 2.779510021209717]","[0.0, 0.0, 1.2783173588104546e-05, 0.0, 0.0, -0.19985853135585785]","[-0.1464843899011612, -4.884338855743408, -2.176798105239868, -0.3544006645679474, 0.0515899695456028, -0.4979553818702698]"
1584453247137370219,,1419418,,1584453247,137075488,'',"[shoulder_pan_joint, shoulder_lift_joint, elbow_joint, wrist_1_joint, wrist_2_joint,","[1.6913063526153564, -1.0473759810077112, 2.184934139251709, -2.6921308676349085, -1.567101780568258, 2.7571070194244385]","[0.0, 0.0, 1.2783173588104546e-05, 0.0, 0.0, -0.20089396834373474]","[-0.1098632961511612, -4.888916492462158, -2.174556255340576, -0.3566437065601349, 0.0448608435690403, -0.4261780083179474]"
1584453247249334377,,1419432,,1584453247,249062399,'',"[shoulder_pan_joint, shoulder_lift_joint, elbow_joint, wrist_1_joint, wrist_2_joint,","[1.6912823915481567, -1.0473640600787562, 2.184934139251709, -2.6921547094928187, -1.567077938710348, 2.7345001697540283]","[0.0, 0.0, 1.2783173588104546e-05, 0.0, 0.0, -0.19874638319015503]","[-0.1052856519818306, -4.888916492462158, -2.185765266418457, -0.3476715385913849, 0.0471038855612278, -0.4575806260108948]"
1584453247361322561,,1419446,,1584453247,361069989,'',"[shoulder_pan_joint, shoulder_lift_joint, elbow_joint, wrist_1_joint, wrist_2_joint,","[1.6912944316864014, -1.0473883787738245, 2.184934139251709, -2.692143265401022, -1.5670536200152796, 2.7121095657348633]","[0.0, 0.0, -0.0, 0.0, 0.0, -0.19884225726127625]","[-0.1373291164636612, -4.856873035430908, -2.172314405441284, -0.3431854546070099, 0.0560760572552681, -0.3835602104663849]"
1584453247473375275,,1419460,,1584453247,473100742,'',"[shoulder_pan_joint, shoulder_lift_joint, elbow_joint, wrist_1_joint, wrist_2_joint,","[1.6912944316864014, -1.0473998228656214, 2.1848978996276855, -2.692178551350729, -1.5670536200152796, 2.6897308826446533]","[0.0, 0.0, -0.0, 0.0, 0.0, -0.20089396834373474]","[-0.1739502102136612, -4.866028308868408, -2.1678307056427, -0.3499145805835724, 0.0538330152630806, -0.4059906303882599]"
1584453247585361805,,1419474,,1584453247,585058098,'',"[shoulder_pan_joint, shoulder_lift_joint, elbow_joint, wrist_1_joint, wrist_2_joint,","[1.6913303136825562, -1.0473759810077112, 2.184922218322754, -2.6921666304217737, -1.5670536200152796, 2.6674129962921143]","[0.0, 0.0, -0.0, 0.0, 0.0, -0.19918741285800934]","[-0.1419067531824112, -4.879761219024658, -2.109543800354004, -0.3521576225757599, 0.0403747595846653, -0.4732819199562073]"
1584453247697304915,,1419488,,1584453247,697044238,'',"[shoulder_pan_joint, shoulder_lift_joint, elbow_joint, wrist_1_joint, wrist_2_joint,","[1.691318392753601, -1.047352139149801, 2.184946060180664, -2.692190472279684, -1.5670297781573694, 2.6450586318969727]","[0.0, 0.0, -0.0, 0.0, 0.0, -0.20100900530815125]","[-0.1373291164636612, -4.856873035430908, -2.019871234893799, -0.3499145805835724, 0.0426178015768528, -0.3902893364429474]"
1584453247809549337,,1419502,,1584453247,809285444,'',"[shoulder_pan_joint, shoulder_lift_joint, elbow_joint, wrist_1_joint, wrist_2_joint,","[1.6913063526153564, -1.0473759810077112, 2.184922218322754, -2.692202393208639, -1.5670178572284144, 2.622537612915039]","[0.0, 0.0, -0.0, 0.0, 0.0, -0.19884225726127625]","[-0.1464843899011612, -4.902649402618408, -1.9032971858978271, -0.3588867485523224, 0.0381317175924778, -0.4620667099952698]"
1584453247921353567,,1419516,,1584453247,921092509,'',"[shoulder_pan_joint, shoulder_lift_joint, elbow_joint, wrist_1_joint, wrist_2_joint,","[1.6912944316864014, -1.0473640600787562, 2.1849584579467773, -2.692190472279684, -1.5670416990863245, 2.600219964981079]","[0.0, 0.0, -0.0, 0.0, 0.0, -0.20194856822490692]","[-0.1556396633386612, -4.916382312774658, -1.7934484481811523, -0.3364563286304474, 0.0403747595846653, -0.3858032524585724]"
1584453248033340068,,1419530,,1584453248,33077778,'',"[shoulder_pan_joint, shoulder_lift_joint, elbow_joint, wrist_1_joint, wrist_2_joint,","[1.691318392753601, -1.0473883787738245, 2.184934139251709, -2.692202393208639, -1.5670536200152796, 2.577855110168457]","[0.0, 0.0, -0.0, 0.0, 0.0, -0.20039542019367218]","[-0.1327514797449112, -4.870605945587158, -1.6589398384094238, -0.3521576225757599, 0.0291595496237278, -0.5069275498390198]"
1584453248145260725,,1419544,,1584453248,145020326,'',"[shoulder_pan_joint, shoulder_lift_joint, elbow_joint, wrist_1_joint, wrist_2_joint,","[1.6913063526153564, -1.0474122206317347, 2.184946060180664, -2.6921547094928187, -1.5670178572284144, 2.5553226470947266]","[0.0, 0.0, -0.0, 0.0, 0.0, -0.2007022202014923]","[-0.1190185695886612, -4.879761219024658, -1.7149850130081177, -0.3521576225757599, -0.01345825381577015, -0.4261780083179474]"
1584453248257341943,,1419558,,1584453248,257061559,'',"[shoulder_pan_joint, shoulder_lift_joint, elbow_joint, wrist_1_joint, wrist_2_joint,","[1.6912944316864014, -1.0473883787738245, 2.1849703788757324, -2.6921666304217737, -1.5670416990863245, 2.532910108566284]","[0.0, 0.0, -0.0, 0.0, 0.0, -0.1975383758544922]","[-0.1327514797449112, -4.879761219024658, -1.7037760019302368, -0.3454284965991974, -0.0740203931927681, -0.5024414658546448]"
1584453248369368017,,1419572,,1584453248,369048530,'',"[shoulder_pan_joint, shoulder_lift_joint, elbow_joint, wrist_1_joint, wrist_2_joint,","[1.691318392753601, -1.0474122206317347, 2.1849584579467773, -2.692190472279684, -1.5670416990863245, 2.510617733001709]","[0.0, 0.0, -0.0, 0.0, 0.0, -0.20244711637496948]","[-0.1556396633386612, -4.866028308868408, -1.6970505714416504, -0.3544006645679474, -0.0493469275534153, -0.4284210503101349]"
1584453248481325643,,1419586,,1584453248,481061189,'',"[shoulder_pan_joint, shoulder_lift_joint, elbow_joint, wrist_1_joint, wrist_2_joint,","[1.691318392753601, -1.0473883787738245, 2.184946060180664, -2.692190472279684, -1.5670416990863245, 2.488097906112671]","[0.0, 0.0, -0.0, 0.0, 0.0, -0.2007022202014923]","[-0.1510620266199112, -4.870605945587158, -1.690325140953064, -0.3499145805835724, -0.0538330152630806, -0.4239349663257599]"
1584453248593364863,,1419600,,1584453248,593089709,'',"[shoulder_pan_joint, shoulder_lift_joint, elbow_joint, wrist_1_joint, wrist_2_joint,","[1.691318392753601, -1.0473640600787562, 2.184946060180664, -2.6921666304217737, -1.5670178572284144, 2.465721845626831]","[0.0, 0.0, -0.0, 0.0, 0.0, -0.19822867214679718]","[-0.1464843899011612, -4.884338855743408, -1.7082595825195312, -0.3544006645679474, -0.0471038855612278, -0.4912262558937073]"
1584453248705339571,,1419614,,1584453248,705059778,'',"[shoulder_pan_joint, shoulder_lift_joint, elbow_joint, wrist_1_joint, wrist_2_joint,","[1.691318392753601, -1.0473883787738245, 2.1849703788757324, -2.6921547094928187, -1.5670416990863245, 2.443286180496216]","[0.0, 0.0, -0.0, 0.0, 0.0, -0.2001461535692215]","[-0.1464843899011612, -4.902649402618408, -1.7015341520309448, -0.3409424126148224, -0.0515899695456028, -0.3902893364429474]"
1584453248817388658,,1419628,,1584453248,817123133,'',"[shoulder_pan_joint, shoulder_lift_joint, elbow_joint, wrist_1_joint, wrist_2_joint,","[1.691318392753601, -1.0474122206317347, 2.1849584579467773, -2.692178551350729, -1.5670416990863245, 2.4209344387054443]","[0.0, 0.0, -0.0, 0.0, 0.0, -0.20006944239139557]","[-0.1464843899011612, -4.870605945587158, -1.6992924213409424, -0.3566437065601349, -0.0471038855612278, -0.5338440537452698]"
1584453248929322831,,1419642,,1584453248,929040975,'',"[shoulder_pan_joint, shoulder_lift_joint, elbow_joint, wrist_1_joint, wrist_2_joint,","[1.6913303136825562, -1.0473759810077112, 2.1849584579467773, -2.6921547094928187, -1.5670416990863245, 2.3985471725463867]","[0.0, 0.0, -0.0, 0.0, 0.0, -0.19863134622573853]","[-0.1098632961511612, -4.856873035430908, -1.7127432823181152, -0.3588867485523224, -0.0448608435690403, -0.4261780083179474]"
1584453249041332013,,1419656,,1584453249,41041060,'',"[shoulder_pan_joint, shoulder_lift_joint, elbow_joint, wrist_1_joint, wrist_2_joint,","[1.6913063526153564, -1.047352139149801, 2.1849584579467773, -2.692178551350729, -1.5670655409442347, 2.3761603832244873]","[0.0, 0.0, -0.0, 0.0, 0.0, -0.19796022772789001]","[-0.1373291164636612, -4.866028308868408, -1.6992924213409424, -0.3476715385913849, -0.0493469275534153, -0.4934692978858948]"
1584453249153257450,,1419670,,1584453249,152983098,'',"[shoulder_pan_joint, shoulder_lift_joint, elbow_joint, wrist_1_joint, wrist_2_joint,","[1.6913063526153564, -1.0474122206317347, 2.1849822998046875, -2.6921666304217737, -1.5670416990863245, 2.3537609577178955]","[0.0, 0.0, -0.0, 0.0, 0.0, -0.20164178311824799]","[-0.1510620266199112, -4.884338855743408, -1.6992924213409424, -0.3544006645679474, -0.0471038855612278, -0.4194488823413849]"
1584453249265456478,,1419684,,1584453249,265102346,'',"[shoulder_pan_joint, shoulder_lift_joint, elbow_joint, wrist_1_joint, wrist_2_joint,","[1.6913303136825562, -1.0473883787738245, 2.184946060180664, -2.6921666304217737, -1.5670416990863245, 2.3314340114593506]","[0.0, 0.0, -0.0, 0.0, 0.0, -0.19951337575912476]","[-0.1007080152630806, -4.852295398712158, -1.7060178518295288, -0.3588867485523224, -0.0583190992474556, -0.4598236680030823]"
1584453249377249727,,1419698,,1584453249,377000682,'',"[shoulder_pan_joint, shoulder_lift_joint, elbow_joint, wrist_1_joint, wrist_2_joint,","[1.6913303136825562, -1.0473998228656214, 2.1849584579467773, -2.692190472279684, -1.5670416990863245, 2.30916690826416]","[0.0, 0.0, -0.0, 0.0, 0.0, -0.20041459798812866]","[-0.1419067531824112, -4.875183582305908, -1.7037760019302368, -0.3499145805835724, -0.0515899695456028, -0.4530945420265198]"
1584453249489246727,,1419712,,1584453249,488992052,'',"[shoulder_pan_joint, shoulder_lift_joint, elbow_joint, wrist_1_joint, wrist_2_joint,","[1.691318392753601, -1.0473998228656214, 2.1849703788757324, -2.6921547094928187, -1.5670655409442347, 2.2866721153259277]","[0.0, 0.0, -0.0, 0.0, 0.0, -0.20206362009048462]","[-0.1464843899011612, -4.893494129180908, -1.7082595825195312, -0.3431854546070099, -0.0471038855612278, -0.3723450005054474]"
1584453249601257132,,1419726,,1584453249,601014108,'',"[shoulder_pan_joint, shoulder_lift_joint, elbow_joint, wrist_1_joint, wrist_2_joint,","[1.6913063526153564, -1.0473883787738245, 2.1849822998046875, -2.692178551350729, -1.5670416990863245, 2.264345169067383]","[0.0, 0.0, -0.0, 0.0, 0.0, -0.19993522763252258]","[-0.1556396633386612, -4.916382312774658, -1.7015341520309448, -0.3521576225757599, -0.0650482252240181, -0.5809479355812073]"
1584453249713185294,,1419740,,1584453249,712937361,'',"[shoulder_pan_joint, shoulder_lift_joint, elbow_joint, wrist_1_joint, wrist_2_joint,","[1.6913063526153564, -1.0473883787738245, 2.1849584579467773, -2.692178551350729, -1.5670297781573694, 2.241779327392578]","[0.0, 0.0, -0.0, 0.0, 0.0, -0.2013925015926361]","[-0.1419067531824112, -4.861450672149658, -1.7015341520309448, -0.3409424126148224, -0.0560760572552681, -0.4172058403491974]"
1584453249825410029,,1419754,,1584453249,825157838,'',"[shoulder_pan_joint, shoulder_lift_joint, elbow_joint, wrist_1_joint, wrist_2_joint,","[1.6912944316864014, -1.0473883787738245, 2.1849822998046875, -2.6921547094928187, -1.5670178572284144, 2.219405174255371]","[0.0, 0.0, -0.0, 0.0, 0.0, -0.1967330425977707]","[-0.1281738430261612, -4.888916492462158, -1.7060178518295288, -0.3544006645679474, -0.0515899695456028, -0.4800110459327698]"
1584453249937243914,,1419768,,1584453249,937010699,'',"[shoulder_pan_joint, shoulder_lift_joint, elbow_joint, wrist_1_joint, wrist_2_joint,","[1.6913063526153564, -1.0474122206317347, 2.1849584579467773, -2.692143265401022, -1.5670536200152796, 2.19706654548645]","[0.0, 0.0, -0.0, 0.0, 0.0, -0.20001192390918732]","[-0.1098632961511612, -4.902649402618408, -1.6992924213409424, -0.3499145805835724, -0.0560760572552681, -0.4441223740577698]"
1584453250049208154,,1419782,,1584453250,48988013,'',"[shoulder_pan_joint, shoulder_lift_joint, elbow_joint, wrist_1_joint, wrist_2_joint,","[1.6913303136825562, -1.0474122206317347, 2.1849584579467773, -2.6921547094928187, -1.5670536200152796, 2.174680471420288]","[0.0, 0.0, -0.0, 0.0, 0.0, -0.19966678321361542]","[-0.1098632961511612, -4.861450672149658, -1.6992924213409424, -0.3521576225757599, -0.0515899695456028, -0.5360870957374573]"
1584453250161177041,,1419796,,1584453250,160955627,'',"[shoulder_pan_joint, shoulder_lift_joint, elbow_joint, wrist_1_joint, wrist_2_joint,","[1.6913063526153564, -1.0474360624896448, 2.1849584579467773, -2.6921666304217737, -1.5670536200152796, 2.1522462368011475]","[0.0, 0.0, -0.0, 0.0, 0.0, -0.1984395980834961]","[-0.1464843899011612, -4.875183582305908, -1.7105014324188232, -0.3409424126148224, -0.0493469275534153, -0.5069275498390198]"
1584453250273211691,,1419810,,1584453250,272991821,'',"[shoulder_pan_joint, shoulder_lift_joint, elbow_joint, wrist_1_joint, wrist_2_joint,","[1.691318392753601, -1.0473883787738245, 2.1849703788757324, -2.692190472279684, -1.5670536200152796, 2.129871368408203]","[0.0, 0.0, -0.0, 0.0, 0.0, -0.2015267312526703]","[-0.1464843899011612, -4.888916492462158, -1.7105014324188232, -0.3544006645679474, -0.0628051832318306, -0.4418793320655823]"
1584453250385173255,,1419824,,1584453250,384956751,'',"[shoulder_pan_joint, shoulder_lift_joint, elbow_joint, wrist_1_joint, wrist_2_joint,","[1.691318392753601, -1.0473883787738245, 2.184946060180664, -2.692178551350729, -1.5670416990863245, 2.1074376106262207]","[0.0, 0.0, -0.0, 0.0, 0.0, -0.1995709091424942]","[-0.1510620266199112, -4.898071765899658, -1.6992924213409424, -0.3521576225757599, -0.0560760572552681, -0.5652466416358948]"
1584453250497131002,,1419838,,1584453250,496914958,'',"[shoulder_pan_joint, shoulder_lift_joint, elbow_joint, wrist_1_joint, wrist_2_joint,","[1.6913542747497559, -1.0473883787738245, 2.1849942207336426, -2.692190472279684, -1.5670536200152796, 2.085123300552368]","[0.0, 0.0, -0.0, 0.0, 0.0, -0.20160342752933502]","[-0.1556396633386612, -4.888916492462158, -1.6992924213409424, -0.3521576225757599, -0.0538330152630806, -0.4284210503101349]"
1584453250609141157,,1419852,,1584453250,608927708,'',"[shoulder_pan_joint, shoulder_lift_joint, elbow_joint, wrist_1_joint, wrist_2_joint,","[1.6913063526153564, -1.0473883787738245, 2.1849584579467773, -2.6921666304217737, -1.5670178572284144, 2.0626533031463623]","[0.0, 0.0, -0.0, 0.0, 0.0, -0.20018449425697327]","[-0.1144409328699112, -4.870605945587158, -1.7060178518295288, -0.3521576225757599, -0.0605621412396431, -0.5473023056983948]"
1584453250721313615,,1419866,,1584453250,721087051,'',"[shoulder_pan_joint, shoulder_lift_joint, elbow_joint, wrist_1_joint, wrist_2_joint,","[1.691318392753601, -1.0473759810077112, 2.1849942207336426, -2.6921547094928187, -1.5670416990863245, 2.0403032302856445]","[0.0, 0.0, -0.0, 0.0, 0.0, -0.20131580531597137]","[-0.1235962063074112, -4.898071765899658, -1.6992924213409424, -0.3454284965991974, -0.0560760572552681, -0.4486084580421448]"
1584453250833258407,,1419880,,1584453250,832973204,'',"[shoulder_pan_joint, shoulder_lift_joint, elbow_joint, wrist_1_joint, wrist_2_joint,","[1.6913303136825562, -1.0473883787738245, 2.1849822998046875, -2.692143265401022, -1.5670297781573694, 2.0179405212402344]","[0.0, 0.0, -0.0, 0.0, 0.0, -0.19801774621009827]","[-0.1327514797449112, -4.888916492462158, -1.7060178518295288, -0.3521576225757599, -0.0493469275534153, -0.5383301377296448]"
1584453250945159458,,1419894,,1584453250,944950187,'',"[shoulder_pan_joint, shoulder_lift_joint, elbow_joint, wrist_1_joint, wrist_2_joint,","[1.6913063526153564, -1.0473883787738245, 2.1849703788757324, -2.6921189467059534, -1.5670297781573694, 1.9954341650009155]","[0.0, 0.0, -0.0, 0.0, 0.0, -0.2008172571659088]","[-0.1464843899011612, -4.907227039337158, -1.7060178518295288, -0.3476715385913849, -0.0448608435690403, -0.4463654160499573]"
1584453251057210499,,1419908,,1584453251,56941677,'',"[shoulder_pan_joint, shoulder_lift_joint, elbow_joint, wrist_1_joint, wrist_2_joint,","[1.6913063526153564, -1.0473998228656214, 2.1849703788757324, -2.692178551350729, -1.5670416990863245, 1.9730600118637085]","[0.0, 0.0, -0.0, 0.0, 0.0, -0.19755755364894867]","[-0.1464843899011612, -4.843140125274658, -1.7015341520309448, -0.3476715385913849, -0.0515899695456028, -0.5001984238624573]"
1584453251169164148,,1419922,,1584453251,168959235,'',"[shoulder_pan_joint, shoulder_lift_joint, elbow_joint, wrist_1_joint, wrist_2_joint,","[1.6913063526153564, -1.0473998228656214, 2.1850061416625977, -2.6921547094928187, -1.5670297781573694, 1.9507094621658325]","[0.0, 0.0, -0.0, 0.0, 0.0, -0.2017376571893692]","[-0.1602173000574112, -4.884338855743408, -1.6970505714416504, -0.3544006645679474, -0.0560760572552681, -0.4620667099952698]"
1584453251281141492,,1419936,,1584453251,280888750,'',"[shoulder_pan_joint, shoulder_lift_joint, elbow_joint, wrist_1_joint, wrist_2_joint,","[1.6913303136825562, -1.0473998228656214, 2.1849822998046875, -2.6921666304217737, -1.5670297781573694, 1.9281550645828247]","[0.0, 0.0, -0.0, 0.0, 0.0, -0.19993522763252258]","[-0.1281738430261612, -4.888916492462158, -1.6858415603637695, -0.3544006645679474, -0.0583190992474556, -0.4441223740577698]"
1584453251393246313,,1419950,,1584453251,392943317,'',"[shoulder_pan_joint, shoulder_lift_joint, elbow_joint, wrist_1_joint, wrist_2_joint,","[1.6913063526153564, -1.0473640600787562, 2.1849703788757324, -2.692143265401022, -1.5670178572284144, 1.9058165550231934]","[0.0, 0.0, -0.0, 0.0, 0.0, -0.1984395980834961]","[-0.1235962063074112, -4.888916492462158, -1.7037760019302368, -0.3499145805835724, -0.0672912672162056, -0.5809479355812073]"
1584453251505192028,,1419964,,1584453251,504894181,'',"[shoulder_pan_joint, shoulder_lift_joint, elbow_joint, wrist_1_joint, wrist_2_joint,","[1.6913063526153564, -1.0473759810077112, 2.1849822998046875, -2.6921547094928187, -1.5670297781573694, 1.8834179639816284]","[0.0, 0.0, -0.0, 0.0, 0.0, -0.20227454602718353]","[-0.1373291164636612, -4.898071765899658, -1.7149850130081177, -0.3521576225757599, -0.0897216871380806, -0.3970184624195099]"
1584453251617234342,,1419978,,1584453251,616930785,'',"[shoulder_pan_joint, shoulder_lift_joint, elbow_joint, wrist_1_joint, wrist_2_joint,","[1.691318392753601, -1.0473640600787562, 2.1849703788757324, -2.692143265401022, -1.5670416990863245, 1.8611029386520386]","[0.0, 0.0, -0.0, 0.0, 0.0, -0.20006944239139557]","[-0.1281738430261612, -4.847717761993408, -1.688083291053772, -0.3544006645679474, -0.0852356031537056, -0.6415100693702698]"
1584453251729214080,,1419992,,1584453251,728933566,'',"[shoulder_pan_joint, shoulder_lift_joint, elbow_joint, wrist_1_joint, wrist_2_joint,","[1.6912823915481567, -1.0473883787738245, 2.1849584579467773, -2.6921666304217737, -1.5670536200152796, 1.8386797904968262]","[0.0, 0.0, -0.0, 0.0, 0.0, -0.19884225726127625]","[-0.1373291164636612, -4.911804676055908, -1.7060178518295288, -0.3521576225757599, -0.1031799390912056, -0.4643097519874573]"
1584453251841200951,,1420006,,1584453251,840899488,'',"[shoulder_pan_joint, shoulder_lift_joint, elbow_joint, wrist_1_joint, wrist_2_joint,","[1.691318392753601, -1.0473883787738245, 2.184946060180664, -2.6921666304217737, -1.5670536200152796, 1.8162685632705688]","[0.0, 0.0, -0.0, 0.0, 0.0, -0.1975383758544922]","[-0.1602173000574112, -4.911804676055908, -1.6970505714416504, -0.3499145805835724, -0.0964508131146431, -0.5450592637062073]"
1584453251953153027,,1420020,,1584453251,952870620,'',"[shoulder_pan_joint, shoulder_lift_joint, elbow_joint, wrist_1_joint, wrist_2_joint,","[1.6913303136825562, -1.0474360624896448, 2.1849703788757324, -2.692143265401022, -1.5670416990863245, 1.7939051389694214]","[0.0, 0.0, -0.0, 0.0, 0.0, -0.20143085718154907]","[-0.1190185695886612, -4.884338855743408, -1.7037760019302368, -0.3588867485523224, -0.0986938551068306, -0.4710388779640198]"
1584453252065406226,,1420034,,1584453252,64998174,'',"[shoulder_pan_joint, shoulder_lift_joint, elbow_joint, wrist_1_joint, wrist_2_joint,","[1.6913303136825562, -1.0473998228656214, 2.1849822998046875, -2.6921666304217737, -1.5670655409442347, 1.7714580297470093]","[0.0, 0.0, -0.0, 0.0, 0.0, -0.1993599832057953]","[-0.1190185695886612, -4.879761219024658, -1.6948087215423584, -0.3588867485523224, -0.1009368970990181, -0.4844971299171448]"
1584453252177461124,,1420048,,1584453252,177007697,'',"[shoulder_pan_joint, shoulder_lift_joint, elbow_joint, wrist_1_joint, wrist_2_joint,","[1.6912944316864014, -1.0473883787738245, 2.1849584579467773, -2.692178551350729, -1.5670416990863245, 1.7491178512573242]","[0.0, 0.0, -0.0, 0.0, 0.0, -0.20110487937927246]","[-0.1373291164636612, -4.879761219024658, -1.7060178518295288, -0.3521576225757599, -0.1054229810833931, -0.5473023056983948]"
1584453252289276795,,1420062,,1584453252,288944505,'',"[shoulder_pan_joint, shoulder_lift_joint, elbow_joint, wrist_1_joint, wrist_2_joint,","[1.691318392753601, -1.0473759810077112, 2.1849703788757324, -2.692143265401022, -1.5670536200152796, 1.726610779762268]","[0.0, 0.0, -0.0, 0.0, 0.0, -0.2007022202014923]","[-0.1052856519818306, -4.920959949493408, -1.7037760019302368, -0.3499145805835724, -0.1054229810833931, -0.3992615044116974]"
1584453252401259489,,1420076,,1584453252,400912661,'',"[shoulder_pan_joint, shoulder_lift_joint, elbow_joint, wrist_1_joint, wrist_2_joint,","[1.691318392753601, -1.0473883787738245, 2.1849942207336426, -2.692143265401022, -1.5670655409442347, 1.704318642616272]","[0.0, 0.0, -0.0, 0.0, 0.0, -0.2008172571659088]","[-0.1464843899011612, -4.893494129180908, -1.7172268629074097, -0.3544006645679474, -0.1031799390912056, -0.5899201035499573]"
1584453252513289601,,1420090,,1584453252,512920421,'',"[shoulder_pan_joint, shoulder_lift_joint, elbow_joint, wrist_1_joint, wrist_2_joint,","[1.6913063526153564, -1.0473883787738245, 2.1850180625915527, -2.6921666304217737, -1.5670297781573694, 1.68183434009552]","[0.0, 0.0, -0.0, 0.0, 0.0, -0.20164178311824799]","[-0.1556396633386612, -4.879761219024658, -1.7149850130081177, -0.3544006645679474, -0.0986938551068306, -0.4261780083179474]"
1584453252625401215,,1420104,,1584453252,625039900,'',"[shoulder_pan_joint, shoulder_lift_joint, elbow_joint, wrist_1_joint, wrist_2_joint,","[1.6913063526153564, -1.0473883787738245, 2.1849822998046875, -2.692178551350729, -1.5670536200152796, 1.6594818830490112]","[0.0, 0.0, -0.0, 0.0, 0.0, -0.19836290180683136]","[-0.1556396633386612, -4.856873035430908, -1.6835997104644775, -0.3499145805835724, -0.0964508131146431, -0.5248718857765198]"
1584453252737186680,,1420118,,1584453252,736849019,'',"[shoulder_pan_joint, shoulder_lift_joint, elbow_joint, wrist_1_joint, wrist_2_joint,","[1.691318392753601, -1.0473883787738245, 2.1850180625915527, -2.692143265401022, -1.5670297781573694, 1.6370930671691895]","[0.0, 0.0, -0.0, 0.0, 0.0, -0.20056799054145813]","[-0.1373291164636612, -4.888916492462158, -1.692566990852356, -0.3476715385913849, -0.1099090725183487, -0.4598236680030823]"
1584453252849149506,,1420132,,1584453252,848832354,'',"[shoulder_pan_joint, shoulder_lift_joint, elbow_joint, wrist_1_joint, wrist_2_joint,","[1.6913303136825562, -1.0473883787738245, 2.1849703788757324, -2.692143265401022, -1.5670536200152796, 1.614572525024414]","[0.0, 0.0, -0.0, 0.0, 0.0, -0.1977493017911911]","[-0.1556396633386612, -4.870605945587158, -1.7194687128067017, -0.3476715385913849, -0.1076660305261612, -0.5069275498390198]"
1584453252961375544,,1420146,,1584453252,960895558,'',"[shoulder_pan_joint, shoulder_lift_joint, elbow_joint, wrist_1_joint, wrist_2_joint,","[1.6912944316864014, -1.0473883787738245, 2.1850061416625977, -2.6921308676349085, -1.5670297781573694, 1.5923031568527222]","[0.0, 0.0, -0.0, 0.0, 0.0, -0.19874638319015503]","[-0.1602173000574112, -4.847717761993408, -1.6970505714416504, -0.3499145805835724, -0.0986938551068306, -0.4867401719093323]"
1584453253073270373,,1420160,,1584453253,72849617,'',"[shoulder_pan_joint, shoulder_lift_joint, elbow_joint, wrist_1_joint, wrist_2_joint,","[1.6913303136825562, -1.0473883787738245, 2.1849822998046875, -2.692178551350729, -1.5670655409442347, 1.5698057413101196]","[0.0, 0.0, -0.0, 0.0, 0.0, -0.19966678321361542]","[-0.1144409328699112, -4.875183582305908, -1.6970505714416504, -0.3431854546070099, -0.0919647291302681, -0.4777680039405823]"
1584453253185421120,,1420174,,1584453253,184962343,'',"[shoulder_pan_joint, shoulder_lift_joint, elbow_joint, wrist_1_joint, wrist_2_joint,","[1.6913063526153564, -1.0473759810077112, 2.1850061416625977, -2.6921308676349085, -1.5670297781573694, 1.5474878549575806]","[0.0, 0.0, -0.0, 0.0, 0.0, -0.20100900530815125]","[-0.1235962063074112, -4.902649402618408, -1.6970505714416504, -0.3499145805835724, -0.1076660305261612, -0.5316010117530823]"
1584453253297189955,,1420188,,1584453253,296887109,'',"[shoulder_pan_joint, shoulder_lift_joint, elbow_joint, wrist_1_joint, wrist_2_joint,","[1.6913423538208008, -1.0473759810077112, 2.1850180625915527, -2.6921547094928187, -1.5670536200152796, 1.5250376462936401]","[0.0, 0.0, -0.0, 0.0, 0.0, -0.2013925015926361]","[-0.1510620266199112, -4.856873035430908, -1.7037760019302368, -0.3544006645679474, -0.1054229810833931, -0.4149627983570099]"
1584453253409428115,,1420202,,1584453253,408965691,'',"[shoulder_pan_joint, shoulder_lift_joint, elbow_joint, wrist_1_joint, wrist_2_joint,","[1.6912823915481567, -1.0473759810077112, 2.1849584579467773, -2.6921666304217737, -1.5670178572284144, 1.5026353597640991]","[0.0, 0.0, -0.0, 0.0, 0.0, -0.19966678321361542]","[-0.1235962063074112, -4.888916492462158, -1.7194687128067017, -0.3544006645679474, -0.1054229810833931, -0.5540314316749573]"
1584453253521202158,,1420216,,1584453253,520886318,'',"[shoulder_pan_joint, shoulder_lift_joint, elbow_joint, wrist_1_joint, wrist_2_joint,","[1.691318392753601, -1.0473759810077112, 2.1850180625915527, -2.692178551350729, -1.5670416990863245, 1.4802690744400024]","[0.0, 0.0, -0.0, 0.0, 0.0, -0.20168012380599976]","[-0.1556396633386612, -4.879761219024658, -1.7149850130081177, -0.3566437065601349, -0.1031799390912056, -0.4463654160499573]"
1584453253633253470,,1420230,,1584453253,632926870,'',"[shoulder_pan_joint, shoulder_lift_joint, elbow_joint, wrist_1_joint, wrist_2_joint,","[1.6912823915481567, -1.0473883787738245, 2.1849584579467773, -2.6921666304217737, -1.5670416990863245, 1.4578540325164795]","[0.0, 0.0, -0.0, 0.0, 0.0, -0.1995709091424942]","[-0.1281738430261612, -4.875183582305908, -1.6858415603637695, -0.3409424126148224, -0.0964508131146431, -0.5562744736671448]"
1584453253745278512,,1420244,,1584453253,744879537,'',"[shoulder_pan_joint, shoulder_lift_joint, elbow_joint, wrist_1_joint, wrist_2_joint,","[1.6913303136825562, -1.0474122206317347, 2.1849942207336426, -2.6921666304217737, -1.5670297781573694, 1.4354865550994873]","[0.0, 0.0, -0.0, 0.0, 0.0, -0.2007022202014923]","[-0.1602173000574112, -4.847717761993408, -1.7127432823181152, -0.3544006645679474, -0.1054229810833931, -0.4620667099952698]"
1584453253857225429,,1420258,,1584453253,856908036,'',"[shoulder_pan_joint, shoulder_lift_joint, elbow_joint, wrist_1_joint, wrist_2_joint,","[1.6913063526153564, -1.0473759810077112, 2.1849942207336426, -2.6921547094928187, -1.5670536200152796, 1.412998914718628]","[0.0, 0.0, -0.0, 0.0, 0.0, -0.19742333889007568]","[-0.1419067531824112, -4.843140125274658, -1.7194687128067017, -0.3431854546070099, -0.1054229810833931, -0.5114136338233948]"
1584453253969446177,,1420272,,1584453253,968965950,'',"[shoulder_pan_joint, shoulder_lift_joint, elbow_joint, wrist_1_joint, wrist_2_joint,","[1.6913303136825562, -1.047352139149801, 2.1850061416625977, -2.6921666304217737, -1.5670416990863245, 1.3907510042190552]","[0.0, 0.0, -0.0, 0.0, 0.0, -0.20223619043827057]","[-0.1052856519818306, -4.870605945587158, -1.7037760019302368, -0.3566437065601349, -0.1031799390912056, -0.4800110459327698]"
1584453254081306181,,1420286,,1584453254,80996573,'',"[shoulder_pan_joint, shoulder_lift_joint, elbow_joint, wrist_1_joint, wrist_2_joint,","[1.6913303136825562, -1.0473640600787562, 2.1850180625915527, -2.6921308676349085, -1.5670178572284144, 1.368143081665039]","[0.0, 0.0, -0.0, 0.0, 0.0, -0.20006944239139557]","[-0.1556396633386612, -4.888916492462158, -1.7127432823181152, -0.3566437065601349, -0.0986938551068306, -0.4508515000343323]"
1584453254193071499,,1420300,,1584453254,192773352,'',"[shoulder_pan_joint, shoulder_lift_joint, elbow_joint, wrist_1_joint, wrist_2_joint,","[1.691318392753601, -1.0473883787738245, 2.1849703788757324, -2.692178551350729, -1.5670655409442347, 1.3459539413452148]","[0.0, 0.0, -0.0, 0.0, 0.0, -0.19966678321361542]","[-0.1647949367761612, -4.920959949493408, -1.6746324300765991, -0.3588867485523224, -0.1143951565027237, -0.5899201035499573]"
1584453254305080301,,1420314,,1584453254,304782034,'',"[shoulder_pan_joint, shoulder_lift_joint, elbow_joint, wrist_1_joint, wrist_2_joint,","[1.691318392753601, -1.047352139149801, 2.1850061416625977, -2.6921547094928187, -1.5670178572284144, 1.3234891891479492]","[0.0, 0.0, -0.0, 0.0, 0.0, -0.2028689682483673]","[-0.1602173000574112, -4.888916492462158, -1.7149850130081177, -0.3521576225757599, -0.1076660305261612, -0.4059906303882599]"
1584453254417031735,,1420328,,1584453254,416745130,'',"[shoulder_pan_joint, shoulder_lift_joint, elbow_joint, wrist_1_joint, wrist_2_joint,","[1.6913303136825562, -1.0473883787738245, 2.1849822998046875, -2.6921547094928187, -1.5670536200152796, 1.3010715246200562]","[0.0, 0.0, -0.0, 0.0, 0.0, -0.19788353145122528]","[-0.1464843899011612, -4.866028308868408, -1.7060178518295288, -0.3544006645679474, -0.1054229810833931, -0.5854340195655823]"
1584453254529093256,,1420342,,1584453254,528778158,'',"[shoulder_pan_joint, shoulder_lift_joint, elbow_joint, wrist_1_joint, wrist_2_joint,","[1.6912944316864014, -1.0473759810077112, 2.1849942207336426, -2.6921547094928187, -1.5670297781573694, 1.2786895036697388]","[0.0, 0.0, -0.0, 0.0, 0.0, -0.1993599832057953]","[-0.1510620266199112, -4.902649402618408, -1.6768742799758911, -0.3544006645679474, -0.1009368970990181, -0.4665527939796448]"
1584453254641132435,,1420356,,1584453254,640840309,'',"[shoulder_pan_joint, shoulder_lift_joint, elbow_joint, wrist_1_joint, wrist_2_joint,","[1.691318392753601, -1.0473883787738245, 2.1850061416625977, -2.6921547094928187, -1.5670297781573694, 1.2562116384506226]","[0.0, 0.0, -0.0, 0.0, 0.0, -0.19713571667671204]","[-0.1647949367761612, -4.847717761993408, -1.7037760019302368, -0.3476715385913849, -0.1121521145105362, -0.5316010117530823]"
1584453254753052291,,1420370,,1584453254,752715292,'',"[shoulder_pan_joint, shoulder_lift_joint, elbow_joint, wrist_1_joint, wrist_2_joint,","[1.691318392753601, -1.047352139149801, 2.1849822998046875, -2.6921666304217737, -1.5670416990863245, 1.2338647842407227]","[0.0, 0.0, -0.0, 0.0, 0.0, -0.20237042009830475]","[-0.1419067531824112, -4.861450672149658, -1.7149850130081177, -0.3588867485523224, -0.1099090725183487, -0.4844971299171448]"
1584453254865062656,,1420384,,1584453254,864777273,'',"[shoulder_pan_joint, shoulder_lift_joint, elbow_joint, wrist_1_joint, wrist_2_joint,","[1.691318392753601, -1.0473640600787562, 2.1850180625915527, -2.6921666304217737, -1.5670297781573694, 1.2114096879959106]","[0.0, 0.0, -0.0, 0.0, 0.0, -0.19914905726909637]","[-0.1144409328699112, -4.907227039337158, -1.7105014324188232, -0.3499145805835724, -0.1143951565027237, -0.5203858017921448]"
1584453254977083380,,1420398,,1584453254,976786275,'',"[shoulder_pan_joint, shoulder_lift_joint, elbow_joint, wrist_1_joint, wrist_2_joint,","[1.6913303136825562, -1.0474122206317347, 2.1849942207336426, -2.6921547094928187, -1.5670297781573694, 1.1890500783920288]","[0.0, 0.0, -0.0, 0.0, 0.0, -0.20164178311824799]","[-0.1602173000574112, -4.884338855743408, -1.72843599319458, -0.3521576225757599, -0.1099090725183487, -0.4912262558937073]"
1584453255089101220,,1420412,,1584453255,88799075,'',"[shoulder_pan_joint, shoulder_lift_joint, elbow_joint, wrist_1_joint, wrist_2_joint,","[1.691318392753601, -1.047340218220846, 2.1849942207336426, -2.6921547094928187, -1.5670416990863245, 1.166486382484436]","[0.0, 0.0, -0.0, 0.0, 0.0, -0.20121993124485016]","[-0.1419067531824112, -4.879761219024658, -1.6992924213409424, -0.3521576225757599, -0.1121521145105362, -0.4351502060890198]"
1584453255201022338,,1420426,,1584453255,200745391,'',"[shoulder_pan_joint, shoulder_lift_joint, elbow_joint, wrist_1_joint, wrist_2_joint,","[1.6913542747497559, -1.047328297291891, 2.1849584579467773, -2.6921666304217737, -1.5670297781573694, 1.1441620588302612]","[0.0, 0.0, -0.0, 0.0, 0.0, -0.1992449313402176]","[-0.1373291164636612, -4.875183582305908, -1.7082595825195312, -0.3476715385913849, -0.1121521145105362, -0.5473023056983948]"
1584453255313024457,,1420440,,1584453255,312734005,'',"[shoulder_pan_joint, shoulder_lift_joint, elbow_joint, wrist_1_joint, wrist_2_joint,","[1.6913303136825562, -1.0473640600787562, 2.1849942207336426, -2.6921666304217737, -1.5670536200152796, 1.121705174446106]","[0.0, 0.0, -0.0, 0.0, 0.0, -0.20131580531597137]","[-0.1510620266199112, -4.898071765899658, -1.7037760019302368, -0.3588867485523224, -0.1256103664636612, -0.4306641221046448]"
1584453255425009395,,1420454,,1584453255,424733780,'',"[shoulder_pan_joint, shoulder_lift_joint, elbow_joint, wrist_1_joint, wrist_2_joint,","[1.6912823915481567, -1.0473640600787562, 2.1849942207336426, -2.692143265401022, -1.567089859639303, 1.103871464729309]","[0.0, 0.0, -0.0, 0.0, 0.0, -0.08615219593048096]","[-0.1235962063074112, -4.856873035430908, -1.7149850130081177, -0.3544006645679474, -0.1368255764245987, -0.4306641221046448]"
1584453255537016995,,1420468,,1584453255,536699512,'',"[shoulder_pan_joint, shoulder_lift_joint, elbow_joint, wrist_1_joint, wrist_2_joint,","[1.6913423538208008, -1.0473998228656214, 2.185030460357666, -2.692143265401022, -1.567101780568258, 1.101703405380249]","[0.0, 0.0, -0.0, 0.0, -0.0004410194815136492, 0.0008436894277110696]","[-0.1327514797449112, -4.893494129180908, -1.7037760019302368, -0.3476715385913849, -0.1368255764245987, -0.0336456336081028]"
1584453255649310940,,1420482,,1584453255,648886878,'',"[shoulder_pan_joint, shoulder_lift_joint, elbow_joint, wrist_1_joint, wrist_2_joint,","[1.6913423538208008, -1.0473883787738245, 2.1849584579467773, -2.692143265401022, -1.5671137014972132, 1.1019067764282227]","[0.0, 0.0, -0.0, 0.0, -0.0001917476038215682, 0.002454369328916073]","[-0.1464843899011612, -4.866028308868408, -1.7015341520309448, -0.3544006645679474, -0.1256103664636612, 0.0426178015768528]"
1584453255761250693,,1420496,,1584453255,760790213,'',"[shoulder_pan_joint, shoulder_lift_joint, elbow_joint, wrist_1_joint, wrist_2_joint,","[1.6913542747497559, -1.0473883787738245, 2.1849942207336426, -2.692143265401022, -1.567089859639303, 1.1019906997680664]","[0.0, 0.0, -0.0, 0.0, -0.00011504856229294091, 0.0004026699753012508]","[-0.1464843899011612, -4.815674304962158, -1.7037760019302368, -0.3454284965991974, -0.1256103664636612, 0.01345825381577015]"
1584453255873173965,,1420510,,1584453255,872812790,'',"[shoulder_pan_joint, shoulder_lift_joint, elbow_joint, wrist_1_joint, wrist_2_joint,","[1.6913542747497559, -1.0473759810077112, 2.1849822998046875, -2.692190472279684, -1.567089859639303, 1.1020267009735107]","[0.0, 0.0, -0.0, 0.0, -7.669904152862728e-05, 0.00017257283616345376]","[-0.1281738430261612, -4.870605945587158, -1.6970505714416504, -0.3633728325366974, -0.1345825344324112, 0.01570129580795765]"
1584453255985138114,,1420524,,1584453255,984795594,'',"[shoulder_pan_joint, shoulder_lift_joint, elbow_joint, wrist_1_joint, wrist_2_joint,","[1.691318392753601, -1.0473883787738245, 2.1849703788757324, -2.692143265401022, -1.567089859639303, 1.1020267009735107]","[0.0, 0.0, -0.0, 0.0, -5.752428114647046e-05, 9.58738019107841e-05]","[-0.1327514797449112, -4.902649402618408, -1.7172268629074097, -0.3521576225757599, -0.1390686184167862, 0.01794433780014515]"
1584453256097135845,,1420538,,1584453256,96710210,'',"[shoulder_pan_joint, shoulder_lift_joint, elbow_joint, wrist_1_joint, wrist_2_joint,","[1.6913423538208008, -1.0473640600787562, 2.1849942207336426, -2.692178551350729, -1.567089859639303, 1.1020386219024658]","[0.0, 0.0, -0.0, 0.0, -5.752428114647046e-05, 7.669904152862728e-05]","[-0.1647949367761612, -4.866028308868408, -1.6948087215423584, -0.3476715385913849, -0.1278534084558487, 0.01794433780014515]"
1584453256209289128,,1420552,,1584453256,208838195,'',"[shoulder_pan_joint, shoulder_lift_joint, elbow_joint, wrist_1_joint, wrist_2_joint,","[1.6913063526153564, -1.0474122206317347, 2.1849942207336426, -2.692178551350729, -1.5671137014972132, 1.1020146608352661]","[0.0, 0.0, -0.0, 0.0, -3.834952076431364e-05, 5.752428114647046e-05]","[-0.1281738430261612, -4.902649402618408, -1.7060178518295288, -0.3386993706226349, -0.1278534084558487, 0.01345825381577015]"
1584453256321193965,,1420566,,1584453256,320737863,'',"[shoulder_pan_joint, shoulder_lift_joint, elbow_joint, wrist_1_joint, wrist_2_joint,","[1.691318392753601, -1.0473998228656214, 2.1850061416625977, -2.6921666304217737, -1.567101780568258, 1.1020146608352661]","[0.0, 0.0, -0.0, 0.0, -3.834952076431364e-05, 3.834952076431364e-05]","[-0.1464843899011612, -4.893494129180908, -1.6992924213409424, -0.3409424126148224, -0.1345825344324112, 0.01794433780014515]"
1584453256433157032,,1420580,,1584453256,432748629,'',"[shoulder_pan_joint, shoulder_lift_joint, elbow_joint, wrist_1_joint, wrist_2_joint,","[1.6913063526153564, -1.0473759810077112, 2.1849822998046875, -2.6921666304217737, -1.567077938710348, 1.1020506620407104]","[0.0, 0.0, -0.0, 0.0, -3.834952076431364e-05, 3.834952076431364e-05]","[-0.1281738430261612, -4.930115222930908, -1.6835997104644775, -0.3521576225757599, -0.1345825344324112, 0.01345825381577015]"
1584453256545340350,,1420594,,1584453256,544854012,'',"[shoulder_pan_joint, shoulder_lift_joint, elbow_joint, wrist_1_joint, wrist_2_joint,","[1.6913303136825562, -1.0473640600787562, 2.1849584579467773, -2.6921308676349085, -1.567089859639303, 1.1020386219024658]","[0.0, 0.0, -0.0, 0.0, -3.834952076431364e-05, 3.834952076431364e-05]","[-0.1464843899011612, -4.888916492462158, -1.688083291053772, -0.3364563286304474, -0.1300964504480362, 0.011215210892260075]"
1584453256657227194,,1420608,,1584453256,656738401,'',"[shoulder_pan_joint, shoulder_lift_joint, elbow_joint, wrist_1_joint, wrist_2_joint,","[1.6913063526153564, -1.0473640600787562, 2.1849822998046875, -2.6921547094928187, -1.567101780568258, 1.1020146608352661]","[0.0, 0.0, -0.0, 0.0, -3.834952076431364e-05, 3.834952076431364e-05]","[-0.1327514797449112, -4.879761219024658, -1.6992924213409424, -0.3566437065601349, -0.1345825344324112, 0.01794433780014515]"
1584453256769067662,,1420622,,1584453256,768712488,'',"[shoulder_pan_joint, shoulder_lift_joint, elbow_joint, wrist_1_joint, wrist_2_joint,","[1.6913303136825562, -1.0473883787738245, 2.1849942207336426, -2.692190472279684, -1.567101780568258, 1.102002739906311]","[0.0, 0.0, -0.0, 0.0, -3.834952076431364e-05, 3.834952076431364e-05]","[-0.1373291164636612, -4.879761219024658, -1.692566990852356, -0.3476715385913849, -0.1413116604089737, 0.01794433780014515]"
1584453256881085712,,1420636,,1584453256,880735147,'',"[shoulder_pan_joint, shoulder_lift_joint, elbow_joint, wrist_1_joint, wrist_2_joint,","[1.6913063526153564, -1.0473998228656214, 2.1850061416625977, -2.692178551350729, -1.567101780568258, 1.1020506620407104]","[0.0, 0.0, -0.0, 0.0, -3.834952076431364e-05, 3.834952076431364e-05]","[-0.1464843899011612, -4.884338855743408, -1.6948087215423584, -0.3566437065601349, -0.1345825344324112, 0.02018737979233265]"
1584453256993277766,,1420650,,1584453256,992822095,'',"[shoulder_pan_joint, shoulder_lift_joint, elbow_joint, wrist_1_joint, wrist_2_joint,","[1.6912944316864014, -1.0473883787738245, 2.1849822998046875, -2.692178551350729, -1.567089859639303, 1.1020625829696655]","[0.0, 0.0, -0.0, 0.0, -3.834952076431364e-05, 3.834952076431364e-05]","[-0.1419067531824112, -4.879761219024658, -1.6768742799758911, -0.3431854546070099, -0.1480407863855362, 0.01794433780014515]"
1584453257105143421,,1420664,,1584453257,104722926,'',"[shoulder_pan_joint, shoulder_lift_joint, elbow_joint, wrist_1_joint, wrist_2_joint,","[1.6912823915481567, -1.0473883787738245, 2.1849942207336426, -2.6921547094928187, -1.567089859639303, 1.1020267009735107]","[0.0, 0.0, -0.0, 0.0, -3.834952076431364e-05, 3.834952076431364e-05]","[-0.1235962063074112, -4.902649402618408, -1.7082595825195312, -0.3499145805835724, -0.1368255764245987, 0.01570129580795765]"
1584453257216990831,,1420678,,1584453257,216632803,'',"[shoulder_pan_joint, shoulder_lift_joint, elbow_joint, wrist_1_joint, wrist_2_joint,","[1.6913542747497559, -1.0474122206317347, 2.184837818145752, -2.6920951048480433, -1.5670536200152796, 1.1021344661712646]","[0.0, 0.0, -0.006391586735844612, 0.0, 0.001764077926054597, 0.02287548966705799]","[0.2426147758960724, -4.687500476837158, -2.441331624984741, -0.2377624809741974, 0.01570129580795765, 0.1323394924402237]"
1584453257329078330,,1420692,,1584453257,328719089,'',"[shoulder_pan_joint, shoulder_lift_joint, elbow_joint, wrist_1_joint, wrist_2_joint,","[1.6914142370224, -1.0473759810077112, 2.184849739074707, -2.6921666304217737, -1.5670178572284144, 1.1067218780517578]","[0.0003323625132907182, 0.0, -0.000472977408207953, 0.0, 0.00046019424917176366, 0.04394854977726936]","[0.01373291201889515, -4.934692859649658, -2.1678307056427, -0.3656158745288849, 0.0426178015768528, 0.3319702446460724]"
1584453257441157023,,1420706,,1584453257,440771203,'',"[shoulder_pan_joint, shoulder_lift_joint, elbow_joint, wrist_1_joint, wrist_2_joint,","[1.6913902759552002, -1.0473883787738245, 2.1848740577697754, -2.692143265401022, -1.5669940153705042, 1.1117526292800903]","[0.00012783173588104546, 0.0, -0.0001917476038215682, 0.0, 0.00024927189224399626, 0.04874224215745926]","[0.0640869215130806, -4.985046863555908, -2.1431708335876465, -0.3701019585132599, 0.0381317175924778, 0.2557068169116974]"
1584453257553090915,,1420720,,1584453257,552766048,'',"[shoulder_pan_joint, shoulder_lift_joint, elbow_joint, wrist_1_joint, wrist_2_joint,","[1.6914021968841553, -1.0473759810077112, 2.1848621368408203, -2.6921547094928187, -1.5669940153705042, 1.118722915649414]","[7.669904152862728e-05, 0.0, -0.00011504856229294091, 0.0, 0.00013422331539914012, 0.07142598181962967]","[0.0366210974752903, -4.975891590118408, -2.116269111633301, -0.3723450005054474, 0.0381317175924778, 0.3342132866382599]"
1584453257665152145,,1420734,,1584453257,664705571,'',"[shoulder_pan_joint, shoulder_lift_joint, elbow_joint, wrist_1_joint, wrist_2_joint,","[1.6914381980895996, -1.0473998228656214, 2.184849739074707, -2.692202393208639, -1.566981617604391, 1.1260408163070679]","[5.1132694352418184e-05, 0.0, -8.948221511673182e-05, 0.0, 9.58738019107841e-05, 0.06367938220500946]","[0.0778198316693306, -4.953003406524658, -2.1566216945648193, -0.3611297905445099, 0.0448608435690403, 0.3431854546070099]"
1584453257777192657,,1420748,,1584453257,776762784,'',"[shoulder_pan_joint, shoulder_lift_joint, elbow_joint, wrist_1_joint, wrist_2_joint,","[1.6914021968841553, -1.0473998228656214, 2.1848621368408203, -2.692143265401022, -1.5669696966754358, 1.1339695453643799]","[3.834952076431364e-05, 0.0, -6.391586794052273e-05, 0.0, 5.752428114647046e-05, 0.07301748543977737]","[-0.0274658240377903, -4.971313953399658, -2.107301950454712, -0.3701019585132599, 0.0314025916159153, 0.3611297905445099]"
1584453257889210325,,1420762,,1584453257,888775744,'',"[shoulder_pan_joint, shoulder_lift_joint, elbow_joint, wrist_1_joint, wrist_2_joint,","[1.6914381980895996, -1.0473883787738245, 2.184837818145752, -2.6921666304217737, -1.5669577757464808, 1.1398743391036987]","[3.834952076431364e-05, 0.0, -5.1132694352418184e-05, 0.0, 5.752428114647046e-05, 0.032999761402606964]","[-0.0274658240377903, -4.957581043243408, -2.114027261734009, -0.3835602104663849, 0.0358886756002903, 0.3386993706226349]"
1584453258001264382,,1420776,,1584453258,756854,'',"[shoulder_pan_joint, shoulder_lift_joint, elbow_joint, wrist_1_joint, wrist_2_joint,","[1.6914142370224, -1.0473883787738245, 2.184837818145752, -2.692202393208639, -1.5669458548175257, 1.1427726745605469]","[2.5566347176209092e-05, 0.0, -3.834952076431364e-05, 0.0, 5.752428114647046e-05, 0.02130315825343132]","[0.01831054873764515, -4.966736316680908, -2.10506010055542, -0.3723450005054474, 0.0493469275534153, 0.2826233208179474]"
1584453258113142430,,1420790,,1584453258,112691518,'',"[shoulder_pan_joint, shoulder_lift_joint, elbow_joint, wrist_1_joint, wrist_2_joint,","[1.6914021968841553, -1.0473759810077112, 2.184837818145752, -2.692190472279684, -1.5669577757464808, 1.1458507776260376]","[2.5566347176209092e-05, 0.0, -3.834952076431364e-05, 0.0, 5.752428114647046e-05, 0.03399685025215149]","[0.0366210974752903, -4.962158679962158, -2.096092939376831, -0.3835602104663849, 0.0314025916159153, 0.2915954887866974]"
1584453258225094045,,1420804,,1584453258,224640027,'',"[shoulder_pan_joint, shoulder_lift_joint, elbow_joint, wrist_1_joint, wrist_2_joint,","[1.691426157951355, -1.0473998228656214, 2.184825897216797, -2.6921547094928187, -1.566981617604391, 1.1499587297439575]","[2.5566347176209092e-05, 0.0, -3.834952076431364e-05, 0.0, 5.752428114647046e-05, 0.03978762775659561]","[0.0503540076315403, -4.957581043243408, -2.1454126834869385, -0.3768310844898224, 0.0448608435690403, 0.3117828667163849]"
