PorkPy/robot-pulling-data/random_with_backwards/joint_states_throttle.csv
rosbagTimestamp,header,seq,stamp,secs,nsecs,frame_id,name,wrist_3_joint],position,velocity,effort
1584442575308641471,,85381,,1584442575,308227749,'',"[shoulder_pan_joint, shoulder_lift_joint, elbow_joint, wrist_1_joint, wrist_2_joint,","[1.4047702550888062, -1.1718123594867151, 2.483046531677246, -2.8629348913775843, -1.5670059362994593, 2.7207422256469727]","[0.0, 0.0, -0.0, 0.0, 0.0, 0.0]","[-0.1602173000574112, -4.202270984649658, -1.042441964149475, -0.5248718857765198, 0.0, 0.004486084450036287]"
1584442575420527807,,85395,,1584442575,420189847,'',"[shoulder_pan_joint, shoulder_lift_joint, elbow_joint, wrist_1_joint, wrist_2_joint,","[1.4047822952270508, -1.1718605200396937, 2.483046531677246, -2.862911049519674, -1.5670178572284144, 2.7206943035125732]","[0.0, 0.0, -0.0, 0.0, 0.0, 0.0]","[-0.1235962063074112, -4.280090808868408, -1.0469255447387695, -0.5338440537452698, -0.006729126907885075, 0.02018737979233265]"
1584442575532528277,,85409,,1584442575,532215934,'',"[shoulder_pan_joint, shoulder_lift_joint, elbow_joint, wrist_1_joint, wrist_2_joint,","[1.404758334159851, -1.17180043855776, 2.483058452606201, -2.862922970448629, -1.566981617604391, 2.7207303047180176]","[0.0, 0.0, -0.0, 0.0, 0.0, 0.0]","[-0.1327514797449112, -4.257202625274658, -1.051409125328064, -0.5271149277687073, -0.008972168900072575, 0.01570129580795765]"
1584442575644520411,,85423,,1584442575,644220331,'',"[shoulder_pan_joint, shoulder_lift_joint, elbow_joint, wrist_1_joint, wrist_2_joint,","[1.4048062562942505, -1.1718485991107386, 2.4830822944641113, -2.862911049519674, -1.5670059362994593, 2.7207183837890625]","[0.0, 0.0, -0.0, 0.0, 0.0, 0.0]","[-0.1556396633386612, -4.229736804962158, -1.0379582643508911, -0.5203858017921448, -0.01345825381577015, 0.004486084450036287]"
1584442575756559222,,85437,,1584442575,756217014,'',"[shoulder_pan_joint, shoulder_lift_joint, elbow_joint, wrist_1_joint, wrist_2_joint,","[1.4047822952270508, -1.17177659669985, 2.483058452606201, -2.862875286732809, -1.5670416990863245, 2.7207303047180176]","[0.0, 0.0, -0.0, 0.0, 0.0, 0.0]","[-0.0778198316693306, -4.216003894805908, -1.0446836948394775, -0.5248718857765198, -0.011215210892260075, 0.004486084450036287]"
1584442575868519066,,85451,,1584442575,868196685,'',"[shoulder_pan_joint, shoulder_lift_joint, elbow_joint, wrist_1_joint, wrist_2_joint,","[1.4047942161560059, -1.17180043855776, 2.483058452606201, -2.862887207661764, -1.5669940153705042, 2.7207183837890625]","[0.0, 0.0, -0.0, 0.0, 0.0, 0.0]","[-0.1190185695886612, -4.211426258087158, -1.0312328338623047, -0.5181427597999573, -0.0022430422250181437, 0.01794433780014515]"
1584442575980496743,,85465,,1584442575,980178740,'',"[shoulder_pan_joint, shoulder_lift_joint, elbow_joint, wrist_1_joint, wrist_2_joint,","[1.4047702550888062, -1.171788517628805, 2.483034372329712, -2.862911049519674, -1.5670178572284144, 2.7207064628601074]","[0.0, 0.0, -0.0, 0.0, 0.0, 0.0]","[-0.1464843899011612, -4.234314441680908, -1.0379582643508911, -0.5203858017921448, 0.0022430422250181437, 0.011215210892260075]"
1584442576092507832,,85479,,1584442576,92183818,'',"[shoulder_pan_joint, shoulder_lift_joint, elbow_joint, wrist_1_joint, wrist_2_joint,","[1.4047942161560059, -1.17180043855776, 2.4830822944641113, -2.862911049519674, -1.5670297781573694, 2.7207422256469727]","[0.0, 0.0, -0.0, 0.0, 0.0, 0.0]","[-0.1510620266199112, -4.289246082305908, -1.0469255447387695, -0.5293579697608948, -0.01570129580795765, 0.004486084450036287]"
1584442576204529011,,85493,,1584442576,204202552,'',"[shoulder_pan_joint, shoulder_lift_joint, elbow_joint, wrist_1_joint, wrist_2_joint,","[1.4047942161560059, -1.1718362013446253, 2.4830822944641113, -2.862911049519674, -1.5670297781573694, 2.7206943035125732]","[0.0, 0.0, -0.0, 0.0, 0.0, 0.0]","[-0.1510620266199112, -4.234314441680908, -1.0469255447387695, -0.5338440537452698, -0.004486084450036287, 0.011215210892260075]"
1584442576316506147,,85507,,1584442576,316200937,'',"[shoulder_pan_joint, shoulder_lift_joint, elbow_joint, wrist_1_joint, wrist_2_joint,","[1.4048062562942505, -1.1718123594867151, 2.4830822944641113, -2.862875286732809, -1.5670297781573694, 2.7207422256469727]","[0.0, 0.0, -0.0, 0.0, 0.0, 0.0]","[-0.1327514797449112, -4.229736804962158, -1.0379582643508911, -0.5181427597999573, -0.008972168900072575, 0.006729126907885075]"
1584442576428529399,,85521,,1584442576,428181079,'',"[shoulder_pan_joint, shoulder_lift_joint, elbow_joint, wrist_1_joint, wrist_2_joint,","[1.4047822952270508, -1.17180043855776, 2.4830944538116455, -2.862875286732809, -1.5670059362994593, 2.7207303047180176]","[0.0, 0.0, -0.0, 0.0, 0.0, 0.0]","[-0.1235962063074112, -4.248047351837158, -1.040200114250183, -0.5383301377296448, -0.006729126907885075, 0.008972168900072575]"
1584442576540540028,,85535,,1584442576,540197298,'',"[shoulder_pan_joint, shoulder_lift_joint, elbow_joint, wrist_1_joint, wrist_2_joint,","[1.4047702550888062, -1.1718362013446253, 2.4830822944641113, -2.8629472891436976, -1.5670297781573694, 2.7207303047180176]","[0.0, 0.0, -0.0, 0.0, 0.0, 0.0]","[-0.1510620266199112, -4.220581531524658, -1.0446836948394775, -0.5226288437843323, -0.006729126907885075, 0.011215210892260075]"
1584442576652472219,,85549,,1584442576,652176037,'',"[shoulder_pan_joint, shoulder_lift_joint, elbow_joint, wrist_1_joint, wrist_2_joint,","[1.4047822952270508, -1.1718123594867151, 2.4830822944641113, -2.862899128590719, -1.5670059362994593, 2.7207303047180176]","[0.0, 0.0, -0.0, 0.0, 0.0, 0.0]","[-0.1235962063074112, -4.280090808868408, -1.0379582643508911, -0.5203858017921448, -0.011215210892260075, 0.004486084450036287]"
1584442576764467740,,85563,,1584442576,764178480,'',"[shoulder_pan_joint, shoulder_lift_joint, elbow_joint, wrist_1_joint, wrist_2_joint,","[1.4047822952270508, -1.1718362013446253, 2.4830944538116455, -2.862911049519674, -1.5670178572284144, 2.7207303047180176]","[0.0, 0.0, -0.0, 0.0, 0.0, 0.0]","[-0.1098632961511612, -4.220581531524658, -1.051409125328064, -0.5203858017921448, -0.008972168900072575, 0.011215210892260075]"
1584442576876522731,,85577,,1584442576,876216730,'',"[shoulder_pan_joint, shoulder_lift_joint, elbow_joint, wrist_1_joint, wrist_2_joint,","[1.4047942161560059, -1.1718247572528284, 2.4830703735351562, -2.862911049519674, -1.5670059362994593, 2.7206943035125732]","[0.0, 0.0, -0.0, 0.0, 0.0, 0.0]","[-0.1373291164636612, -4.220581531524658, -1.040200114250183, -0.5293579697608948, -0.01570129580795765, 0.02018737979233265]"
1584442576988500128,,85591,,1584442576,988179449,'',"[shoulder_pan_joint, shoulder_lift_joint, elbow_joint, wrist_1_joint, wrist_2_joint,","[1.4047942161560059, -1.17180043855776, 2.483058452606201, -2.862911049519674, -1.5670178572284144, 2.7207303047180176]","[0.0, 0.0, -0.0, 0.0, 0.0, 0.0]","[-0.1327514797449112, -4.248047351837158, -1.051409125328064, -0.5293579697608948, -0.006729126907885075, 0.006729126907885075]"
1584442577100611544,,85605,,1584442577,100330009,'',"[shoulder_pan_joint, shoulder_lift_joint, elbow_joint, wrist_1_joint, wrist_2_joint,","[1.4047702550888062, -1.1718247572528284, 2.4830822944641113, -2.862887207661764, -1.5670178572284144, 2.7207303047180176]","[0.0, 0.0, -0.0, 0.0, 0.0, 0.0]","[-0.1235962063074112, -4.243469715118408, -1.055892825126648, -0.5226288437843323, -0.008972168900072575, 0.01570129580795765]"
1584442577212435044,,85619,,1584442577,212158217,'',"[shoulder_pan_joint, shoulder_lift_joint, elbow_joint, wrist_1_joint, wrist_2_joint,","[1.4048181772232056, -1.17180043855776, 2.4830822944641113, -2.862911049519674, -1.5670297781573694, 2.7207303047180176]","[0.0, 0.0, -0.0, 0.0, 0.0, 0.0]","[-0.1510620266199112, -4.257202625274658, -1.0491673946380615, -0.5316010117530823, -0.0022430422250181437, 0.01345825381577015]"
1584442577324426958,,85633,,1584442577,324131136,'',"[shoulder_pan_joint, shoulder_lift_joint, elbow_joint, wrist_1_joint, wrist_2_joint,","[1.4047822952270508, -1.1718485991107386, 2.4830822944641113, -2.862899128590719, -1.5670416990863245, 2.7206943035125732]","[0.0, 0.0, -0.0, 0.0, 0.0, 0.0]","[-0.1052856519818306, -4.225159168243408, -1.0312328338623047, -0.5181427597999573, -0.004486084450036287, 0.02243042178452015]"
1584442577436530779,,85647,,1584442577,436151191,'',"[shoulder_pan_joint, shoulder_lift_joint, elbow_joint, wrist_1_joint, wrist_2_joint,","[1.4047702550888062, -1.1718485991107386, 2.4830703735351562, -2.862911049519674, -1.5670297781573694, 2.7207064628601074]","[0.0, 0.0, -0.0, 0.0, 0.0, 0.0]","[-0.1556396633386612, -4.257202625274658, -1.055892825126648, -0.5181427597999573, -0.004486084450036287, 0.01794433780014515]"
1584442577548532612,,85661,,1584442577,548178080,'',"[shoulder_pan_joint, shoulder_lift_joint, elbow_joint, wrist_1_joint, wrist_2_joint,","[1.4047822952270508, -1.1718362013446253, 2.4830703735351562, -2.862875286732809, -1.5670178572284144, 2.7207183837890625]","[0.0, 0.0, -0.0, 0.0, 0.0, 0.0]","[-0.1235962063074112, -4.234314441680908, -1.0289909839630127, -0.5271149277687073, -0.01570129580795765, 0.011215210892260075]"
1584442577660420291,,85675,,1584442577,660110493,'',"[shoulder_pan_joint, shoulder_lift_joint, elbow_joint, wrist_1_joint, wrist_2_joint,","[1.4047942161560059, -1.17177659669985, 2.4830822944641113, -2.862875286732809, -1.5670178572284144, 2.7207303047180176]","[0.0, 0.0, -0.0, 0.0, 0.0, 0.0]","[-0.1464843899011612, -4.275513172149658, -1.053650975227356, -0.5226288437843323, -0.011215210892260075, 0.01794433780014515]"
1584442577772420189,,85689,,1584442577,772113858,'',"[shoulder_pan_joint, shoulder_lift_joint, elbow_joint, wrist_1_joint, wrist_2_joint,","[1.4047942161560059, -1.17180043855776, 2.4830703735351562, -2.862922970448629, -1.566981617604391, 2.7207303047180176]","[0.0, 0.0, -0.0, 0.0, 0.0, 0.0]","[-0.1510620266199112, -4.234314441680908, -1.0334746837615967, -0.5136566758155823, -0.011215210892260075, 0.006729126907885075]"
1584442577884402736,,85703,,1584442577,884090984,'',"[shoulder_pan_joint, shoulder_lift_joint, elbow_joint, wrist_1_joint, wrist_2_joint,","[1.4048062562942505, -1.1718123594867151, 2.4830703735351562, -2.862887207661764, -1.5669940153705042, 2.7207303047180176]","[0.0, 0.0, -0.0, 0.0, 0.0, 0.0]","[-0.1235962063074112, -4.234314441680908, -1.042441964149475, -0.5203858017921448, -0.006729126907885075, 0.011215210892260075]"
1584442577996359784,,85717,,1584442577,996092506,'',"[shoulder_pan_joint, shoulder_lift_joint, elbow_joint, wrist_1_joint, wrist_2_joint,","[1.4048181772232056, -1.1718247572528284, 2.4831063747406006, -2.862875286732809, -1.5670059362994593, 2.7207183837890625]","[0.0, 0.0, -0.0, 0.0, 0.0, 0.0]","[-0.1190185695886612, -4.238892078399658, -1.0334746837615967, -0.5248718857765198, -0.01345825381577015, 0.006729126907885075]"
1584442578108556369,,85731,,1584442578,108209592,'',"[shoulder_pan_joint, shoulder_lift_joint, elbow_joint, wrist_1_joint, wrist_2_joint,","[1.4048062562942505, -1.17180043855776, 2.483058452606201, -2.862922970448629, -1.5670059362994593, 2.720754384994507]","[0.0, 0.0, -0.0, 0.0, 0.0, 0.0]","[-0.1647949367761612, -4.248047351837158, -1.0446836948394775, -0.5271149277687073, -0.008972168900072575, 0.004486084450036287]"
1584442578220472041,,85745,,1584442578,220131916,'',"[shoulder_pan_joint, shoulder_lift_joint, elbow_joint, wrist_1_joint, wrist_2_joint,","[1.4047822952270508, -1.1718247572528284, 2.4831063747406006, -2.862875286732809, -1.5670178572284144, 2.720682382583618]","[0.0, 0.0, -0.0, 0.0, 0.0, 0.0]","[-0.1602173000574112, -4.238892078399658, -1.0446836948394775, -0.5271149277687073, -0.008972168900072575, 0.01345825381577015]"
1584442578332425603,,85759,,1584442578,332121105,'',"[shoulder_pan_joint, shoulder_lift_joint, elbow_joint, wrist_1_joint, wrist_2_joint,","[1.4047822952270508, -1.1718123594867151, 2.483058452606201, -2.862887207661764, -1.5670297781573694, 2.7207303047180176]","[0.0, 0.0, -0.0, 0.0, 0.0, 0.0]","[-0.1602173000574112, -4.225159168243408, -1.051409125328064, -0.5271149277687073, -0.011215210892260075, 0.01345825381577015]"
1584442578444485814,,85773,,1584442578,444117186,'',"[shoulder_pan_joint, shoulder_lift_joint, elbow_joint, wrist_1_joint, wrist_2_joint,","[1.4047942161560059, -1.17180043855776, 2.4831063747406006, -2.862911049519674, -1.5670178572284144, 2.7207183837890625]","[0.0, 0.0, -0.0, 0.0, 0.0, 0.0]","[-0.1327514797449112, -4.266357898712158, -1.051409125328064, -0.5203858017921448, -0.01570129580795765, 0.02018737979233265]"
1584442578556431992,,85787,,1584442578,556099392,'',"[shoulder_pan_joint, shoulder_lift_joint, elbow_joint, wrist_1_joint, wrist_2_joint,","[1.4048181772232056, -1.1717646757708948, 2.4829742908477783, -2.8627312819110315, -1.5669940153705042, 2.7207422256469727]","[0.0, 0.0, -0.016873789951205254, 0.015838351100683212, 0.0, 0.00692208856344223]","[0.8056641221046448, -3.039551019668579, -1.8001738786697388, -0.2557068169116974, 0.02018737979233265, 0.3229980766773224]"
1584442578668441579,,85801,,1584442578,668112275,'',"[shoulder_pan_joint, shoulder_lift_joint, elbow_joint, wrist_1_joint, wrist_2_joint,","[1.4057177305221558, -1.1715367476092737, 2.4813787937164307, -2.861366573964254, -1.5670655409442347, 2.719808578491211]","[0.0008820389630272985, 0.0006008091731928289, -0.0027867318131029606, 0.0016490294365212321, 0.0, -0.03712233528494835]","[0.0915527418255806, -3.259277582168579, -1.7530958652496338, -0.2557068169116974, 0.02018737979233265, -0.3566437065601349]"
1584442578780413365,,85815,,1584442578,780102535,'',"[shoulder_pan_joint, shoulder_lift_joint, elbow_joint, wrist_1_joint, wrist_2_joint,","[1.405693769454956, -1.1715367476092737, 2.481438636779785, -2.8614986578570765, -1.5670416990863245, 2.7180721759796143]","[0.0010610034223645926, 0.00015339808305725455, 0.0005880259559489787, -0.000690291344653815, 0.0, 0.011198059655725956]","[-0.0366210974752903, -3.625488758087158, -1.358537197113037, -0.4172058403491974, 0.01794433780014515, 0.0605621412396431]"
1584442578892404948,,85829,,1584442578,892085211,'',"[shoulder_pan_joint, shoulder_lift_joint, elbow_joint, wrist_1_joint, wrist_2_joint,","[1.4057776927947998, -1.1715367476092737, 2.4812588691711426, -2.861546341572897, -1.5670416990863245, 2.7219395637512207]","[-0.0005368932615965605, 8.948221511673182e-05, -0.0025566346012055874, -0.0002109223569277674, 0.0, 0.026211896911263466]","[-0.1785278469324112, -3.428650140762329, -1.5311566591262817, -0.3274841606616974, 0.0269165076315403, 0.3790741264820099]"
1584442579004404626,,85843,,1584442579,4128691,'',"[shoulder_pan_joint, shoulder_lift_joint, elbow_joint, wrist_1_joint, wrist_2_joint,","[1.4057657718658447, -1.1715248266803187, 2.480118989944458, -2.8610194365130823, -1.567077938710348, 2.7239394187927246]","[0.0003834952076431364, 0.0009587380336597562, -0.028174113482236862, 0.020919663831591606, 0.0, 0.016566993668675423]","[0.3158569633960724, -2.650451898574829, -1.775514006614685, -0.1368255764245987, 0.02243042178452015, 0.3117828667163849]"
1584442579116420805,,85857,,1584442579,116107911,'',"[shoulder_pan_joint, shoulder_lift_joint, elbow_joint, wrist_1_joint, wrist_2_joint,","[1.4058136940002441, -1.1698697249041956, 2.4733524322509766, -2.858002010975973, -1.5670536200152796, 2.7259271144866943]","[0.0003962783666793257, 0.02726650983095169, -0.10096150636672974, 0.04511821269989014, 0.0, 0.01877208985388279]","[0.2105713039636612, -2.339172601699829, -1.7060178518295288, -0.1009368970990181, 0.0022430422250181437, 0.3140259087085724]"
1584442579228464585,,85871,,1584442579,228081390,'',"[shoulder_pan_joint, shoulder_lift_joint, elbow_joint, wrist_1_joint, wrist_2_joint,","[1.405849575996399, -1.1652901808368128, 2.4589786529541016, -2.8505080381976526, -1.5670655409442347, 2.7282021045684814]","[0.00014061490946915, 0.04935583472251892, -0.14978043735027313, 0.08308423310518265, 0.0, 0.022127673029899597]","[-0.004577637184411287, -2.265930414199829, -1.726194143295288, -0.0515899695456028, -0.02243042178452015, 0.2758941948413849]"
1584442579340278627,,85885,,1584442579,340031877,'',"[shoulder_pan_joint, shoulder_lift_joint, elbow_joint, wrist_1_joint, wrist_2_joint,","[1.4058974981307983, -1.1584442297564905, 2.441485643386841, -2.8407262007342737, -1.5670655409442347, 2.731698513031006]","[0.0031702269334346056, 0.07208431512117386, -0.15764209628105164, 0.09318933635950089, 0.0, 0.04316238686442375]","[0.2334595024585724, -2.403259515762329, -1.741886854171753, -0.1480407863855362, -0.0471038855612278, 0.2512207329273224]"
1584442579452313171,,85899,,1584442579,452033419,'',"[shoulder_pan_joint, shoulder_lift_joint, elbow_joint, wrist_1_joint, wrist_2_joint,","[1.407168984413147, -1.150675121937887, 2.423896074295044, -2.8303101698504847, -1.5671137014972132, 2.7373857498168945]","[0.03171505406498909, 0.0641971006989479, -0.15776993334293365, 0.09309346228837967, -0.00032597093377262354, 0.0565655417740345]","[0.8148193955421448, -2.618408441543579, -2.0422894954681396, -0.01570129580795765, -0.0583190992474556, 0.3521576225757599]"
1584442579564366779,,85913,,1584442579,564076968,'',"[shoulder_pan_joint, shoulder_lift_joint, elbow_joint, wrist_1_joint, wrist_2_joint,","[1.413082480430603, -1.1430495421039026, 2.4064979553222656, -2.8203609625445765, -1.5671375433551233, 2.7433247566223145]","[0.08009936660528183, 0.06662590056657791, -0.15318076312541962, 0.08459904044866562, -0.00026844663079828024, 0.05301821231842041]","[0.9750367403030396, -2.751159906387329, -1.9772769212722778, -0.0650482252240181, -0.0314025916159153, 0.3611297905445099]"
1584442579676419526,,85927,,1584442579,676076506,'',"[shoulder_pan_joint, shoulder_lift_joint, elbow_joint, wrist_1_joint, wrist_2_joint,","[1.4234222173690796, -1.1362751165973108, 2.3903114795684814, -2.8111069838153284, -1.5671137014972132, 2.7495033740997314]","[0.10206085443496704, 0.06126974895596504, -0.13574451208114624, 0.08398544788360596, -0.00013422331539914012, 0.06166603043675423]","[1.0574342012405396, -2.806091547012329, -1.9100226163864136, -0.1278534084558487, -0.011215210892260075, 0.3499145805835724]"
1584442579788395400,,85941,,1584442579,788095380,'',"[shoulder_pan_joint, shoulder_lift_joint, elbow_joint, wrist_1_joint, wrist_2_joint,","[1.4357165098190308, -1.1294892469989222, 2.3749282360076904, -2.8021400610553187, -1.5671256224261683, 2.7558133602142334]","[0.1141153872013092, 0.05662946030497551, -0.14143303036689758, 0.08032307028770447, -9.58738019107841e-05, 0.04772597923874855]","[0.9017945528030396, -3.030395746231079, -2.082642078399658, -0.0785064771771431, 0.0022430422250181437, 0.3521576225757599]"
1584442579900314067,,85955,,1584442579,900068839,'',"[shoulder_pan_joint, shoulder_lift_joint, elbow_joint, wrist_1_joint, wrist_2_joint,","[1.4488508701324463, -1.1230147520648401, 2.358633041381836, -2.7926815191852015, -1.5671137014972132, 2.7611303329467773]","[0.1135912761092186, 0.06360907107591629, -0.1535770446062088, 0.0812051072716713, -5.752428114647046e-05, 0.0520019493997097]","[1.0299683809280396, -2.929687738418579, -1.8539773225784302, -0.1233673244714737, 0.011215210892260075, 0.2579498589038849]"
1584442580012381000,,85969,,1584442580,12072054,'',"[shoulder_pan_joint, shoulder_lift_joint, elbow_joint, wrist_1_joint, wrist_2_joint,","[1.4607616662979126, -1.1154134909259241, 2.3406097888946533, -2.7832840124713343, -1.567101780568258, 2.7676198482513428]","[0.10364597290754318, 0.06351958960294724, -0.16924922168254852, 0.09334273636341095, -5.752428114647046e-05, 0.05727500841021538]","[1.0116578340530396, -2.824402093887329, -1.8965717554092407, 0.0269165076315403, 0.01570129580795765, 0.3409424126148224]"
1584442580124340814,,85983,,1584442580,124019244,'',"[shoulder_pan_joint, shoulder_lift_joint, elbow_joint, wrist_1_joint, wrist_2_joint,","[1.4721568822860718, -1.107333008443014, 2.320101737976074, -2.772006336842672, -1.5671256224261683, 2.7726972103118896]","[0.09307428449392319, 0.08730907738208771, -0.19629840552806854, 0.10898933559656143, -3.834952076431364e-05, 0.032347820699214935]","[0.8926392793655396, -2.975464105606079, -1.9907277822494507, -0.0717773512005806, 0.0, 0.3521576225757599]"
1584442580236326906,,85997,,1584442580,236026306,'',"[shoulder_pan_joint, shoulder_lift_joint, elbow_joint, wrist_1_joint, wrist_2_joint,","[1.4818243980407715, -1.0976460615741175, 2.2976489067077637, -2.7593043486224573, -1.567089859639303, 2.77524733543396]","[0.0732092335820198, 0.0920388475060463, -0.20073416829109192, 0.11364880204200745, -3.834952076431364e-05, 0.012310195714235306]","[1.1260987520217896, -2.993774652481079, -2.170072555541992, -0.0874786451458931, -0.011215210892260075, 0.3095398247241974]"
1584442580348338046,,86011,,1584442580,348033388,'',"[shoulder_pan_joint, shoulder_lift_joint, elbow_joint, wrist_1_joint, wrist_2_joint,","[1.4887093305587769, -1.0874665419207972, 2.2757840156555176, -2.7473443190204065, -1.567101780568258, 2.7760016918182373]","[0.05765211209654808, 0.08098140358924866, -0.18695391714572906, 0.10783885419368744, -3.834952076431364e-05, 0.0009012137306854129]","[1.3366700410842896, -3.199768304824829, -2.2485358715057373, -0.1390686184167862, -0.02018737979233265, -0.0986938551068306]"
1584442580460340349,,86025,,1584442580,460001497,'',"[shoulder_pan_joint, shoulder_lift_joint, elbow_joint, wrist_1_joint, wrist_2_joint,","[1.4940351247787476, -1.078810993825094, 2.256558895111084, -2.736366097127096, -1.567089859639303, 2.772840738296509]","[0.03901424631476402, 0.06877347081899643, -0.15757818520069122, 0.09280584007501602, -1.917476038215682e-05, -0.02293301373720169]","[1.0253907442092896, -3.387451410293579, -2.277679443359375, -0.01794433780014515, -0.0291595496237278, -0.3140259087085724]"
1584442580572381204,,86039,,1584442580,572087566,'',"[shoulder_pan_joint, shoulder_lift_joint, elbow_joint, wrist_1_joint, wrist_2_joint,","[1.4978251457214355, -1.0717132727252405, 2.239997386932373, -2.7270639578448694, -1.567101780568258, 2.7709248065948486]","[0.03664935752749443, 0.06282930076122284, -0.13732963800430298, 0.07274904102087021, -1.917476038215682e-05, -0.015723302960395813]","[0.8560181260108948, -3.117370843887329, -2.176798105239868, -0.0807495191693306, -0.0291595496237278, -0.2714081108570099]"
1584442580684299711,,86053,,1584442580,684010401,'',"[shoulder_pan_joint, shoulder_lift_joint, elbow_joint, wrist_1_joint, wrist_2_joint,","[1.503354787826538, -1.0649998823748987, 2.2254157066345215, -2.719222370778219, -1.567077938710348, 2.7689971923828125]","[0.0578949935734272, 0.051605671644210815, -0.12486603856086731, 0.07119588553905487, -1.917476038215682e-05, -0.02028689719736576]","[0.7873535752296448, -3.442383050918579, -2.4144299030303955, -0.1076660305261612, -0.0358886756002903, -0.2557068169116974]"
1584442580796323224,,86067,,1584442580,796031609,'',"[shoulder_pan_joint, shoulder_lift_joint, elbow_joint, wrist_1_joint, wrist_2_joint,","[1.510023593902588, -1.0589693228351038, 2.2116622924804688, -2.711524788533346, -1.5671137014972132, 2.7667934894561768]","[0.06224127113819122, 0.055990301072597504, -0.1241118311882019, 0.06584613025188446, -1.917476038215682e-05, -0.015915051102638245]","[0.8285523056983948, -3.433227777481079, -2.3359665870666504, -0.1413116604089737, -0.0358886756002903, -0.2960815727710724]"
1584442580908304568,,86081,,1584442580,907997615,'',"[shoulder_pan_joint, shoulder_lift_joint, elbow_joint, wrist_1_joint, wrist_2_joint,","[1.5180960893630981, -1.0529025236712855, 2.1972479820251465, -2.7037070433246058, -1.5671375433551233, 2.7675483226776123]","[0.07648172974586487, 0.047157127410173416, -0.1350286602973938, 0.07374612987041473, -1.917476038215682e-05, 0.04722743481397629]","[0.8468628525733948, -3.387451410293579, -2.1566216945648193, -0.0852356031537056, -0.02467346377670765, 0.2915954887866974]"
1584442581020309735,,86095,,1584442581,20005087,'',"[shoulder_pan_joint, shoulder_lift_joint, elbow_joint, wrist_1_joint, wrist_2_joint,","[1.5271281003952026, -1.0467408339129847, 2.1810455322265625, -2.6951115767108362, -1.5671137014972132, 2.77227783203125]","[0.08907315135002136, 0.06965551525354385, -0.1535770446062088, 0.08137768507003784, -1.917476038215682e-05, 0.03604855015873909]","[0.8605957627296448, -3.300476312637329, -2.185765266418457, -0.0291595496237278, -0.0269165076315403, 0.3813171684741974]"
1584442581132301278,,86109,,1584442581,132020084,'',"[shoulder_pan_joint, shoulder_lift_joint, elbow_joint, wrist_1_joint, wrist_2_joint,","[1.537287712097168, -1.0384438673602503, 2.1628384590148926, -2.6855228582965296, -1.5671375433551233, 2.775367259979248]","[0.0943526029586792, 0.07196926325559616, -0.16891685128211975, 0.0944356918334961, -1.917476038215682e-05, 0.021686654537916183]","[1.0849000215530396, -3.575134754180908, -2.450299024581909, -0.1839294582605362, -0.0269165076315403, 0.3297272026538849]"
1584442581244276491,,86123,,1584442581,243985348,'',"[shoulder_pan_joint, shoulder_lift_joint, elbow_joint, wrist_1_joint, wrist_2_joint,","[1.5478428602218628, -1.0295012632953089, 2.143706798553467, -2.6752870718585413, -1.5671494642840784, 2.7776663303375244]","[0.09304872155189514, 0.08110923320055008, -0.1638035923242569, 0.07100413739681244, -1.917476038215682e-05, 0.023987624794244766]","[1.0574342012405396, -3.950500965118408, -2.4121880531311035, -0.01570129580795765, -0.0269165076315403, 0.3072967827320099]"
1584442581356344186,,86137,,1584442581,356011315,'',"[shoulder_pan_joint, shoulder_lift_joint, elbow_joint, wrist_1_joint, wrist_2_joint,","[1.558613657951355, -1.0210488478290003, 2.125210762023926, -2.6647875944720667, -1.5671613852130335, 2.7800369262695312]","[0.09658966213464737, 0.07540793716907501, -0.16512025892734528, 0.09040899574756622, 0.0, 0.018810439854860306]","[0.8285523056983948, -3.607178211212158, -2.463749885559082, -0.1143951565027237, -0.01794433780014515, 0.3297272026538849]"
1584442581468330209,,86151,,1584442581,467995474,'',"[shoulder_pan_joint, shoulder_lift_joint, elbow_joint, wrist_1_joint, wrist_2_joint,","[1.570272445678711, -1.0130522886859339, 2.106438636779785, -2.6549232641803187, -1.5671494642840784, 2.782036781311035]","[0.10119160264730453, 0.0702051892876625, -0.16458335518836975, 0.0928250178694725, 0.0, 0.019788352772593498]","[1.0299683809280396, -3.684998035430908, -2.477200746536255, -0.1682281643152237, -0.0022430422250181437, 0.3207550346851349]"
1584442581580354743,,86165,,1584442581,580052650,'',"[shoulder_pan_joint, shoulder_lift_joint, elbow_joint, wrist_1_joint, wrist_2_joint,","[1.5818109512329102, -1.0043843428241175, 2.086874008178711, -2.6444247404681605, -1.5671375433551233, 2.7841920852661133]","[0.10240600258111954, 0.08053399622440338, -0.182403102517128, 0.09740778058767319, 0.0, 0.01877208985388279]","[1.0849000215530396, -4.023743152618408, -2.5108277797698975, -0.0628051832318306, -0.008972168900072575, 0.3701019585132599]"
1584442581692279221,,86179,,1584442581,691993948,'',"[shoulder_pan_joint, shoulder_lift_joint, elbow_joint, wrist_1_joint, wrist_2_joint,","[1.593385934829712, -0.9946978727923792, 2.0647644996643066, -2.632500950490133, -1.5671375433551233, 2.7861199378967285]","[0.10124273598194122, 0.09664078801870346, -0.21414372324943542, 0.11188472807407379, 0.0, 0.017851701006293297]","[0.9292603731155396, -3.923035144805908, -2.4368481636047363, -0.0740203931927681, -0.008972168900072575, 0.3274841606616974]"
1584442581804298045,,86193,,1584442581,804000610,'',"[shoulder_pan_joint, shoulder_lift_joint, elbow_joint, wrist_1_joint, wrist_2_joint,","[1.604576587677002, -0.9837406317340296, 2.039785385131836, -2.6193087736712855, -1.5671256224261683, 2.7885749340057373]","[0.09485115110874176, 0.10298124700784683, -0.23357415199279785, 0.12162550538778305, 0.0, 0.021533256396651268]","[0.9567261934280396, -3.698730945587158, -2.472717046737671, -0.1323394924402237, -0.01794433780014515, 0.3028106987476349]"
1584442581916255093,,86207,,1584442581,915990850,'',"[shoulder_pan_joint, shoulder_lift_joint, elbow_joint, wrist_1_joint, wrist_2_joint,","[1.6144837141036987, -0.9716923872577112, 2.013953685760498, -2.6051347891436976, -1.5671256224261683, 2.791196823120117]","[0.08826781064271927, 0.10786441713571548, -0.234929159283638, 0.125115305185318, 0.0, 0.024179372936487198]","[0.9841920137405396, -3.890991687774658, -2.7036235332489014, -0.1323394924402237, -0.02243042178452015, 0.2803802788257599]"
1584442582028308882,,86221,,1584442582,27949752,'',"[shoulder_pan_joint, shoulder_lift_joint, elbow_joint, wrist_1_joint, wrist_2_joint,","[1.624055027961731, -0.9593084494220179, 1.9876775741577148, -2.5911405722247522, -1.5671613852130335, 2.7951722145080566]","[0.08787153661251068, 0.10785163193941116, -0.2374730110168457, 0.13163472712039948, 0.0, 0.04728495702147484]","[0.8422852158546448, -4.000854969024658, -2.7798449993133545, -0.1839294582605362, -0.0314025916159153, 0.3229980766773224]"
1584442582140335340,,86235,,1584442582,140001798,'',"[shoulder_pan_joint, shoulder_lift_joint, elbow_joint, wrist_1_joint, wrist_2_joint,","[1.6340464353561401, -0.9473202864276331, 1.9610042572021484, -2.576895062123434, -1.5671494642840784, 2.8004651069641113]","[0.08403658121824265, 0.1109323799610138, -0.24080942571163177, 0.1318264752626419, 0.0, 0.04316238686442375]","[0.7781983017921448, -4.019165515899658, -2.7058653831481934, -0.1816864162683487, -0.0448608435690403, 0.3745880424976349]"
1584442582252272702,,86249,,1584442582,252005073,'',"[shoulder_pan_joint, shoulder_lift_joint, elbow_joint, wrist_1_joint, wrist_2_joint,","[1.643149971961975, -0.9346731344806116, 1.9341745376586914, -2.5626848379718226, -1.5671613852130335, 2.804811716079712]","[0.07668625563383102, 0.11488237977027893, -0.2426118552684784, 0.12755051255226135, 0.0, 0.03574175387620926]","[0.9475709199905396, -4.348755359649658, -2.732767105102539, -0.1076660305261612, -0.0448608435690403, 0.3476715385913849]"
1584442582364191259,,86263,,1584442582,363951151,'',"[shoulder_pan_joint, shoulder_lift_joint, elbow_joint, wrist_1_joint, wrist_2_joint,","[1.6517857313156128, -0.922121826802389, 1.9067564010620117, -2.548175636922018, -1.5671613852130335, 2.8085596561431885]","[0.08307784795761108, 0.11132866144180298, -0.24551363289356232, 0.1297939568758011, -0.00011504856229294091, 0.036911413073539734]","[0.9201050996780396, -4.225159168243408, -2.661029100418091, -0.0874786451458931, -0.0471038855612278, 0.2960815727710724]"
1584442582476226052,,86277,,1584442582,475951871,'',"[shoulder_pan_joint, shoulder_lift_joint, elbow_joint, wrist_1_joint, wrist_2_joint,","[1.6613450050354004, -0.9093669096576136, 1.8785576820373535, -2.5333436171161097, -1.5671857039081019, 2.8130860328674316]","[0.08861295878887177, 0.11815487593412399, -0.26053386926651, 0.13033084571361542, -0.00011504856229294091, 0.04272136464715004]","[0.9246827363967896, -4.399109363555908, -2.7686359882354736, -0.0538330152630806, -0.0448608435690403, 0.3274841606616974]"
1584442582588215401,,86291,,1584442582,587951980,'',"[shoulder_pan_joint, shoulder_lift_joint, elbow_joint, wrist_1_joint, wrist_2_joint,","[1.6710126399993896, -0.8954733053790491, 1.8492059707641602, -2.517698113118307, -1.567197624837057, 2.817312717437744]","[0.07845033705234528, 0.1238817349076271, -0.2634100615978241, 0.14377234876155853, -0.00013422331539914012, 0.034514568746089935]","[0.8193970322608948, -4.692078113555908, -2.91211199760437, -0.1121521145105362, -0.0605621412396431, 0.3476715385913849]"
1584442582700203458,,86305,,1584442582,699927353,'',"[shoulder_pan_joint, shoulder_lift_joint, elbow_joint, wrist_1_joint, wrist_2_joint,","[1.6791925430297852, -0.8816035429583948, 1.8194093704223633, -2.501979653035299, -1.567197624837057, 2.8208694458007812]","[0.06902913749217987, 0.13175617158412933, -0.26650360226631165, 0.1380007565021515, -0.00013422331539914012, 0.028321120887994766]","[0.8605957627296448, -4.911804676055908, -2.925562858581543, -0.0897216871380806, -0.0695343092083931, 0.3297272026538849]"
1584442582812196253,,86319,,1584442582,811928544,'',"[shoulder_pan_joint, shoulder_lift_joint, elbow_joint, wrist_1_joint, wrist_2_joint,","[1.6867486238479614, -0.866978947316305, 1.7883400917053223, -2.4857471624957483, -1.5672934691058558, 2.8243417739868164]","[0.07227606326341629, 0.1297747790813446, -0.29222333431243896, 0.15345560014247894, -0.0006519418675452471, 0.03953835740685463]","[0.9338380098342896, -4.998779773712158, -2.9547061920166016, -0.0829925611615181, -0.0852356031537056, 0.2848663628101349]"
1584442582924270821,,86333,,1584442582,923985519,'',"[shoulder_pan_joint, shoulder_lift_joint, elbow_joint, wrist_1_joint, wrist_2_joint,","[1.6949286460876465, -0.851910416279928, 1.755577564239502, -2.4684250990497034, -1.5672815481769007, 2.8289520740509033]","[0.06524531543254852, 0.13940051198005676, -0.29245343804359436, 0.15493206679821014, -0.00028762139845639467, 0.03834952041506767]","[0.9887696504592896, -5.021667957305908, -3.024202346801758, -0.1502838283777237, -0.0986938551068306, 0.3476715385913849]"
1584442583036151788,,86347,,1584442583,35891292,'',"[shoulder_pan_joint, shoulder_lift_joint, elbow_joint, wrist_1_joint, wrist_2_joint,","[1.702148675918579, -0.8360398451434534, 1.7224912643432617, -2.450887982045309, -1.567317310963766, 2.8320772647857666]","[0.06530923396348953, 0.13932380080223083, -0.2950612008571625, 0.1590929925441742, -0.00036432043998502195, 0.01595340110361576]","[0.8422852158546448, -5.140686511993408, -3.2371745109558105, -0.1390686184167862, -0.1256103664636612, 0.3588867485523224]"
1584442583148145093,,86361,,1584442583,147892542,'',"[shoulder_pan_joint, shoulder_lift_joint, elbow_joint, wrist_1_joint, wrist_2_joint,","[1.7087336778640747, -0.8205760161029261, 1.6894397735595703, -2.4337928930865687, -1.5673888365374964, 2.8316702842712402]","[0.05826570466160774, 0.1397072970867157, -0.30110764503479004, 0.15500876307487488, -0.0008245147182606161, -0.038004375994205475]","[0.8422852158546448, -5.191040515899658, -3.1407766342163086, -0.1099090725183487, -0.1211242824792862, -0.2198181450366974]"
1584442583260193182,,86375,,1584442583,259887311,'',"[shoulder_pan_joint, shoulder_lift_joint, elbow_joint, wrist_1_joint, wrist_2_joint,","[1.7159781455993652, -0.8046811262713831, 1.656076431274414, -2.4159682432757776, -1.5674007574664515, 2.8279340267181396]","[0.07044807076454163, 0.14163756370544434, -0.30095425248146057, 0.15451021492481232, -0.0004985437844879925, -0.024332771077752113]","[0.7781983017921448, -5.566406726837158, -3.2169981002807617, -0.0829925611615181, -0.1368255764245987, -0.3297272026538849]"
1584442583372200494,,86389,,1584442583,371870629,'',"[shoulder_pan_joint, shoulder_lift_joint, elbow_joint, wrist_1_joint, wrist_2_joint,","[1.7244337797164917, -0.7890985647784632, 1.6230969429016113, -2.398778263722555, -1.5674846808062952, 2.826042413711548]","[0.0818762257695198, 0.1405254304409027, -0.2880176901817322, 0.15878619253635406, -0.00036432043998502195, -0.011447331868112087]","[1.0345460176467896, -5.419922351837158, -3.5039498805999756, -0.0852356031537056, -0.1614990383386612, -0.2938385307788849]"
1584442583484152964,,86403,,1584442583,483873804,'',"[shoulder_pan_joint, shoulder_lift_joint, elbow_joint, wrist_1_joint, wrist_2_joint,","[1.733644723892212, -0.7735160032855433, 1.5906338691711426, -2.381671730672018, -1.5674966017352503, 2.8254313468933105]","[0.08038059622049332, 0.13499031960964203, -0.2928752899169922, 0.148949533700943, -0.0003067961661145091, 0.03825364634394646]","[0.7461548447608948, -5.598450183868408, -3.4299700260162354, 0.02467346377670765, -0.1570129543542862, 0.1749572902917862]"
1584442583596175976,,86417,,1584442583,595899901,'',"[shoulder_pan_joint, shoulder_lift_joint, elbow_joint, wrist_1_joint, wrist_2_joint,","[1.7426763772964478, -0.758712116871969, 1.5584344863891602, -2.3649967352496546, -1.5675209204303187, 2.8306286334991455]","[0.08149272948503494, 0.13669046759605408, -0.28326234221458435, 0.1473580300807953, -0.00023009712458588183, 0.04231869429349899]","[0.6820679306983948, -5.561829090118408, -3.4165191650390625, -0.0358886756002903, -0.1457977443933487, 0.4104767143726349]"
1584442583708130600,,86431,,1584442583,707861068,'',"[shoulder_pan_joint, shoulder_lift_joint, elbow_joint, wrist_1_joint, wrist_2_joint,","[1.7521154880523682, -0.7432978788958948, 1.5260791778564453, -2.3479979673968714, -1.5675566832171839, 2.8342809677124023]","[0.08879192173480988, 0.13736797869205475, -0.2903442084789276, 0.1520175039768219, -0.0008053399506025016, 0.022664567455649376]","[0.7369995713233948, -5.905151844024658, -3.5958640575408936, -0.008972168900072575, -0.1525268703699112, 0.3745880424976349]"
1584442583820151478,,86445,,1584442583,819856738,'',"[shoulder_pan_joint, shoulder_lift_joint, elbow_joint, wrist_1_joint, wrist_2_joint,","[1.7618660926818848, -0.7282188574420374, 1.4942283630371094, -2.331442181264059, -1.5676167646991175, 2.836064577102661]","[0.08668269962072372, 0.1321907937526703, -0.2771519720554352, 0.1449611932039261, -0.00036432043998502195, 0.008897088468074799]","[0.9933472871780396, -5.918884754180908, -3.555511474609375, -0.0515899695456028, -0.1592559963464737, 0.3521576225757599]"
1584442583932145014,,86459,,1584442583,931842841,'',"[shoulder_pan_joint, shoulder_lift_joint, elbow_joint, wrist_1_joint, wrist_2_joint,","[1.7708613872528076, -0.7138593832599085, 1.464634895324707, -2.3155811468707483, -1.5676406065570276, 2.8334546089172363]","[0.07782395929098129, 0.12431636452674866, -0.2546280324459076, 0.13543133437633514, -0.00017257283616345376, -0.03424612060189247]","[0.7919312119483948, -6.166077136993408, -3.8626396656036377, -0.1143951565027237, -0.1682281643152237, -0.2871094048023224]"
1584442584044172264,,86473,,1584442584,43847418,'',"[shoulder_pan_joint, shoulder_lift_joint, elbow_joint, wrist_1_joint, wrist_2_joint,","[1.7797967195510864, -0.7009742895709437, 1.43729829788208, -2.301467243825094, -1.5676286856280726, 2.829634666442871]","[0.07972865551710129, 0.10906603932380676, -0.2334207445383072, 0.12128035724163055, -0.00017257283616345376, -0.03301893547177315]","[0.7369995713233948, -6.065369129180908, -3.6743276119232178, -0.0022430422250181437, -0.1547699123620987, -0.3185119926929474]"
1584442584156176390,,86487,,1584442584,155853488,'',"[shoulder_pan_joint, shoulder_lift_joint, elbow_joint, wrist_1_joint, wrist_2_joint,","[1.7891998291015625, -0.6890719572650355, 1.4120750427246094, -2.288083855305807, -1.5676525274859827, 2.8268566131591797]","[0.0876542180776596, 0.1050393357872963, -0.21907803416252136, 0.10975632816553116, -0.00013422331539914012, -0.017679128795862198]","[0.7141113877296448, -6.362915515899658, -3.6743276119232178, -0.0426178015768528, -0.1614990383386612, -0.3005676567554474]"
1584442584268144470,,86501,,1584442584,267856232,'',"[shoulder_pan_joint, shoulder_lift_joint, elbow_joint, wrist_1_joint, wrist_2_joint,","[1.798998475074768, -0.6775057951556605, 1.3880162239074707, -2.2756221930133265, -1.5677006880389612, 2.825491189956665]","[0.09091392904520035, 0.0993252545595169, -0.2044157236814499, 0.11318860948085785, -9.58738019107841e-05, -0.002837864449247718]","[0.9338380098342896, -6.417847156524658, -3.7931435108184814, -0.1054229810833931, -0.1570129543542862, -0.2063598781824112]"
1584442584380112168,,86515,,1584442584,379847895,'',"[shoulder_pan_joint, shoulder_lift_joint, elbow_joint, wrist_1_joint, wrist_2_joint,","[1.8092888593673706, -0.6677010695086878, 1.3667793273925781, -2.2643454710589808, -1.5676887671100062, 2.8293235301971436]","[0.09520907700061798, 0.08200405538082123, -0.17991037666797638, 0.09836652129888535, -9.58738019107841e-05, 0.0455017052590847]","[0.6637573838233948, -6.436157703399658, -3.920926570892334, -0.1704712063074112, -0.1592559963464737, 0.3499145805835724]"
1584442584492136953,,86529,,1584442584,491874884,'',"[shoulder_pan_joint, shoulder_lift_joint, elbow_joint, wrist_1_joint, wrist_2_joint,","[1.820610523223877, -0.6589158217059534, 1.347607135772705, -2.2544692198382776, -1.5677126089679163, 2.8334906101226807]","[0.09986215084791183, 0.07971587032079697, -0.16321556270122528, 0.07100413739681244, -9.58738019107841e-05, 0.02822524681687355]","[0.5996704697608948, -6.445312976837158, -3.73934006690979, -0.02467346377670765, -0.1323394924402237, 0.3521576225757599]"
1584442584604144726,,86543,,1584442584,603851208,'',"[shoulder_pan_joint, shoulder_lift_joint, elbow_joint, wrist_1_joint, wrist_2_joint,","[1.8318487405776978, -0.6498425642596644, 1.3283390998840332, -2.2444379965411585, -1.5677126089679163, 2.836064577102661]","[0.09765066206455231, 0.08305227756500244, -0.1830422580242157, 0.09418642520904541, -9.58738019107841e-05, 0.014822090044617653]","[0.7736206650733948, -6.491089344024658, -3.911959409713745, -0.1031799390912056, -0.1435547024011612, 0.3566437065601349]"
1584442584716140717,,86557,,1584442584,715848222,'',"[shoulder_pan_joint, shoulder_lift_joint, elbow_joint, wrist_1_joint, wrist_2_joint,","[1.842918038368225, -0.6403864065753382, 1.3071742057800293, -2.2334488073932093, -1.5677250067340296, 2.8358373641967773]","[0.09871166944503784, 0.08084078878164291, -0.19859938323497772, 0.10291093587875366, -5.752428114647046e-05, -0.036911413073539734]","[0.8560181260108948, -6.312561511993408, -3.723647356033325, -0.1794433742761612, -0.1368255764245987, -0.2130890041589737]"
1584442584828173106,,86571,,1584442584,827874289,'',"[shoulder_pan_joint, shoulder_lift_joint, elbow_joint, wrist_1_joint, wrist_2_joint,","[1.8544195890426636, -0.6298750082599085, 1.2837409973144531, -2.2215855757342737, -1.5676887671100062, 2.8320653438568115]","[0.10309629142284393, 0.09885228425264359, -0.2086469531059265, 0.10910438746213913, -5.752428114647046e-05, -0.03332573175430298]","[0.5722046494483948, -6.431580066680908, -3.837979555130005, -0.0942077711224556, -0.1323394924402237, -0.2691650688648224]"
1584442584940134353,,86585,,1584442584,939856795,'',"[shoulder_pan_joint, shoulder_lift_joint, elbow_joint, wrist_1_joint, wrist_2_joint,","[1.8658370971679688, -0.6183212439166468, 1.2597918510437012, -2.2093032042132776, -1.5677369276629847, 2.8284730911254883]","[0.10089758783578873, 0.10639435052871704, -0.21773579716682434, 0.1114245355129242, -3.834952076431364e-05, -0.025905100628733635]","[0.6454468369483948, -6.829834461212158, -3.8783321380615234, -0.0672912672162056, -0.1457977443933487, -0.3499145805835724]"
1584442585052121969,,86599,,1584442585,51817430,'',"[shoulder_pan_joint, shoulder_lift_joint, elbow_joint, wrist_1_joint, wrist_2_joint,","[1.876810908317566, -0.6068270842181605, 1.2345104217529297, -2.1956680456744593, -1.5676887671100062, 2.8264734745025635]","[0.09768901020288467, 0.10718691349029541, -0.23702560365200043, 0.11568132787942886, -3.834952076431364e-05, -0.012310195714235306]","[0.7278442978858948, -6.527710437774658, -3.844705104827881, -0.0829925611615181, -0.1368255764245987, -0.3050537407398224]"
1584442585164084998,,86613,,1584442585,163817038,'',"[shoulder_pan_joint, shoulder_lift_joint, elbow_joint, wrist_1_joint, wrist_2_joint,","[1.8874967098236084, -0.5939315001117151, 1.206852912902832, -2.1818416754352015, -1.5677006880389612, 2.8264496326446533]","[0.09358561038970947, 0.11819322407245636, -0.26275813579559326, 0.1294296383857727, -3.834952076431364e-05, 0.036681316792964935]","[0.9567261934280396, -6.706238269805908, -3.7931435108184814, -0.0785064771771431, -0.1435547024011612, 0.2220611870288849]"
1584442585276096779,,86627,,1584442585,275825863,'',"[shoulder_pan_joint, shoulder_lift_joint, elbow_joint, wrist_1_joint, wrist_2_joint,","[1.8970673084259033, -0.5796688238727015, 1.1769866943359375, -2.1662314573871058, -1.5677126089679163, 2.8310837745666504]","[0.08053399622440338, 0.12205374240875244, -0.2708754539489746, 0.14452016353607178, -1.917476038215682e-05, 0.03940413147211075]","[0.7644653916358948, -6.481934070587158, -3.9747300148010254, -0.0986938551068306, -0.1547699123620987, 0.4037475883960724]"
1584442585388097940,,86641,,1584442585,387843174,'',"[shoulder_pan_joint, shoulder_lift_joint, elbow_joint, wrist_1_joint, wrist_2_joint,","[1.9058936834335327, -0.5659578482257288, 1.1480693817138672, -2.1512673536883753, -1.56777269044985, 2.8345680236816406]","[0.0734393298625946, 0.12541571259498596, -0.24166589975357056, 0.13573813438415527, -1.917476038215682e-05, 0.024121848866343498]","[0.9109498262405396, -6.843567371368408, -4.207878589630127, -0.1121521145105362, -0.1592559963464737, 0.3566437065601349]"
1584442585500078111,,86655,,1584442585,499820541,'',"[shoulder_pan_joint, shoulder_lift_joint, elbow_joint, wrist_1_joint, wrist_2_joint,","[1.9144327640533447, -0.5526192823993128, 1.1213374137878418, -2.136937920247213, -1.5677607695208948, 2.8361124992370605]","[0.07296635210514069, 0.11236409842967987, -0.22329647839069366, 0.12423326820135117, -0.0001917476038215682, 0.0019174760673195124]","[0.7461548447608948, -7.145691871643066, -4.205636501312256, -0.1951446682214737, -0.1525268703699112, 0.1637420803308487]"
1584442585612072860,,86669,,1584442585,611823976,'',"[shoulder_pan_joint, shoulder_lift_joint, elbow_joint, wrist_1_joint, wrist_2_joint,","[1.9223719835281372, -0.5413773695575159, 1.0979194641113281, -2.1247509161578577, -1.5678089300738733, 2.8325324058532715]","[0.06962994486093521, 0.08959726244211197, -0.18568837642669678, 0.10128108412027359, -0.0001917476038215682, -0.03919320926070213]","[0.7781983017921448, -6.994629383087158, -4.1518330574035645, -0.1861725002527237, -0.1592559963464737, -0.2758941948413849]"
1584442585724048764,,86683,,1584442585,723806462,'',"[shoulder_pan_joint, shoulder_lift_joint, elbow_joint, wrist_1_joint, wrist_2_joint,","[1.9302752017974854, -0.5317772070514124, 1.077418327331543, -2.114551846181051, -1.5678327719317835, 2.8281497955322266]","[0.071700818836689, 0.0827966183423996, -0.1815977692604065, 0.09265244007110596, -0.0003834952076431364, -0.032577916979789734]","[0.7965088486671448, -7.186890602111816, -3.9478282928466797, -0.0717773512005806, -0.1525268703699112, -0.3229980766773224]"
1584442585836098706,,86697,,1584442585,835845404,'',"[shoulder_pan_joint, shoulder_lift_joint, elbow_joint, wrist_1_joint, wrist_2_joint,","[1.9387304782867432, -0.5225728193866175, 1.057037353515625, -2.1035497824298304, -1.5678446928607386, 2.825707197189331]","[0.07981813699007034, 0.08482913672924042, -0.19094225764274597, 0.09679418802261353, -0.00028762139845639467, -0.01618349738419056]","[0.5584717392921448, -6.838989734649658, -4.039742469787598, -0.1457977443933487, -0.1502838283777237, -0.3162689507007599]"
1584442585948043803,,86711,,1584442585,947794107,'',"[shoulder_pan_joint, shoulder_lift_joint, elbow_joint, wrist_1_joint, wrist_2_joint,","[1.9474129676818848, -0.5133336226092737, 1.0358524322509766, -2.0930870215045374, -1.567892853413717, 2.82627010345459]","[0.0741296261548996, 0.0819273591041565, -0.18603351712226868, 0.09506846219301224, -0.00017257283616345376, 0.04705486074090004]","[0.7369995713233948, -6.724548816680908, -3.9724884033203125, -0.1906585842370987, -0.1547699123620987, 0.2871094048023224]"
1584442586060081381,,86725,,1584442586,59780109,'',"[shoulder_pan_joint, shoulder_lift_joint, elbow_joint, wrist_1_joint, wrist_2_joint,","[1.9551960229873657, -0.5034821669207972, 1.015028476715088, -2.082456413899557, -1.5678685347186487, 2.831287145614624]","[0.061960041522979736, 0.08572395890951157, -0.17789064347743988, 0.0932852104306221, -0.00017257283616345376, 0.03856044262647629]","[0.8972169160842896, -7.283020973205566, -3.9836974143981934, -0.1547699123620987, -0.1525268703699112, 0.4463654160499573]"
1584442586172030946,,86739,,1584442586,171785548,'',"[shoulder_pan_joint, shoulder_lift_joint, elbow_joint, wrist_1_joint, wrist_2_joint,","[1.9617682695388794, -0.49389487901796514, 0.9948530197143555, -2.071646515523092, -1.5679166952716272, 2.83459210395813]","[0.06107800453901291, 0.08456069231033325, -0.1833874136209488, 0.09472331404685974, -0.00013422331539914012, 0.02107306197285652]","[1.0528565645217896, -7.250977516174316, -4.0644025802612305, -0.1323394924402237, -0.1637420803308487, 0.3588867485523224]"
1584442586284017780,,86753,,1584442586,283740693,'',"[shoulder_pan_joint, shoulder_lift_joint, elbow_joint, wrist_1_joint, wrist_2_joint,","[1.9687834978103638, -0.484751049672262, 0.9745335578918457, -2.0615065733539026, -1.5679405371295374, 2.8358492851257324]","[0.06279094517230988, 0.08053399622440338, -0.1747204214334488, 0.08858739584684372, -7.669904152862728e-05, 0.0023584954906255007]","[0.5813599228858948, -6.916809558868408, -4.02180814743042, -0.1973877102136612, -0.1480407863855362, 0.1457977443933487]"
1584442586396002049,,86767,,1584442586,395754507,'',"[shoulder_pan_joint, shoulder_lift_joint, elbow_joint, wrist_1_joint, wrist_2_joint,","[1.9762908220291138, -0.4759781996356409, 0.9546346664428711, -2.051606003438131, -1.5679286162005823, 2.8325443267822266]","[0.06955324858427048, 0.0802016332745552, -0.17991037666797638, 0.09058156609535217, -7.669904152862728e-05, -0.036259472370147705]","[0.5813599228858948, -6.848145008087158, -4.122689723968506, -0.1121521145105362, -0.1457977443933487, -0.2714081108570099]"
1584442586508029088,,86781,,1584442586,507786456,'',"[shoulder_pan_joint, shoulder_lift_joint, elbow_joint, wrist_1_joint, wrist_2_joint,","[1.983594536781311, -0.4670980612384241, 0.9358644485473633, -2.0416820685016077, -1.5679166952716272, 2.828425168991089]","[0.06024709716439247, 0.07673738896846771, -0.15867753326892853, 0.0857686996459961, -7.669904152862728e-05, -0.030852189287543297]","[0.7873535752296448, -7.141114234924316, -4.167525768280029, -0.1368255764245987, -0.1547699123620987, -0.3252411186695099]"
1584442586619969606,,86795,,1584442586,619755146,'',"[shoulder_pan_joint, shoulder_lift_joint, elbow_joint, wrist_1_joint, wrist_2_joint,","[1.9901061058044434, -0.45849353471864873, 0.9178743362426758, -2.0327871481524866, -1.5679166952716272, 2.825934648513794]","[0.05717913433909416, 0.07699305564165115, -0.15879258513450623, 0.08358278125524521, -7.669904152862728e-05, -0.016030099242925644]","[0.5676270127296448, -7.145691871643066, -4.167525768280029, -0.2287903130054474, -0.1502838283777237, -0.3005676567554474]"
1584442586731977209,,86809,,1584442586,731719578,'',"[shoulder_pan_joint, shoulder_lift_joint, elbow_joint, wrist_1_joint, wrist_2_joint,","[1.9962341785430908, -0.45111161867250615, 0.901313304901123, -2.0241668860064905, -1.5679405371295374, 2.8255274295806885]","[0.056603893637657166, 0.0619983896613121, -0.1416759192943573, 0.07098495960235596, -7.669904152862728e-05, 0.037525005638599396]","[0.6042481064796448, -6.903076648712158, -3.9635210037231445, -0.0785064771771431, -0.1502838283777237, 0.2130890041589737]"
1584442586844001863,,86823,,1584442586,843752699,'',"[shoulder_pan_joint, shoulder_lift_joint, elbow_joint, wrist_1_joint, wrist_2_joint,","[2.003549337387085, -0.4440529982196253, 0.8858561515808105, -2.016385857258932, -1.5679762999164026, 2.8304128646850586]","[0.0703713670372963, 0.05935227498412132, -0.12772947549819946, 0.07039054483175278, -5.752428114647046e-05, 0.04043956845998764]","[0.6134033799171448, -7.191468238830566, -3.9545538425445557, -0.1839294582605362, -0.1525268703699112, 0.3454284965991974]"
1584442586956016389,,86837,,1584442586,955708725,'',"[shoulder_pan_joint, shoulder_lift_joint, elbow_joint, wrist_1_joint, wrist_2_joint,","[2.011596441268921, -0.43777400652040654, 0.8720555305480957, -2.0088794867144983, -1.5679643789874476, 2.833873748779297]","[0.07492218166589737, 0.050161171704530716, -0.12259063124656677, 0.06082233786582947, -5.752428114647046e-05, 0.0240068007260561]","[0.8972169160842896, -7.067872047424316, -3.9680047035217285, -0.0919647291302681, -0.1457977443933487, 0.3544006645679474]"
1584442587068042697,,86851,,1584442587,67729964,'',"[shoulder_pan_joint, shoulder_lift_joint, elbow_joint, wrist_1_joint, wrist_2_joint,","[2.0193190574645996, -0.43107444444765264, 0.8582906723022461, -2.0019238630877894, -1.5679643789874476, 2.8355140686035156]","[0.06383916735649109, 0.050161171704530716, -0.12492995709180832, 0.07019879668951035, -5.752428114647046e-05, 0.009376457892358303]","[0.6546021103858948, -7.186890602111816, -4.261682033538818, -0.2444916069507599, -0.1413116604089737, 0.3431854546070099]"
1584442587180036374,,86865,,1584442587,179749779,'',"[shoulder_pan_joint, shoulder_lift_joint, elbow_joint, wrist_1_joint, wrist_2_joint,","[2.026466131210327, -0.4249990622149866, 0.8441424369812012, -1.994800869618551, -1.567988697682516, 2.8333828449249268]","[0.06543706357479095, 0.0535614974796772, -0.12921231985092163, 0.0631808340549469, -5.752428114647046e-05, -0.03587597608566284]","[0.6866455674171448, -6.925964832305908, -3.9881808757781982, -0.1547699123620987, -0.1457977443933487, -0.2714081108570099]"
1584442587292035732,,86879,,1584442587,291703031,'',"[shoulder_pan_joint, shoulder_lift_joint, elbow_joint, wrist_1_joint, wrist_2_joint,","[2.033949613571167, -0.41967803636659795, 0.8312911987304688, -1.9885757605182093, -1.567988697682516, 2.8293354511260986]","[0.07107444107532501, 0.045226868242025375, -0.1049242913722992, 0.05158010497689247, -5.752428114647046e-05, -0.03392015025019646]","[0.5859375596046448, -7.214356422424316, -4.017324447631836, -0.1457977443933487, -0.1390686184167862, -0.3140259087085724]"
1584442587404083460,,86893,,1584442587,403732765,'',"[shoulder_pan_joint, shoulder_lift_joint, elbow_joint, wrist_1_joint, wrist_2_joint,","[2.0427756309509277, -0.41526824632753545, 0.8206591606140137, -1.9829366842852991, -1.5680363813983362, 2.826676845550537]","[0.08006101846694946, 0.04319434240460396, -0.09476166218519211, 0.049010686576366425, -5.752428114647046e-05, -0.01432354561984539]","[0.6774902939796448, -7.054139137268066, -4.030775547027588, -0.1906585842370987, -0.1211242824792862, -0.2915954887866974]"
1584442587516036370,,86907,,1584442587,515727674,'',"[shoulder_pan_joint, shoulder_lift_joint, elbow_joint, wrist_1_joint, wrist_2_joint,","[2.0516858100891113, -0.41047460237611944, 0.8104109764099121, -1.9772141615497034, -1.568012539540426, 2.8269765377044678]","[0.08182509243488312, 0.038247253745794296, -0.07639224827289581, 0.04042039439082146, -5.752428114647046e-05, 0.03928908333182335]","[0.6088257431983948, -7.077027320861816, -3.844705104827881, -0.1637420803308487, -0.1143951565027237, 0.2579498589038849]"
1584442587628052699,,86921,,1584442587,627716352,'',"[shoulder_pan_joint, shoulder_lift_joint, elbow_joint, wrist_1_joint, wrist_2_joint,","[2.0607755184173584, -0.4060772101031702, 0.8007278442382812, -1.9723895231830042, -1.5680244604693812, 2.8314547538757324]","[0.08692558109760284, 0.03650874271988869, -0.09205163270235062, 0.045290783047676086, -5.752428114647046e-05, 0.03321068361401558]","[1.0849000215530396, -7.072449684143066, -4.010599136352539, -0.1592559963464737, -0.1121521145105362, 0.3902893364429474]"
1584442587740077003,,86935,,1584442587,739743411,'',"[shoulder_pan_joint, shoulder_lift_joint, elbow_joint, wrist_1_joint, wrist_2_joint,","[2.070608615875244, -0.4017751852618616, 0.7899761199951172, -1.9673140684710901, -1.5680244604693812, 2.8344128131866455]","[0.08930324763059616, 0.04722104221582413, -0.11116247624158859, 0.055932775139808655, -5.752428114647046e-05, 0.019328158348798752]","[0.5722046494483948, -6.802368640899658, -3.9523119926452637, -0.2130890041589737, -0.1054229810833931, 0.3588867485523224]"
1584442587851979099,,86949,,1584442587,851687575,'',"[shoulder_pan_joint, shoulder_lift_joint, elbow_joint, wrist_1_joint, wrist_2_joint,","[2.0803098678588867, -0.3965981642352503, 0.7786130905151367, -1.9615429083453577, -1.568012539540426, 2.83552622795105]","[0.08289887756109238, 0.04760453850030899, -0.10465583950281143, 0.04862719029188156, -5.752428114647046e-05, 0.0019174760673195124]","[0.7003784775733948, -7.090760231018066, -3.7595162391662598, -0.1031799390912056, -0.1099090725183487, 0.0897216871380806]"
1584442587964130040,,86963,,1584442587,963772413,'',"[shoulder_pan_joint, shoulder_lift_joint, elbow_joint, wrist_1_joint, wrist_2_joint,","[2.089183807373047, -0.39236766496767217, 0.7678980827331543, -1.9563477675067347, -1.5680244604693812, 2.832364797592163]","[0.07694192230701447, 0.024275247007608414, -0.08000988513231277, 0.03608689829707146, -3.834952076431364e-05, -0.03562670573592186]","[0.6179810166358948, -6.898499011993408, -3.732614517211914, -0.1794433742761612, -0.1054229810833931, -0.2758941948413849]"
1584442588076054307,,86977,,1584442588,75706759,'',"[shoulder_pan_joint, shoulder_lift_joint, elbow_joint, wrist_1_joint, wrist_2_joint,","[2.0973622798919678, -0.3900793234454554, 0.7613706588745117, -1.9531028906451624, -1.5680244604693812, 2.82832932472229]","[0.0707804337143898, 0.014892397448420525, -0.021220067515969276, 0.014553642831742764, -3.834952076431364e-05, -0.029222333803772926]","[0.9155274629592896, -6.884766101837158, -3.7953853607177734, -0.2086029201745987, -0.0964508131146431, -0.3476715385913849]"
1584442588188030221,,86991,,1584442588,187663236,'',"[shoulder_pan_joint, shoulder_lift_joint, elbow_joint, wrist_1_joint, wrist_2_joint,","[2.104952812194824, -0.3895519415484827, 0.7614426612854004, -1.9530308882342737, -1.568000618611471, 2.8261263370513916]","[0.05982525274157524, 0.012770390138030052, -0.019328158348798752, 0.010929613374173641, -3.834952076431364e-05, -0.010795390233397484]","[0.8010864853858948, -7.209778785705566, -3.6855366230010986, -0.2512207329273224, -0.0897216871380806, -0.3050537407398224]"
1584442588300091975,,87005,,1584442588,299690636,'',"[shoulder_pan_joint, shoulder_lift_joint, elbow_joint, wrist_1_joint, wrist_2_joint,","[2.111607789993286, -0.3893359343158167, 0.7617182731628418, -1.9530547300921839, -1.568012539540426, 2.827251672744751]","[0.059071045368909836, 0.013192235492169857, -0.01689935475587845, 0.013940050266683102, -1.917476038215682e-05, 0.042644668370485306]","[0.8468628525733948, -7.072449684143066, -3.8626396656036377, -0.2265472710132599, -0.0919647291302681, 0.3005676567554474]"
1584442588412047811,,87019,,1584442588,411664686,'',"[shoulder_pan_joint, shoulder_lift_joint, elbow_joint, wrist_1_joint, wrist_2_joint,","[2.1176156997680664, -0.3894560972796839, 0.7631945610046387, -1.9537971655475062, -1.568000618611471, 2.8314309120178223]","[0.05023787170648575, 0.025233983993530273, -0.03892476484179497, 0.05198277533054352, -1.917476038215682e-05, 0.032654616981744766]","[0.8010864853858948, -6.692505359649658, -4.476895809173584, -0.2826233208179474, -0.0874786451458931, 0.4216919243335724]"
1584442588524074760,,87033,,1584442588,523687728,'',"[shoulder_pan_joint, shoulder_lift_joint, elbow_joint, wrist_1_joint, wrist_2_joint,","[2.122795820236206, -0.38913184801210576, 0.763674259185791, -1.9538210074054163, -1.567988697682516, 2.833789825439453]","[0.05007169023156166, 0.021335115656256676, -0.033427998423576355, 0.03424612060189247, -1.917476038215682e-05, 0.01624102145433426]","[0.9017945528030396, -7.186890602111816, -4.183218479156494, -0.2893524467945099, -0.0874786451458931, 0.3117828667163849]"
1584442588635998136,,87047,,1584442588,635672047,'',"[shoulder_pan_joint, shoulder_lift_joint, elbow_joint, wrist_1_joint, wrist_2_joint,","[2.128563642501831, -0.3895037809955042, 0.7637219429016113, -1.9540966192828577, -1.5680244604693812, 2.8326525688171387]","[0.05193803459405899, 0.013703562319278717, -0.04765567183494568, 0.025118935853242874, -1.917476038215682e-05, -0.0392315611243248]","[0.6500244736671448, -7.063294410705566, -3.8693649768829346, -0.2377624809741974, -0.0785064771771431, -0.2489776909351349]"
1584442588748029613,,87061,,1584442588,747692144,'',"[shoulder_pan_joint, shoulder_lift_joint, elbow_joint, wrist_1_joint, wrist_2_joint,","[2.1346793174743652, -0.39070254961122686, 0.7643942832946777, -1.955317799245016, -1.568012539540426, 2.8280179500579834]","[0.0607839897274971, -0.007158576976507902, 0.00501100393012166, 0.002588592702522874, -1.917476038215682e-05, -0.03263544291257858]","[0.6088257431983948, -7.878113746643066, -3.553269624710083, -0.4306641221046448, -0.0695343092083931, -0.3454284965991974]"
1584442588859975852,,87075,,1584442588,859662868,'',"[shoulder_pan_joint, shoulder_lift_joint, elbow_joint, wrist_1_joint, wrist_2_joint,","[2.1415743827819824, -0.3913491407977503, 0.7651982307434082, -1.955808464680807, -1.567988697682516, 2.825491189956665]","[0.05886651575565338, -0.020248547196388245, 0.037991590797901154, -0.029509956017136574, -1.917476038215682e-05, -0.017890051007270813]","[0.6042481064796448, -9.205628395080566, -2.6722381114959717, -0.7379608750343323, -0.0650482252240181, -0.3319702446460724]"
1584442588971998973,,87089,,1584442588,971652878,'',"[shoulder_pan_joint, shoulder_lift_joint, elbow_joint, wrist_1_joint, wrist_2_joint,","[2.1480374336242676, -0.39215213457216436, 0.7655820846557617, -1.9562519232379358, -1.567988697682516, 2.826676845550537]","[0.06160211190581322, -0.03260987624526024, 0.05711521953344345, -0.046000249683856964, -1.917476038215682e-05, 0.04320073500275612]","[0.9292603731155396, -8.999634742736816, -2.728283405303955, -0.6437531113624573, -0.0628051832318306, 0.3252411186695099]"
1584442589083940603,,87103,,1584442589,83653538,'',"[shoulder_pan_joint, shoulder_lift_joint, elbow_joint, wrist_1_joint, wrist_2_joint,","[2.1553640365600586, -0.3953641096698206, 0.7696137428283691, -1.9589570204364222, -1.5680244604693812, 2.831035852432251]","[0.06827493011951447, -0.025617480278015137, 0.027228159829974174, -0.020842963829636574, -1.917476038215682e-05, 0.031619179993867874]","[0.4394531846046448, -8.555603981018066, -2.90090274810791, -0.6145935654640198, -0.0605621412396431, 0.3656158745288849]"
1584442589195944960,,87117,,1584442589,195657263,'',"[shoulder_pan_joint, shoulder_lift_joint, elbow_joint, wrist_1_joint, wrist_2_joint,","[2.163709878921509, -0.3980000654803675, 0.7754693031311035, -1.9623926321612757, -1.568012539540426, 2.83353853225708]","[0.0743597224354744, -0.02502945438027382, 0.09119515866041183, -0.04182015359401703, 0.0, 0.012770390138030052]","[0.5584717392921448, -8.963013648986816, -3.02644419670105, -0.6123505234718323, -0.0493469275534153, 0.3678589165210724]"
1584442589308009970,,87131,,1584442589,307659276,'',"[shoulder_pan_joint, shoulder_lift_joint, elbow_joint, wrist_1_joint, wrist_2_joint,","[2.171875238418579, -0.40287715593446904, 0.7896881103515625, -1.9687379042254847, -1.568000618611471, 2.8322930335998535]","[0.07015405595302582, -0.05802282318472862, 0.15274614095687866, -0.06645971536636353, 0.0, -0.039384957402944565]","[0.6271362900733948, -9.361268043518066, -3.1206002235412598, -0.8209534287452698, -0.0403747595846653, -0.2646789848804474]"
1584442589419878083,,87145,,1584442589,419597469,'',"[shoulder_pan_joint, shoulder_lift_joint, elbow_joint, wrist_1_joint, wrist_2_joint,","[2.1792500019073486, -0.4100554625140589, 0.8073034286499023, -1.9770706335650843, -1.567988697682516, 2.827958106994629]","[0.06086068972945213, -0.06252250075340271, 0.15788497030735016, -0.0783480703830719, 0.0, -0.029145635664463043]","[0.8102417588233948, -9.608460426330566, -3.176645517349243, -0.6527252793312073, -0.02467346377670765, -0.3117828667163849]"
1584442589531987516,,87159,,1584442589,531631311,'',"[shoulder_pan_joint, shoulder_lift_joint, elbow_joint, wrist_1_joint, wrist_2_joint,","[2.1854612827301025, -0.41665822664369756, 0.8235864639282227, -1.9851158300982874, -1.5679762999164026, 2.82585072517395]","[0.05494207888841629, -0.04856327548623085, 0.11543205380439758, -0.05535753443837166, 0.0, -0.011006312444806099]","[1.0986329317092896, -9.599305152893066, -3.019718885421753, -0.7446900010108948, -0.01794433780014515, -0.2848663628101349]"
1584442589644021768,,87173,,1584442589,643661376,'',"[shoulder_pan_joint, shoulder_lift_joint, elbow_joint, wrist_1_joint, wrist_2_joint,","[2.191072940826416, -0.42086488405336553, 0.8330907821655273, -1.9894850889789026, -1.5679524580584925, 2.827850580215454]","[0.04375680163502693, -0.023393208160996437, 0.04659466817975044, -0.027113111689686775, 0.0, 0.041551705449819565]","[0.7736206650733948, -9.439087867736816, -3.2551088333129883, -0.6953430771827698, -0.01570129580795765, 0.3207550346851349]"
1584442589755879481,,87187,,1584442589,755598738,'',"[shoulder_pan_joint, shoulder_lift_joint, elbow_joint, wrist_1_joint, wrist_2_joint,","[2.195413827896118, -0.42139178911318, 0.8343629837036133, -1.98962909380068, -1.5679643789874476, 2.831778049468994]","[0.03702007234096527, 0.0030807447619736195, -0.005790777504444122, 0.0054456316865980625, 0.0, 0.024639567360281944]","[0.6683350205421448, -8.267212867736816, -3.815561532974243, -0.3207550346851349, -0.0336456336081028, 0.3521576225757599]"
1584442589867923412,,87201,,1584442589,867614255,'',"[shoulder_pan_joint, shoulder_lift_joint, elbow_joint, wrist_1_joint, wrist_2_joint,","[2.199718475341797, -0.4217632452594202, 0.8361749649047852, -1.9900239149676722, -1.568000618611471, 2.8332629203796387]","[0.04109790176153183, 0.012028966099023819, -0.011581555008888245, 0.01882961392402649, 0.0, 0.0033747577108442783]","[0.5905151963233948, -7.846070289611816, -4.281857967376709, -0.1772003322839737, -0.0358886756002903, 0.2489776909351349]"
1584442589979927288,,87215,,1584442589,979615146,'',"[shoulder_pan_joint, shoulder_lift_joint, elbow_joint, wrist_1_joint, wrist_2_joint,","[2.2036991119384766, -0.42308170000185186, 0.8405666351318359, -1.992406193410055, -1.5679643789874476, 2.8294553756713867]","[0.029593046754598618, -0.01386974286288023, 0.04182654246687889, -0.02467791736125946, 0.0, -0.0413983091711998]","[0.7095337510108948, -9.654236793518066, -3.2438998222351074, -0.6415100693702698, -0.0291595496237278, -0.3252411186695099]"
1584442590091933508,,87229,,1584442590,91605206,'',"[shoulder_pan_joint, shoulder_lift_joint, elbow_joint, wrist_1_joint, wrist_2_joint,","[2.2062411308288574, -0.42465144792665654, 0.843902587890625, -1.994549576436178, -1.5679762999164026, 2.826078414916992]","[0.019903400912880898, -0.01686100661754608, 0.018855180591344833, -0.01601092517375946, 0.0, -0.01919393427670002]","[0.6225586533546448, -9.333802223205566, -3.268559694290161, -0.7020722031593323, -0.02243042178452015, -0.3476715385913849]"
1584442590203920533,,87243,,1584442590,203565170,'',"[shoulder_pan_joint, shoulder_lift_joint, elbow_joint, wrist_1_joint, wrist_2_joint,","[2.2083635330200195, -0.42544252077211553, 0.8442506790161133, -1.9948127905475062, -1.5679762999164026, 2.8253238201141357]","[0.017039969563484192, -0.022293854504823685, 0.04508625343441963, -0.03650874271988869, 0.0, 0.02912646159529686]","[0.6454468369483948, -9.786988258361816, -3.095940351486206, -0.6549683213233948, -0.02467346377670765, 0.1390686184167862]"
1584442590315952781,,87257,,1584442590,315615723,'',"[shoulder_pan_joint, shoulder_lift_joint, elbow_joint, wrist_1_joint, wrist_2_joint,","[2.210641622543335, -0.42722779909242803, 0.848391056060791, -1.9969080130206507, -1.568000618611471, 2.8295388221740723]","[0.02587314322590828, -0.015327025204896927, 0.03750583156943321, -0.016202673316001892, 0.0, 0.03495558723807335]","[0.9887696504592896, -9.553528785705566, -3.286494255065918, -0.7446900010108948, -0.0291595496237278, 0.3297272026538849]"
1584442590427908548,,87271,,1584442590,427575757,'',"[shoulder_pan_joint, shoulder_lift_joint, elbow_joint, wrist_1_joint, wrist_2_joint,","[2.213639497756958, -0.4291575590716761, 0.8534669876098633, -1.9991348425494593, -1.568012539540426, 2.832113265991211]","[0.02629498764872551, -0.022549517452716827, 0.048703890293836594, -0.02364247851073742, 0.0, 0.013019662350416183]","[0.6454468369483948, -9.718323707580566, -3.4008266925811768, -0.7716065049171448, -0.0291595496237278, 0.3476715385913849]"
1584442590539956977,,87285,,1584442590,539591525,'',"[shoulder_pan_joint, shoulder_lift_joint, elbow_joint, wrist_1_joint, wrist_2_joint,","[2.216661214828491, -0.4320452849017542, 0.8579192161560059, -2.001636807118551, -1.568000618611471, 2.8308799266815186]","[0.029439648613333702, -0.02731764130294323, 0.03534547612071037, -0.02113058604300022, 0.0, -0.044983986765146255]","[0.7324219346046448, -9.448243141174316, -3.447904586791992, -0.7716065049171448, -0.02018737979233265, -0.2803802788257599]"
1584442590651946095,,87299,,1584442590,651611060,'',"[shoulder_pan_joint, shoulder_lift_joint, elbow_joint, wrist_1_joint, wrist_2_joint,","[2.2201383113861084, -0.43437034288515264, 0.8627190589904785, -2.004031006489889, -1.568000618611471, 2.8267009258270264]","[0.03855405002832413, -0.014943529851734638, 0.055939167737960815, -0.02580922655761242, 0.0, -0.023316508159041405]","[0.4898071885108948, -9.750367164611816, -3.3963429927825928, -0.7177734971046448, -0.01570129580795765, -0.3162689507007599]"
1584442590763877606,,87313,,1584442590,763545637,'',"[shoulder_pan_joint, shoulder_lift_joint, elbow_joint, wrist_1_joint, wrist_2_joint,","[2.225545883178711, -0.43626338640321904, 0.8704352378845215, -2.0073111693011683, -1.5679762999164026, 2.8249166011810303]","[0.053229134529829025, -0.020683174952864647, 0.07140680402517319, -0.033613353967666626, 0.0, -0.003719903528690338]","[0.5996704697608948, -9.992981910705566, -3.5017080307006836, -0.7110443711280823, -0.008972168900072575, -0.2198181450366974]"
1584442590875950341,,87327,,1584442590,875594176,'',"[shoulder_pan_joint, shoulder_lift_joint, elbow_joint, wrist_1_joint, wrist_2_joint,","[2.231193780899048, -0.4392355124102991, 0.879051685333252, -2.0107954184161585, -1.567988697682516, 2.8286168575286865]","[0.04573819413781166, -0.026026541367173195, 0.06744402647018433, -0.026748791337013245, 0.0, 0.043047334998846054]","[0.6317139267921448, -10.226441383361816, -3.463597297668457, -0.8030090928077698, 0.0022430422250181437, 0.3297272026538849]"
1584442590987924712,,87341,,1584442590,987545554,'',"[shoulder_pan_joint, shoulder_lift_joint, elbow_joint, wrist_1_joint, wrist_2_joint,","[2.2357380390167236, -0.4397028128253382, 0.8803715705871582, -2.0104482809649866, -1.568000618611471, 2.8321731090545654]","[0.03514094278216362, 0.005573463626205921, -0.020376378670334816, 0.016106799244880676, 0.0, 0.01835024543106556]","[1.0620118379592896, -8.358765602111816, -4.445510387420654, -0.2781372368335724, -0.008972168900072575, 0.3678589165210724]"
1584442591099828841,,87355,,1584442591,99531757,'',"[shoulder_pan_joint, shoulder_lift_joint, elbow_joint, wrist_1_joint, wrist_2_joint,","[2.2382919788360596, -0.43960696855653936, 0.8799757957458496, -2.0097058455096644, -1.567988697682516, 2.8310837745666504]","[0.008845956064760685, 0.007708253804594278, -0.014317153953015804, 0.016777915880084038, 0.0, -0.0431048609316349]","[0.9246827363967896, -8.097840309143066, -4.6158881187438965, -0.2736511528491974, -0.006729126907885075, -0.2601929008960724]"
1584442591211902167,,87369,,1584442591,211538218,'',"[shoulder_pan_joint, shoulder_lift_joint, elbow_joint, wrist_1_joint, wrist_2_joint,","[2.238327741622925, -0.4401820341693323, 0.8813319206237793, -2.0105441252337855, -1.5680244604693812, 2.8265814781188965]","[-0.0007414240390062332, 0.012859872542321682, -0.03304450213909149, 0.039154861122369766, 0.0, -0.026211896911263466]","[-0.0915527418255806, -7.781983375549316, -4.871454238891602, -0.2646789848804474, -0.008972168900072575, -0.3162689507007599]"
1584442591323842003,,87383,,1584442591,323506527,'',"[shoulder_pan_joint, shoulder_lift_joint, elbow_joint, wrist_1_joint, wrist_2_joint,","[2.238375663757324, -0.4407580534564417, 0.8817400932312012, -2.011453453694479, -1.567988697682516, 2.8243417739868164]","[-0.0001661812566453591, -0.0041800979524850845, -0.00043462790199555457, -0.0036432044580578804, 0.0, -0.007248059380799532]","[-0.02288818545639515, -8.843995094299316, -4.158558368682861, -0.4127197563648224, -0.011215210892260075, -0.2803802788257599]"
1584442591435814901,,87397,,1584442591,435528687,'',"[shoulder_pan_joint, shoulder_lift_joint, elbow_joint, wrist_1_joint, wrist_2_joint,","[2.2384235858917236, -0.44241124788393194, 0.8836240768432617, -2.013033692036764, -1.567988697682516, 2.8275508880615234]","[2.5566347176209092e-05, -0.03422055393457413, 0.036201946437358856, -0.02901141159236431, 0.0, 0.03936578333377838]","[-0.0869751051068306, -9.498597145080566, -3.479290008544922, -0.6908569931983948, -0.008972168900072575, 0.3252411186695099]"
1584442591547912342,,87411,,1584442591,547562950,'',"[shoulder_pan_joint, shoulder_lift_joint, elbow_joint, wrist_1_joint, wrist_2_joint,","[2.2385079860687256, -0.4475043455706995, 0.8911724090576172, -2.017846409474508, -1.5679643789874476, 2.831023693084717]","[0.0006519418675452471, -0.050161171704530716, 0.09900567680597305, -0.06034297123551369, 0.0, 0.01829272136092186]","[-0.0778198316693306, -9.315491676330566, -3.2663180828094482, -0.7716065049171448, -0.0022430422250181437, 0.3386993706226349]"
1584442591659866335,,87425,,1584442591,659525890,'',"[shoulder_pan_joint, shoulder_lift_joint, elbow_joint, wrist_1_joint, wrist_2_joint,","[2.239467144012451, -0.45568973222841436, 0.9069771766662598, -2.026980702077047, -1.5679762999164026, 2.8300058841705322]","[0.022306637838482857, -0.10030956566333771, 0.18828336894512177, -0.10212477296590805, 0.0, -0.04389102756977081]","[0.3479004204273224, -9.320069313049316, -3.3985848426818848, -0.6347809433937073, 0.01794433780014515, -0.3095398247241974]"
1584442591771869489,,87439,,1584442591,771517583,'',"[shoulder_pan_joint, shoulder_lift_joint, elbow_joint, wrist_1_joint, wrist_2_joint,","[2.244694709777832, -0.4687283674823206, 0.9317116737365723, -2.0406039396869105, -1.5679762999164026, 2.8262462615966797]","[0.07175195217132568, -0.13378868997097015, 0.24882447719573975, -0.1373104602098465, 0.0, -0.021955100819468498]","[0.2471924126148224, -9.333802223205566, -3.2125144004821777, -0.6168366074562073, 0.0381317175924778, -0.2938385307788849]"
1584442591883855271,,87453,,1584442591,883521399,'',"[shoulder_pan_joint, shoulder_lift_joint, elbow_joint, wrist_1_joint, wrist_2_joint,","[2.2539994716644287, -0.48372012773622686, 0.9607434272766113, -2.0563109556781214, -1.5679166952716272, 2.8247010707855225]","[0.0875391736626625, -0.13193513453006744, 0.26660585403442383, -0.13978400826454163, 0.0004793690168298781, 0.003240534570068121]","[0.8331299424171448, -9.178162574768066, -2.907628297805786, -0.6415100693702698, 0.0695343092083931, 0.0403747595846653]"
1584442591995917466,,87467,,1584442591,995535955,'',"[shoulder_pan_joint, shoulder_lift_joint, elbow_joint, wrist_1_joint, wrist_2_joint,","[2.2632198333740234, -0.49873668352235967, 0.9899916648864746, -2.071754280720846, -1.56777269044985, 2.8289880752563477]","[0.07318367063999176, -0.12719257175922394, 0.2524932324886322, -0.1412988156080246, 0.0006327670998871326, 0.0390014611184597]","[0.8605957627296448, -9.036255836486816, -2.7776033878326416, -0.5854340195655823, 0.0740203931927681, 0.3701019585132599]"
1584442592107847835,,87481,,1584442592,107499185,'',"[shoulder_pan_joint, shoulder_lift_joint, elbow_joint, wrist_1_joint, wrist_2_joint,","[2.2699103355407715, -0.5127700010882776, 1.019193172454834, -2.0870779196368616, -1.567784611378805, 2.8316702842712402]","[0.051592886447906494, -0.1267707347869873, 0.25926831364631653, -0.1395922601222992, 0.00032597093377262354, 0.007880826480686665]","[0.6591797471046448, -9.036255836486816, -2.997300624847412, -0.5921631455421448, 0.0852356031537056, 0.3005676567554474]"
1584442592219879563,,87495,,1584442592,219505024,'',"[shoulder_pan_joint, shoulder_lift_joint, elbow_joint, wrist_1_joint, wrist_2_joint,","[2.27565336227417, -0.5272114912616175, 1.0502314567565918, -2.1026762167560022, -1.56777269044985, 2.8283891677856445]","[0.05046796798706055, -0.12802347540855408, 0.2872123420238495, -0.14292865991592407, 0.0002109223569277674, -0.0412832573056221]","[0.6637573838233948, -9.411622047424316, -3.030927896499634, -0.6370239853858948, 0.0986938551068306, -0.3544006645679474]"
1584442592331834087,,87509,,1584442592,331493862,'',"[shoulder_pan_joint, shoulder_lift_joint, elbow_joint, wrist_1_joint, wrist_2_joint,","[2.2809650897979736, -0.541940991078512, 1.0809831619262695, -2.118657890950338, -1.5677369276629847, 2.8251800537109375]","[0.047208260744810104, -0.13119371235370636, 0.2631799876689911, -0.14241094887256622, 0.00028762139845639467, -0.02070874162018299]","[0.4440308213233948, -9.214783668518066, -2.921079158782959, -0.6459961533546448, 0.1233673244714737, -0.3544006645679474]"
1584442592443789453,,87523,,1584442592,443472431,'',"[shoulder_pan_joint, shoulder_lift_joint, elbow_joint, wrist_1_joint, wrist_2_joint,","[2.2867565155029297, -0.5558908621417444, 1.1100902557373047, -2.133549515401022, -1.5676887671100062, 2.8257431983947754]","[0.05339531600475311, -0.12086490541696548, 0.2544618546962738, -0.1274929791688919, 0.00032597093377262354, 0.04454296827316284]","[0.5813599228858948, -9.246827125549316, -2.808988571166992, -0.6235657334327698, 0.1099090725183487, 0.3095398247241974]"
1584442592555808877,,87537,,1584442592,555457051,'',"[shoulder_pan_joint, shoulder_lift_joint, elbow_joint, wrist_1_joint, wrist_2_joint,","[2.2921996116638184, -0.5685589949237269, 1.1365456581115723, -2.1472328344928187, -1.5676763693438929, 2.8302814960479736]","[0.042989812791347504, -0.10500098764896393, 0.22668401896953583, -0.11479929089546204, 0.00036432043998502195, 0.030066024512052536]","[0.5767822861671448, -9.095765113830566, -2.9726407527923584, -0.6190796494483948, 0.1233673244714737, 0.3476715385913849]"
1584442592667858589,,87551,,1584442592,667499058,'',"[shoulder_pan_joint, shoulder_lift_joint, elbow_joint, wrist_1_joint, wrist_2_joint,","[2.29670786857605, -0.5798123518573206, 1.1608057022094727, -2.1595633665667933, -1.5676525274859827, 2.8319098949432373]","[0.04024143144488335, -0.10363318771123886, 0.21932090818881989, -0.10565292835235596, 0.0003451456723269075, -0.01913641020655632]","[0.7369995713233948, -9.049988746643066, -2.905386447906494, -0.6661835312843323, 0.1413116604089737, -0.0672912672162056]"
1584442592779801160,,87565,,1584442592,779484629,'',"[shoulder_pan_joint, shoulder_lift_joint, elbow_joint, wrist_1_joint, wrist_2_joint,","[2.300976037979126, -0.5912945906268519, 1.1845250129699707, -2.1717618147479456, -1.567580525075094, 2.8277428150177]","[0.03406715765595436, -0.100130595266819, 0.21267366409301758, -0.10546118021011353, 0.0006711166352033615, -0.03522403538227081]","[0.5950928330421448, -9.109498023986816, -2.840373992919922, -0.6459961533546448, 0.1637420803308487, -0.3364563286304474]"
1584442592891868525,,87579,,1584442592,891493725,'',"[shoulder_pan_joint, shoulder_lift_joint, elbow_joint, wrist_1_joint, wrist_2_joint,","[2.3043694496154785, -0.6020930449115198, 1.2066965103149414, -2.1833742300616663, -1.5675209204303187, 2.8250601291656494]","[0.029516346752643585, -0.0841260626912117, 0.18504922091960907, -0.09464661777019501, 0.00032597093377262354, -0.017314808443188667]","[0.7141113877296448, -9.045411109924316, -2.90090274810791, -0.7514191269874573, 0.1772003322839737, -0.3633728325366974]"
1584442593003747618,,87593,,1584442593,3458458,'',"[shoulder_pan_joint, shoulder_lift_joint, elbow_joint, wrist_1_joint, wrist_2_joint,","[2.307786464691162, -0.6112621466266077, 1.2259635925292969, -2.193082634602682, -1.5675089995013636, 2.8264615535736084]","[0.03557557240128517, -0.07639224827289581, 0.153283029794693, -0.08156943321228027, 0.00028762139845639467, 0.04711238667368889]","[0.5493164658546448, -8.624268531799316, -2.7843286991119385, -0.5988922715187073, 0.1794433742761612, 0.3364563286304474]"
1584442593115787832,,87607,,1584442593,115473014,'',"[shoulder_pan_joint, shoulder_lift_joint, elbow_joint, wrist_1_joint, wrist_2_joint,","[2.3128821849823, -0.6190879980670374, 1.2424931526184082, -2.201366726552145, -1.5675328413592737, 2.830808162689209]","[0.05253884196281433, -0.06874790787696838, 0.14084500074386597, -0.06814710050821304, 0.00015339808305725455, 0.026441995054483414]","[0.5355835556983948, -8.898926734924316, -3.02644419670105, -0.7469330430030823, 0.1390686184167862, 0.4059906303882599]"
1584442593227824689,,87621,,1584442593,227480997,'',"[shoulder_pan_joint, shoulder_lift_joint, elbow_joint, wrist_1_joint, wrist_2_joint,","[2.3189847469329834, -0.6262195746051233, 1.258531093597412, -2.2094109694110315, -1.5674846808062952, 2.832125186920166]","[0.05499321222305298, -0.06357072293758392, 0.14923076331615448, -0.07708253711462021, 0.00015339808305725455, -0.016471119597554207]","[0.4943848252296448, -8.990479469299316, -2.8538248538970947, -0.6280518174171448, 0.1772003322839737, -0.0650482252240181]"
1584442593339841028,,87635,,1584442593,339476889,'',"[shoulder_pan_joint, shoulder_lift_joint, elbow_joint, wrist_1_joint, wrist_2_joint,","[2.3253512382507324, -0.6343215147601526, 1.2754693031311035, -2.217790428792135, -1.5674250761615198, 2.8282577991485596]","[0.0550059974193573, -0.07443641871213913, 0.15162122249603271, -0.07579782605171204, 0.000517718552146107, -0.03317233547568321]","[0.6408692002296448, -8.688355445861816, -2.8740010261535645, -0.6773987412452698, 0.1816864162683487, -0.3207550346851349]"
1584442593451801784,,87649,,1584442593,451433617,'',"[shoulder_pan_joint, shoulder_lift_joint, elbow_joint, wrist_1_joint, wrist_2_joint,","[2.330662488937378, -0.6424120108233851, 1.2921805381774902, -2.2263858954059046, -1.5673888365374964, 2.825958490371704]","[0.04141748324036598, -0.0762644112110138, 0.14631620049476624, -0.07771530002355576, 0.0004410194815136492, -0.013345632702112198]","[0.5996704697608948, -8.720398902893066, -3.0488624572753906, -0.5831909775733948, 0.1973877102136612, -0.3207550346851349]"
1584442593563763000,,87663,,1584442593,563462379,'',"[shoulder_pan_joint, shoulder_lift_joint, elbow_joint, wrist_1_joint, wrist_2_joint,","[2.335362672805786, -0.6505621115313929, 1.3091068267822266, -2.2351840178119105, -1.5673649946795862, 2.8261382579803467]","[0.04639013484120369, -0.07023075222969055, 0.15497040748596191, -0.0783480703830719, 0.00024927189224399626, 0.04241456836462021]","[0.9292603731155396, -8.839417457580566, -2.835890293121338, -0.7222595810890198, 0.2086029201745987, 0.2781372368335724]"
1584442593675780121,,87677,,1584442593,675451988,'',"[shoulder_pan_joint, shoulder_lift_joint, elbow_joint, wrist_1_joint, wrist_2_joint,","[2.3406622409820557, -0.6587360540973108, 1.3267183303833008, -2.244019333516256, -1.567341152821676, 2.8304848670959473]","[0.0465691015124321, -0.07191813737154007, 0.154497429728508, -0.08431141823530197, 0.0001917476038215682, 0.031101461499929428]","[0.7141113877296448, -8.871460914611816, -2.8022632598876953, -0.6213226914405823, 0.2130890041589737, 0.3992615044116974]"
1584442593787852565,,87691,,1584442593,787455694,'',"[shoulder_pan_joint, shoulder_lift_joint, elbow_joint, wrist_1_joint, wrist_2_joint,","[2.345721483230591, -0.6667063871966761, 1.3447260856628418, -2.25305682817568, -1.5672934691058558, 2.832221031188965]","[0.05014839023351669, -0.07868043333292007, 0.16458335518836975, -0.08195292204618454, 0.0004026699753012508, 0.002205097349360585]","[0.6546021103858948, -8.798218727111816, -2.90090274810791, -0.7065582871437073, 0.2108459621667862, 0.1054229810833931]"
1584442593899777984,,87705,,1584442593,899463507,'',"[shoulder_pan_joint, shoulder_lift_joint, elbow_joint, wrist_1_joint, wrist_2_joint,","[2.3516199588775635, -0.6758039633380335, 1.3629016876220703, -2.262669388447897, -1.5672577063189905, 2.828437089920044]","[0.050161171704530716, -0.08495697379112244, 0.1601603776216507, -0.08041894435882568, 0.0007478156476281583, -0.036144424229860306]","[0.5447388291358948, -8.573914527893066, -2.8022632598876953, -0.6886139512062073, 0.2444916069507599, -0.3499145805835724]"
1584442594011775578,,87719,,1584442594,11426827,'',"[shoulder_pan_joint, shoulder_lift_joint, elbow_joint, wrist_1_joint, wrist_2_joint,","[2.357027530670166, -0.6850808302508753, 1.3807892799377441, -2.271947209035055, -1.567197624837057, 2.8257431983947754]","[0.047872986644506454, -0.07139402627944946, 0.1545613557100296, -0.08406215161085129, 0.0003067961661145091, -0.016202673316001892]","[0.5859375596046448, -8.596802711486816, -2.903144598007202, -0.5876770615577698, 0.2444916069507599, -0.2983246147632599]"
1584442594123692452,,87733,,1584442594,123422859,'',"[shoulder_pan_joint, shoulder_lift_joint, elbow_joint, wrist_1_joint, wrist_2_joint,","[2.362614393234253, -0.6932433287249964, 1.398244857788086, -2.280745808278219, -1.567089859639303, 2.8253118991851807]","[0.04953479766845703, -0.07763221114873886, 0.16141313314437866, -0.07453229278326035, 0.001073786523193121, 0.0368347130715847]","[0.7003784775733948, -8.546448707580566, -2.9793663024902344, -0.6863709092140198, 0.2422485649585724, 0.2018737941980362]"
1584442594235648298,,87747,,1584442594,235365881,'',"[shoulder_pan_joint, shoulder_lift_joint, elbow_joint, wrist_1_joint, wrist_2_joint,","[2.367445945739746, -0.7013700644122522, 1.415940761566162, -2.289771382008688, -1.5670297781573694, 2.829862356185913]","[0.04002411663532257, -0.07072930037975311, 0.15886928141117096, -0.08250899612903595, 0.0004793690168298781, 0.031695879995822906]","[0.5538941025733948, -8.706665992736816, -2.8784847259521484, -0.6616974472999573, 0.2624359428882599, 0.3499145805835724]"
1584442594347737123,,87761,,1584442594,347420191,'',"[shoulder_pan_joint, shoulder_lift_joint, elbow_joint, wrist_1_joint, wrist_2_joint,","[2.3720736503601074, -0.7099040190326136, 1.433084487915039, -2.2987259070025843, -1.5669458548175257, 2.8316702842712402]","[0.04616003856062889, -0.07346490025520325, 0.14805471897125244, -0.07911506295204163, 0.0013038837350904942, -0.01852281764149666]","[1.0391236543655396, -8.267212867736816, -2.7148325443267822, -0.6370239853858948, 0.2377624809741974, -0.0762634351849556]"
1584442594459708698,,87775,,1584442594,459423236,'',"[shoulder_pan_joint, shoulder_lift_joint, elbow_joint, wrist_1_joint, wrist_2_joint,","[2.377253532409668, -0.7176831404315394, 1.4489436149597168, -2.3070696035968226, -1.5668380896197718, 2.8275868892669678]","[0.045214083045721054, -0.0689268708229065, 0.13715067505836487, -0.06738010793924332, 0.0005368932615965605, -0.03133155778050423]","[0.7186890244483948, -8.473206520080566, -2.90090274810791, -0.7334747910499573, 0.2444916069507599, -0.3005676567554474]"
1584442594571775842,,87789,,1584442594,571478037,'',"[shoulder_pan_joint, shoulder_lift_joint, elbow_joint, wrist_1_joint, wrist_2_joint,","[2.3821330070495605, -0.724095646535055, 1.4624977111816406, -2.313953224812643, -1.5667899290667933, 2.825216054916382]","[0.045699845999479294, -0.05133722350001335, 0.11296490579843521, -0.057562630623579025, 0.0008053399506025016, -0.01378665305674076]","[0.6820679306983948, -8.541871070861816, -2.737250566482544, -0.7088013291358948, 0.3185119926929474, -0.3207550346851349]"
1584442594683800537,,87803,,1584442594,683423223,'',"[shoulder_pan_joint, shoulder_lift_joint, elbow_joint, wrist_1_joint, wrist_2_joint,","[2.3878273963928223, -0.7294772307025355, 1.4736871719360352, -2.319674793873922, -1.5667060057269495, 2.8273355960845947]","[0.05088981240987778, -0.049125734716653824, 0.09938917309045792, -0.046958986669778824, 0.00032597093377262354, 0.04513738676905632]","[0.7095337510108948, -8.354187965393066, -2.905386447906494, -0.5944061875343323, 0.2781372368335724, 0.3386993706226349]"
1584442594795778775,,87817,,1584442594,795388557,'',"[shoulder_pan_joint, shoulder_lift_joint, elbow_joint, wrist_1_joint, wrist_2_joint,","[2.392719030380249, -0.7342360655414026, 1.4829192161560059, -2.3246071974383753, -1.5666583220111292, 2.8312630653381348]","[0.038068290799856186, -0.03147217258810997, 0.07526732236146927, -0.033843450248241425, 0.0006519418675452471, 0.018944663926959038]","[0.6866455674171448, -8.193970680236816, -2.746217966079712, -0.6639404892921448, 0.2871094048023224, 0.3992615044116974]"
1584442594907688195,,87831,,1584442594,907357738,'',"[shoulder_pan_joint, shoulder_lift_joint, elbow_joint, wrist_1_joint, wrist_2_joint,","[2.396963357925415, -0.7383716742144983, 1.492415428161621, -2.3292396704303187, -1.5666220823871058, 2.830472946166992]","[0.04213333874940872, -0.04304094612598419, 0.08411328494548798, -0.04111068695783615, 0.0004410194815136492, -0.04289393872022629]","[1.0345460176467896, -8.290101051330566, -2.8605501651763916, -0.7379608750343323, 0.2669220268726349, -0.2781372368335724]"
1584442595019732767,,87845,,1584442595,19350533,'',"[shoulder_pan_joint, shoulder_lift_joint, elbow_joint, wrist_1_joint, wrist_2_joint,","[2.4017226696014404, -0.7438371817218226, 1.502908706665039, -2.334315601979391, -1.5665624777423304, 2.8265693187713623]","[0.04218447208404541, -0.04903625324368477, 0.09275470674037933, -0.05251966789364815, 0.0004026699753012508, -0.020919663831591606]","[0.5996704697608948, -8.239747047424316, -2.842615842819214, -0.6145935654640198, 0.2781372368335724, -0.3072967827320099]"
1584442595131663737,,87859,,1584442595,131315527,'',"[shoulder_pan_joint, shoulder_lift_joint, elbow_joint, wrist_1_joint, wrist_2_joint,","[2.4065184593200684, -0.7482007185565394, 1.5128726959228516, -2.3394511381732386, -1.566526238118307, 2.8250246047973633]","[0.047387223690748215, -0.03797880932688713, 0.09527299553155899, -0.04373762756586075, 0.0004410194815136492, -0.002147573046386242]","[0.5767822861671448, -8.363343238830566, -2.7977795600891113, -0.7738495469093323, 0.2646789848804474, -0.0628051832318306]"
1584442595243764724,,87873,,1584442595,243429068,'',"[shoulder_pan_joint, shoulder_lift_joint, elbow_joint, wrist_1_joint, wrist_2_joint,","[2.4128365516662598, -0.7528145948993128, 1.5232338905334473, -2.344430748616354, -1.5664547125445765, 2.829155683517456]","[0.06132088229060173, -0.046914245933294296, 0.10243157297372818, -0.045655105262994766, 0.00032597093377262354, 0.039327431470155716]","[0.6362915635108948, -8.317566871643066, -2.921079158782959, -0.7155304551124573, 0.2669220268726349, 0.3633728325366974]"
1584442595355638286,,87887,,1584442595,355325613,'',"[shoulder_pan_joint, shoulder_lift_joint, elbow_joint, wrist_1_joint, wrist_2_joint,","[2.4197421073913574, -0.7582209745990198, 1.5335826873779297, -2.3497336546527308, -1.566430393849508, 2.831789970397949]","[0.06363463401794434, -0.04031812772154808, 0.08348690718412399, -0.04927913472056389, 0.0004793690168298781, 0.0070946612395346165]","[0.5859375596046448, -8.111573219299316, -2.7125906944274902, -0.5899201035499573, 0.2377624809741974, 0.3162689507007599]"
1584442595467794266,,87901,,1584442595,467387948,'',"[shoulder_pan_joint, shoulder_lift_joint, elbow_joint, wrist_1_joint, wrist_2_joint,","[2.4271748065948486, -0.7622602621661585, 1.542250633239746, -2.354654137288229, -1.5663827101336878, 2.8286406993865967]","[0.06651084870100021, -0.03584401682019234, 0.06495130807161331, -0.036259472370147705, 0.0003067961661145091, -0.036681316792964935]","[0.5493164658546448, -8.175660133361816, -2.8852102756500244, -0.7200165390968323, 0.2871094048023224, -0.3297272026538849]"
1584442595579809523,,87915,,1584442595,579414206,'',"[shoulder_pan_joint, shoulder_lift_joint, elbow_joint, wrist_1_joint, wrist_2_joint,","[2.434619665145874, -0.7664197126971644, 1.550546646118164, -2.358795944844381, -1.5663707892047327, 2.8258867263793945]","[0.07340098172426224, -0.047323308885097504, 0.0822213739156723, -0.03882889077067375, 0.0003451456723269075, -0.014975488185882568]","[0.9384156465530396, -8.024598121643066, -2.8896937370300293, -0.7177734971046448, 0.2557068169116974, -0.3095398247241974]"
1584442595691632161,,87929,,1584442595,691318165,'',"[shoulder_pan_joint, shoulder_lift_joint, elbow_joint, wrist_1_joint, wrist_2_joint,","[2.442892074584961, -0.7718136946307581, 1.5601391792297363, -2.36381179491152, -1.5663107077227991, 2.8261263370513916]","[0.07347767800092697, -0.04346279054880142, 0.09368787705898285, -0.0459619015455246, 0.00028762139845639467, 0.04352670535445213]","[0.5950928330421448, -7.873536109924316, -2.8829684257507324, -0.5562744736671448, 0.2960815727710724, 0.3005676567554474]"
1584442595803703313,,87943,,1584442595,803343191,'',"[shoulder_pan_joint, shoulder_lift_joint, elbow_joint, wrist_1_joint, wrist_2_joint,","[2.4516193866729736, -0.777099911366598, 1.571220874786377, -2.369736973439352, -1.5662749449359339, 2.8304128646850586]","[0.07336263358592987, -0.05352314934134483, 0.10929613560438156, -0.05470559000968933, 0.0004410194815136492, 0.02763083018362522]","[0.6225586533546448, -8.129883766174316, -2.7798449993133545, -0.6908569931983948, 0.2489776909351349, 0.3835602104663849]"
1584442595915647557,,87957,,1584442595,915333592,'',"[shoulder_pan_joint, shoulder_lift_joint, elbow_joint, wrist_1_joint, wrist_2_joint,","[2.4588847160339355, -0.7838481108294886, 1.5847511291503906, -2.376643959675924, -1.5662034193622034, 2.831047773361206]","[0.060323797166347504, -0.05901991203427315, 0.13106587529182434, -0.06780195236206055, 0.000690291344653815, -0.03658544272184372]","[1.0162354707717896, -7.965088844299316, -2.8045051097869873, -0.6347809433937073, 0.2108459621667862, -0.1682281643152237]"
1584442596027701076,,87971,,1584442596,27351233,'',"[shoulder_pan_joint, shoulder_lift_joint, elbow_joint, wrist_1_joint, wrist_2_joint,","[2.464566707611084, -0.7910521666156214, 1.6008501052856445, -2.385047737752096, -1.5661075750934046, 2.826796770095825]","[0.03947443887591362, -0.07829693704843521, 0.1569262444972992, -0.07608544826507568, 0.0006519418675452471, -0.02653786912560463]","[0.8148193955421448, -8.047486305236816, -2.7798449993133545, -0.7110443711280823, 0.2310333549976349, -0.3431854546070099]"
1584442596139618550,,87985,,1584442596,139324351,'',"[shoulder_pan_joint, shoulder_lift_joint, elbow_joint, wrist_1_joint, wrist_2_joint,","[2.4680793285369873, -0.8001979033099573, 1.619375228881836, -2.3947442213641565, -1.5660832563983362, 2.8247368335723877]","[0.028979454189538956, -0.08518707007169724, 0.17821022868156433, -0.0913485586643219, 0.0006135923322290182, -0.01025849673897028]","[0.6774902939796448, -7.960511207580566, -2.6699962615966797, -0.5607605576515198, 0.2601929008960724, -0.3050537407398224]"
1584442596251628087,,87999,,1584442596,251332576,'',"[shoulder_pan_joint, shoulder_lift_joint, elbow_joint, wrist_1_joint, wrist_2_joint,","[2.4717955589294434, -0.8106272856341761, 1.640397071838379, -2.4056738058673304, -1.5659874121295374, 2.827706813812256]","[0.039512790739536285, -0.09031312167644501, 0.18746523559093475, -0.09698593616485596, 0.0004985437844879925, 0.03936578333377838]","[0.9521485567092896, -7.823182106018066, -2.7731196880340576, -0.7693634629249573, 0.2646789848804474, 0.3386993706226349]"
1584442596363828990,,88013,,1584442596,363365435,'',"[shoulder_pan_joint, shoulder_lift_joint, elbow_joint, wrist_1_joint, wrist_2_joint,","[2.476327419281006, -0.8210080305682581, 1.6619954109191895, -2.4169262091266077, -1.565927807484762, 2.830915927886963]","[0.0374419167637825, -0.0940074548125267, 0.18723514676094055, -0.10199055075645447, 0.0004793690168298781, 0.013920876197516918]","[0.5950928330421448, -7.772828102111816, -2.4816842079162598, -0.6729126572608948, 0.2489776909351349, 0.3835602104663849]"
1584442596475703605,,88027,,1584442596,475312245,'',"[shoulder_pan_joint, shoulder_lift_joint, elbow_joint, wrist_1_joint, wrist_2_joint,","[2.48018741607666, -0.8308489958392542, 1.6818761825561523, -2.4277356306659144, -1.5658796469317835, 2.8287243843078613]","[0.03363252803683281, -0.09045373648405075, 0.17190811038017273, -0.09175122529268265, 0.0004218447138555348, -0.03996020182967186]","[0.6683350205421448, -7.653809547424316, -2.463749885559082, -0.6078644394874573, 0.2422485649585724, -0.3454284965991974]"
1584442596587619557,,88041,,1584442596,587311122,'',"[shoulder_pan_joint, shoulder_lift_joint, elbow_joint, wrist_1_joint, wrist_2_joint,","[2.4845871925354004, -0.8393719832049769, 1.6990323066711426, -2.4367383162127894, -1.5658438841449183, 2.825683355331421]","[0.04507346823811531, -0.06775081902742386, 0.13592348992824554, -0.07267234474420547, 0.00028762139845639467, -0.0173915084451437]","[0.9155274629592896, -7.708741188049316, -2.4278807640075684, -0.7402039170265198, 0.3005676567554474, -0.3140259087085724]"
1584442596699659741,,88055,,1584442596,699321580,'',"[shoulder_pan_joint, shoulder_lift_joint, elbow_joint, wrist_1_joint, wrist_2_joint,","[2.489562511444092, -0.8461807409869593, 1.713270664215088, -2.4440649191485804, -1.5658438841449183, 2.8255274295806885]","[0.04260631650686264, -0.047029294073581696, 0.11639079451560974, -0.06436967104673386, 0.00024927189224399626, 0.04258714243769646]","[0.6546021103858948, -7.575989723205566, -2.5063440799713135, -0.5921631455421448, 0.2871094048023224, 0.2714081108570099]"
1584442596811558881,,88069,,1584442596,811269802,'',"[shoulder_pan_joint, shoulder_lift_joint, elbow_joint, wrist_1_joint, wrist_2_joint,","[2.4942374229431152, -0.851443115864889, 1.7258644104003906, -2.450385395680563, -1.56581956544985, 2.8300299644470215]","[0.04513738676905632, -0.048039164394140244, 0.11044661700725555, -0.05414952337741852, 0.0002109223569277674, 0.028781315311789513]","[0.6225586533546448, -7.855225563049316, -2.468233346939087, -0.7446900010108948, 0.2691650688648224, 0.3588867485523224]"
1584442596923563418,,88083,,1584442596,923277445,'',"[shoulder_pan_joint, shoulder_lift_joint, elbow_joint, wrist_1_joint, wrist_2_joint,","[2.49969220161438, -0.8571489492999476, 1.7374978065490723, -2.4561670462237757, -1.5657957235919397, 2.831023693084717]","[0.04875502362847328, -0.04539304971694946, 0.09929969161748886, -0.05096651241183281, 0.00017257283616345376, -0.035473305732011795]","[0.6637573838233948, -7.594300270080566, -2.450299024581909, -0.6661835312843323, 0.2938385307788849, -0.1502838283777237]"
1584442597035491313,,88097,,1584442597,35209958,'',"[shoulder_pan_joint, shoulder_lift_joint, elbow_joint, wrist_1_joint, wrist_2_joint,","[2.5049304962158203, -0.8616564909564417, 1.747450351715088, -2.4614222685443323, -1.5657718817340296, 2.826880693435669]","[0.04554644599556923, -0.04320712760090828, 0.09155309200286865, -0.04559757933020592, 0.00017257283616345376, -0.02532985806465149]","[0.6500244736671448, -7.608033180236816, -2.4861679077148438, -0.6773987412452698, 0.3185119926929474, -0.3252411186695099]"
1584442597147620963,,88111,,1584442597,147296558,'',"[shoulder_pan_joint, shoulder_lift_joint, elbow_joint, wrist_1_joint, wrist_2_joint,","[2.510733127593994, -0.8662236372577112, 1.7559380531311035, -2.4656718412982386, -1.5657718817340296, 2.8249645233154297]","[0.055338356643915176, -0.04085502400994301, 0.06537315249443054, -0.032520394772291183, 0.00015339808305725455, -0.007919175550341606]","[0.7003784775733948, -7.269288063049316, -2.4368481636047363, -0.7424469590187073, 0.3005676567554474, -0.2826233208179474]"
1584442597259567813,,88125,,1584442597,259252474,'',"[shoulder_pan_joint, shoulder_lift_joint, elbow_joint, wrist_1_joint, wrist_2_joint,","[2.5162112712860107, -0.869903866444723, 1.7633452415466309, -2.469358746205465, -1.5657356421100062, 2.8280298709869385]","[0.041558098047971725, -0.019532689824700356, 0.05372767895460129, -0.029529130086302757, 0.00011504856229294091, 0.03871384263038635]","[0.7690430283546448, -7.699585914611816, -2.4973769187927246, -0.7402039170265198, 0.2557068169116974, 0.3319702446460724]"
