PorkPy/robot-pulling-data/ztwist60/joint_states_throttle.csv
rosbagTimestamp,header,seq,stamp,secs,nsecs,frame_id,name,wrist_3_joint],position,velocity,effort
1584451347589415053,,1181964,,1584451347,589021628,'',"[shoulder_pan_joint, shoulder_lift_joint, elbow_joint, wrist_1_joint, wrist_2_joint,","[1.4047942161560059, -1.1717408339129847, 2.4830222129821777, -2.86280328432192, -1.5669100920306605, 2.7207064628601074]","[0.0, 0.0, -0.0, 0.0, 0.0, 0.0]","[-0.5401611924171448, -4.156494617462158, -0.892240583896637, -0.6572113633155823, 0.1143951565027237, -0.1300964504480362]"
1584451347701400944,,1181978,,1584451347,701054937,'',"[shoulder_pan_joint, shoulder_lift_joint, elbow_joint, wrist_1_joint, wrist_2_joint,","[1.4048302173614502, -1.1717522780047815, 2.4830222129821777, -2.8628271261798304, -1.5669339338885706, 2.7207064628601074]","[0.0, 0.0, -0.0, 0.0, 0.0, 0.0]","[-0.5447388291358948, -4.179382801055908, -0.9034496545791626, -0.6549683213233948, 0.1099090725183487, -0.1368255764245987]"
1584451347813297426,,1181992,,1584451347,812954306,'',"[shoulder_pan_joint, shoulder_lift_joint, elbow_joint, wrist_1_joint, wrist_2_joint,","[1.4048302173614502, -1.1717522780047815, 2.483046531677246, -2.862791363392965, -1.5669458548175257, 2.7207303047180176]","[0.0, 0.0, -0.0, 0.0, 0.0, 0.0]","[-0.5447388291358948, -4.206848621368408, -0.9012078642845154, -0.6549683213233948, 0.0897216871380806, -0.1345825344324112]"
1584451347925324945,,1182006,,1584451347,925011499,'',"[shoulder_pan_joint, shoulder_lift_joint, elbow_joint, wrist_1_joint, wrist_2_joint,","[1.4047942161560059, -1.1717646757708948, 2.4830222129821777, -2.86280328432192, -1.5669339338885706, 2.7206943035125732]","[0.0, 0.0, -0.0, 0.0, 0.0, 0.0]","[-0.5676270127296448, -4.206848621368408, -0.8720642924308777, -0.6549683213233948, 0.0874786451458931, -0.1300964504480362]"
1584451348037446288,,1182020,,1584451348,37030632,'',"[shoulder_pan_joint, shoulder_lift_joint, elbow_joint, wrist_1_joint, wrist_2_joint,","[1.4047942161560059, -1.17177659669985, 2.483034372329712, -2.86280328432192, -1.5668981711017054, 2.7207183837890625]","[0.0, 0.0, -0.0, 0.0, 0.0, 0.0]","[-0.5218506455421448, -4.183960437774658, -0.894482433795929, -0.6459961533546448, 0.0740203931927681, -0.1345825344324112]"
1584451348149435755,,1182034,,1584451348,148985624,'',"[shoulder_pan_joint, shoulder_lift_joint, elbow_joint, wrist_1_joint, wrist_2_joint,","[1.4048302173614502, -1.1717408339129847, 2.4830100536346436, -2.86280328432192, -1.5669220129596155, 2.7207303047180176]","[0.0, 0.0, -0.0, 0.0, 0.0, 0.0]","[-0.5538941025733948, -4.220581531524658, -0.9079332947731018, -0.6504822373390198, 0.0785064771771431, -0.1323394924402237]"
1584451348261374317,,1182048,,1584451348,260971174,'',"[shoulder_pan_joint, shoulder_lift_joint, elbow_joint, wrist_1_joint, wrist_2_joint,","[1.4047822952270508, -1.1717408339129847, 2.4830222129821777, -2.86280328432192, -1.5669100920306605, 2.7207422256469727]","[0.0, 0.0, -0.0, 0.0, 0.0, 0.0]","[-0.4989624619483948, -4.220581531524658, -0.8899987936019897, -0.6572113633155823, 0.1009368970990181, -0.1345825344324112]"
1584451348373618449,,1182062,,1584451348,373115990,'',"[shoulder_pan_joint, shoulder_lift_joint, elbow_joint, wrist_1_joint, wrist_2_joint,","[1.4048181772232056, -1.1717408339129847, 2.4830100536346436, -2.862791363392965, -1.5669100920306605, 2.7207183837890625]","[0.0, 0.0, -0.0, 0.0, 0.0, 0.0]","[-0.5035400986671448, -4.179382801055908, -0.894482433795929, -0.6616974472999573, 0.0919647291302681, -0.1368255764245987]"
1584451348485360694,,1182076,,1584451348,484979733,'',"[shoulder_pan_joint, shoulder_lift_joint, elbow_joint, wrist_1_joint, wrist_2_joint,","[1.4047822952270508, -1.171788517628805, 2.483046531677246, -2.86280328432192, -1.5669220129596155, 2.7207183837890625]","[0.0, 0.0, -0.0, 0.0, 0.0, 0.0]","[-0.4943848252296448, -4.147339344024658, -0.8832733631134033, -0.6549683213233948, 0.0919647291302681, -0.1390686184167862]"
1584451348597490774,,1182090,,1584451348,597012370,'',"[shoulder_pan_joint, shoulder_lift_joint, elbow_joint, wrist_1_joint, wrist_2_joint,","[1.4048181772232056, -1.1717408339129847, 2.483034372329712, -2.8628152052508753, -1.5669100920306605, 2.7207422256469727]","[0.0, 0.0, -0.0, 0.0, 0.0, 0.0]","[-0.5401611924171448, -4.179382801055908, -0.9124168753623962, -0.6527252793312073, 0.0650482252240181, -0.1323394924402237]"
1584451348709302288,,1182104,,1584451348,708987640,'',"[shoulder_pan_joint, shoulder_lift_joint, elbow_joint, wrist_1_joint, wrist_2_joint,","[1.4048181772232056, -1.1717646757708948, 2.4830100536346436, -2.862791363392965, -1.5669339338885706, 2.7207303047180176]","[0.0, 0.0, -0.0, 0.0, 0.0, 0.0]","[-0.5081177353858948, -4.202270984649658, -0.894482433795929, -0.6572113633155823, 0.0829925611615181, -0.1390686184167862]"
1584451348821242143,,1182118,,1584451348,820932685,'',"[shoulder_pan_joint, shoulder_lift_joint, elbow_joint, wrist_1_joint, wrist_2_joint,","[1.4048181772232056, -1.1717408339129847, 2.483046531677246, -2.862791363392965, -1.5669100920306605, 2.720754384994507]","[0.0, 0.0, -0.0, 0.0, 0.0, 0.0]","[-0.5264282822608948, -4.211426258087158, -0.9034496545791626, -0.6594544053077698, 0.0964508131146431, -0.1457977443933487]"
1584451348933354219,,1182132,,1584451348,932970602,'',"[shoulder_pan_joint, shoulder_lift_joint, elbow_joint, wrist_1_joint, wrist_2_joint,","[1.4047942161560059, -1.1717646757708948, 2.483058452606201, -2.8628271261798304, -1.5669339338885706, 2.7207183837890625]","[0.0, 0.0, -0.0, 0.0, 0.0, 0.0]","[-0.5126953721046448, -4.202270984649658, -0.8989660143852234, -0.6527252793312073, 0.0695343092083931, -0.1368255764245987]"
1584451349045386445,,1182146,,1584451349,44946964,'',"[shoulder_pan_joint, shoulder_lift_joint, elbow_joint, wrist_1_joint, wrist_2_joint,","[1.4048181772232056, -1.1717646757708948, 2.4830222129821777, -2.86277944246401, -1.5669100920306605, 2.7207303047180176]","[0.0, 0.0, -0.0, 0.0, 0.0, 0.0]","[-0.5401611924171448, -4.129028797149658, -0.8989660143852234, -0.6527252793312073, 0.0942077711224556, -0.1300964504480362]"
1584451349157247382,,1182160,,1584451349,156878183,'',"[shoulder_pan_joint, shoulder_lift_joint, elbow_joint, wrist_1_joint, wrist_2_joint,","[1.4048421382904053, -1.1717646757708948, 2.483034372329712, -2.8628152052508753, -1.5669100920306605, 2.7207183837890625]","[0.0, 0.0, -0.0, 0.0, 0.0, 0.0]","[-0.4714966416358948, -4.216003894805908, -0.8989660143852234, -0.6459961533546448, 0.1054229810833931, -0.1323394924402237]"
1584451349269318371,,1182174,,1584451349,268896874,'',"[shoulder_pan_joint, shoulder_lift_joint, elbow_joint, wrist_1_joint, wrist_2_joint,","[1.4047702550888062, -1.1717646757708948, 2.483046531677246, -2.86280328432192, -1.5669458548175257, 2.7207183837890625]","[0.0, 0.0, -0.0, 0.0, 0.0, 0.0]","[-0.5355835556983948, -4.188538074493408, -0.9034496545791626, -0.6459961533546448, 0.0852356031537056, -0.1413116604089737]"
1584451349381403366,,1182188,,1584451349,381003269,'',"[shoulder_pan_joint, shoulder_lift_joint, elbow_joint, wrist_1_joint, wrist_2_joint,","[1.4048421382904053, -1.1717522780047815, 2.4830100536346436, -2.862791363392965, -1.5669339338885706, 2.7207183837890625]","[0.0, 0.0, -0.0, 0.0, 0.0, 0.0]","[-0.5401611924171448, -4.206848621368408, -0.8877570033073425, -0.6549683213233948, 0.0852356031537056, -0.1345825344324112]"
1584451349493259304,,1182202,,1584451349,492875016,'',"[shoulder_pan_joint, shoulder_lift_joint, elbow_joint, wrist_1_joint, wrist_2_joint,","[1.4048302173614502, -1.1717284361468714, 2.4830222129821777, -2.86280328432192, -1.5669100920306605, 2.7207183837890625]","[0.0, 0.0, -0.0, 0.0, 0.0, 0.0]","[-0.5538941025733948, -4.183960437774658, -0.894482433795929, -0.6437531113624573, 0.0785064771771431, -0.1368255764245987]"
1584451349605310987,,1182216,,1584451349,604936728,'',"[shoulder_pan_joint, shoulder_lift_joint, elbow_joint, wrist_1_joint, wrist_2_joint,","[1.4048062562942505, -1.1717408339129847, 2.4830100536346436, -2.862791363392965, -1.5669100920306605, 2.7207303047180176]","[0.0, 0.0, -0.0, 0.0, 0.0, 0.0]","[-0.5264282822608948, -4.197693347930908, -0.9056914448738098, -0.6504822373390198, 0.0852356031537056, -0.1256103664636612]"
1584451349717296316,,1182230,,1584451349,716879508,'',"[shoulder_pan_joint, shoulder_lift_joint, elbow_joint, wrist_1_joint, wrist_2_joint,","[1.4048421382904053, -1.1717646757708948, 2.483034372329712, -2.86277944246401, -1.5669339338885706, 2.7206943035125732]","[0.0, 0.0, -0.0, 0.0, 0.0, 0.0]","[-0.4943848252296448, -4.216003894805908, -0.8832733631134033, -0.6527252793312073, 0.0717773512005806, -0.1278534084558487]"
1584451349829462814,,1182244,,1584451349,828962530,'',"[shoulder_pan_joint, shoulder_lift_joint, elbow_joint, wrist_1_joint, wrist_2_joint,","[1.4047942161560059, -1.1717646757708948, 2.4830222129821777, -2.862791363392965, -1.5669339338885706, 2.7206943035125732]","[0.0, 0.0, -0.0, 0.0, 0.0, 0.0]","[-0.5126953721046448, -4.193115711212158, -0.8855151534080505, -0.6504822373390198, 0.1054229810833931, -0.1345825344324112]"
1584451349941321777,,1182258,,1584451349,940911691,'',"[shoulder_pan_joint, shoulder_lift_joint, elbow_joint, wrist_1_joint, wrist_2_joint,","[1.4048181772232056, -1.1717646757708948, 2.483034372329712, -2.86280328432192, -1.5669339338885706, 2.7207183837890625]","[0.0, 0.0, -0.0, 0.0, 0.0, 0.0]","[-0.5676270127296448, -4.183960437774658, -0.8855151534080505, -0.6482391953468323, 0.0942077711224556, -0.1323394924402237]"
1584451350053352882,,1182272,,1584451350,52893764,'',"[shoulder_pan_joint, shoulder_lift_joint, elbow_joint, wrist_1_joint, wrist_2_joint,","[1.4048302173614502, -1.1717522780047815, 2.4829981327056885, -2.86277944246401, -1.5669220129596155, 2.7206943035125732]","[0.0, 0.0, -0.0, 0.0, 0.0, 0.0]","[-0.5310059189796448, -4.211426258087158, -0.894482433795929, -0.6527252793312073, 0.0897216871380806, -0.1368255764245987]"
1584451350165262509,,1182286,,1584451350,164851712,'',"[shoulder_pan_joint, shoulder_lift_joint, elbow_joint, wrist_1_joint, wrist_2_joint,","[1.4048062562942505, -1.1717284361468714, 2.4830222129821777, -2.86280328432192, -1.5669220129596155, 2.7207064628601074]","[0.0, 0.0, -0.0, 0.0, 0.0, 0.0]","[-0.5218506455421448, -4.216003894805908, -0.892240583896637, -0.6661835312843323, 0.0785064771771431, -0.1345825344324112]"
1584451350277203245,,1182300,,1584451350,276827724,'',"[shoulder_pan_joint, shoulder_lift_joint, elbow_joint, wrist_1_joint, wrist_2_joint,","[1.4048181772232056, -1.1717646757708948, 2.483058452606201, -2.8628390471087855, -1.5669220129596155, 2.7207064628601074]","[0.0, 0.0, -0.0, 0.0, 0.0, 0.0]","[-0.5493164658546448, -4.147339344024658, -0.892240583896637, -0.6459961533546448, 0.0650482252240181, -0.1390686184167862]"
1584451350389164780,,1182314,,1584451350,388871222,'',"[shoulder_pan_joint, shoulder_lift_joint, elbow_joint, wrist_1_joint, wrist_2_joint,","[1.4048302173614502, -1.1717646757708948, 2.483034372329712, -2.8628271261798304, -1.5669339338885706, 2.720754384994507]","[0.0, 0.0, -0.0, 0.0, 0.0, 0.0]","[-0.4989624619483948, -4.174805164337158, -0.9034496545791626, -0.6482391953468323, 0.0964508131146431, -0.1323394924402237]"
1584451350501196716,,1182328,,1584451350,500906684,'',"[shoulder_pan_joint, shoulder_lift_joint, elbow_joint, wrist_1_joint, wrist_2_joint,","[1.4048062562942505, -1.17180043855776, 2.483034372329712, -2.86280328432192, -1.5669100920306605, 2.7207064628601074]","[0.0, 0.0, -0.0, 0.0, 0.0, 0.0]","[-0.5447388291358948, -4.174805164337158, -0.894482433795929, -0.6527252793312073, 0.1031799390912056, -0.1390686184167862]"
1584451350613119348,,1182342,,1584451350,612834266,'',"[shoulder_pan_joint, shoulder_lift_joint, elbow_joint, wrist_1_joint, wrist_2_joint,","[1.4048181772232056, -1.17177659669985, 2.4830703735351562, -2.86280328432192, -1.5669458548175257, 2.7207064628601074]","[0.0, 0.0, -0.0, 0.0, 0.0, 0.0]","[-0.5218506455421448, -4.197693347930908, -0.8989660143852234, -0.6572113633155823, 0.0829925611615181, -0.1323394924402237]"
1584451350725088197,,1182356,,1584451350,724814326,'',"[shoulder_pan_joint, shoulder_lift_joint, elbow_joint, wrist_1_joint, wrist_2_joint,","[1.4048062562942505, -1.1717522780047815, 2.4830222129821777, -2.862791363392965, -1.5669339338885706, 2.7207064628601074]","[0.0, 0.0, -0.0, 0.0, 0.0, 0.0]","[-0.4898071885108948, -4.197693347930908, -0.894482433795929, -0.6572113633155823, 0.0762634351849556, -0.1323394924402237]"
1584451350837132546,,1182370,,1584451350,836813220,'',"[shoulder_pan_joint, shoulder_lift_joint, elbow_joint, wrist_1_joint, wrist_2_joint,","[1.4047822952270508, -1.1717284361468714, 2.483034372329712, -2.86280328432192, -1.5669339338885706, 2.7206943035125732]","[0.0, 0.0, -0.0, 0.0, 0.0, 0.0]","[-0.4989624619483948, -4.151916980743408, -0.9146587252616882, -0.6527252793312073, 0.0785064771771431, -0.1345825344324112]"
1584451350949135198,,1182384,,1584451350,948833434,'',"[shoulder_pan_joint, shoulder_lift_joint, elbow_joint, wrist_1_joint, wrist_2_joint,","[1.4047822952270508, -1.17177659669985, 2.4830100536346436, -2.86277944246401, -1.5669220129596155, 2.7207183837890625]","[0.0, 0.0, -0.0, 0.0, 0.0, 0.0]","[-0.4989624619483948, -4.179382801055908, -0.8877570033073425, -0.6504822373390198, 0.0717773512005806, -0.1390686184167862]"
1584451351061168717,,1182398,,1584451351,60818473,'',"[shoulder_pan_joint, shoulder_lift_joint, elbow_joint, wrist_1_joint, wrist_2_joint,","[1.4048181772232056, -1.1717522780047815, 2.483046531677246, -2.86280328432192, -1.5668981711017054, 2.720754384994507]","[0.0, 0.0, -0.0, 0.0, 0.0, 0.0]","[-0.5630493760108948, -4.211426258087158, -0.8899987936019897, -0.6549683213233948, 0.0785064771771431, -0.1390686184167862]"
1584451351173161139,,1182412,,1584451351,172805986,'',"[shoulder_pan_joint, shoulder_lift_joint, elbow_joint, wrist_1_joint, wrist_2_joint,","[1.4047942161560059, -1.1717646757708948, 2.4830100536346436, -2.86280328432192, -1.5669100920306605, 2.7207303047180176]","[0.0, 0.0, -0.0, 0.0, 0.0, 0.0]","[-0.5264282822608948, -4.138184070587158, -0.9034496545791626, -0.6572113633155823, 0.0986938551068306, -0.1390686184167862]"
1584451351285095153,,1182426,,1584451351,284777620,'',"[shoulder_pan_joint, shoulder_lift_joint, elbow_joint, wrist_1_joint, wrist_2_joint,","[1.4048181772232056, -1.1717284361468714, 2.4830100536346436, -2.86280328432192, -1.5669220129596155, 2.7207064628601074]","[0.0, 0.0, -0.0, 0.0, 0.0, 0.0]","[-0.5630493760108948, -4.216003894805908, -0.9079332947731018, -0.6459961533546448, 0.0762634351849556, -0.1368255764245987]"
1584451351397136015,,1182440,,1584451351,396794888,'',"[shoulder_pan_joint, shoulder_lift_joint, elbow_joint, wrist_1_joint, wrist_2_joint,","[1.4048181772232056, -1.17180043855776, 2.4830222129821777, -2.8628152052508753, -1.5669339338885706, 2.7207064628601074]","[0.0, 0.0, -0.0, 0.0, 0.0, 0.0]","[-0.5538941025733948, -4.206848621368408, -0.9056914448738098, -0.6616974472999573, 0.0762634351849556, -0.1323394924402237]"
1584451351509127105,,1182454,,1584451351,508810254,'',"[shoulder_pan_joint, shoulder_lift_joint, elbow_joint, wrist_1_joint, wrist_2_joint,","[1.4048181772232056, -1.1717522780047815, 2.483034372329712, -2.8628152052508753, -1.5669100920306605, 2.7207183837890625]","[0.0, 0.0, -0.0, 0.0, 0.0, 0.0]","[-0.5264282822608948, -4.179382801055908, -0.9034496545791626, -0.6549683213233948, 0.0807495191693306, -0.1368255764245987]"
1584451351621080986,,1182468,,1584451351,620783490,'',"[shoulder_pan_joint, shoulder_lift_joint, elbow_joint, wrist_1_joint, wrist_2_joint,","[1.4048181772232056, -1.1717408339129847, 2.4830222129821777, -2.8628271261798304, -1.5669100920306605, 2.7207064628601074]","[0.0, 0.0, -0.0, 0.0, 0.0, 0.0]","[-0.5081177353858948, -4.133606433868408, -0.9056914448738098, -0.6549683213233948, 0.0672912672162056, -0.1323394924402237]"
1584451351733094628,,1182482,,1584451351,732788105,'',"[shoulder_pan_joint, shoulder_lift_joint, elbow_joint, wrist_1_joint, wrist_2_joint,","[1.4048062562942505, -1.1717408339129847, 2.483046531677246, -2.862791363392965, -1.5669220129596155, 2.7207303047180176]","[0.0, 0.0, -0.0, 0.0, 0.0, 0.0]","[-0.5401611924171448, -4.156494617462158, -0.894482433795929, -0.6482391953468323, 0.0897216871380806, -0.1345825344324112]"
1584451351845140380,,1182496,,1584451351,844798201,'',"[shoulder_pan_joint, shoulder_lift_joint, elbow_joint, wrist_1_joint, wrist_2_joint,","[1.4048181772232056, -1.1717408339129847, 2.4830222129821777, -2.86277944246401, -1.5669100920306605, 2.7207183837890625]","[0.0, 0.0, -0.0, 0.0, 0.0, 0.0]","[-0.5676270127296448, -4.115295886993408, -0.8855151534080505, -0.6437531113624573, 0.0672912672162056, -0.1368255764245987]"
1584451351957096244,,1182510,,1584451351,956791646,'',"[shoulder_pan_joint, shoulder_lift_joint, elbow_joint, wrist_1_joint, wrist_2_joint,","[1.4048062562942505, -1.1717646757708948, 2.4830100536346436, -2.8628271261798304, -1.5669339338885706, 2.7207064628601074]","[0.0, 0.0, -0.0, 0.0, 0.0, 0.0]","[-0.5630493760108948, -4.216003894805908, -0.8989660143852234, -0.6459961533546448, 0.0807495191693306, -0.1368255764245987]"
1584451352069092463,,1182524,,1584451352,68786191,'',"[shoulder_pan_joint, shoulder_lift_joint, elbow_joint, wrist_1_joint, wrist_2_joint,","[1.4047942161560059, -1.1717522780047815, 2.4830100536346436, -2.86280328432192, -1.5669220129596155, 2.7207183837890625]","[0.0, 0.0, -0.0, 0.0, 0.0, 0.0]","[-0.5218506455421448, -4.161072254180908, -0.892240583896637, -0.6549683213233948, 0.0852356031537056, -0.1323394924402237]"
1584451352181076310,,1182538,,1584451352,180774987,'',"[shoulder_pan_joint, shoulder_lift_joint, elbow_joint, wrist_1_joint, wrist_2_joint,","[1.4048302173614502, -1.1717165152179163, 2.483034372329712, -2.862791363392965, -1.5669458548175257, 2.7207064628601074]","[0.0, 0.0, -0.0, 0.0, 0.0, 0.0]","[-0.4898071885108948, -4.170227527618408, -0.9056914448738098, -0.6572113633155823, 0.0785064771771431, -0.1368255764245987]"
1584451352293131339,,1182552,,1584451352,292759735,'',"[shoulder_pan_joint, shoulder_lift_joint, elbow_joint, wrist_1_joint, wrist_2_joint,","[1.4048302173614502, -1.1717522780047815, 2.4829742908477783, -2.8628390471087855, -1.5669339338885706, 2.7206943035125732]","[0.0, 0.0, -0.0, 0.0, 0.0, 0.0]","[-0.5584717392921448, -4.216003894805908, -0.9056914448738098, -0.6549683213233948, 0.0785064771771431, -0.1323394924402237]"
1584451352405100989,,1182566,,1584451352,404813993,'',"[shoulder_pan_joint, shoulder_lift_joint, elbow_joint, wrist_1_joint, wrist_2_joint,","[1.4047822952270508, -1.1717646757708948, 2.4830222129821777, -2.862791363392965, -1.5669100920306605, 2.7207183837890625]","[0.0, 0.0, -0.0, 0.0, 0.0, 0.0]","[-0.5218506455421448, -4.156494617462158, -0.8832733631134033, -0.6459961533546448, 0.1009368970990181, -0.1368255764245987]"
1584451352517171187,,1182580,,1584451352,516801877,'',"[shoulder_pan_joint, shoulder_lift_joint, elbow_joint, wrist_1_joint, wrist_2_joint,","[1.4048421382904053, -1.1717408339129847, 2.4830100536346436, -2.86277944246401, -1.5669458548175257, 2.7207183837890625]","[0.0, 0.0, -0.0, 0.0, 0.0, 0.0]","[-0.4943848252296448, -4.206848621368408, -0.9124168753623962, -0.6616974472999573, 0.0807495191693306, -0.1345825344324112]"
1584451352629065806,,1182594,,1584451352,628735510,'',"[shoulder_pan_joint, shoulder_lift_joint, elbow_joint, wrist_1_joint, wrist_2_joint,","[1.4048181772232056, -1.1717408339129847, 2.483034372329712, -2.86280328432192, -1.5669458548175257, 2.7207183837890625]","[0.0, 0.0, -0.0, 0.0, 0.0, 0.0]","[-0.5355835556983948, -4.174805164337158, -0.8899987936019897, -0.6504822373390198, 0.0919647291302681, -0.1368255764245987]"
1584451352741086823,,1182608,,1584451352,740836675,'',"[shoulder_pan_joint, shoulder_lift_joint, elbow_joint, wrist_1_joint, wrist_2_joint,","[1.4048062562942505, -1.1717522780047815, 2.4829981327056885, -2.8628152052508753, -1.5669100920306605, 2.7206943035125732]","[0.0, 0.0, -0.0, 0.0, 0.0, 0.0]","[-0.5035400986671448, -4.188538074493408, -0.892240583896637, -0.6527252793312073, 0.0852356031537056, -0.1278534084558487]"
1584451352853059378,,1182622,,1584451352,852733359,'',"[shoulder_pan_joint, shoulder_lift_joint, elbow_joint, wrist_1_joint, wrist_2_joint,","[1.4047942161560059, -1.1717284361468714, 2.4830100536346436, -2.862791363392965, -1.5669100920306605, 2.7207183837890625]","[0.0, 0.0, -0.0, 0.0, 0.0, 0.0]","[-0.5035400986671448, -4.216003894805908, -0.8967242240905762, -0.6504822373390198, 0.1121521145105362, -0.1345825344324112]"
1584451352965032033,,1182636,,1584451352,964727244,'',"[shoulder_pan_joint, shoulder_lift_joint, elbow_joint, wrist_1_joint, wrist_2_joint,","[1.4048181772232056, -1.1717522780047815, 2.4830222129821777, -2.8628152052508753, -1.5669220129596155, 2.7206943035125732]","[0.0, 0.0, -0.0, 0.0, 0.0, 0.0]","[-0.5310059189796448, -4.129028797149658, -0.910175085067749, -0.6639404892921448, 0.0695343092083931, -0.1368255764245987]"
1584451353077036088,,1182650,,1584451353,76731419,'',"[shoulder_pan_joint, shoulder_lift_joint, elbow_joint, wrist_1_joint, wrist_2_joint,","[1.4048062562942505, -1.1717408339129847, 2.4830222129821777, -2.86280328432192, -1.5669220129596155, 2.7207303047180176]","[0.0, 0.0, -0.0, 0.0, 0.0, 0.0]","[-0.5310059189796448, -4.129028797149658, -0.894482433795929, -0.6594544053077698, 0.1143951565027237, -0.1345825344324112]"
1584451353189048097,,1182664,,1584451353,188737717,'',"[shoulder_pan_joint, shoulder_lift_joint, elbow_joint, wrist_1_joint, wrist_2_joint,","[1.4048181772232056, -1.1717408339129847, 2.4830222129821777, -2.862791363392965, -1.5668981711017054, 2.7207064628601074]","[0.0, 0.0, -0.0, 0.0, 0.0, 0.0]","[-0.5401611924171448, -4.170227527618408, -0.894482433795929, -0.6616974472999573, 0.0852356031537056, -0.1256103664636612]"
1584451353301139283,,1182678,,1584451353,300838542,'',"[shoulder_pan_joint, shoulder_lift_joint, elbow_joint, wrist_1_joint, wrist_2_joint,","[1.4047942161560059, -1.1717408339129847, 2.483034372329712, -2.86280328432192, -1.5669220129596155, 2.7207422256469727]","[0.0, 0.0, -0.0, 0.0, 0.0, 0.0]","[-0.5172730088233948, -4.188538074493408, -0.8787897229194641, -0.6504822373390198, 0.0740203931927681, -0.1300964504480362]"
1584451353413082073,,1182692,,1584451353,412781532,'',"[shoulder_pan_joint, shoulder_lift_joint, elbow_joint, wrist_1_joint, wrist_2_joint,","[1.4048181772232056, -1.1717646757708948, 2.4830100536346436, -2.862791363392965, -1.5669458548175257, 2.7206943035125732]","[0.0, 0.0, -0.0, 0.0, 0.0, 0.0]","[-0.5401611924171448, -4.234314441680908, -0.8877570033073425, -0.6415100693702698, 0.0874786451458931, -0.1323394924402237]"
1584451353525043397,,1182706,,1584451353,524726004,'',"[shoulder_pan_joint, shoulder_lift_joint, elbow_joint, wrist_1_joint, wrist_2_joint,","[1.4048181772232056, -1.1717408339129847, 2.4830100536346436, -2.862791363392965, -1.5669100920306605, 2.7207303047180176]","[0.0, 0.0, -0.0, 0.0, 0.0, 0.0]","[-0.5584717392921448, -4.197693347930908, -0.9034496545791626, -0.6594544053077698, 0.0740203931927681, -0.1323394924402237]"
1584451353637072328,,1182720,,1584451353,636771526,'',"[shoulder_pan_joint, shoulder_lift_joint, elbow_joint, wrist_1_joint, wrist_2_joint,","[1.4048062562942505, -1.1717522780047815, 2.4830100536346436, -2.86280328432192, -1.5669220129596155, 2.7206943035125732]","[0.0, 0.0, -0.0, 0.0, 0.0, 0.0]","[-0.5493164658546448, -4.165649890899658, -0.8989660143852234, -0.6549683213233948, 0.0785064771771431, -0.1345825344324112]"
1584451353749081582,,1182734,,1584451353,748765913,'',"[shoulder_pan_joint, shoulder_lift_joint, elbow_joint, wrist_1_joint, wrist_2_joint,","[1.4048181772232056, -1.1717522780047815, 2.483046531677246, -2.86280328432192, -1.5669339338885706, 2.7207183837890625]","[0.0, 0.0, -0.0, 0.0, 0.0, 0.0]","[-0.5218506455421448, -4.257202625274658, -0.8989660143852234, -0.6504822373390198, 0.0785064771771431, -0.1323394924402237]"
1584451353861074114,,1182748,,1584451353,860779885,'',"[shoulder_pan_joint, shoulder_lift_joint, elbow_joint, wrist_1_joint, wrist_2_joint,","[1.4047822952270508, -1.1717284361468714, 2.4830100536346436, -2.86277944246401, -1.5669220129596155, 2.7206943035125732]","[0.0, 0.0, -0.0, 0.0, 0.0, 0.0]","[-0.5310059189796448, -4.156494617462158, -0.9034496545791626, -0.6415100693702698, 0.0740203931927681, -0.1390686184167862]"
1584451353973043714,,1182762,,1584451353,972703870,'',"[shoulder_pan_joint, shoulder_lift_joint, elbow_joint, wrist_1_joint, wrist_2_joint,","[1.4048062562942505, -1.1717646757708948, 2.4830100536346436, -2.8628271261798304, -1.5669220129596155, 2.7207064628601074]","[0.0, 0.0, -0.0, 0.0, 0.0, 0.0]","[-0.5172730088233948, -4.211426258087158, -0.892240583896637, -0.6482391953468323, 0.0785064771771431, -0.1368255764245987]"
1584451354085038632,,1182776,,1584451354,84677597,'',"[shoulder_pan_joint, shoulder_lift_joint, elbow_joint, wrist_1_joint, wrist_2_joint,","[1.4048181772232056, -1.1717284361468714, 2.4830222129821777, -2.86280328432192, -1.5669339338885706, 2.720754384994507]","[0.0, 0.0, -0.0, 0.0, 0.0, 0.0]","[-0.4669190049171448, -4.138184070587158, -0.8989660143852234, -0.6549683213233948, 0.0785064771771431, -0.1345825344324112]"
1584451354196957346,,1182790,,1584451354,196655542,'',"[shoulder_pan_joint, shoulder_lift_joint, elbow_joint, wrist_1_joint, wrist_2_joint,","[1.4048062562942505, -1.1717165152179163, 2.483034372329712, -2.8628152052508753, -1.5669100920306605, 2.7207064628601074]","[0.0, 0.0, -0.0, 0.0, 0.0, 0.0]","[-0.4943848252296448, -4.110718250274658, -0.8989660143852234, -0.6527252793312073, 0.0919647291302681, -0.1435547024011612]"
1584451354309054615,,1182804,,1584451354,308772067,'',"[shoulder_pan_joint, shoulder_lift_joint, elbow_joint, wrist_1_joint, wrist_2_joint,","[1.4048421382904053, -1.1717408339129847, 2.4830100536346436, -2.8628152052508753, -1.5669339338885706, 2.7207064628601074]","[0.0, 0.0, -0.0, 0.0, 0.0, 0.0]","[-0.5172730088233948, -4.179382801055908, -0.8787897229194641, -0.6504822373390198, 0.0829925611615181, -0.1323394924402237]"
1584451354420949094,,1182818,,1584451354,420642170,'',"[shoulder_pan_joint, shoulder_lift_joint, elbow_joint, wrist_1_joint, wrist_2_joint,","[1.4047702550888062, -1.1717646757708948, 2.483034372329712, -2.8628152052508753, -1.5669339338885706, 2.7207422256469727]","[0.0, 0.0, -0.0, 0.0, 0.0, 0.0]","[-0.5584717392921448, -4.156494617462158, -0.9012078642845154, -0.6392670273780823, 0.0919647291302681, -0.1413116604089737]"
1584451354532964359,,1182832,,1584451354,532633401,'',"[shoulder_pan_joint, shoulder_lift_joint, elbow_joint, wrist_1_joint, wrist_2_joint,","[1.4048181772232056, -1.1717522780047815, 2.4830222129821777, -2.862791363392965, -1.5669220129596155, 2.7202038764953613]","[0.0, 0.0, -0.0, 0.0, 0.0, -0.023738352581858635]","[-0.4669190049171448, -4.161072254180908, -0.8967242240905762, -0.6504822373390198, 0.0852356031537056, -0.3521576225757599]"
1584451354644982720,,1182846,,1584451354,644687749,'',"[shoulder_pan_joint, shoulder_lift_joint, elbow_joint, wrist_1_joint, wrist_2_joint,","[1.4048302173614502, -1.1717646757708948, 2.483034372329712, -2.862791363392965, -1.566885773335592, 2.709547281265259]","[0.0, 0.0, -0.0, 0.0, 0.0, -0.17924566566944122]","[-0.5493164658546448, -4.174805164337158, -0.894482433795929, -0.6594544053077698, 0.0717773512005806, -0.4149627983570099]"
1584451354756992925,,1182860,,1584451354,756765961,'',"[shoulder_pan_joint, shoulder_lift_joint, elbow_joint, wrist_1_joint, wrist_2_joint,","[1.4048302173614502, -1.17177659669985, 2.483034372329712, -2.8628152052508753, -1.5669220129596155, 2.686953067779541]","[0.0, 0.0, -0.0, 0.0, 0.0, -0.19813279807567596]","[-0.5172730088233948, -4.147339344024658, -0.894482433795929, -0.6594544053077698, 0.0852356031537056, -0.4777680039405823]"
1584451354868942849,,1182874,,1584451354,868702019,'',"[shoulder_pan_joint, shoulder_lift_joint, elbow_joint, wrist_1_joint, wrist_2_joint,","[1.4048062562942505, -1.1717284361468714, 2.483058452606201, -2.86280328432192, -1.5668981711017054, 2.6645753383636475]","[0.0, 0.0, -0.0, 0.0, 0.0, -0.20229372382164001]","[-0.5493164658546448, -4.206848621368408, -0.9236259460449219, -0.6549683213233948, 0.0897216871380806, -0.4127197563648224]"
1584451354980854510,,1182888,,1584451354,980671208,'',"[shoulder_pan_joint, shoulder_lift_joint, elbow_joint, wrist_1_joint, wrist_2_joint,","[1.4048302173614502, -1.17177659669985, 2.4830222129821777, -2.8628152052508753, -1.566885773335592, 2.642221212387085]","[0.0, 0.0, -0.0, 0.0, 0.0, -0.19895730912685394]","[-0.5447388291358948, -4.206848621368408, -0.894482433795929, -0.6572113633155823, 0.0919647291302681, -0.5001984238624573]"
1584451355092878371,,1182902,,1584451355,92674400,'',"[shoulder_pan_joint, shoulder_lift_joint, elbow_joint, wrist_1_joint, wrist_2_joint,","[1.4048181772232056, -1.1717408339129847, 2.483034372329712, -2.86277944246401, -1.566885773335592, 2.6197359561920166]","[0.0, 0.0, -0.0, 0.0, 0.0, -0.19951337575912476]","[-0.4806519150733948, -4.216003894805908, -0.8989660143852234, -0.6527252793312073, 0.0583190992474556, -0.4844971299171448]"
1584451355204922310,,1182916,,1584451355,204643269,'',"[shoulder_pan_joint, shoulder_lift_joint, elbow_joint, wrist_1_joint, wrist_2_joint,","[1.4047942161560059, -1.17177659669985, 2.483034372329712, -2.8627551237689417, -1.566885773335592, 2.5972869396209717]","[0.0, 0.0, -0.0, 0.0, 0.0, -0.2018526941537857]","[-0.4989624619483948, -4.170227527618408, -0.894482433795929, -0.6527252793312073, 0.0740203931927681, -0.4149627983570099]"
1584451355316985154,,1182930,,1584451355,316744204,'',"[shoulder_pan_joint, shoulder_lift_joint, elbow_joint, wrist_1_joint, wrist_2_joint,","[1.4048302173614502, -1.1717522780047815, 2.4830822944641113, -2.86280328432192, -1.566873852406637, 2.57499361038208]","[0.0, 0.0, -0.0, 0.0, 0.0, -0.19918741285800934]","[-0.5538941025733948, -4.156494617462158, -0.8877570033073425, -0.6504822373390198, 0.0717773512005806, -0.5787048935890198]"
1584451355428893058,,1182944,,1584451355,428624857,'',"[shoulder_pan_joint, shoulder_lift_joint, elbow_joint, wrist_1_joint, wrist_2_joint,","[1.4048421382904053, -1.1717646757708948, 2.483058452606201, -2.8628271261798304, -1.566873852406637, 2.552520990371704]","[0.0, 0.0, -0.0, 0.0, 0.0, -0.20227454602718353]","[-0.5401611924171448, -4.165649890899658, -0.9034496545791626, -0.6616974472999573, 0.01794433780014515, -0.3992615044116974]"
1584451355540900870,,1182958,,1584451355,540633120,'',"[shoulder_pan_joint, shoulder_lift_joint, elbow_joint, wrist_1_joint, wrist_2_joint,","[1.4048421382904053, -1.1717522780047815, 2.4830822944641113, -2.8628152052508753, -1.566861931477682, 2.5300486087799072]","[0.0, 0.0, -0.0, 0.0, 0.0, -0.1992449313402176]","[-0.5630493760108948, -4.174805164337158, -0.892240583896637, -0.6459961533546448, -0.0471038855612278, -0.5787048935890198]"
1584451355652951751,,1182972,,1584451355,652636192,'',"[shoulder_pan_joint, shoulder_lift_joint, elbow_joint, wrist_1_joint, wrist_2_joint,","[1.4048302173614502, -1.1717522780047815, 2.4830703735351562, -2.862791363392965, -1.5669458548175257, 2.5078279972076416]","[0.0, 0.0, -0.0, 0.0, -0.0007094661123119295, -0.20020367205142975]","[-0.5722046494483948, -4.229736804962158, -0.8989660143852234, -0.6616974472999573, -0.0403747595846653, -0.4575806260108948]"
1584451355764994458,,1182986,,1584451355,764720686,'',"[shoulder_pan_joint, shoulder_lift_joint, elbow_joint, wrist_1_joint, wrist_2_joint,","[1.4048302173614502, -1.1717408339129847, 2.4830703735351562, -2.862767521535055, -1.5669100920306605, 2.485260486602783]","[0.0, 0.0, -0.0, 0.0, -0.0002109223569277674, -0.1985354721546173]","[-0.6134033799171448, -4.156494617462158, -0.8877570033073425, -0.6572113633155823, -0.0403747595846653, -0.5181427597999573]"
1584451355876951695,,1183000,,1584451355,876665770,'',"[shoulder_pan_joint, shoulder_lift_joint, elbow_joint, wrist_1_joint, wrist_2_joint,","[1.4048302173614502, -1.1717646757708948, 2.4830703735351562, -2.86277944246401, -1.5669339338885706, 2.4628965854644775]","[0.0, 0.0, -0.0, 0.0, -0.00011504856229294091, -0.19976265728473663]","[-0.6729126572608948, -4.151916980743408, -0.9191423058509827, -0.6527252793312073, -0.0448608435690403, -0.4598236680030823]"
1584451355989142447,,1183014,,1584451355,988703517,'',"[shoulder_pan_joint, shoulder_lift_joint, elbow_joint, wrist_1_joint, wrist_2_joint,","[1.4048181772232056, -1.1717408339129847, 2.4830703735351562, -2.862767521535055, -1.5669220129596155, 2.4404609203338623]","[0.0, 0.0, -0.0, 0.0, -7.669904152862728e-05, -0.20028036832809448]","[-0.8239746689796448, -4.229736804962158, -0.9191423058509827, -0.6482391953468323, -0.0515899695456028, -0.4710388779640198]"
1584451356101029904,,1183028,,1584451356,100633012,'',"[shoulder_pan_joint, shoulder_lift_joint, elbow_joint, wrist_1_joint, wrist_2_joint,","[1.4048062562942505, -1.1717522780047815, 2.4830944538116455, -2.8627551237689417, -1.5669339338885706, 2.4180731773376465]","[0.0, 0.0, -0.0, 0.0, -5.752428114647046e-05, -0.20006944239139557]","[-0.8697510361671448, -4.275513172149658, -0.9236259460449219, -0.6661835312843323, -0.0493469275534153, -0.5293579697608948]"
1584451356213083911,,1183042,,1584451356,212726644,'',"[shoulder_pan_joint, shoulder_lift_joint, elbow_joint, wrist_1_joint, wrist_2_joint,","[1.4047822952270508, -1.1717646757708948, 2.4831182956695557, -2.862767521535055, -1.5669458548175257, 2.3957698345184326]","[0.0, 0.0, -0.0, 0.0, -5.752428114647046e-05, -0.20181435346603394]","[-0.8102417588233948, -4.243469715118408, -0.9325931668281555, -0.6549683213233948, -0.0471038855612278, -0.4239349663257599]"
1584451356325206066,,1183056,,1584451356,324770021,'',"[shoulder_pan_joint, shoulder_lift_joint, elbow_joint, wrist_1_joint, wrist_2_joint,","[1.4047822952270508, -1.1717522780047815, 2.4831182956695557, -2.8627312819110315, -1.5669220129596155, 2.373263120651245]","[0.0, 0.0, -0.0, 0.0, -3.834952076431364e-05, -0.19905318319797516]","[-0.7781983017921448, -4.179382801055908, -0.9751875996589661, -0.6639404892921448, -0.0448608435690403, -0.5158997178077698]"
1584451356436948151,,1183070,,1584451356,436604178,'',"[shoulder_pan_joint, shoulder_lift_joint, elbow_joint, wrist_1_joint, wrist_2_joint,","[1.4048062562942505, -1.1717408339129847, 2.4830944538116455, -2.8627551237689417, -1.5669220129596155, 2.3508996963500977]","[0.0, 0.0, -0.0, 0.0, -3.834952076431364e-05, -0.20229372382164001]","[-0.8056641221046448, -4.165649890899658, -1.0917617082595825, -0.6594544053077698, -0.0471038855612278, -0.4575806260108948]"
1584451356549077118,,1183084,,1584451356,548637326,'',"[shoulder_pan_joint, shoulder_lift_joint, elbow_joint, wrist_1_joint, wrist_2_joint,","[1.4048181772232056, -1.1717408339129847, 2.4831063747406006, -2.86277944246401, -1.5669100920306605, 2.328620672225952]","[0.0, 0.0, 5.1132694352418184e-05, 0.0, -1.917476038215682e-05, -0.19891896843910217]","[-0.8239746689796448, -4.174805164337158, -1.2128194570541382, -0.6572113633155823, -0.0538330152630806, -0.5450592637062073]"
1584451356661086191,,1183098,,1584451356,660645498,'',"[shoulder_pan_joint, shoulder_lift_joint, elbow_joint, wrist_1_joint, wrist_2_joint,","[1.4048302173614502, -1.1717646757708948, 2.48313045501709, -2.8627432028399866, -1.5669220129596155, 2.3060665130615234]","[0.0, 0.0, 5.1132694352418184e-05, 0.0, -1.917476038215682e-05, -0.19874638319015503]","[-0.8285523056983948, -4.174805164337158, -1.3383609056472778, -0.6504822373390198, -0.0471038855612278, -0.5024414658546448]"
1584451356772961525,,1183112,,1584451356,772607124,'',"[shoulder_pan_joint, shoulder_lift_joint, elbow_joint, wrist_1_joint, wrist_2_joint,","[1.4048302173614502, -1.1717646757708948, 2.4830822944641113, -2.862767521535055, -1.5669220129596155, 2.2836556434631348]","[0.0, 0.0, 5.1132694352418184e-05, 0.0, -1.917476038215682e-05, -0.19897648692131042]","[-0.7965088486671448, -4.183960437774658, -1.4930458068847656, -0.6572113633155823, -0.0448608435690403, -0.5069275498390198]"
1584451356884923561,,1183126,,1584451356,884555523,'',"[shoulder_pan_joint, shoulder_lift_joint, elbow_joint, wrist_1_joint, wrist_2_joint,","[1.4048302173614502, -1.1717646757708948, 2.48313045501709, -2.8627551237689417, -1.566885773335592, 2.2613165378570557]","[0.0, 0.0, -8.948221511673182e-05, 0.0, -1.917476038215682e-05, -0.2017376571893692]","[-0.7324219346046448, -4.225159168243408, -1.6544561386108398, -0.6527252793312073, -0.0538330152630806, -0.4575806260108948]"
1584451356997054783,,1183140,,1584451356,996636251,'',"[shoulder_pan_joint, shoulder_lift_joint, elbow_joint, wrist_1_joint, wrist_2_joint,","[1.4048302173614502, -1.1717646757708948, 2.4830822944641113, -2.8627432028399866, -1.5668981711017054, 2.238882541656494]","[0.0, 0.0, -0.00029401297797448933, 0.0, -1.917476038215682e-05, -0.20028036832809448]","[-0.7415772080421448, -4.170227527618408, -1.688083291053772, -0.6616974472999573, -0.0515899695456028, -0.4979553818702698]"
1584451357108958079,,1183154,,1584451357,108588639,'',"[shoulder_pan_joint, shoulder_lift_joint, elbow_joint, wrist_1_joint, wrist_2_joint,","[1.4048302173614502, -1.1717165152179163, 2.4830822944641113, -2.8627198378192347, -1.5668981711017054, 2.216495990753174]","[0.0, 0.0, -0.00029401297797448933, 0.0, -1.917476038215682e-05, -0.19801774621009827]","[-0.8010864853858948, -4.193115711212158, -1.690325140953064, -0.6639404892921448, -0.0471038855612278, -0.6325379014015198]"
1584451357221033866,,1183168,,1584451357,220596620,'',"[shoulder_pan_joint, shoulder_lift_joint, elbow_joint, wrist_1_joint, wrist_2_joint,","[1.4048181772232056, -1.1717408339129847, 2.4830703735351562, -2.8627198378192347, -1.5669220129596155, 2.1941096782684326]","[0.0, 0.0, -0.00015339808305725455, 0.0, -1.917476038215682e-05, -0.20121993124485016]","[-0.8285523056983948, -4.156494617462158, -1.6813578605651855, -0.6616974472999573, -0.0493469275534153, -0.4530945420265198]"
1584451357332831856,,1183182,,1584451357,332500287,'',"[shoulder_pan_joint, shoulder_lift_joint, elbow_joint, wrist_1_joint, wrist_2_joint,","[1.4047822952270508, -1.1717284361468714, 2.4830822944641113, -2.8627079168902796, -1.5669100920306605, 2.1717233657836914]","[0.0, 0.0, -0.0, 0.0, -1.917476038215682e-05, -0.19914905726909637]","[-0.7873535752296448, -4.165649890899658, -1.6948087215423584, -0.6482391953468323, -0.0493469275534153, -0.5674896836280823]"
1584451357444886063,,1183196,,1584451357,444534166,'',"[shoulder_pan_joint, shoulder_lift_joint, elbow_joint, wrist_1_joint, wrist_2_joint,","[1.4048181772232056, -1.1717522780047815, 2.483046531677246, -2.8627079168902796, -1.5669220129596155, 2.149325132369995]","[0.0, 0.0, -0.0, 0.0, -1.917476038215682e-05, -0.1995709091424942]","[-0.8285523056983948, -4.142761707305908, -1.6858415603637695, -0.6594544053077698, -0.0471038855612278, -0.5069275498390198]"
1584451357556898754,,1183210,,1584451357,556500991,'',"[shoulder_pan_joint, shoulder_lift_joint, elbow_joint, wrist_1_joint, wrist_2_joint,","[1.4048062562942505, -1.1717522780047815, 2.4830822944641113, -2.8627432028399866, -1.5669100920306605, 2.1269149780273438]","[0.0, 0.0, -0.0, 0.0, 0.0, -0.19857381284236908]","[-0.8377075791358948, -4.238892078399658, -1.6768742799758911, -0.6729126572608948, -0.0493469275534153, -0.4979553818702698]"
1584451357668881809,,1183224,,1584451357,668532427,'',"[shoulder_pan_joint, shoulder_lift_joint, elbow_joint, wrist_1_joint, wrist_2_joint,","[1.4047942161560059, -1.1717165152179163, 2.4830822944641113, -2.8627198378192347, -1.5669100920306605, 2.104468822479248]","[0.0, 0.0, -0.0, 0.0, 0.0, -0.2008364349603653]","[-0.8377075791358948, -4.211426258087158, -1.6813578605651855, -0.6841278672218323, -0.0538330152630806, -0.4957123398780823]"
1584451357780865505,,1183238,,1584451357,780502126,'',"[shoulder_pan_joint, shoulder_lift_joint, elbow_joint, wrist_1_joint, wrist_2_joint,","[1.4048181772232056, -1.1717646757708948, 2.4830703735351562, -2.862659756337301, -1.5669100920306605, 2.0821542739868164]","[0.0, 0.0, -0.0, 0.0, 0.0, -0.1984395980834961]","[-0.8331299424171448, -4.225159168243408, -1.6858415603637695, -0.6818848252296448, -0.0538330152630806, -0.5540314316749573]"
1584451357892941183,,1183252,,1584451357,892573146,'',"[shoulder_pan_joint, shoulder_lift_joint, elbow_joint, wrist_1_joint, wrist_2_joint,","[1.4048302173614502, -1.1717646757708948, 2.4830703735351562, -2.8627079168902796, -1.5668981711017054, 2.059648275375366]","[0.0, 0.0, -0.0, 0.0, 0.0, -0.20028036832809448]","[-0.8514404892921448, -4.193115711212158, -1.6992924213409424, -0.7289887070655823, -0.0605621412396431, -0.5338440537452698]"
1584451358004934738,,1183266,,1584451358,4566851,'',"[shoulder_pan_joint, shoulder_lift_joint, elbow_joint, wrist_1_joint, wrist_2_joint,","[1.4048062562942505, -1.1717522780047815, 2.4830822944641113, -2.8627312819110315, -1.5668500105487269, 2.0372979640960693]","[0.0, 0.0, -0.0, 0.0, 0.0, -0.20131580531597137]","[-0.8605957627296448, -4.248047351837158, -1.6835997104644775, -0.7716065049171448, -0.0583190992474556, -0.4575806260108948]"
1584451358116972344,,1183280,,1584451358,116555155,'',"[shoulder_pan_joint, shoulder_lift_joint, elbow_joint, wrist_1_joint, wrist_2_joint,","[1.4048181772232056, -1.1717408339129847, 2.4830822944641113, -2.8627312819110315, -1.5668981711017054, 2.015007495880127]","[0.0, 0.0, -0.0, 0.0, 0.0, -0.20089396834373474]","[-0.9201050996780396, -4.234314441680908, -1.7037760019302368, -0.8456268906593323, -0.0807495191693306, -0.5742188096046448]"
1584451358228980937,,1183294,,1584451358,228529283,'',"[shoulder_pan_joint, shoulder_lift_joint, elbow_joint, wrist_1_joint, wrist_2_joint,","[1.4048302173614502, -1.1717408339129847, 2.4830822944641113, -2.8627198378192347, -1.566861931477682, 1.992429494857788]","[0.0, 0.0, -0.0, 0.0, 0.0, -0.2015267312526703]","[-1.0253907442092896, -4.202270984649658, -1.7015341520309448, -0.8366547226905823, -0.1345825344324112, -0.4396362900733948]"
1584451358341103151,,1183308,,1584451358,340529480,'',"[shoulder_pan_joint, shoulder_lift_joint, elbow_joint, wrist_1_joint, wrist_2_joint,","[1.4048062562942505, -1.1717284361468714, 2.4830822944641113, -2.8627312819110315, -1.5669100920306605, 1.9700793027877808]","[0.0, 0.0, -0.0, 0.0, 0.0, -0.20006944239139557]","[-0.9521485567092896, -4.252624988555908, -1.7060178518295288, -0.8344116806983948, -0.1659851223230362, -0.5495453476905823]"
1584451358452910769,,1183322,,1584451358,452489602,'',"[shoulder_pan_joint, shoulder_lift_joint, elbow_joint, wrist_1_joint, wrist_2_joint,","[1.4048302173614502, -1.1717522780047815, 2.4830703735351562, -2.8627312819110315, -1.5669339338885706, 1.9476927518844604]","[0.0, 0.0, -0.0, 0.0, 0.0, -0.2004912942647934]","[-0.9338380098342896, -4.161072254180908, -1.7172268629074097, -0.8433838486671448, -0.1659851223230362, -0.5136566758155823]"
1584451358565165071,,1183336,,1584451358,564672751,'',"[shoulder_pan_joint, shoulder_lift_joint, elbow_joint, wrist_1_joint, wrist_2_joint,","[1.4048181772232056, -1.1717522780047815, 2.4830944538116455, -2.8627198378192347, -1.5668981711017054, 1.925174355506897]","[0.0, 0.0, -0.0, 0.0, 0.0, -0.19773012399673462]","[-0.9567261934280396, -4.156494617462158, -1.7149850130081177, -0.8321686387062073, -0.1570129543542862, -0.6347809433937073]"
1584451358676974801,,1183350,,1584451358,676470920,'',"[shoulder_pan_joint, shoulder_lift_joint, elbow_joint, wrist_1_joint, wrist_2_joint,","[1.4048421382904053, -1.1717646757708948, 2.4830822944641113, -2.8627079168902796, -1.566873852406637, 1.9027994871139526]","[0.0, 0.0, -0.0, 0.0, 0.0, -0.1998009979724884]","[-0.9887696504592896, -4.202270984649658, -1.72843599319458, -0.8276825547218323, -0.1614990383386612, -0.5405731797218323]"
1584451358789045751,,1183364,,1584451358,788514118,'',"[shoulder_pan_joint, shoulder_lift_joint, elbow_joint, wrist_1_joint, wrist_2_joint,","[1.4048062562942505, -1.1717284361468714, 2.4830822944641113, -2.8627198378192347, -1.5668981711017054, 1.8804244995117188]","[0.0, 0.0, -0.0, 0.0, 0.0, -0.2006063461303711]","[-0.9933472871780396, -4.206848621368408, -1.7306777238845825, -0.8545990586280823, -0.1570129543542862, -0.5181427597999573]"
1584451358900889676,,1183378,,1584451358,900464252,'',"[shoulder_pan_joint, shoulder_lift_joint, elbow_joint, wrist_1_joint, wrist_2_joint,","[1.4048302173614502, -1.1717522780047815, 2.4830944538116455, -2.8627198378192347, -1.566861931477682, 1.85801362991333]","[0.0, 0.0, -0.0, 0.0, 0.0, -0.1995709091424942]","[-0.9704591035842896, -4.225159168243408, -1.7329195737838745, -0.8501129746437073, -0.1637420803308487, -0.5697327256202698]"
1584451359013108812,,1183392,,1584451359,12586616,'',"[shoulder_pan_joint, shoulder_lift_joint, elbow_joint, wrist_1_joint, wrist_2_joint,","[1.4048421382904053, -1.1717408339129847, 2.4831182956695557, -2.8627079168902796, -1.566873852406637, 1.8356271982192993]","[0.0, 0.0, -0.0, 0.0, 0.0, -0.2008172571659088]","[-0.9933472871780396, -4.197693347930908, -1.7530958652496338, -0.8344116806983948, -0.1637420803308487, -0.4575806260108948]"
1584451359124898786,,1183406,,1584451359,124523255,'',"[shoulder_pan_joint, shoulder_lift_joint, elbow_joint, wrist_1_joint, wrist_2_joint,","[1.4048062562942505, -1.1717045942889612, 2.4830703735351562, -2.8627551237689417, -1.566873852406637, 1.8132039308547974]","[0.0, 0.0, -0.0, 0.0, 0.0, -0.20121993124485016]","[-0.9887696504592896, -4.216003894805908, -1.7194687128067017, -0.8164673447608948, -0.1772003322839737, -0.5742188096046448]"
1584451359236897370,,1183420,,1584451359,236531717,'',"[shoulder_pan_joint, shoulder_lift_joint, elbow_joint, wrist_1_joint, wrist_2_joint,","[1.4048181772232056, -1.1717646757708948, 2.4831063747406006, -2.8627312819110315, -1.566873852406637, 1.7908645868301392]","[0.0, 0.0, -0.0, 0.0, 0.0, -0.20160342752933502]","[-0.9155274629592896, -4.229736804962158, -1.7194687128067017, -0.8142243027687073, -0.2130890041589737, -0.4867401719093323]"
1584451359348948412,,1183434,,1584451359,348538596,'',"[shoulder_pan_joint, shoulder_lift_joint, elbow_joint, wrist_1_joint, wrist_2_joint,","[1.4048302173614502, -1.1717284361468714, 2.4831182956695557, -2.8627551237689417, -1.566885773335592, 1.7685009241104126]","[0.0, 0.0, -0.0, 0.0, -1.917476038215682e-05, -0.19761507213115692]","[-0.9292603731155396, -4.183960437774658, -1.7329195737838745, -0.8568421006202698, -0.2130890041589737, -0.5517883896827698]"
1584451359460932168,,1183448,,1584451359,460502546,'',"[shoulder_pan_joint, shoulder_lift_joint, elbow_joint, wrist_1_joint, wrist_2_joint,","[1.4048181772232056, -1.1717646757708948, 2.4831063747406006, -2.8627312819110315, -1.566885773335592, 1.746017336845398]","[0.0, 0.0, -0.0, 0.0, -1.917476038215682e-05, -0.19914905726909637]","[-0.9796143770217896, -4.179382801055908, -1.739645004272461, -0.8658143281936646, -0.2220611870288849, -0.5091705918312073]"
1584451359572974694,,1183462,,1584451359,572513653,'',"[shoulder_pan_joint, shoulder_lift_joint, elbow_joint, wrist_1_joint, wrist_2_joint,","[1.4048062562942505, -1.1717646757708948, 2.4830944538116455, -2.8627079168902796, -1.5668981711017054, 1.723605751991272]","[0.0, 0.0, -0.0, 0.0, -1.917476038215682e-05, -0.19884225726127625]","[-0.9933472871780396, -4.170227527618408, -1.72843599319458, -0.8254395127296448, -0.2063598781824112, -0.5517883896827698]"
1584451359684905401,,1183476,,1584451359,684489615,'',"[shoulder_pan_joint, shoulder_lift_joint, elbow_joint, wrist_1_joint, wrist_2_joint,","[1.4048181772232056, -1.1717165152179163, 2.4831063747406006, -2.8627198378192347, -1.5668981711017054, 1.7012536525726318]","[0.0, 0.0, -0.0, 0.0, -1.917476038215682e-05, -0.20100900530815125]","[-0.9704591035842896, -4.202270984649658, -1.7351614236831665, -0.8209534287452698, -0.2108459621667862, -0.4979553818702698]"
1584451359796851187,,1183490,,1584451359,796455307,'',"[shoulder_pan_joint, shoulder_lift_joint, elbow_joint, wrist_1_joint, wrist_2_joint,","[1.4048062562942505, -1.1717408339129847, 2.4830822944641113, -2.8627312819110315, -1.566885773335592, 1.6787813901901245]","[0.0, 0.0, -0.0, 0.0, -1.917476038215682e-05, -0.20018449425697327]","[-1.0437012910842896, -4.270935535430908, -1.7530958652496338, -0.8276825547218323, -0.2287903130054474, -0.5428162217140198]"
1584451359909010941,,1183504,,1584451359,908479699,'',"[shoulder_pan_joint, shoulder_lift_joint, elbow_joint, wrist_1_joint, wrist_2_joint,","[1.4048302173614502, -1.1717408339129847, 2.4830703735351562, -2.8627198378192347, -1.5668981711017054, 1.6564408540725708]","[0.0, 0.0, -0.0, 0.0, -1.917476038215682e-05, -0.19997356832027435]","[-1.1260987520217896, -4.252624988555908, -1.775514006614685, -0.868057370185852, -0.2310333549976349, -0.5787048935890198]"
1584451360020896474,,1183518,,1584451360,20470028,'',"[shoulder_pan_joint, shoulder_lift_joint, elbow_joint, wrist_1_joint, wrist_2_joint,","[1.4048062562942505, -1.17180043855776, 2.483046531677246, -2.8627432028399866, -1.566885773335592, 1.6339322328567505]","[0.0, 0.0, -0.0, 0.0, -1.917476038215682e-05, -0.20089396834373474]","[-1.0345460176467896, -4.234314441680908, -1.7598212957382202, -0.8254395127296448, -0.2198181450366974, -0.4643097519874573]"
1584451360132739769,,1183532,,1584451360,132400595,'',"[shoulder_pan_joint, shoulder_lift_joint, elbow_joint, wrist_1_joint, wrist_2_joint,","[1.4048181772232056, -1.1717045942889612, 2.483058452606201, -2.8627551237689417, -1.5668981711017054, 1.6115670204162598]","[0.0, 0.0, -0.0, 0.0, -1.917476038215682e-05, -0.19836290180683136]","[-1.0162354707717896, -4.248047351837158, -1.7530958652496338, -0.8097382187843323, -0.2265472710132599, -0.6527252793312073]"
1584451360244853557,,1183546,,1584451360,244502191,'',"[shoulder_pan_joint, shoulder_lift_joint, elbow_joint, wrist_1_joint, wrist_2_joint,","[1.4048062562942505, -1.1717165152179163, 2.4830222129821777, -2.8627312819110315, -1.566873852406637, 1.5892378091812134]","[0.0, 0.0, -0.0005752427969127893, 0.0, -1.917476038215682e-05, -0.20028036832809448]","[-1.0299683809280396, -4.133606433868408, -1.723952293395996, -0.8366547226905823, -0.2130890041589737, -0.5248718857765198]"
1584451360356745402,,1183560,,1584451360,356408102,'',"[shoulder_pan_joint, shoulder_lift_joint, elbow_joint, wrist_1_joint, wrist_2_joint,","[1.4047942161560059, -1.1717408339129847, 2.483034372329712, -2.8627312819110315, -1.5668981711017054, 1.5669082403182983]","[0.0, 0.0, -0.00020453077740967274, 0.0, -1.917476038215682e-05, -0.198094442486763]","[-1.0345460176467896, -4.170227527618408, -1.7105014324188232, -0.8321686387062073, -0.2422485649585724, -0.6258087754249573]"
1584451360468850755,,1183574,,1584451360,468442893,'',"[shoulder_pan_joint, shoulder_lift_joint, elbow_joint, wrist_1_joint, wrist_2_joint,","[1.4048062562942505, -1.1717408339129847, 2.4830222129821777, -2.8627198378192347, -1.5669100920306605, 1.5445183515548706]","[0.0, 0.0, -0.00012783173588104546, 0.0, -1.917476038215682e-05, -0.2007022202014923]","[-0.9887696504592896, -4.243469715118408, -1.7194687128067017, -0.8590851426124573, -0.2557068169116974, -0.5091705918312073]"
1584451360580721591,,1183588,,1584451360,580440185,'',"[shoulder_pan_joint, shoulder_lift_joint, elbow_joint, wrist_1_joint, wrist_2_joint,","[1.4047822952270508, -1.1717522780047815, 2.4829981327056885, -2.8627312819110315, -1.5669100920306605, 1.5221041440963745]","[0.0, 0.0, -8.948221511673182e-05, 0.0, -1.917476038215682e-05, -0.19734662771224976]","[-1.0253907442092896, -4.225159168243408, -1.7194687128067017, -0.8388977646827698, -0.2422485649585724, -0.6101074814796448]"
1584451360692688415,,1183602,,1584451360,692415916,'',"[shoulder_pan_joint, shoulder_lift_joint, elbow_joint, wrist_1_joint, wrist_2_joint,","[1.4048181772232056, -1.1717646757708948, 2.483034372329712, -2.8627432028399866, -1.5669220129596155, 1.4997258186340332]","[0.0, 0.0, -6.391586794052273e-05, 0.0, -1.917476038215682e-05, -0.20146921277046204]","[-1.0574342012405396, -4.179382801055908, -1.721710443496704, -0.8276825547218323, -0.2534637749195099, -0.5405731797218323]"
1584451360804733365,,1183616,,1584451360,804397899,'',"[shoulder_pan_joint, shoulder_lift_joint, elbow_joint, wrist_1_joint, wrist_2_joint,","[1.4048181772232056, -1.1717408339129847, 2.4830100536346436, -2.8627198378192347, -1.566873852406637, 1.4772752523422241]","[0.0, 0.0, -5.1132694352418184e-05, 0.0, -1.917476038215682e-05, -0.2010473608970642]","[-1.0025025606155396, -4.248047351837158, -1.723952293395996, -0.8388977646827698, -0.2534637749195099, -0.5158997178077698]"
1584451360916767536,,1183630,,1584451360,916435797,'',"[shoulder_pan_joint, shoulder_lift_joint, elbow_joint, wrist_1_joint, wrist_2_joint,","[1.4048181772232056, -1.1717408339129847, 2.4830222129821777, -2.8627079168902796, -1.566885773335592, 1.4549800157546997]","[0.0, 0.0, -3.834952076431364e-05, 0.0, -1.917476038215682e-05, -0.19976265728473663]","[-1.0162354707717896, -4.197693347930908, -1.7127432823181152, -0.8501129746437073, -0.2467346489429474, -0.6078644394874573]"
1584451361028773895,,1183644,,1584451361,28383175,'',"[shoulder_pan_joint, shoulder_lift_joint, elbow_joint, wrist_1_joint, wrist_2_joint,","[1.4048421382904053, -1.1717045942889612, 2.4829981327056885, -2.8627079168902796, -1.566885773335592, 1.4324928522109985]","[0.0, 0.0, -3.834952076431364e-05, 0.0, -1.917476038215682e-05, -0.20194856822490692]","[-1.0070801973342896, -4.193115711212158, -1.7329195737838745, -0.8501129746437073, -0.2489776909351349, -0.4687958359718323]"
1584451361140838832,,1183658,,1584451361,140445067,'',"[shoulder_pan_joint, shoulder_lift_joint, elbow_joint, wrist_1_joint, wrist_2_joint,","[1.4047942161560059, -1.1717646757708948, 2.4830100536346436, -2.8627079168902796, -1.566873852406637, 1.4101253747940063]","[0.0, 0.0, -3.834952076431364e-05, 0.0, -1.917476038215682e-05, -0.19815197587013245]","[-1.0208131074905396, -4.188538074493408, -1.7306777238845825, -0.8433838486671448, -0.2467346489429474, -0.6280518174171448]"
1584451361252675604,,1183672,,1584451361,252382096,'',"[shoulder_pan_joint, shoulder_lift_joint, elbow_joint, wrist_1_joint, wrist_2_joint,","[1.4047942161560059, -1.1717284361468714, 2.4829981327056885, -2.8627079168902796, -1.5668981711017054, 1.3877931833267212]","[0.0, 0.0, -2.5566347176209092e-05, 0.0, 0.0, -0.20075973868370056]","[-0.9841920137405396, -4.243469715118408, -1.7127432823181152, -0.8613282442092896, -0.2669220268726349, -0.5450592637062073]"
1584451361364846039,,1183686,,1584451361,364383495,'',"[shoulder_pan_joint, shoulder_lift_joint, elbow_joint, wrist_1_joint, wrist_2_joint,","[1.4048302173614502, -1.1717165152179163, 2.4829981327056885, -2.8626959959613245, -1.566885773335592, 1.3652331829071045]","[0.0, 0.0, -2.5566347176209092e-05, 0.0, 0.0, -0.19713571667671204]","[-1.0345460176467896, -4.284668445587158, -1.7149850130081177, -0.8209534287452698, -0.2646789848804474, -0.5921631455421448]"
1584451361476761127,,1183700,,1584451361,476413177,'',"[shoulder_pan_joint, shoulder_lift_joint, elbow_joint, wrist_1_joint, wrist_2_joint,","[1.4048181772232056, -1.1717165152179163, 2.4830100536346436, -2.8627198378192347, -1.566873852406637, 1.3429721593856812]","[0.0, 0.0, -2.5566347176209092e-05, 0.0, 0.0, -0.20018449425697327]","[-1.0711671113967896, -4.188538074493408, -1.723952293395996, -0.8366547226905823, -0.2646789848804474, -0.5630035996437073]"
1584451361588784197,,1183714,,1584451361,588398947,'',"[shoulder_pan_joint, shoulder_lift_joint, elbow_joint, wrist_1_joint, wrist_2_joint,","[1.4048181772232056, -1.1717408339129847, 2.4829981327056885, -2.8627312819110315, -1.566885773335592, 1.3204710483551025]","[0.0, 0.0, -2.5566347176209092e-05, 0.0, 0.0, -0.20006944239139557]","[-1.0299683809280396, -4.225159168243408, -1.7149850130081177, -0.8052521347999573, -0.2803802788257599, -0.5697327256202698]"
1584451361700732737,,1183728,,1584451361,700379036,'',"[shoulder_pan_joint, shoulder_lift_joint, elbow_joint, wrist_1_joint, wrist_2_joint,","[1.4048181772232056, -1.1717522780047815, 2.4830222129821777, -2.8627551237689417, -1.5669100920306605, 1.2980657815933228]","[0.0, 0.0, -1.2783173588104546e-05, 0.0, 0.0, -0.19976265728473663]","[-1.0574342012405396, -4.161072254180908, -1.7082595825195312, -0.8321686387062073, -0.2826233208179474, -0.5630035996437073]"
1584451361812738464,,1183742,,1584451361,812354387,'',"[shoulder_pan_joint, shoulder_lift_joint, elbow_joint, wrist_1_joint, wrist_2_joint,","[1.4048062562942505, -1.1717408339129847, 2.4830100536346436, -2.8627432028399866, -1.5668981711017054, 1.2756956815719604]","[0.0, 0.0, -1.2783173588104546e-05, 0.0, 0.0, -0.20056799054145813]","[-1.0391236543655396, -4.234314441680908, -1.7060178518295288, -0.8568421006202698, -0.2714081108570099, -0.5046845078468323]"
1584451361924814924,,1183756,,1584451361,924415648,'',"[shoulder_pan_joint, shoulder_lift_joint, elbow_joint, wrist_1_joint, wrist_2_joint,","[1.4048062562942505, -1.1717408339129847, 2.483034372329712, -2.8627079168902796, -1.5669458548175257, 1.2532893419265747]","[0.0, 0.0, -1.2783173588104546e-05, 0.0, 0.0, -0.20237042009830475]","[-1.0116578340530396, -4.206848621368408, -1.7127432823181152, -0.8590851426124573, -0.2736511528491974, -0.6056213974952698]"
1584451362036790945,,1183770,,1584451362,36380769,'',"[shoulder_pan_joint, shoulder_lift_joint, elbow_joint, wrist_1_joint, wrist_2_joint,","[1.4047822952270508, -1.1717165152179163, 2.4829981327056885, -2.8626959959613245, -1.5668981711017054, 1.230894923210144]","[0.0, 0.0, -1.2783173588104546e-05, 0.0, 0.0, -0.2008364349603653]","[-1.0162354707717896, -4.339600086212158, -1.7127432823181152, -0.8501129746437073, -0.2758941948413849, -0.5158997178077698]"
1584451362148799037,,1183784,,1584451362,148366940,'',"[shoulder_pan_joint, shoulder_lift_joint, elbow_joint, wrist_1_joint, wrist_2_joint,","[1.4048181772232056, -1.1717045942889612, 2.4830222129821777, -2.8627079168902796, -1.5669100920306605, 1.2085117101669312]","[0.0, 0.0, -1.2783173588104546e-05, 0.0, 0.0, -0.19813279807567596]","[-1.0345460176467896, -4.216003894805908, -1.723952293395996, -0.8882447481155396, -0.2736511528491974, -0.6325379014015198]"
1584451362260774458,,1183798,,1584451362,260335068,'',"[shoulder_pan_joint, shoulder_lift_joint, elbow_joint, wrist_1_joint, wrist_2_joint,","[1.4047822952270508, -1.1717646757708948, 2.483046531677246, -2.8627079168902796, -1.5669458548175257, 1.1861158609390259]","[0.0, 0.0, -1.2783173588104546e-05, 0.0, 0.0, -0.2004912942647934]","[-1.0116578340530396, -4.289246082305908, -1.737403154373169, -0.971237301826477, -0.2781372368335724, -0.5091705918312073]"
1584451362372745580,,1183812,,1584451362,372366022,'',"[shoulder_pan_joint, shoulder_lift_joint, elbow_joint, wrist_1_joint, wrist_2_joint,","[1.4047822952270508, -1.1717408339129847, 2.483034372329712, -2.8627312819110315, -1.5668981711017054, 1.163707971572876]","[0.0, 0.0, -1.2783173588104546e-05, 0.0, 0.0, -0.19732746481895447]","[-1.0116578340530396, -4.206848621368408, -1.723952293395996, -0.9600220918655396, -0.2826233208179474, -0.6415100693702698]"
1584451362484704110,,1183826,,1584451362,484340391,'',"[shoulder_pan_joint, shoulder_lift_joint, elbow_joint, wrist_1_joint, wrist_2_joint,","[1.4047822952270508, -1.1717408339129847, 2.483034372329712, -2.862767521535055, -1.5669220129596155, 1.1413116455078125]","[0.0, 0.0, -1.2783173588104546e-05, -0.0002109223569277674, 0.0, -0.2007022202014923]","[-1.0528565645217896, -4.229736804962158, -1.72843599319458, -1.0093690156936646, -0.2871094048023224, -0.5158997178077698]"
1584451362596705709,,1183840,,1584451362,596307135,'',"[shoulder_pan_joint, shoulder_lift_joint, elbow_joint, wrist_1_joint, wrist_2_joint,","[1.4048181772232056, -1.1717646757708948, 2.483034372329712, -2.862922970448629, -1.5669100920306605, 1.1188427209854126]","[0.0, 0.0, -1.2783173588104546e-05, -0.002281796419993043, 0.0, -0.19966678321361542]","[-1.0345460176467896, -4.298401355743408, -1.723952293395996, -0.9331055879592896, -0.2871094048023224, -0.5338440537452698]"
1584451362708694064,,1183854,,1584451362,708357776,'',"[shoulder_pan_joint, shoulder_lift_joint, elbow_joint, wrist_1_joint, wrist_2_joint,","[1.4047822952270508, -1.1717284361468714, 2.4830222129821777, -2.862922970448629, -1.5669100920306605, 1.0965652465820312]","[0.0, 0.0, -1.2783173588104546e-05, -0.00026844663079828024, 0.0, -0.2004912942647934]","[-1.0345460176467896, -4.307556629180908, -1.7530958652496338, -0.9017030000686646, -0.2871094048023224, -0.5383301377296448]"
1584451362820636343,,1183868,,1584451362,820302329,'',"[shoulder_pan_joint, shoulder_lift_joint, elbow_joint, wrist_1_joint, wrist_2_joint,","[1.4048181772232056, -1.1717646757708948, 2.483046531677246, -2.8629348913775843, -1.5669100920306605, 1.0741075277328491]","[0.0, 0.0, -1.2783173588104546e-05, -0.00013422331539914012, 0.0, -0.20281143486499786]","[-1.0116578340530396, -4.321289539337158, -1.72843599319458, -0.8433838486671448, -0.2871094048023224, -0.4755249619483948]"
1584451362932693807,,1183882,,1584451362,932323485,'',"[shoulder_pan_joint, shoulder_lift_joint, elbow_joint, wrist_1_joint, wrist_2_joint,","[1.4048181772232056, -1.1717522780047815, 2.483034372329712, -2.8629348913775843, -1.5669220129596155, 1.051697015762329]","[0.0, 0.0, -1.2783173588104546e-05, -9.58738019107841e-05, 0.0, -0.1975383758544922]","[-1.0208131074905396, -4.252624988555908, -1.72843599319458, -0.7559052109718323, -0.2826233208179474, -0.6773987412452698]"
1584451363044822614,,1183896,,1584451363,44371221,'',"[shoulder_pan_joint, shoulder_lift_joint, elbow_joint, wrist_1_joint, wrist_2_joint,","[1.4048181772232056, -1.1717284361468714, 2.483046531677246, -2.862911049519674, -1.5669100920306605, 1.0293583869934082]","[0.0, 0.0, -1.2783173588104546e-05, -5.752428114647046e-05, 0.0, -0.20089396834373474]","[-1.0437012910842896, -4.339600086212158, -1.7463704347610474, -0.6549683213233948, -0.2736511528491974, -0.5293579697608948]"
1584451363156678492,,1183910,,1584451363,156337074,'',"[shoulder_pan_joint, shoulder_lift_joint, elbow_joint, wrist_1_joint, wrist_2_joint,","[1.4047942161560059, -1.1717408339129847, 2.483058452606201, -2.862875286732809, -1.5669100920306605, 1.006887674331665]","[0.0, 0.0, -0.0, -5.752428114647046e-05, 0.0, -0.19801774621009827]","[-0.9933472871780396, -4.550171375274658, -1.737403154373169, -0.5517883896827698, -0.2871094048023224, -0.5697327256202698]"
1584451363268728201,,1183924,,1584451363,268273551,'',"[shoulder_pan_joint, shoulder_lift_joint, elbow_joint, wrist_1_joint, wrist_2_joint,","[1.4048062562942505, -1.1717646757708948, 2.483058452606201, -2.86280328432192, -1.5669220129596155, 0.9844760298728943]","[0.0, 0.0, -0.0, 0.009970875456929207, 0.0, -0.19966678321361542]","[-1.0253907442092896, -4.518127918243408, -1.7306777238845825, -0.4822540879249573, -0.2938385307788849, -0.5338440537452698]"
1584451363380700616,,1183938,,1584451363,380307021,'',"[shoulder_pan_joint, shoulder_lift_joint, elbow_joint, wrist_1_joint, wrist_2_joint,","[1.4048302173614502, -1.1717408339129847, 2.483046531677246, -2.862635914479391, -1.5669339338885706, 0.9621711373329163]","[0.0, 0.0, -0.0, 0.0003451456723269075, 0.0, -0.19914905726909637]","[-1.0437012910842896, -4.421997547149658, -1.72843599319458, -0.6258087754249573, -0.2871094048023224, -0.5809479355812073]"
1584451363492691235,,1183952,,1584451363,492304843,'',"[shoulder_pan_joint, shoulder_lift_joint, elbow_joint, wrist_1_joint, wrist_2_joint,","[1.4048062562942505, -1.1717646757708948, 2.483058452606201, -2.862623993550436, -1.5668981711017054, 0.9397347569465637]","[0.0, 0.0, -0.0, 0.00015339808305725455, 0.0, -0.2018526941537857]","[-1.0253907442092896, -4.499817371368408, -1.721710443496704, -0.7088013291358948, -0.2826233208179474, -0.5473023056983948]"
1584451363604772804,,1183966,,1584451363,604316271,'',"[shoulder_pan_joint, shoulder_lift_joint, elbow_joint, wrist_1_joint, wrist_2_joint,","[1.4048302173614502, -1.1717522780047815, 2.4830703735351562, -2.862635914479391, -1.5668981711017054, 0.9173092842102051]","[0.0, 0.0, -0.0, 9.58738019107841e-05, 0.0, -0.2008364349603653]","[-1.0620118379592896, -4.440308094024658, -1.723952293395996, -0.8074951767921448, -0.2915954887866974, -0.5203858017921448]"
1584451363716682963,,1183980,,1584451363,716309074,'',"[shoulder_pan_joint, shoulder_lift_joint, elbow_joint, wrist_1_joint, wrist_2_joint,","[1.4048062562942505, -1.1717522780047815, 2.4830822944641113, -2.862671677266256, -1.5669100920306605, 0.8949557542800903]","[0.0, 0.0, -0.0, -1.917476038215682e-05, 0.0, -0.20018449425697327]","[-1.0025025606155396, -4.389954090118408, -1.7329195737838745, -0.944320797920227, -0.2848663628101349, -0.6639404892921448]"
1584451363828761826,,1183994,,1584451363,828322345,'',"[shoulder_pan_joint, shoulder_lift_joint, elbow_joint, wrist_1_joint, wrist_2_joint,","[1.4048181772232056, -1.1717284361468714, 2.483058452606201, -2.8626959959613245, -1.5668981711017054, 0.87249356508255]","[0.0, 0.0, -0.0, -1.917476038215682e-05, 0.0, -0.2028689682483673]","[-1.0345460176467896, -4.444885730743408, -1.721710443496704, -1.069931149482727, -0.2871094048023224, -0.4530945420265198]"
1584451363940740513,,1184008,,1584451363,940294310,'',"[shoulder_pan_joint, shoulder_lift_joint, elbow_joint, wrist_1_joint, wrist_2_joint,","[1.4047822952270508, -1.1717522780047815, 2.483046531677246, -2.862922970448629, -1.5669220129596155, 0.8501032590866089]","[0.0, 0.0, -0.0, -0.0006135923322290182, 0.0, -0.19822867214679718]","[-1.0162354707717896, -4.417419910430908, -1.72843599319458, -0.8927308320999146, -0.2826233208179474, -0.6729126572608948]"
1584451364052827583,,1184022,,1584451364,52292644,'',"[shoulder_pan_joint, shoulder_lift_joint, elbow_joint, wrist_1_joint, wrist_2_joint,","[1.4048181772232056, -1.1717646757708948, 2.483058452606201, -2.862922970448629, -1.566873852406637, 0.8277478218078613]","[0.0, 0.0, -0.0, -0.0001917476038215682, 0.0, -0.19976265728473663]","[-1.0070801973342896, -4.444885730743408, -1.739645004272461, -0.7693634629249573, -0.2803802788257599, -0.5517883896827698]"
1584451364164646100,,1184036,,1584451364,164246143,'',"[shoulder_pan_joint, shoulder_lift_joint, elbow_joint, wrist_1_joint, wrist_2_joint,","[1.4047942161560059, -1.1717408339129847, 2.4830703735351562, -2.862911049519674, -1.5669100920306605, 0.8052841424942017]","[0.0, 0.0, -0.0, 1.917476038215682e-05, 0.0, -0.1977493017911911]","[-1.0345460176467896, -4.435730457305908, -1.7486122846603394, -0.6931000351905823, -0.2826233208179474, -0.6078644394874573]"
1584451364276695198,,1184050,,1584451364,276252201,'',"[shoulder_pan_joint, shoulder_lift_joint, elbow_joint, wrist_1_joint, wrist_2_joint,","[1.4048302173614502, -1.1717522780047815, 2.4831063747406006, -2.862887207661764, -1.5669220129596155, 0.7829635143280029]","[0.0, 0.0, -0.0, 1.917476038215682e-05, 0.0, -0.2007022202014923]","[-1.0574342012405396, -4.421997547149658, -1.739645004272461, -0.5921631455421448, -0.2848663628101349, -0.5652466416358948]"
1584451364388618692,,1184064,,1584451364,388217533,'',"[shoulder_pan_joint, shoulder_lift_joint, elbow_joint, wrist_1_joint, wrist_2_joint,","[1.4048062562942505, -1.1717522780047815, 2.4830703735351562, -2.8628514448748987, -1.5669100920306605, 0.7605346441268921]","[0.0, 0.0, -0.0, 0.00017257283616345376, 0.0, -0.2008364349603653]","[-1.0116578340530396, -4.417419910430908, -1.7441285848617554, -0.4889832139015198, -0.2893524467945099, -0.5630035996437073]"
1584451364500678420,,1184078,,1584451364,500258706,'',"[shoulder_pan_joint, shoulder_lift_joint, elbow_joint, wrist_1_joint, wrist_2_joint,","[1.4048181772232056, -1.1717408339129847, 2.4830703735351562, -2.8626120726214808, -1.5669339338885706, 0.7380698323249817]","[0.0, 0.0, -0.0, 0.0005368932615965605, 0.0, -0.19895730912685394]","[-1.0253907442092896, -4.486084461212158, -1.7463704347610474, -0.6123505234718323, -0.2803802788257599, -0.6011353135108948]"
1584451364612696340,,1184092,,1584451364,612276526,'',"[shoulder_pan_joint, shoulder_lift_joint, elbow_joint, wrist_1_joint, wrist_2_joint,","[1.4047702550888062, -1.1717646757708948, 2.4830703735351562, -2.8626001516925257, -1.5669100920306605, 0.7158192992210388]","[0.0, 0.0, -0.0, 0.0001917476038215682, 0.0, -0.20131580531597137]","[-1.0116578340530396, -4.399109363555908, -1.741886854171753, -0.6886139512062073, -0.2758941948413849, -0.4912262558937073]"
1584451364724814036,,1184106,,1584451364,724332998,'',"[shoulder_pan_joint, shoulder_lift_joint, elbow_joint, wrist_1_joint, wrist_2_joint,","[1.4048062562942505, -1.1717646757708948, 2.4830822944641113, -2.862647835408346, -1.5669100920306605, 0.693293035030365]","[0.0, 0.0, -0.0, 9.58738019107841e-05, 0.0, -0.2015267312526703]","[-1.0482789278030396, -4.490662097930908, -1.7486122846603394, -0.7940369248390198, -0.2915954887866974, -0.6213226914405823]"
1584451364836597338,,1184120,,1584451364,836257764,'',"[shoulder_pan_joint, shoulder_lift_joint, elbow_joint, wrist_1_joint, wrist_2_joint,","[1.4048181772232056, -1.1717408339129847, 2.483058452606201, -2.862623993550436, -1.5669220129596155, 0.6708862781524658]","[0.0, 0.0, -0.0, 9.58738019107841e-05, 0.0, -0.19987769424915314]","[-1.0208131074905396, -4.490662097930908, -1.7486122846603394, -0.9196473360061646, -0.2893524467945099, -0.4912262558937073]"
1584451364948578169,,1184134,,1584451364,948233596,'',"[shoulder_pan_joint, shoulder_lift_joint, elbow_joint, wrist_1_joint, wrist_2_joint,","[1.4048302173614502, -1.1717284361468714, 2.4830703735351562, -2.862671677266256, -1.5669220129596155, 0.6485986113548279]","[0.0, 0.0, -0.0, -0.00013422331539914012, 0.0, -0.19966678321361542]","[-1.0116578340530396, -4.490662097930908, -1.7441285848617554, -1.0048829317092896, -0.2848663628101349, -0.6302948594093323]"
1584451365060595999,,1184148,,1584451365,60263327,'',"[shoulder_pan_joint, shoulder_lift_joint, elbow_joint, wrist_1_joint, wrist_2_joint,","[1.4048062562942505, -1.1717646757708948, 2.483058452606201, -2.862899128590719, -1.5668981711017054, 0.6260585188865662]","[0.0, 0.0, -0.0, -0.001035437104292214, 0.0, -0.20006944239139557]","[-1.0208131074905396, -4.362488269805908, -1.7306777238845825, -0.9241334199905396, -0.2848663628101349, -0.4957123398780823]"
1584451365172720278,,1184162,,1584451365,172286498,'',"[shoulder_pan_joint, shoulder_lift_joint, elbow_joint, wrist_1_joint, wrist_2_joint,","[1.4048062562942505, -1.1717284361468714, 2.4831063747406006, -2.8629592100726526, -1.5669458548175257, 0.6036978363990784]","[0.0, 0.0, -0.0, -0.00023009712458588183, 0.0, -0.19713571667671204]","[-1.0162354707717896, -4.421997547149658, -1.7441285848617554, -0.872543454170227, -0.2893524467945099, -0.5630035996437073]"
1584451365284566437,,1184176,,1584451365,284234547,'',"[shoulder_pan_joint, shoulder_lift_joint, elbow_joint, wrist_1_joint, wrist_2_joint,","[1.4048302173614502, -1.1717408339129847, 2.4830822944641113, -2.862899128590719, -1.5669339338885706, 0.5812768936157227]","[0.0, 0.0, -0.0, -0.00011504856229294091, 0.0, -0.19985853135585785]","[-1.0253907442092896, -4.458618640899658, -1.7575794458389282, -0.7693634629249573, -0.2871094048023224, -0.5450592637062073]"
1584451365396499198,,1184190,,1584451365,396183198,'',"[shoulder_pan_joint, shoulder_lift_joint, elbow_joint, wrist_1_joint, wrist_2_joint,","[1.4048181772232056, -1.1717522780047815, 2.4830822944641113, -2.862887207661764, -1.5669220129596155, 0.558927059173584]","[0.0, 0.0, -0.0, -0.00011504856229294091, 0.0, -0.20089396834373474]","[-1.0437012910842896, -4.444885730743408, -1.7620631456375122, -0.6527252793312073, -0.2848663628101349, -0.5203858017921448]"
1584451365508477274,,1184204,,1584451365,508159300,'',"[shoulder_pan_joint, shoulder_lift_joint, elbow_joint, wrist_1_joint, wrist_2_joint,","[1.4047942161560059, -1.1717522780047815, 2.4830703735351562, -2.862875286732809, -1.5669339338885706, 0.536564826965332]","[0.0, 0.0, -0.0, 0.0001917476038215682, 0.0, -0.1992449313402176]","[-1.0482789278030396, -4.431152820587158, -1.737403154373169, -0.5405731797218323, -0.2826233208179474, -0.6056213974952698]"
1584451365620502427,,1184218,,1584451365,620171098,'',"[shoulder_pan_joint, shoulder_lift_joint, elbow_joint, wrist_1_joint, wrist_2_joint,","[1.4047942161560059, -1.1717284361468714, 2.4831063747406006, -2.862623993550436, -1.5669220129596155, 0.5141419768333435]","[0.0, 0.0, -0.0, 0.0019558256026357412, 0.0, -0.20215949416160583]","[-1.0391236543655396, -4.389954090118408, -1.7822394371032715, -0.6392670273780823, -0.2758941948413849, -0.4620667099952698]"
1584451365732501492,,1184232,,1584451365,732250483,'',"[shoulder_pan_joint, shoulder_lift_joint, elbow_joint, wrist_1_joint, wrist_2_joint,","[1.4048302173614502, -1.1717646757708948, 2.4830822944641113, -2.862623993550436, -1.5669220129596155, 0.4916468560695648]","[0.0, 0.0, -0.0, 0.00026844663079828024, 0.0, -0.20001192390918732]","[-1.0253907442092896, -4.399109363555908, -1.7620631456375122, -0.7177734971046448, -0.2848663628101349, -0.6325379014015198]"
1584451365844506839,,1184246,,1584451365,844187683,'',"[shoulder_pan_joint, shoulder_lift_joint, elbow_joint, wrist_1_joint, wrist_2_joint,","[1.4047942161560059, -1.1717165152179163, 2.4830944538116455, -2.862635914479391, -1.5669339338885706, 0.46936705708503723]","[0.0, 0.0, -0.0, 0.00015339808305725455, 0.0, -0.20206362009048462]","[-1.0025025606155396, -4.385376453399658, -1.775514006614685, -0.8007660508155823, -0.2781372368335724, -0.5001984238624573]"
1584451365956483962,,1184260,,1584451365,956235789,'',"[shoulder_pan_joint, shoulder_lift_joint, elbow_joint, wrist_1_joint, wrist_2_joint,","[1.4048181772232056, -1.1717646757708948, 2.4831063747406006, -2.8626120726214808, -1.5669458548175257, 0.4468947649002075]","[0.0, 0.0, -0.0, 0.00015339808305725455, 0.0, -0.19642624258995056]","[-1.0391236543655396, -4.472351551055908, -1.7687885761260986, -0.930862545967102, -0.2893524467945099, -0.5921631455421448]"
1584451366068484861,,1184274,,1584451366,68166767,'',"[shoulder_pan_joint, shoulder_lift_joint, elbow_joint, wrist_1_joint, wrist_2_joint,","[1.4048181772232056, -1.1717408339129847, 2.4830822944641113, -2.862623993550436, -1.5669220129596155, 0.4244101047515869]","[0.0, 0.0, -0.0, -0.00015339808305725455, 0.0, -0.19813279807567596]","[-1.0070801973342896, -4.476929187774658, -1.7934484481811523, -1.0676881074905396, -0.2848663628101349, -0.5383301377296448]"
1584451366180459129,,1184288,,1584451366,180163277,'',"[shoulder_pan_joint, shoulder_lift_joint, elbow_joint, wrist_1_joint, wrist_2_joint,","[1.4048062562942505, -1.1717408339129847, 2.4830944538116455, -2.862899128590719, -1.5669696966754358, 0.40210407972335815]","[0.0, 0.0, -0.0, 0.0, 0.0, -0.20001192390918732]","[-1.0482789278030396, -4.417419910430908, -1.7799975872039795, -0.9151612520217896, -0.2848663628101349, -0.5899201035499573]"
1584451366292845187,,1184302,,1584451366,292296171,'',"[shoulder_pan_joint, shoulder_lift_joint, elbow_joint, wrist_1_joint, wrist_2_joint,","[1.4047822952270508, -1.1717165152179163, 2.4830822944641113, -2.862899128590719, -1.5669220129596155, 0.37963029742240906]","[0.0, 0.0, -0.0, 0.0, 0.0, -0.20227454602718353]","[-1.0299683809280396, -4.476929187774658, -1.7979320287704468, -0.8187103867530823, -0.2826233208179474, -0.5226288437843323]"
1584451366404587482,,1184316,,1584451366,404240153,'',"[shoulder_pan_joint, shoulder_lift_joint, elbow_joint, wrist_1_joint, wrist_2_joint,","[1.4048062562942505, -1.1717522780047815, 2.4830944538116455, -2.862899128590719, -1.5669458548175257, 0.3571561276912689]","[0.0, 0.0, -0.0, 0.0, 0.0, -0.20028036832809448]","[-1.0253907442092896, -4.458618640899658, -1.8024157285690308, -0.7603912949562073, -0.2781372368335724, -0.5338440537452698]"
1584451366516525723,,1184330,,1584451366,516100709,'',"[shoulder_pan_joint, shoulder_lift_joint, elbow_joint, wrist_1_joint, wrist_2_joint,","[1.4048302173614502, -1.1717408339129847, 2.4830822944641113, -2.862863365803854, -1.5669696966754358, 0.3426162600517273]","[0.0, 0.0, -0.0, 1.917476038215682e-05, 0.0, -0.04935583472251892]","[-1.0482789278030396, -4.499817371368408, -1.8517354726791382, -0.6729126572608948, -0.2803802788257599, -0.4284210503101349]"
1584451366628495303,,1184344,,1584451366,628181627,'',"[shoulder_pan_joint, shoulder_lift_joint, elbow_joint, wrist_1_joint, wrist_2_joint,","[1.4047822952270508, -1.1717284361468714, 2.4830822944641113, -2.862887207661764, -1.5669339338885706, 0.3420046865940094]","[0.0, 0.0, -0.0, 1.917476038215682e-05, 0.0, 0.000517718552146107]","[-1.0070801973342896, -4.463196277618408, -1.836042881011963, -0.5562744736671448, -0.2736511528491974, -0.0695343092083931]"
1584451366740472237,,1184358,,1584451366,740146388,'',"[shoulder_pan_joint, shoulder_lift_joint, elbow_joint, wrist_1_joint, wrist_2_joint,","[1.4048062562942505, -1.1717408339129847, 2.4830703735351562, -2.8628514448748987, -1.5669458548175257, 0.3422088027000427]","[0.0, 0.0, -0.0, 1.917476038215682e-05, 0.0, 0.0027419906109571457]","[-1.0025025606155396, -4.403687000274658, -1.867428183555603, -0.4441223740577698, -0.2826233208179474, 0.01570129580795765]"
1584451366852727970,,1184372,,1584451366,852196598,'',"[shoulder_pan_joint, shoulder_lift_joint, elbow_joint, wrist_1_joint, wrist_2_joint,","[1.4048062562942505, -1.1717408339129847, 2.483034372329712, -2.8625758329974573, -1.5669940153705042, 0.34225672483444214]","[0.0, 0.0, -0.0, 0.0027228158432990313, 0.0, 0.0003067961661145091]","[-1.0253907442092896, -4.458618640899658, -1.8068993091583252, -0.5248718857765198, -0.2803802788257599, -0.011215210892260075]"
1584451366964558671,,1184386,,1584451366,964197767,'',"[shoulder_pan_joint, shoulder_lift_joint, elbow_joint, wrist_1_joint, wrist_2_joint,","[1.4047942161560059, -1.1717408339129847, 2.483058452606201, -2.8626001516925257, -1.5669220129596155, 0.3422447443008423]","[0.0, 0.0, -0.0, 0.00032597093377262354, 0.0, 0.0002109223569277674]","[-1.0253907442092896, -4.467773914337158, -1.836042881011963, -0.6145935654640198, -0.2893524467945099, -0.01570129580795765]"
1584451367076499928,,1184400,,1584451367,76130468,'',"[shoulder_pan_joint, shoulder_lift_joint, elbow_joint, wrist_1_joint, wrist_2_joint,","[1.4048181772232056, -1.1717522780047815, 2.483058452606201, -2.862635914479391, -1.5669339338885706, 0.3422447443008423]","[0.0, 0.0, -0.0, -3.834952076431364e-05, 0.0, 0.0001917476038215682]","[-1.0299683809280396, -4.463196277618408, -1.8091411590576172, -0.7245026230812073, -0.2646789848804474, -0.01345825381577015]"
1584451367188463626,,1184414,,1584451367,188110267,'',"[shoulder_pan_joint, shoulder_lift_joint, elbow_joint, wrist_1_joint, wrist_2_joint,","[1.4048302173614502, -1.1717284361468714, 2.483046531677246, -2.862635914479391, -1.5669220129596155, 0.3422687351703644]","[0.0, 0.0, -0.0, -3.834952076431364e-05, 0.0, 0.00011504856229294091]","[-1.0391236543655396, -4.440308094024658, -1.8248337507247925, -0.872543454170227, -0.2781372368335724, -0.01570129580795765]"
1584451367300556266,,1184428,,1584451367,300138015,'',"[shoulder_pan_joint, shoulder_lift_joint, elbow_joint, wrist_1_joint, wrist_2_joint,","[1.4048302173614502, -1.1717165152179163, 2.4829981327056885, -2.86280328432192, -1.5669696966754358, 0.3422207832336426]","[0.0, 0.0, -0.0, -0.0009012137306854129, 0.0, 7.669904152862728e-05]","[-1.0208131074905396, -4.426575183868408, -1.833801031112671, -0.8254395127296448, -0.2803802788257599, -0.01345825381577015]"
1584451367412517441,,1184442,,1584451367,412125709,'',"[shoulder_pan_joint, shoulder_lift_joint, elbow_joint, wrist_1_joint, wrist_2_joint,","[1.4047942161560059, -1.1717408339129847, 2.4830703735351562, -2.8628271261798304, -1.5669339338885706, 0.3422687351703644]","[0.0, 0.0, -0.0, 0.0, 0.0, 5.752428114647046e-05]","[-1.0116578340530396, -4.403687000274658, -1.82259202003479, -0.8209534287452698, -0.2803802788257599, -0.011215210892260075]"
1584451367524473004,,1184456,,1584451367,524089588,'',"[shoulder_pan_joint, shoulder_lift_joint, elbow_joint, wrist_1_joint, wrist_2_joint,","[1.4048181772232056, -1.1717646757708948, 2.4830100536346436, -2.8628271261798304, -1.5669458548175257, 0.34225672483444214]","[0.0, 0.0, -0.0, 0.0, 0.0, 3.834952076431364e-05]","[-1.0482789278030396, -4.490662097930908, -1.831559181213379, -0.8456268906593323, -0.2826233208179474, -0.01345825381577015]"
1584451367636593255,,1184470,,1584451367,636209699,'',"[shoulder_pan_joint, shoulder_lift_joint, elbow_joint, wrist_1_joint, wrist_2_joint,","[1.4048181772232056, -1.17177659669985, 2.4830100536346436, -2.8628390471087855, -1.5669577757464808, 0.34228071570396423]","[0.0, 0.0, -0.0, 0.0, 0.0, 3.834952076431364e-05]","[-1.0208131074905396, -4.408264636993408, -1.8293174505233765, -0.7850647568702698, -0.2803802788257599, -0.008972168900072575]"
1584451367748476263,,1184484,,1584451367,748142299,'',"[shoulder_pan_joint, shoulder_lift_joint, elbow_joint, wrist_1_joint, wrist_2_joint,","[1.4048302173614502, -1.1717408339129847, 2.483034372329712, -2.8628271261798304, -1.5669577757464808, 0.34225672483444214]","[0.0, 0.0, -0.0, 0.0, 0.0, 3.834952076431364e-05]","[-1.0528565645217896, -4.435730457305908, -1.8270756006240845, -0.8187103867530823, -0.2691650688648224, -0.008972168900072575]"
1584451367860604379,,1184498,,1584451367,860171631,'',"[shoulder_pan_joint, shoulder_lift_joint, elbow_joint, wrist_1_joint, wrist_2_joint,","[1.4047942161560059, -1.1717408339129847, 2.4829981327056885, -2.862863365803854, -1.5669458548175257, 0.3422447443008423]","[0.0, 0.0, -0.0, 0.0, 0.0, 1.917476038215682e-05]","[-1.0208131074905396, -4.408264636993408, -1.8270756006240845, -0.8568421006202698, -0.2893524467945099, -0.011215210892260075]"
1584451367972403481,,1184512,,1584451367,972069106,'',"[shoulder_pan_joint, shoulder_lift_joint, elbow_joint, wrist_1_joint, wrist_2_joint,","[1.4048302173614502, -1.1717522780047815, 2.483034372329712, -2.8628514448748987, -1.5669339338885706, 0.34228071570396423]","[0.0, 0.0, -0.0, 0.0, 0.0, 1.917476038215682e-05]","[-1.0162354707717896, -4.476929187774658, -1.820350170135498, -0.8321686387062073, -0.2871094048023224, -0.01570129580795765]"
1584451368084643896,,1184526,,1584451368,84194947,'',"[shoulder_pan_joint, shoulder_lift_joint, elbow_joint, wrist_1_joint, wrist_2_joint,","[1.4048181772232056, -1.1717408339129847, 2.4829862117767334, -2.8628514448748987, -1.5669696966754358, 0.3422687351703644]","[0.0, 0.0, -0.0, 0.0, 0.0, 1.917476038215682e-05]","[-1.0116578340530396, -4.440308094024658, -1.836042881011963, -0.8097382187843323, -0.2848663628101349, -0.02018737979233265]"
1584451368196456994,,1184540,,1584451368,196114945,'',"[shoulder_pan_joint, shoulder_lift_joint, elbow_joint, wrist_1_joint, wrist_2_joint,","[1.4048062562942505, -1.171788517628805, 2.482962131500244, -2.8628390471087855, -1.5669458548175257, 0.3422687351703644]","[0.0, 0.0, -0.0, 0.0, 0.0, 1.917476038215682e-05]","[-1.0391236543655396, -4.367065906524658, -1.8001738786697388, -0.8299255967140198, -0.2826233208179474, -0.01345825381577015]"
1584451368308401256,,1184554,,1584451368,308061261,'',"[shoulder_pan_joint, shoulder_lift_joint, elbow_joint, wrist_1_joint, wrist_2_joint,","[1.4048181772232056, -1.17177659669985, 2.4829862117767334, -2.8628514448748987, -1.5669577757464808, 0.34225672483444214]","[0.0, 0.0, -0.0, 0.0, 0.0, 1.917476038215682e-05]","[-1.0116578340530396, -4.412842273712158, -1.8293174505233765, -0.8501129746437073, -0.2736511528491974, -0.008972168900072575]"
1584451368420376927,,1184568,,1584451368,420039417,'',"[shoulder_pan_joint, shoulder_lift_joint, elbow_joint, wrist_1_joint, wrist_2_joint,","[1.4047942161560059, -1.17177659669985, 2.4829862117767334, -2.862863365803854, -1.566981617604391, 0.34225672483444214]","[0.0, 0.0, -0.0, 0.0, 0.0, 1.917476038215682e-05]","[-1.0391236543655396, -4.481506824493408, -1.8113828897476196, -0.8366547226905823, -0.2893524467945099, -0.01570129580795765]"
1584451368532412751,,1184582,,1584451368,532062947,'',"[shoulder_pan_joint, shoulder_lift_joint, elbow_joint, wrist_1_joint, wrist_2_joint,","[1.4048181772232056, -1.1717522780047815, 2.4829742908477783, -2.862875286732809, -1.5669577757464808, 0.34228071570396423]","[0.0, 0.0, -0.0, 0.0, 0.0, 1.917476038215682e-05]","[-1.0299683809280396, -4.412842273712158, -1.8091411590576172, -0.8276825547218323, -0.2736511528491974, -0.011215210892260075]"
1584451368644538502,,1184596,,1584451368,644143774,'',"[shoulder_pan_joint, shoulder_lift_joint, elbow_joint, wrist_1_joint, wrist_2_joint,","[1.4047942161560059, -1.1717522780047815, 2.4830222129821777, -2.862863365803854, -1.5669696966754358, 0.34223276376724243]","[0.0, 0.0, -0.0, 0.0, 0.0, 1.917476038215682e-05]","[-1.0116578340530396, -4.472351551055908, -1.8046574592590332, -0.8299255967140198, -0.2803802788257599, -0.006729126907885075]"
1584451368756498394,,1184610,,1584451368,756139744,'',"[shoulder_pan_joint, shoulder_lift_joint, elbow_joint, wrist_1_joint, wrist_2_joint,","[1.4048181772232056, -1.1717165152179163, 2.4829981327056885, -2.862863365803854, -1.5669696966754358, 0.3422447443008423]","[0.0, 0.0, -0.0, 0.0, 0.0, 0.0]","[-1.0162354707717896, -4.495239734649658, -1.8113828897476196, -0.8164673447608948, -0.2714081108570099, -0.011215210892260075]"
1584451368868440392,,1184624,,1584451368,868116868,'',"[shoulder_pan_joint, shoulder_lift_joint, elbow_joint, wrist_1_joint, wrist_2_joint,","[1.4047942161560059, -1.1717284361468714, 2.4829981327056885, -2.862875286732809, -1.5669577757464808, 0.34225672483444214]","[0.0, 0.0, -0.0, 0.0, 0.0, 0.0]","[-1.0162354707717896, -4.435730457305908, -1.8046574592590332, -0.7917938828468323, -0.2871094048023224, -0.02018737979233265]"
1584451368980355910,,1184638,,1584451368,980018971,'',"[shoulder_pan_joint, shoulder_lift_joint, elbow_joint, wrist_1_joint, wrist_2_joint,","[1.4048302173614502, -1.1717646757708948, 2.4829981327056885, -2.8628514448748987, -1.5669458548175257, 0.3422207832336426]","[0.0, 0.0, -0.0, 0.0, 0.0, 0.0]","[-1.0391236543655396, -4.408264636993408, -1.8068993091583252, -0.7110443711280823, -0.2781372368335724, -0.01570129580795765]"
1584451369092388178,,1184652,,1584451369,92048974,'',"[shoulder_pan_joint, shoulder_lift_joint, elbow_joint, wrist_1_joint, wrist_2_joint,","[1.4048062562942505, -1.1717522780047815, 2.4829742908477783, -2.862875286732809, -1.5669458548175257, 0.34223276376724243]","[0.0, 0.0, -0.0, 0.0, 0.0, 0.0]","[-1.0253907442092896, -4.454041004180908, -1.8024157285690308, -0.6684265732765198, -0.2848663628101349, -0.011215210892260075]"
1584451369204389747,,1184666,,1584451369,204092853,'',"[shoulder_pan_joint, shoulder_lift_joint, elbow_joint, wrist_1_joint, wrist_2_joint,","[1.4048181772232056, -1.1717646757708948, 2.4829261302948, -2.862863365803854, -1.5669577757464808, 0.3422687351703644]","[0.0, 0.0, -0.0, 0.0, 0.0, 0.0]","[-1.0482789278030396, -4.367065906524658, -1.7912065982818604, -0.6392670273780823, -0.2826233208179474, -0.008972168900072575]"
1584451369316300356,,1184680,,1584451369,315983725,'',"[shoulder_pan_joint, shoulder_lift_joint, elbow_joint, wrist_1_joint, wrist_2_joint,","[1.4048181772232056, -1.1717284361468714, 2.4829742908477783, -2.8628390471087855, -1.5669696966754358, 0.34228071570396423]","[0.0, 0.0, -0.0, 0.0, 0.0, 0.0]","[-1.0437012910842896, -4.412842273712158, -1.8068993091583252, -0.6504822373390198, -0.2826233208179474, -0.01794433780014515]"
1584451369428499846,,1184694,,1584451369,428088828,'',"[shoulder_pan_joint, shoulder_lift_joint, elbow_joint, wrist_1_joint, wrist_2_joint,","[1.4048062562942505, -1.17177659669985, 2.4829742908477783, -2.86280328432192, -1.5669940153705042, 0.3422687351703644]","[0.0, 0.0, -0.0, 0.0, 0.0, 0.0]","[-1.0253907442092896, -4.421997547149658, -1.8248337507247925, -0.6482391953468323, -0.2736511528491974, -0.01345825381577015]"
1584451369540362425,,1184708,,1584451369,540025155,'',"[shoulder_pan_joint, shoulder_lift_joint, elbow_joint, wrist_1_joint, wrist_2_joint,","[1.4048302173614502, -1.1717646757708948, 2.4829742908477783, -2.8628390471087855, -1.5669696966754358, 0.3422687351703644]","[0.0, 0.0, -0.0, 0.0, 0.0, 0.0]","[-1.0437012910842896, -4.394531726837158, -1.8068993091583252, -0.6459961533546448, -0.2848663628101349, -0.01345825381577015]"
1584451369652332787,,1184722,,1584451369,652003362,'',"[shoulder_pan_joint, shoulder_lift_joint, elbow_joint, wrist_1_joint, wrist_2_joint,","[1.4048181772232056, -1.1717522780047815, 2.4829742908477783, -2.862863365803854, -1.5669940153705042, 0.3422447443008423]","[0.0, 0.0, -0.0, 0.0, 0.0, 0.0]","[-1.0391236543655396, -4.412842273712158, -1.8001738786697388, -0.6392670273780823, -0.2781372368335724, -0.011215210892260075]"
1584451369764447578,,1184736,,1584451369,764028085,'',"[shoulder_pan_joint, shoulder_lift_joint, elbow_joint, wrist_1_joint, wrist_2_joint,","[1.4048181772232056, -1.1717522780047815, 2.482950210571289, -2.8628514448748987, -1.566981617604391, 0.3422207832336426]","[0.0, 0.0, -0.0, 0.0, 0.0, 0.0]","[-1.0025025606155396, -4.472351551055908, -1.8046574592590332, -0.6437531113624573, -0.2758941948413849, -0.01345825381577015]"
1584451369876420323,,1184750,,1584451369,876022711,'',"[shoulder_pan_joint, shoulder_lift_joint, elbow_joint, wrist_1_joint, wrist_2_joint,","[1.4048062562942505, -1.1717522780047815, 2.482950210571289, -2.8628514448748987, -1.5669940153705042, 0.3422447443008423]","[0.0, 0.0, -0.0, 0.0, 0.0, 0.0]","[-1.0253907442092896, -4.421997547149658, -1.7956902980804443, -0.6347809433937073, -0.2803802788257599, -0.008972168900072575]"
1584451369988379554,,1184764,,1584451369,987991058,'',"[shoulder_pan_joint, shoulder_lift_joint, elbow_joint, wrist_1_joint, wrist_2_joint,","[1.4048062562942505, -1.1717646757708948, 2.482962131500244, -2.8628271261798304, -1.566981617604391, 0.3422926962375641]","[0.0, 0.0, -0.0, 0.0, 0.0, 0.0]","[-1.0391236543655396, -4.463196277618408, -1.7979320287704468, -0.6370239853858948, -0.2915954887866974, -0.01345825381577015]"
1584451370100355937,,1184778,,1584451370,100002106,'',"[shoulder_pan_joint, shoulder_lift_joint, elbow_joint, wrist_1_joint, wrist_2_joint,","[1.4047942161560059, -1.1717646757708948, 2.4829981327056885, -2.862863365803854, -1.566981617604391, 0.3422687351703644]","[0.0, 0.0, -0.0, 0.0, 0.0, 0.0]","[-1.0116578340530396, -4.435730457305908, -1.7777557373046875, -0.6370239853858948, -0.2848663628101349, -0.01345825381577015]"
1584451370212246358,,1184792,,1584451370,211937541,'',"[shoulder_pan_joint, shoulder_lift_joint, elbow_joint, wrist_1_joint, wrist_2_joint,","[1.4048421382904053, -1.1717408339129847, 2.482962131500244, -2.86280328432192, -1.5668981711017054, 0.34232863783836365]","[0.010354370810091496, 0.0, -0.0, 0.01871456578373909, 0.017525730654597282, 0.023872576653957367]","[0.7873535752296448, -3.387451410293579, -1.643247127532959, -0.3723450005054474, -0.004486084450036287, 0.2579498589038849]"
1584451370324211079,,1184806,,1584451370,323957906,'',"[shoulder_pan_joint, shoulder_lift_joint, elbow_joint, wrist_1_joint, wrist_2_joint,","[1.4079726934432983, -1.171668831502096, 2.482842445373535, -2.8623245398150843, -1.5667303244220179, 0.3483099043369293]","[0.030372820794582367, 0.00026844663079828024, -0.0005368932615965605, 0.0005368932615965605, 0.0015339808305725455, 0.05518496036529541]","[0.9384156465530396, -3.643799304962158, -1.4302750825881958, -0.4239349663257599, 0.0493469275534153, 0.3140259087085724]"
1584451370436290204,,1184820,,1584451370,435935922,'',"[shoulder_pan_joint, shoulder_lift_joint, elbow_joint, wrist_1_joint, wrist_2_joint,","[1.412087082862854, -1.1716926733600062, 2.482842445373535, -2.862300697957174, -1.5666940847979944, 0.35626891255378723]","[0.04541861638426781, 0.00011504856229294091, 0.00021731395099777728, 0.0001917476038215682, 0.00024927189224399626, 0.08826141804456711]","[0.9658814668655396, -3.726196765899658, -1.405615210533142, -0.4127197563648224, 0.0605621412396431, 0.3095398247241974]"
1584451370548254744,,1184834,,1584451370,547931300,'',"[shoulder_pan_joint, shoulder_lift_joint, elbow_joint, wrist_1_joint, wrist_2_joint,","[1.4175807237625122, -1.1717165152179163, 2.482818365097046, -2.8623364607440394, -1.5666821638690394, 0.3660978674888611]","[0.04857606068253517, 7.669904152862728e-05, -0.0, 0.00011504856229294091, 0.00023009712458588183, 0.0937454029917717]","[0.8972169160842896, -3.675842761993408, -1.5087385177612305, -0.3678589165210724, 0.0829925611615181, 0.2108459621667862]"
1584451370660247036,,1184848,,1584451370,659929573,'',"[shoulder_pan_joint, shoulder_lift_joint, elbow_joint, wrist_1_joint, wrist_2_joint,","[1.423134207725525, -1.1716926733600062, 2.482818365097046, -2.8623603026019495, -1.5666583220111292, 0.3785880506038666]","[0.05331861600279808, 5.1132694352418184e-05, -0.0, 7.669904152862728e-05, 0.0001917476038215682, 0.11311191320419312]","[1.0162354707717896, -3.712463855743408, -1.5221893787384033, -0.3611297905445099, 0.0807495191693306, 0.3252411186695099]"
1584451370772272350,,1184862,,1584451370,772000993,'',"[shoulder_pan_joint, shoulder_lift_joint, elbow_joint, wrist_1_joint, wrist_2_joint,","[1.4297311305999756, -1.171680752431051, 2.482818365097046, -2.8623364607440394, -1.5666940847979944, 0.3907894790172577]","[0.0641971006989479, 3.834952076431364e-05, -0.0, 5.752428114647046e-05, 0.0001917476038215682, 0.10199055075645447]","[0.8193970322608948, -3.749084949493408, -1.4952876567840576, -0.3656158745288849, 0.1188812404870987, 0.4015045464038849]"
1584451370884193339,,1184876,,1584451370,883948311,'',"[shoulder_pan_joint, shoulder_lift_joint, elbow_joint, wrist_1_joint, wrist_2_joint,","[1.4373359680175781, -1.171668831502096, 2.4827945232391357, -2.8623245398150843, -1.5666940847979944, 0.402259886264801]","[0.07347767800092697, 3.834952076431364e-05, -0.0, 3.834952076431364e-05, 0.00015339808305725455, 0.11681263893842697]","[0.8697510361671448, -3.771973133087158, -1.5782346725463867, -0.3454284965991974, 0.1009368970990181, 0.3095398247241974]"
1584451370996196431,,1184890,,1584451370,995932358,'',"[shoulder_pan_joint, shoulder_lift_joint, elbow_joint, wrist_1_joint, wrist_2_joint,","[1.4457323551177979, -1.171680752431051, 2.482818365097046, -2.862300697957174, -1.566634480153219, 0.4155882000923157]","[0.07152185589075089, 0.0, -0.0, 0.0, 0.0004026699753012508, 0.12641920149326324]","[0.9887696504592896, -3.845215320587158, -1.4571768045425415, -0.3678589165210724, 0.1076660305261612, 0.3409424126148224]"
1584451371108207859,,1184904,,1584451371,107930290,'',"[shoulder_pan_joint, shoulder_lift_joint, elbow_joint, wrist_1_joint, wrist_2_joint,","[1.4533970355987549, -1.171680752431051, 2.482842445373535, -2.862276856099264, -1.566634480153219, 0.4298393428325653]","[0.06674095243215561, 0.0, -0.0, 0.0, 0.00032597093377262354, 0.12847089767456055]","[0.9384156465530396, -3.872681140899658, -1.4482096433639526, -0.3745880424976349, 0.1076660305261612, 0.2557068169116974]"
1584451371220156870,,1184918,,1584451371,219864735,'',"[shoulder_pan_joint, shoulder_lift_joint, elbow_joint, wrist_1_joint, wrist_2_joint,","[1.4606658220291138, -1.1717165152179163, 2.482830286026001, -2.862264935170309, -1.5666220823871058, 0.44492897391319275]","[0.06792978197336197, 0.0, -0.0, 0.0, 0.0001917476038215682, 0.1325167715549469]","[0.9246827363967896, -3.881836414337158, -1.5244312286376953, -0.3454284965991974, 0.1345825344324112, 0.3005676567554474]"
1584451371332288804,,1184932,,1584451371,331908854,'',"[shoulder_pan_joint, shoulder_lift_joint, elbow_joint, wrist_1_joint, wrist_2_joint,","[1.468761920928955, -1.1717284361468714, 2.482806444168091, -2.862264935170309, -1.566634480153219, 0.4594913125038147]","[0.07175195217132568, 0.0, -0.0, 0.00011504856229294091, 0.0001917476038215682, 0.1287393420934677]","[0.8789063692092896, -3.804016590118408, -1.6073781251907349, -0.3117828667163849, 0.1727142482995987, 0.2736511528491974]"
1584451371444222346,,1184946,,1584451371,443883323,'',"[shoulder_pan_joint, shoulder_lift_joint, elbow_joint, wrist_1_joint, wrist_2_joint,","[1.4769666194915771, -1.1717165152179163, 2.482806444168091, -2.8622167746173304, -1.5665863196002405, 0.47454461455345154]","[0.07196926325559616, 0.0, -0.0, 0.0003067961661145091, 0.00015339808305725455, 0.12678351998329163]","[1.0528565645217896, -4.000854969024658, -1.421307921409607, -0.3858032524585724, 0.1659851223230362, 0.2893524467945099]"
1584451371556267166,,1184960,,1584451371,555889341,'',"[shoulder_pan_joint, shoulder_lift_joint, elbow_joint, wrist_1_joint, wrist_2_joint,","[1.4840916395187378, -1.1716926733600062, 2.482806444168091, -2.86216909090151, -1.5666464010821741, 0.48872271180152893]","[0.056412145495414734, 0.0, -0.0, 0.0005368932615965605, 0.00011504856229294091, 0.12112695723772049]","[0.8468628525733948, -3.982544422149658, -1.5199475288391113, -0.3386993706226349, 0.2736511528491974, 0.3431854546070099]"
1584451371668202822,,1184974,,1584451371,667860894,'',"[shoulder_pan_joint, shoulder_lift_joint, elbow_joint, wrist_1_joint, wrist_2_joint,","[1.4901249408721924, -1.171668831502096, 2.482806444168091, -2.8621209303485315, -1.5665982405291956, 0.5026850700378418]","[0.05264110863208771, 0.0, -0.0, 0.0001917476038215682, 0.00011504856229294091, 0.11673594266176224]","[0.9017945528030396, -3.927612781524658, -1.4773530960083008, -0.3701019585132599, 0.2243042290210724, 0.3566437065601349]"
1584451371780333162,,1184988,,1584451371,779959915,'',"[shoulder_pan_joint, shoulder_lift_joint, elbow_joint, wrist_1_joint, wrist_2_joint,","[1.4955463409423828, -1.1716926733600062, 2.4827704429626465, -2.8621090094195765, -1.5666101614581507, 0.5161433815956116]","[0.045214083045721054, 0.0, -0.0, 0.0001917476038215682, 0.00015339808305725455, 0.11439661681652069]","[0.9429932832717896, -3.968811511993408, -1.4930458068847656, -0.3656158745288849, 0.2018737941980362, 0.3768310844898224]"
1584451371892292443,,1185002,,1584451371,891903978,'',"[shoulder_pan_joint, shoulder_lift_joint, elbow_joint, wrist_1_joint, wrist_2_joint,","[1.5008841753005981, -1.1717165152179163, 2.4827585220336914, -2.8621090094195765, -1.5666220823871058, 0.5290747284889221]","[0.05306295305490494, 0.0, -0.0, 0.00017257283616345376, 0.00015339808305725455, 0.11947792768478394]","[1.2908936738967896, -4.000854969024658, -1.5603001117706299, -0.3364563286304474, 0.1884155422449112, 0.3723450005054474]"
1584451372004187624,,1185016,,1584451372,3857287,'',"[shoulder_pan_joint, shoulder_lift_joint, elbow_joint, wrist_1_joint, wrist_2_joint,","[1.5064972639083862, -1.1717045942889612, 2.4827945232391357, -2.8620970884906214, -1.5665863196002405, 0.540603518486023]","[0.04584046080708504, 0.0, -2.5566347176209092e-05, 0.00017257283616345376, 0.00013422331539914012, 0.10448326915502548]","[1.0162354707717896, -3.959656238555908, -1.5804764032363892, -0.3162689507007599, 0.2422485649585724, 0.3364563286304474]"
1584451372116236542,,1185030,,1584451372,115849589,'',"[shoulder_pan_joint, shoulder_lift_joint, elbow_joint, wrist_1_joint, wrist_2_joint,","[1.5111392736434937, -1.1717284361468714, 2.482806444168091, -2.862072769795553, -1.5665982405291956, 0.5514369010925293]","[0.040458742529153824, 0.0, -2.5566347176209092e-05, 0.00013422331539914012, 7.669904152862728e-05, 0.09364952892065048]","[0.9979249238967896, -4.014587879180908, -1.5535746812820435, -0.3252411186695099, 0.2243042290210724, 0.2848663628101349]"
