PorkPy/robot-pulling-data/good_move_ztwist_10/joint_states_throttle.csv
rosbagTimestamp,header,seq,stamp,secs,nsecs,frame_id,name,wrist_3_joint],position,velocity,effort
1584453564419464284,,1459080,,1584453564,419140970,'',"[shoulder_pan_joint, shoulder_lift_joint, elbow_joint, wrist_1_joint, wrist_2_joint,","[1.4048421382904053, -1.171788517628805, 2.483046531677246, -2.862887207661764, -1.5669696966754358, 2.7207303047180176]","[0.0, 0.0, -0.0, 0.0, 0.0, 0.0]","[-0.3753662407398224, -4.261780261993408, -1.0222655534744263, -0.6302948594093323, -0.0403747595846653, 0.0964508131146431]"
1584453564531431999,,1459094,,1584453564,531151655,'',"[shoulder_pan_joint, shoulder_lift_joint, elbow_joint, wrist_1_joint, wrist_2_joint,","[1.4047942161560059, -1.1718123594867151, 2.483046531677246, -2.8628271261798304, -1.5669577757464808, 2.7207064628601074]","[0.0, 0.0, -0.0, 0.0, 0.0, 0.0]","[-0.3433227837085724, -4.325867176055908, -1.0357165336608887, -0.6280518174171448, -0.0448608435690403, 0.1099090725183487]"
1584453564643531872,,1459108,,1584453564,643241860,'',"[shoulder_pan_joint, shoulder_lift_joint, elbow_joint, wrist_1_joint, wrist_2_joint,","[1.4048181772232056, -1.1718123594867151, 2.483058452606201, -2.8628271261798304, -1.5669458548175257, 2.720754384994507]","[0.0, 0.0, -0.0, 0.0, 0.0, 0.0]","[-0.3799438774585724, -4.298401355743408, -1.0379582643508911, -0.6415100693702698, -0.0426178015768528, 0.1143951565027237]"
1584453564755392587,,1459122,,1584453564,755135637,'',"[shoulder_pan_joint, shoulder_lift_joint, elbow_joint, wrist_1_joint, wrist_2_joint,","[1.4048062562942505, -1.17177659669985, 2.483034372329712, -2.8628390471087855, -1.5669577757464808, 2.7207183837890625]","[0.0, 0.0, -0.0, 0.0, 0.0, 0.0]","[-0.3524780571460724, -4.293823719024658, -1.0222655534744263, -0.6190796494483948, -0.0448608435690403, 0.1099090725183487]"
1584453564867401510,,1459136,,1584453564,867153166,'',"[shoulder_pan_joint, shoulder_lift_joint, elbow_joint, wrist_1_joint, wrist_2_joint,","[1.4048181772232056, -1.17180043855776, 2.4830703735351562, -2.8628514448748987, -1.5669577757464808, 2.7207064628601074]","[0.0, 0.0, -0.0, 0.0, 0.0, 0.0]","[-0.3707886040210724, -4.261780261993408, -1.0334746837615967, -0.6302948594093323, -0.0426178015768528, 0.0986938551068306]"
1584453564979368984,,1459150,,1584453564,979117184,'',"[shoulder_pan_joint, shoulder_lift_joint, elbow_joint, wrist_1_joint, wrist_2_joint,","[1.4047702550888062, -1.17180043855776, 2.483058452606201, -2.862863365803854, -1.5669458548175257, 2.7207422256469727]","[0.0, 0.0, -0.0, 0.0, 0.0, 0.0]","[-0.3524780571460724, -4.270935535430908, -1.040200114250183, -0.6302948594093323, -0.0471038855612278, 0.0919647291302681]"
1584453565091376794,,1459164,,1584453565,91102903,'',"[shoulder_pan_joint, shoulder_lift_joint, elbow_joint, wrist_1_joint, wrist_2_joint,","[1.4048181772232056, -1.171788517628805, 2.4830822944641113, -2.862863365803854, -1.5669696966754358, 2.7207064628601074]","[0.0, 0.0, -0.0, 0.0, 0.0, 0.0]","[-0.3799438774585724, -4.289246082305908, -1.0245074033737183, -0.6392670273780823, -0.0358886756002903, 0.0986938551068306]"
1584453565203364668,,1459178,,1584453565,203174994,'',"[shoulder_pan_joint, shoulder_lift_joint, elbow_joint, wrist_1_joint, wrist_2_joint,","[1.4048181772232056, -1.1718123594867151, 2.4830822944641113, -2.8628514448748987, -1.566981617604391, 2.7207303047180176]","[0.0, 0.0, -0.0, 0.0, 0.0, 0.0]","[-0.3524780571460724, -4.330444812774658, -1.0289909839630127, -0.6347809433937073, -0.0403747595846653, 0.1054229810833931]"
1584453565315404498,,1459192,,1584453565,315184006,'',"[shoulder_pan_joint, shoulder_lift_joint, elbow_joint, wrist_1_joint, wrist_2_joint,","[1.4047942161560059, -1.171788517628805, 2.4830703735351562, -2.8628152052508753, -1.566981617604391, 2.7207303047180176]","[0.0, 0.0, -0.0, 0.0, 0.0, 0.0]","[-0.3662109673023224, -4.298401355743408, -1.0289909839630127, -0.6347809433937073, -0.0493469275534153, 0.1009368970990181]"
1584453565427306590,,1459206,,1584453565,427125873,'',"[shoulder_pan_joint, shoulder_lift_joint, elbow_joint, wrist_1_joint, wrist_2_joint,","[1.4048062562942505, -1.17180043855776, 2.483058452606201, -2.8628514448748987, -1.5669577757464808, 2.7207064628601074]","[0.0, 0.0, -0.0, 0.0, 0.0, 0.0]","[-0.3662109673023224, -4.307556629180908, -1.0267492532730103, -0.6280518174171448, -0.0336456336081028, 0.1143951565027237]"
1584453565539394270,,1459220,,1584453565,539144674,'',"[shoulder_pan_joint, shoulder_lift_joint, elbow_joint, wrist_1_joint, wrist_2_joint,","[1.4047942161560059, -1.17180043855776, 2.483058452606201, -2.8628514448748987, -1.5669577757464808, 2.7207422256469727]","[0.0, 0.0, -0.0, 0.0, 0.0, 0.0]","[-0.3799438774585724, -4.252624988555908, -1.0289909839630127, -0.6302948594093323, -0.0471038855612278, 0.1054229810833931]"
1584453565651291584,,1459234,,1584453565,651124101,'',"[shoulder_pan_joint, shoulder_lift_joint, elbow_joint, wrist_1_joint, wrist_2_joint,","[1.4047942161560059, -1.17180043855776, 2.483058452606201, -2.8628390471087855, -1.5669577757464808, 2.7207303047180176]","[0.0, 0.0, -0.0, 0.0, 0.0, 0.0]","[-0.3662109673023224, -4.275513172149658, -1.0379582643508911, -0.6213226914405823, -0.0403747595846653, 0.0874786451458931]"
1584453565763296900,,1459248,,1584453565,763079975,'',"[shoulder_pan_joint, shoulder_lift_joint, elbow_joint, wrist_1_joint, wrist_2_joint,","[1.4048302173614502, -1.1718123594867151, 2.4830703735351562, -2.8628390471087855, -1.5669696966754358, 2.7207422256469727]","[0.0, 0.0, -0.0, 0.0, 0.0, 0.0]","[-0.3662109673023224, -4.280090808868408, -1.042441964149475, -0.6258087754249573, -0.0493469275534153, 0.1143951565027237]"
1584453565875326360,,1459262,,1584453565,875125695,'',"[shoulder_pan_joint, shoulder_lift_joint, elbow_joint, wrist_1_joint, wrist_2_joint,","[1.4047942161560059, -1.17180043855776, 2.4830822944641113, -2.862863365803854, -1.5669577757464808, 2.7207064628601074]","[0.0, 0.0, -0.0, 0.0, 0.0, 0.0]","[-0.3799438774585724, -4.261780261993408, -1.0312328338623047, -0.6168366074562073, -0.0538330152630806, 0.1009368970990181]"
1584453565987220618,,1459276,,1584453565,987046393,'',"[shoulder_pan_joint, shoulder_lift_joint, elbow_joint, wrist_1_joint, wrist_2_joint,","[1.4048181772232056, -1.17180043855776, 2.4830100536346436, -2.8628390471087855, -1.5669458548175257, 2.720754384994507]","[0.0, 0.0, -0.0, 0.0, 0.0, 0.0]","[-0.3479004204273224, -4.266357898712158, -1.042441964149475, -0.6145935654640198, -0.0426178015768528, 0.0807495191693306]"
1584453566099455333,,1459290,,1584453566,99165972,'',"[shoulder_pan_joint, shoulder_lift_joint, elbow_joint, wrist_1_joint, wrist_2_joint,","[1.4048062562942505, -1.17180043855776, 2.4830822944641113, -2.862863365803854, -1.5669577757464808, 2.7207303047180176]","[0.0, 0.0, -0.0, 0.0, 0.0, 0.0]","[-0.3662109673023224, -4.280090808868408, -1.0245074033737183, -0.6168366074562073, -0.0403747595846653, 0.1054229810833931]"
1584453566211429319,,1459304,,1584453566,211096538,'',"[shoulder_pan_joint, shoulder_lift_joint, elbow_joint, wrist_1_joint, wrist_2_joint,","[1.4047942161560059, -1.17180043855776, 2.4830703735351562, -2.8628514448748987, -1.5669577757464808, 2.7207422256469727]","[0.0, 0.0, -0.0, 0.0, 0.0, 0.0]","[-0.3845215141773224, -4.357910633087158, -1.0312328338623047, -0.6325379014015198, -0.0493469275534153, 0.0919647291302681]"
1584453566323495939,,1459318,,1584453566,323157086,'',"[shoulder_pan_joint, shoulder_lift_joint, elbow_joint, wrist_1_joint, wrist_2_joint,","[1.4048181772232056, -1.1717646757708948, 2.483058452606201, -2.8628390471087855, -1.5669696966754358, 2.7207183837890625]","[0.0, 0.0, -0.0, 0.0, 0.0, 0.0]","[-0.3433227837085724, -4.302978992462158, -1.0222655534744263, -0.6325379014015198, -0.0448608435690403, 0.1143951565027237]"
1584453566435441514,,1459332,,1584453566,435059751,'',"[shoulder_pan_joint, shoulder_lift_joint, elbow_joint, wrist_1_joint, wrist_2_joint,","[1.4048062562942505, -1.171788517628805, 2.483058452606201, -2.8628390471087855, -1.5669696966754358, 2.7207183837890625]","[0.0, 0.0, -0.0, 0.0, 0.0, 0.0]","[-0.3616333305835724, -4.284668445587158, -1.0379582643508911, -0.6459961533546448, -0.0426178015768528, 0.1211242824792862]"
1584453566547443753,,1459346,,1584453566,547098909,'',"[shoulder_pan_joint, shoulder_lift_joint, elbow_joint, wrist_1_joint, wrist_2_joint,","[1.4047942161560059, -1.1718247572528284, 2.483058452606201, -2.8628514448748987, -1.5669577757464808, 2.7207183837890625]","[0.0, 0.0, -0.0, 0.0, 0.0, 0.0]","[-0.3753662407398224, -4.302978992462158, -1.0379582643508911, -0.6280518174171448, -0.0381317175924778, 0.0919647291302681]"
1584453566659388967,,1459360,,1584453566,659053220,'',"[shoulder_pan_joint, shoulder_lift_joint, elbow_joint, wrist_1_joint, wrist_2_joint,","[1.4048062562942505, -1.1718123594867151, 2.483046531677246, -2.862863365803854, -1.5669696966754358, 2.7207183837890625]","[0.0, 0.0, -0.0, 0.0, 0.0, 0.0]","[-0.3799438774585724, -4.302978992462158, -1.0357165336608887, -0.6302948594093323, -0.0403747595846653, 0.1054229810833931]"
1584453566771307751,,1459374,,1584453566,771049038,'',"[shoulder_pan_joint, shoulder_lift_joint, elbow_joint, wrist_1_joint, wrist_2_joint,","[1.4048302173614502, -1.171788517628805, 2.4830703735351562, -2.862863365803854, -1.5669577757464808, 2.7207183837890625]","[0.0, 0.0, -0.0, 0.0, 0.0, 0.0]","[-0.3707886040210724, -4.284668445587158, -1.0312328338623047, -0.6258087754249573, -0.0403747595846653, 0.0897216871380806]"
1584453566883374701,,1459388,,1584453566,883109586,'',"[shoulder_pan_joint, shoulder_lift_joint, elbow_joint, wrist_1_joint, wrist_2_joint,","[1.4047942161560059, -1.1718123594867151, 2.4830703735351562, -2.862863365803854, -1.5669577757464808, 2.720766305923462]","[0.0, 0.0, -0.0, 0.0, 0.0, 0.0]","[-0.3799438774585724, -4.321289539337158, -1.0200238227844238, -0.6190796494483948, -0.0493469275534153, 0.0986938551068306]"
1584453566995296141,,1459402,,1584453566,995014525,'',"[shoulder_pan_joint, shoulder_lift_joint, elbow_joint, wrist_1_joint, wrist_2_joint,","[1.4048181772232056, -1.17180043855776, 2.483058452606201, -2.86280328432192, -1.566981617604391, 2.7207183837890625]","[0.0, 0.0, -0.0, 0.0, 0.0, 0.0]","[-0.3845215141773224, -4.275513172149658, -1.0469255447387695, -0.6258087754249573, -0.0515899695456028, 0.1099090725183487]"
1584453567107375905,,1459416,,1584453567,107044807,'',"[shoulder_pan_joint, shoulder_lift_joint, elbow_joint, wrist_1_joint, wrist_2_joint,","[1.4047822952270508, -1.171788517628805, 2.4830703735351562, -2.8628514448748987, -1.566981617604391, 2.720754384994507]","[0.0, 0.0, -0.0, 0.0, 0.0, 0.0]","[-0.3570556938648224, -4.270935535430908, -1.0469255447387695, -0.6258087754249573, -0.0426178015768528, 0.1143951565027237]"
1584453567219407269,,1459430,,1584453567,219012281,'',"[shoulder_pan_joint, shoulder_lift_joint, elbow_joint, wrist_1_joint, wrist_2_joint,","[1.4048062562942505, -1.1718123594867151, 2.483046531677246, -2.862863365803854, -1.5669940153705042, 2.7207303047180176]","[0.0, 0.0, -0.0, 0.0, 0.0, 0.0]","[-0.4028320610523224, -4.252624988555908, -1.0357165336608887, -0.6213226914405823, -0.0515899695456028, 0.1054229810833931]"
1584453567331429507,,1459444,,1584453567,331104019,'',"[shoulder_pan_joint, shoulder_lift_joint, elbow_joint, wrist_1_joint, wrist_2_joint,","[1.4047702550888062, -1.1718123594867151, 2.483034372329712, -2.8628271261798304, -1.5669577757464808, 2.7207303047180176]","[0.0, 0.0, -0.0, 0.0, 0.0, 0.0]","[-0.3890991508960724, -4.312134265899658, -1.0267492532730103, -0.6078644394874573, -0.0426178015768528, 0.1054229810833931]"
1584453567443639595,,1459458,,1584453567,443306242,'',"[shoulder_pan_joint, shoulder_lift_joint, elbow_joint, wrist_1_joint, wrist_2_joint,","[1.4048181772232056, -1.17177659669985, 2.4830703735351562, -2.862875286732809, -1.5669577757464808, 2.7207183837890625]","[0.0, 0.0, -0.0, 0.0, 0.0, 0.0]","[-0.3524780571460724, -4.238892078399658, -1.0200238227844238, -0.6235657334327698, -0.0448608435690403, 0.1031799390912056]"
1584453567555337677,,1459472,,1584453567,555050751,'',"[shoulder_pan_joint, shoulder_lift_joint, elbow_joint, wrist_1_joint, wrist_2_joint,","[1.4048181772232056, -1.17180043855776, 2.483058452606201, -2.8628152052508753, -1.566981617604391, 2.7207064628601074]","[0.0, 0.0, -0.0, 0.0, 0.0, 0.0]","[-0.3616333305835724, -4.280090808868408, -1.0312328338623047, -0.6235657334327698, -0.0403747595846653, 0.1054229810833931]"
1584453567667286857,,1459486,,1584453567,667007085,'',"[shoulder_pan_joint, shoulder_lift_joint, elbow_joint, wrist_1_joint, wrist_2_joint,","[1.4047942161560059, -1.171788517628805, 2.4830703735351562, -2.8628271261798304, -1.566981617604391, 2.720754384994507]","[0.0, 0.0, -0.0, 0.0, 0.0, 0.0]","[-0.3616333305835724, -4.289246082305908, -1.0357165336608887, -0.6325379014015198, -0.0493469275534153, 0.1233673244714737]"
1584453567779351463,,1459500,,1584453567,779049359,'',"[shoulder_pan_joint, shoulder_lift_joint, elbow_joint, wrist_1_joint, wrist_2_joint,","[1.4048181772232056, -1.17180043855776, 2.483058452606201, -2.8628390471087855, -1.5669696966754358, 2.7207422256469727]","[0.0, 0.0, -0.0, 0.0, 0.0, 0.0]","[-0.3524780571460724, -4.257202625274658, -1.053650975227356, -0.6415100693702698, -0.0403747595846653, 0.1188812404870987]"
1584453567891336171,,1459514,,1584453567,891052451,'',"[shoulder_pan_joint, shoulder_lift_joint, elbow_joint, wrist_1_joint, wrist_2_joint,","[1.4048062562942505, -1.171788517628805, 2.483058452606201, -2.8628514448748987, -1.5669577757464808, 2.7207183837890625]","[0.0, 0.0, -0.0, 0.0, 0.0, 0.0]","[-0.3753662407398224, -4.302978992462158, -1.0334746837615967, -0.6302948594093323, -0.0515899695456028, 0.1121521145105362]"
1584453568003370330,,1459528,,1584453568,3005278,'',"[shoulder_pan_joint, shoulder_lift_joint, elbow_joint, wrist_1_joint, wrist_2_joint,","[1.4048181772232056, -1.171788517628805, 2.483034372329712, -2.8628390471087855, -1.566981617604391, 2.7207183837890625]","[0.0, 0.0, -0.0, 0.0, 0.0, 0.0]","[-0.3845215141773224, -4.284668445587158, -1.0245074033737183, -0.6168366074562073, -0.0493469275534153, 0.1009368970990181]"
1584453568115305786,,1459542,,1584453568,114991769,'',"[shoulder_pan_joint, shoulder_lift_joint, elbow_joint, wrist_1_joint, wrist_2_joint,","[1.4048181772232056, -1.17177659669985, 2.483046531677246, -2.8628390471087855, -1.5669339338885706, 2.7207064628601074]","[0.0, 0.0, -0.0, 0.0, 0.0, 0.0]","[-0.3799438774585724, -4.289246082305908, -1.0379582643508911, -0.5787048935890198, -0.0426178015768528, 0.1121521145105362]"
1584453568227272088,,1459556,,1584453568,226965786,'',"[shoulder_pan_joint, shoulder_lift_joint, elbow_joint, wrist_1_joint, wrist_2_joint,","[1.4047822952270508, -1.17180043855776, 2.483034372329712, -2.862875286732809, -1.5669696966754358, 2.720766305923462]","[0.0, 0.0, -0.0, 0.0, 0.0, 0.0]","[-0.3616333305835724, -4.257202625274658, -1.0289909839630127, -0.5338440537452698, -0.0426178015768528, 0.1121521145105362]"
1584453568339316557,,1459570,,1584453568,339021145,'',"[shoulder_pan_joint, shoulder_lift_joint, elbow_joint, wrist_1_joint, wrist_2_joint,","[1.4048181772232056, -1.1717646757708948, 2.483034372329712, -2.8628390471087855, -1.5669577757464808, 2.7207422256469727]","[0.0, 0.0, -0.0, 0.0, 0.0, 0.0]","[-0.3707886040210724, -4.316711902618408, -1.0357165336608887, -0.5360870957374573, -0.0403747595846653, 0.1278534084558487]"
1584453568451326642,,1459584,,1584453568,451012675,'',"[shoulder_pan_joint, shoulder_lift_joint, elbow_joint, wrist_1_joint, wrist_2_joint,","[1.4048181772232056, -1.17177659669985, 2.4830703735351562, -2.862863365803854, -1.5669577757464808, 2.7207422256469727]","[0.0, 0.0, -0.0, 0.0, 0.0, 0.0]","[-0.3707886040210724, -4.298401355743408, -1.042441964149475, -0.5360870957374573, -0.0403747595846653, 0.1143951565027237]"
1584453568563302292,,1459598,,1584453568,562992824,'',"[shoulder_pan_joint, shoulder_lift_joint, elbow_joint, wrist_1_joint, wrist_2_joint,","[1.4047702550888062, -1.171788517628805, 2.483046531677246, -2.862875286732809, -1.5669458548175257, 2.720754384994507]","[0.0, 0.0, -0.0, 0.0, 0.0, 0.0]","[-0.3845215141773224, -4.316711902618408, -1.0222655534744263, -0.5495453476905823, -0.0381317175924778, 0.1099090725183487]"
1584453568675247234,,1459612,,1584453568,674951612,'',"[shoulder_pan_joint, shoulder_lift_joint, elbow_joint, wrist_1_joint, wrist_2_joint,","[1.4048181772232056, -1.17180043855776, 2.483058452606201, -2.862863365803854, -1.5669458548175257, 2.7207422256469727]","[0.0, 0.0, -0.0, 0.0, 0.0, 0.0]","[-0.3433227837085724, -4.325867176055908, -1.0289909839630127, -0.5383301377296448, -0.0426178015768528, 0.1009368970990181]"
1584453568787291954,,1459626,,1584453568,786983558,'',"[shoulder_pan_joint, shoulder_lift_joint, elbow_joint, wrist_1_joint, wrist_2_joint,","[1.4048062562942505, -1.17177659669985, 2.483046531677246, -2.862863365803854, -1.5669458548175257, 2.7207303047180176]","[0.0, 0.0, -0.0, 0.0, 0.0, 0.0]","[-0.3433227837085724, -4.289246082305908, -1.0200238227844238, -0.5428162217140198, -0.0515899695456028, 0.1076660305261612]"
1584453568899289966,,1459640,,1584453568,898925605,'',"[shoulder_pan_joint, shoulder_lift_joint, elbow_joint, wrist_1_joint, wrist_2_joint,","[1.4047942161560059, -1.17180043855776, 2.483058452606201, -2.8628390471087855, -1.5669940153705042, 2.7207183837890625]","[0.0, 0.0, -0.0, 0.0, 0.0, 0.0]","[-0.3570556938648224, -4.261780261993408, -1.0312328338623047, -0.5428162217140198, -0.0426178015768528, 0.0964508131146431]"
1584453569011242042,,1459654,,1584453569,10970154,'',"[shoulder_pan_joint, shoulder_lift_joint, elbow_joint, wrist_1_joint, wrist_2_joint,","[1.4047942161560059, -1.1718123594867151, 2.483034372329712, -2.8628514448748987, -1.566981617604391, 2.7207303047180176]","[0.0, 0.0, -0.0, 0.0, 0.0, 0.0]","[-0.3890991508960724, -4.280090808868408, -1.0357165336608887, -0.5495453476905823, -0.0314025916159153, 0.1143951565027237]"
1584453569123249572,,1459668,,1584453569,122950483,'',"[shoulder_pan_joint, shoulder_lift_joint, elbow_joint, wrist_1_joint, wrist_2_joint,","[1.4048302173614502, -1.1718123594867151, 2.483046531677246, -2.862887207661764, -1.5669458548175257, 2.720754384994507]","[0.0, 0.0, -0.0, 0.0, 0.0, 0.0]","[-0.3845215141773224, -4.293823719024658, -1.0379582643508911, -0.5383301377296448, -0.0538330152630806, 0.1143951565027237]"
1584453569235241121,,1459682,,1584453569,234907147,'',"[shoulder_pan_joint, shoulder_lift_joint, elbow_joint, wrist_1_joint, wrist_2_joint,","[1.4048062562942505, -1.17180043855776, 2.4830703735351562, -2.8628390471087855, -1.5670178572284144, 2.7207303047180176]","[0.0, 0.0, -0.0, 0.0, 0.0, 0.0]","[-0.3890991508960724, -4.302978992462158, -1.0312328338623047, -0.5428162217140198, -0.0403747595846653, 0.1076660305261612]"
1584453569347396197,,1459696,,1584453569,347023341,'',"[shoulder_pan_joint, shoulder_lift_joint, elbow_joint, wrist_1_joint, wrist_2_joint,","[1.4047822952270508, -1.1717646757708948, 2.483058452606201, -2.8628271261798304, -1.5669696966754358, 2.7207422256469727]","[0.0, 0.0, -0.0, 0.0, 0.0, 0.0]","[-0.3662109673023224, -4.335022449493408, -1.0267492532730103, -0.5450592637062073, -0.0381317175924778, 0.1121521145105362]"
1584453569459270488,,1459710,,1584453569,458939960,'',"[shoulder_pan_joint, shoulder_lift_joint, elbow_joint, wrist_1_joint, wrist_2_joint,","[1.4048302173614502, -1.171788517628805, 2.483058452606201, -2.8628390471087855, -1.566981617604391, 2.7207303047180176]","[0.0, 0.0, -0.0, 0.0, 0.0, 0.0]","[-0.4074096977710724, -4.307556629180908, -1.0267492532730103, -0.5517883896827698, -0.0471038855612278, 0.1211242824792862]"
1584453569571220430,,1459724,,1584453569,570950295,'',"[shoulder_pan_joint, shoulder_lift_joint, elbow_joint, wrist_1_joint, wrist_2_joint,","[1.4048181772232056, -1.17180043855776, 2.483046531677246, -2.8628271261798304, -1.5669696966754358, 2.720754384994507]","[0.0, 0.0, -0.0, 0.0, 0.0, 0.0]","[-0.3890991508960724, -4.307556629180908, -1.0177819728851318, -0.5495453476905823, -0.0426178015768528, 0.1031799390912056]"
1584453569683228250,,1459738,,1584453569,682930184,'',"[shoulder_pan_joint, shoulder_lift_joint, elbow_joint, wrist_1_joint, wrist_2_joint,","[1.4048181772232056, -1.171788517628805, 2.483046531677246, -2.8628271261798304, -1.5669577757464808, 2.7207422256469727]","[0.0, 0.0, -0.0, 0.0, 0.0, 0.0]","[-0.3707886040210724, -4.339600086212158, -1.0289909839630127, -0.5428162217140198, -0.0426178015768528, 0.0942077711224556]"
1584453569795202748,,1459752,,1584453569,794910232,'',"[shoulder_pan_joint, shoulder_lift_joint, elbow_joint, wrist_1_joint, wrist_2_joint,","[1.4048181772232056, -1.1718123594867151, 2.4830944538116455, -2.8628271261798304, -1.5669339338885706, 2.7207303047180176]","[0.0, 0.0, -0.0, 0.0, 0.0, 0.0]","[-0.3890991508960724, -4.302978992462158, -1.0446836948394775, -0.5405731797218323, -0.0358886756002903, 0.1121521145105362]"
1584453569907190581,,1459766,,1584453569,906918493,'',"[shoulder_pan_joint, shoulder_lift_joint, elbow_joint, wrist_1_joint, wrist_2_joint,","[1.4048062562942505, -1.17180043855776, 2.483034372329712, -2.8628390471087855, -1.566981617604391, 2.7207422256469727]","[0.0, 0.0, -0.0, 0.0, 0.0, 0.0]","[-0.3753662407398224, -4.275513172149658, -1.0334746837615967, -0.5383301377296448, -0.0515899695456028, 0.1143951565027237]"
1584453570019171141,,1459780,,1584453570,18870950,'',"[shoulder_pan_joint, shoulder_lift_joint, elbow_joint, wrist_1_joint, wrist_2_joint,","[1.4047942161560059, -1.17180043855776, 2.483046531677246, -2.8628514448748987, -1.5669577757464808, 2.7207064628601074]","[0.0, 0.0, -0.0, 0.0, 0.0, 0.0]","[-0.3890991508960724, -4.275513172149658, -1.0334746837615967, -0.5450592637062073, -0.0493469275534153, 0.1188812404870987]"
1584453570131183038,,1459794,,1584453570,130883258,'',"[shoulder_pan_joint, shoulder_lift_joint, elbow_joint, wrist_1_joint, wrist_2_joint,","[1.4048062562942505, -1.1718247572528284, 2.4830703735351562, -2.8628390471087855, -1.5669458548175257, 2.7207303047180176]","[0.0, 0.0, -0.0, 0.0, 0.0, 0.0]","[-0.3707886040210724, -4.298401355743408, -1.0245074033737183, -0.5562744736671448, -0.0448608435690403, 0.1076660305261612]"
1584453570243182143,,1459808,,1584453570,242890939,'',"[shoulder_pan_joint, shoulder_lift_joint, elbow_joint, wrist_1_joint, wrist_2_joint,","[1.4048302173614502, -1.1718247572528284, 2.483058452606201, -2.862863365803854, -1.5669696966754358, 2.7207303047180176]","[0.0, 0.0, -0.0, 0.0, 0.0, 0.0]","[-0.3753662407398224, -4.293823719024658, -1.0289909839630127, -0.5360870957374573, -0.0314025916159153, 0.1054229810833931]"
1584453570355317731,,1459822,,1584453570,355020536,'',"[shoulder_pan_joint, shoulder_lift_joint, elbow_joint, wrist_1_joint, wrist_2_joint,","[1.4048302173614502, -1.171788517628805, 2.483046531677246, -2.8628390471087855, -1.566981617604391, 2.720766305923462]","[0.0, 0.0, -0.0, 0.0, 0.0, 0.0]","[-0.4028320610523224, -4.325867176055908, -1.040200114250183, -0.5405731797218323, -0.0381317175924778, 0.1031799390912056]"
1584453570467206980,,1459836,,1584453570,466867786,'',"[shoulder_pan_joint, shoulder_lift_joint, elbow_joint, wrist_1_joint, wrist_2_joint,","[1.4048062562942505, -1.171788517628805, 2.4830703735351562, -2.8628152052508753, -1.5669696966754358, 2.7207422256469727]","[0.0, 0.0, -0.0, 0.0, 0.0, 0.0]","[-0.3662109673023224, -4.302978992462158, -1.0110565423965454, -0.5517883896827698, -0.0515899695456028, 0.1009368970990181]"
1584453570579178613,,1459850,,1584453570,578832016,'',"[shoulder_pan_joint, shoulder_lift_joint, elbow_joint, wrist_1_joint, wrist_2_joint,","[1.4047942161560059, -1.1718123594867151, 2.4830703735351562, -2.862863365803854, -1.5669339338885706, 2.7207183837890625]","[0.0, 0.0, -0.0, 0.0, 0.0, 0.0]","[-0.3707886040210724, -4.316711902618408, -1.0357165336608887, -0.5383301377296448, -0.0493469275534153, 0.1211242824792862]"
1584453570691203986,,1459864,,1584453570,690910918,'',"[shoulder_pan_joint, shoulder_lift_joint, elbow_joint, wrist_1_joint, wrist_2_joint,","[1.4047822952270508, -1.17180043855776, 2.4830703735351562, -2.8628152052508753, -1.5669696966754358, 2.7207422256469727]","[0.0, 0.0, -0.0, 0.0, 0.0, 0.0]","[-0.3707886040210724, -4.270935535430908, -1.0222655534744263, -0.5540314316749573, -0.0403747595846653, 0.1166381984949112]"
1584453570803160761,,1459878,,1584453570,802868205,'',"[shoulder_pan_joint, shoulder_lift_joint, elbow_joint, wrist_1_joint, wrist_2_joint,","[1.4048421382904053, -1.1718123594867151, 2.4830703735351562, -2.8628390471087855, -1.566981617604391, 2.7207303047180176]","[0.0, 0.0, -0.0, 0.0, 0.0, 0.0]","[-0.3662109673023224, -4.330444812774658, -1.0312328338623047, -0.5405731797218323, -0.0471038855612278, 0.1054229810833931]"
1584453570915162620,,1459892,,1584453570,914865595,'',"[shoulder_pan_joint, shoulder_lift_joint, elbow_joint, wrist_1_joint, wrist_2_joint,","[1.4048181772232056, -1.17180043855776, 2.483046531677246, -2.8628271261798304, -1.5669577757464808, 2.7207183837890625]","[0.0, 0.0, -0.0, 0.0, 0.0, 0.0]","[-0.3799438774585724, -4.270935535430908, -1.0446836948394775, -0.5517883896827698, -0.0448608435690403, 0.1188812404870987]"
1584453571027110117,,1459906,,1584453571,26838981,'',"[shoulder_pan_joint, shoulder_lift_joint, elbow_joint, wrist_1_joint, wrist_2_joint,","[1.4047822952270508, -1.17180043855776, 2.483046531677246, -2.862863365803854, -1.5669577757464808, 2.7207183837890625]","[0.0, 0.0, -0.0, 0.0, 0.0, 0.0]","[-0.3616333305835724, -4.284668445587158, -1.0469255447387695, -0.5316010117530823, -0.0493469275534153, 0.1099090725183487]"
1584453571139129370,,1459920,,1584453571,138856159,'',"[shoulder_pan_joint, shoulder_lift_joint, elbow_joint, wrist_1_joint, wrist_2_joint,","[1.4048181772232056, -1.171788517628805, 2.4830703735351562, -2.8628514448748987, -1.5669696966754358, 2.7207422256469727]","[0.0, 0.0, -0.0, 0.0, 0.0, 0.0]","[-0.3662109673023224, -4.312134265899658, -1.0379582643508911, -0.5383301377296448, -0.0358886756002903, 0.1166381984949112]"
1584453571251170702,,1459934,,1584453571,250852077,'',"[shoulder_pan_joint, shoulder_lift_joint, elbow_joint, wrist_1_joint, wrist_2_joint,","[1.4054538011550903, -1.1715605894671839, 2.4821105003356934, -2.86182147661318, -1.5669577757464808, 2.7210774421691895]","[0.019583821296691895, 0.005599029827862978, -0.021629130467772484, 0.019750002771615982, 0.0, 0.009779127314686775]","[0.7369995713233948, -2.792358636856079, -1.8920880556106567, -0.1951446682214737, 0.0560760572552681, 0.2983246147632599]"
1584453571363241991,,1459948,,1584453571,362916252,'',"[shoulder_pan_joint, shoulder_lift_joint, elbow_joint, wrist_1_joint, wrist_2_joint,","[1.4070252180099487, -1.1714046637164515, 2.4818224906921387, -2.861426655446188, -1.5669577757464808, 2.7193775177001953]","[0.002377670258283615, -0.0007286408799700439, 0.01456003449857235, -0.018005099147558212, 0.0, -0.045041512697935104]","[0.5218506455421448, -4.206848621368408, -1.0738272666931152, -0.5226288437843323, 0.0515899695456028, -0.4037475883960724]"
1584453571475185030,,1459962,,1584453571,474828224,'',"[shoulder_pan_joint, shoulder_lift_joint, elbow_joint, wrist_1_joint, wrist_2_joint,","[1.4061375856399536, -1.1715605894671839, 2.4822185039520264, -2.8620970884906214, -1.5669458548175257, 2.7168028354644775]","[-0.018011491745710373, 8.948221511673182e-05, -0.004780906718224287, 0.006423544604331255, 0.00013422331539914012, -0.011888351291418076]","[-0.9841920137405396, -3.350830316543579, -1.5580583810806274, -0.4127197563648224, 0.0426178015768528, -0.2983246147632599]"
1584453571587092152,,1459976,,1584453571,586855350,'',"[shoulder_pan_joint, shoulder_lift_joint, elbow_joint, wrist_1_joint, wrist_2_joint,","[1.4042785167694092, -1.1715968290912073, 2.4821226596832275, -2.862048927937643, -1.5669458548175257, 2.7196648120880127]","[-0.012233496643602848, 8.948221511673182e-05, -0.00043462790199555457, 0.0003451456723269075, 0.00013422331539914012, 0.047457531094551086]","[-0.9521485567092896, -3.570557117462158, -1.3630207777023315, -0.4575806260108948, 0.0426178015768528, 0.3140259087085724]"
1584453571699084725,,1459990,,1584453571,698829668,'',"[shoulder_pan_joint, shoulder_lift_joint, elbow_joint, wrist_1_joint, wrist_2_joint,","[1.403450846672058, -1.1715968290912073, 2.4821105003356934, -2.8620851675616663, -1.5669339338885706, 2.723281145095825]","[0.00046019424917176366, 8.948221511673182e-05, -0.0, 0.00015339808305725455, 0.00011504856229294091, 0.023124760016798973]","[-0.2380371391773224, -3.524780750274658, -1.4751113653182983, -0.4104767143726349, 0.0471038855612278, 0.3454284965991974]"
1584453571811087615,,1460004,,1584453571,810835945,'',"[shoulder_pan_joint, shoulder_lift_joint, elbow_joint, wrist_1_joint, wrist_2_joint,","[1.4053698778152466, -1.171549145375387, 2.4821226596832275, -2.862048927937643, -1.5669696966754358, 2.7262980937957764]","[0.023789485916495323, 6.391586794052273e-05, -0.0, 9.58738019107841e-05, 7.669904152862728e-05, 0.024294421076774597]","[0.7736206650733948, -3.611755847930908, -1.4325169324874878, -0.4216919243335724, 0.0538330152630806, 0.3095398247241974]"
1584453571923071030,,1460018,,1584453571,922816424,'',"[shoulder_pan_joint, shoulder_lift_joint, elbow_joint, wrist_1_joint, wrist_2_joint,","[1.4080688953399658, -1.1715729872332972, 2.4821226596832275, -2.862048927937643, -1.566981617604391, 2.729124069213867]","[0.019903400912880898, 5.1132694352418184e-05, -0.0, 7.669904152862728e-05, 5.752428114647046e-05, 0.023335684090852737]","[1.0025025606155396, -3.689575672149658, -1.3383609056472778, -0.4575806260108948, 0.0583190992474556, 0.2691650688648224]"
1584453572035041922,,1460032,,1584453572,34766688,'',"[shoulder_pan_joint, shoulder_lift_joint, elbow_joint, wrist_1_joint, wrist_2_joint,","[1.4101800918579102, -1.1715729872332972, 2.4821105003356934, -2.862060848866598, -1.566981617604391, 2.7328598499298096]","[0.020926054567098618, 3.834952076431364e-05, -0.0, 5.752428114647046e-05, 3.834952076431364e-05, 0.043296609073877335]","[0.8468628525733948, -3.657532215118408, -1.4123406410217285, -0.4127197563648224, 0.0583190992474556, 0.3185119926929474]"
1584453572147103131,,1460046,,1584453572,146790227,'',"[shoulder_pan_joint, shoulder_lift_joint, elbow_joint, wrist_1_joint, wrist_2_joint,","[1.4126865863800049, -1.1715605894671839, 2.4821465015411377, -2.8620851675616663, -1.566981617604391, 2.7373621463775635]","[0.022715698927640915, 2.5566347176209092e-05, -0.0, 3.834952076431364e-05, 3.834952076431364e-05, 0.03092888742685318]","[1.0986329317092896, -3.707886219024658, -1.3809553384780884, -0.4373932480812073, 0.0605621412396431, 0.3544006645679474]"
1584453572259107926,,1460060,,1584453572,258763202,'',"[shoulder_pan_joint, shoulder_lift_joint, elbow_joint, wrist_1_joint, wrist_2_joint,","[1.4142460823059082, -1.1715605894671839, 2.4821465015411377, -2.862060848866598, -1.5669940153705042, 2.7383317947387695]","[-0.009255018085241318, 2.5566347176209092e-05, 2.5566347176209092e-05, 3.834952076431364e-05, 3.834952076431364e-05, -0.05267306789755821]","[-0.2243042290210724, -3.717041492462158, -1.1881595849990845, -0.5181427597999573, 0.0762634351849556, -0.1502838283777237]"
1584453572371137237,,1460074,,1584453572,370823691,'',"[shoulder_pan_joint, shoulder_lift_joint, elbow_joint, wrist_1_joint, wrist_2_joint,","[1.410707712173462, -1.1715729872332972, 2.4820501804351807, -2.8620131651507776, -1.5670178572284144, 2.7303454875946045]","[-0.03838786855340004, 1.2783173588104546e-05, -0.006826214492321014, 7.669904152862728e-05, 1.917476038215682e-05, -0.06005534902215004]","[-1.0620118379592896, -3.282165765762329, -1.6141035556793213, -0.3342132866382599, 0.0358886756002903, -0.4059906303882599]"
1584453572483142832,,1460088,,1584453572,482822504,'',"[shoulder_pan_joint, shoulder_lift_joint, elbow_joint, wrist_1_joint, wrist_2_joint,","[1.4066892862319946, -1.1714404265033167, 2.4811747074127197, -2.8612712065326136, -1.5669577757464808, 2.7249810695648193]","[-0.03561392053961754, 0.0005368932615965605, -0.0016745957545936108, 0.0016873788554221392, 1.917476038215682e-05, -0.04406359791755676]","[-1.1260987520217896, -3.277588129043579, -1.6185872554779053, -0.3364563286304474, 0.0493469275534153, -0.3095398247241974]"
1584453572595117201,,1460102,,1584453572,594817110,'',"[shoulder_pan_joint, shoulder_lift_joint, elbow_joint, wrist_1_joint, wrist_2_joint,","[1.4035468101501465, -1.1714766661273401, 2.4811506271362305, -2.861306969319479, -1.5670059362994593, 2.720036029815674]","[-0.016579775139689445, 0.0002556634717620909, 0.0005880259559489787, 0.00024927189224399626, 0.0, -0.039154861122369766]","[-1.1535645723342896, -3.598022937774658, -1.360779047012329, -0.4396362900733948, 0.0515899695456028, -0.3274841606616974]"
1584453572707067463,,1460116,,1584453572,706787711,'',"[shoulder_pan_joint, shoulder_lift_joint, elbow_joint, wrist_1_joint, wrist_2_joint,","[1.4040625095367432, -1.1714766661273401, 2.4808506965637207, -2.8611391226397913, -1.5670297781573694, 2.7182881832122803]","[0.03561392053961754, 0.00011504856229294091, -0.010520551353693008, 0.008302670903503895, 0.0, 0.038541268557310104]","[0.7781983017921448, -3.227234125137329, -1.773272156715393, -0.2646789848804474, 0.0605621412396431, 0.1727142482995987]"
1584453572819031011,,1460130,,1584453572,818777758,'',"[shoulder_pan_joint, shoulder_lift_joint, elbow_joint, wrist_1_joint, wrist_2_joint,","[1.4098081588745117, -1.1709492842303675, 2.4784512519836426, -2.8594749609576624, -1.5670059362994593, 2.724322557449341]","[0.05772881209850311, 0.010354370810091496, -0.029989324510097504, 0.014476943761110306, 0.0, 0.053037386387586594]","[0.6958008408546448, -2.732849359512329, -1.741886854171753, -0.1749572902917862, 0.0717773512005806, 0.3858032524585724]"
1584453572931000650,,1460144,,1584453572,930769448,'',"[shoulder_pan_joint, shoulder_lift_joint, elbow_joint, wrist_1_joint, wrist_2_joint,","[1.4167530536651611, -1.1691864172564905, 2.472872495651245, -2.8569725195514124, -1.5669940153705042, 2.730045795440674]","[0.050161171704530716, 0.021590780466794968, -0.0732603669166565, 0.03104393742978573, 0.0, 0.05296068638563156]","[0.9292603731155396, -2.714538812637329, -1.784481167793274, -0.1435547024011612, 0.0740203931927681, 0.2557068169116974]"
1584453573043008620,,1460158,,1584453573,42757962,'',"[shoulder_pan_joint, shoulder_lift_joint, elbow_joint, wrist_1_joint, wrist_2_joint,","[1.4226545095443726, -1.1662491003619593, 2.4635260105133057, -2.8523157278644007, -1.566981617604391, 2.7370266914367676]","[0.04849936068058014, 0.027828969061374664, -0.07539515942335129, 0.04899151250720024, 0.0, 0.06360267847776413]","[1.0482789278030396, -2.622986078262329, -1.8741536140441895, -0.1031799390912056, 0.0672912672162056, 0.3162689507007599]"
1584453573155030457,,1460172,,1584453573,154765312,'',"[shoulder_pan_joint, shoulder_lift_joint, elbow_joint, wrist_1_joint, wrist_2_joint,","[1.4279919862747192, -1.163095776234762, 2.454179525375366, -2.8472517172442835, -1.566981617604391, 2.7426304817199707]","[0.046300653368234634, 0.029938193038105965, -0.06685599684715271, 0.04013277217745781, 0.0, 0.036853890866041183]","[0.9017945528030396, -2.682495355606079, -1.8853626251220703, -0.01570129580795765, 0.0986938551068306, 0.3431854546070099]"
1584453573267126081,,1460186,,1584453573,266832393,'',"[shoulder_pan_joint, shoulder_lift_joint, elbow_joint, wrist_1_joint, wrist_2_joint,","[1.4330778121948242, -1.1597750822650355, 2.447688579559326, -2.84316856065859, -1.5670059362994593, 2.7469890117645264]","[0.04664580151438713, 0.029017804190516472, -0.059659071266651154, 0.03374757990241051, 0.0, 0.04646044597029686]","[1.0620118379592896, -2.787781000137329, -1.9526170492172241, -0.0650482252240181, 0.1054229810833931, 0.2826233208179474]"
1584453573379004930,,1460200,,1584453573,378752840,'',"[shoulder_pan_joint, shoulder_lift_joint, elbow_joint, wrist_1_joint, wrist_2_joint,","[1.4386193752288818, -1.1564176718341272, 2.441605806350708, -2.8393495718585413, -1.5669940153705042, 2.7521495819091797]","[0.052564408630132675, 0.025055019184947014, -0.042082205414772034, 0.02935655787587166, 0.0, 0.041436657309532166]","[1.3824464082717896, -3.021240472793579, -1.8450100421905518, -0.1929016262292862, 0.0717773512005806, 0.3185119926929474]"
1584453573491058006,,1460214,,1584453573,490777822,'',"[shoulder_pan_joint, shoulder_lift_joint, elbow_joint, wrist_1_joint, wrist_2_joint,","[1.444041132926941, -1.1547272841082972, 2.437190294265747, -2.836452309285299, -1.5669696966754358, 2.7552149295806885]","[0.044319260865449905, 0.011351457796990871, -0.048243697732686996, 0.02713228575885296, 0.0, 0.02040194533765316]","[0.9429932832717896, -2.952575922012329, -1.9727933406829834, -0.2108459621667862, 0.0717773512005806, 0.3544006645679474]"
1584453573603053643,,1460228,,1584453573,602730309,'',"[shoulder_pan_joint, shoulder_lift_joint, elbow_joint, wrist_1_joint, wrist_2_joint,","[1.4482753276824951, -1.1528328100787562, 2.4304592609405518, -2.832597080861227, -1.5669940153705042, 2.756699800491333]","[0.032648224383592606, 0.019417639821767807, -0.0619983896613121, 0.0388864129781723, 0.0, 0.007880826480686665]","[0.9384156465530396, -2.700805902481079, -1.8539773225784302, -0.0605621412396431, 0.0919647291302681, 0.3095398247241974]"
1584453573715018473,,1460242,,1584453573,714746645,'',"[shoulder_pan_joint, shoulder_lift_joint, elbow_joint, wrist_1_joint, wrist_2_joint,","[1.4514057636260986, -1.1505306402789515, 2.4239439964294434, -2.8285864035235804, -1.5670059362994593, 2.7530477046966553]","[0.0266657005995512, 0.021935924887657166, -0.06392864882946014, 0.03209855034947395, 0.0, -0.05374685302376747]","[1.0757447481155396, -2.879333734512329, -1.963826060295105, -0.1345825344324112, 0.0650482252240181, -0.2983246147632599]"
1584453573827012167,,1460256,,1584453573,826744537,'',"[shoulder_pan_joint, shoulder_lift_joint, elbow_joint, wrist_1_joint, wrist_2_joint,","[1.4541404247283936, -1.1471980253802698, 2.4163849353790283, -2.8246000448810022, -1.566981617604391, 2.747695207595825]","[0.025553563609719276, 0.03317233547568321, -0.06126974895596504, 0.03522403538227081, 0.0, -0.038848064839839935]","[0.9658814668655396, -2.874756097793579, -1.9436497688293457, -0.1188812404870987, 0.0986938551068306, -0.3409424126148224]"
1584453573938992796,,1460270,,1584453573,938702554,'',"[shoulder_pan_joint, shoulder_lift_joint, elbow_joint, wrist_1_joint, wrist_2_joint,","[1.4569833278656006, -1.1436007658587855, 2.4089818000793457, -2.820684258137838, -1.5669940153705042, 2.744235038757324]","[0.028659874573349953, 0.032341428101062775, -0.07937072217464447, 0.03996020182967186, 0.0, -0.021859226748347282]","[0.9796143770217896, -3.016662836074829, -1.831559181213379, -0.1345825344324112, 0.0650482252240181, -0.2871094048023224]"
1584453574051008812,,1460284,,1584453574,50737976,'',"[shoulder_pan_joint, shoulder_lift_joint, elbow_joint, wrist_1_joint, wrist_2_joint,","[1.4603898525238037, -1.1401718298541468, 2.400174379348755, -2.8156922499286097, -1.5670059362994593, 2.7415409088134766]","[0.03346634656190872, 0.02642281912267208, -0.0789872258901596, 0.0411682091653347, 0.0, -0.02431359514594078]","[0.8239746689796448, -2.879333734512329, -2.01090407371521, -0.1099090725183487, 0.0426178015768528, -0.2691650688648224]"
1584453574162976247,,1460298,,1584453574,162713206,'',"[shoulder_pan_joint, shoulder_lift_joint, elbow_joint, wrist_1_joint, wrist_2_joint,","[1.464863657951355, -1.1364787260638636, 2.390587091445923, -2.8104127089129847, -1.566981617604391, 2.738535165786743]","[0.045699845999479294, 0.04015194624662399, -0.07878270000219345, 0.04860801622271538, 0.0, -0.03704563528299332]","[0.8285523056983948, -3.030395746231079, -1.9301989078521729, -0.1839294582605362, 0.0471038855612278, -0.2467346489429474]"
1584453574275018591,,1460312,,1584453574,274752685,'',"[shoulder_pan_joint, shoulder_lift_joint, elbow_joint, wrist_1_joint, wrist_2_joint,","[1.4705134630203247, -1.1317790190326136, 2.3813719749450684, -2.8051684538470667, -1.5669696966754358, 2.734344482421875]","[0.050161171704530716, 0.04260631650686264, -0.0804828628897667, 0.049854375422000885, 0.0, -0.03217524662613869]","[0.8651733994483948, -3.181457757949829, -2.098334789276123, -0.1839294582605362, 0.0852356031537056, -0.2960815727710724]"
1584453574386930994,,1460326,,1584453574,386685115,'',"[shoulder_pan_joint, shoulder_lift_joint, elbow_joint, wrist_1_joint, wrist_2_joint,","[1.4765831232070923, -1.1280987898456019, 2.3732244968414307, -2.8000686804400843, -1.5670178572284144, 2.731255054473877]","[0.050161171704530716, 0.02316311001777649, -0.07310696691274643, 0.0392315611243248, 0.0, -0.02805267460644245]","[1.0986329317092896, -3.089905023574829, -2.0624656677246094, -0.1413116604089737, 0.0852356031537056, -0.3297272026538849]"
1584453574499133548,,1460340,,1584453574,498812338,'',"[shoulder_pan_joint, shoulder_lift_joint, elbow_joint, wrist_1_joint, wrist_2_joint,","[1.4815846681594849, -1.1253169218646448, 2.3662166595458984, -2.795602623616354, -1.566981617604391, 2.72888445854187]","[0.036917805671691895, 0.024275247007608414, -0.04567427933216095, 0.03123568370938301, 0.0, -0.015474031679332256]","[0.8972169160842896, -3.318786859512329, -2.093851089477539, -0.1592559963464737, 0.0897216871380806, -0.2624359428882599]"
1584453574611033636,,1460354,,1584453574,610722906,'',"[shoulder_pan_joint, shoulder_lift_joint, elbow_joint, wrist_1_joint, wrist_2_joint,","[1.4850151538848877, -1.122847859059469, 2.3610570430755615, -2.792586151753561, -1.566981617604391, 2.7269086837768555]","[0.02882605604827404, 0.02376391924917698, -0.056539975106716156, 0.02575170248746872, 0.0, -0.021993450820446014]","[0.9704591035842896, -3.309631586074829, -2.100576400756836, -0.1637420803308487, 0.0807495191693306, -0.2714081108570099]"
1584453574722985743,,1460368,,1584453574,722681054,'',"[shoulder_pan_joint, shoulder_lift_joint, elbow_joint, wrist_1_joint, wrist_2_joint,","[1.4886614084243774, -1.1194542090045374, 2.3536534309387207, -2.7888148466693323, -1.5669940153705042, 2.7244064807891846]","[0.03846456855535507, 0.03381149470806122, -0.0689907893538475, 0.038004375994205475, 0.0, -0.02462039142847061]","[1.1215211153030396, -3.419494867324829, -1.9503751993179321, -0.1054229810833931, 0.0785064771771431, -0.2557068169116974]"
1584453574835154163,,1460382,,1584453574,834746381,'',"[shoulder_pan_joint, shoulder_lift_joint, elbow_joint, wrist_1_joint, wrist_2_joint,","[1.4933632612228394, -1.1159651915179651, 2.343897581100464, -2.783726994191305, -1.566981617604391, 2.720874071121216]","[0.047208260744810104, 0.03002767451107502, -0.10075697302818298, 0.05397694930434227, 0.0, -0.02966335415840149]","[0.7415772080421448, -3.039551019668579, -2.0669493675231934, -0.0471038855612278, 0.0672912672162056, -0.2938385307788849]"
1584453574947006503,,1460396,,1584453574,946679082,'',"[shoulder_pan_joint, shoulder_lift_joint, elbow_joint, wrist_1_joint, wrist_2_joint,","[1.4995883703231812, -1.1119368712054651, 2.3320417404174805, -2.777118508015768, -1.5669940153705042, 2.71840763092041]","[0.06514304876327515, 0.049445316195487976, -0.11207008361816406, 0.06408204883337021, 0.0, -0.012540292926132679]","[0.8102417588233948, -3.067016839981079, -2.078158378601074, -0.1772003322839737, 0.0471038855612278, -0.2624359428882599]"
1584453575059074626,,1460410,,1584453575,58756251,'',"[shoulder_pan_joint, shoulder_lift_joint, elbow_joint, wrist_1_joint, wrist_2_joint,","[1.507612943649292, -1.1057747046100062, 2.3198258876800537, -2.770078961049215, -1.5670059362994593, 2.71887469291687]","[0.07542072236537933, 0.05487816408276558, -0.11272202432155609, 0.06492573767900467, 0.0, 0.0459619015455246]","[0.9567261934280396, -3.424072504043579, -2.172314405441284, -0.0942077711224556, 0.0695343092083931, 0.2601929008960724]"
1584453575171027724,,1460424,,1584453575,170731470,'',"[shoulder_pan_joint, shoulder_lift_joint, elbow_joint, wrist_1_joint, wrist_2_joint,","[1.5160928964614868, -1.1009553114520472, 2.307969331741333, -2.763110939656393, -1.5670178572284144, 2.7241668701171875]","[0.07519062608480453, 0.040714409202337265, -0.10455357283353806, 0.056488845497369766, 0.0, 0.04440874606370926]","[1.0299683809280396, -3.236389398574829, -2.185765266418457, -0.1570129543542862, 0.0874786451458931, 0.3544006645679474]"
1584453575282923676,,1460438,,1584453575,282647149,'',"[shoulder_pan_joint, shoulder_lift_joint, elbow_joint, wrist_1_joint, wrist_2_joint,","[1.5240814685821533, -1.0959075132953089, 2.2976009845733643, -2.7574246565448206, -1.5670297781573694, 2.728872537612915]","[0.07167525589466095, 0.04559757933020592, -0.08622250705957413, 0.04655631631612778, 0.0, 0.042874764651060104]","[0.8834840059280396, -3.414917230606079, -2.2485358715057373, -0.0740203931927681, 0.0493469275534153, 0.2826233208179474]"
1584453575394900448,,1460452,,1584453575,394636224,'',"[shoulder_pan_joint, shoulder_lift_joint, elbow_joint, wrist_1_joint, wrist_2_joint,","[1.5323576927185059, -1.0915311018573206, 2.288972854614258, -2.752467934285299, -1.5670059362994593, 2.734907388687134]","[0.07322201877832413, 0.026550650596618652, -0.07281295955181122, 0.0416284054517746, 0.0, 0.06216457113623619]","[1.0391236543655396, -3.707886219024658, -2.362868309020996, -0.0583190992474556, 0.1054229810833931, 0.3207550346851349]"
1584453575507032399,,1460466,,1584453575,506768206,'',"[shoulder_pan_joint, shoulder_lift_joint, elbow_joint, wrist_1_joint, wrist_2_joint,","[1.540622353553772, -1.0888693968402308, 2.2802367210388184, -2.7476676146136683, -1.5669940153705042, 2.7408106327056885]","[0.07007735967636108, 0.026154372841119766, -0.0724550262093544, 0.04285559058189392, 0.0, 0.03892476484179497]","[0.8422852158546448, -3.318786859512329, -2.19921612739563, -0.1884155422449112, 0.0717773512005806, 0.3476715385913849]"
1584453575618941145,,1460480,,1584453575,618656383,'',"[shoulder_pan_joint, shoulder_lift_joint, elbow_joint, wrist_1_joint, wrist_2_joint,","[1.54715895652771, -1.0854409376727503, 2.2717161178588867, -2.743070427571432, -1.5669696966754358, 2.7447617053985596]","[0.04941974952816963, 0.03666214272379875, -0.08673383295536041, 0.045405831187963486, 0.0, 0.03140825778245926]","[1.0620118379592896, -3.607178211212158, -2.203699827194214, -0.1884155422449112, 0.1054229810833931, 0.2983246147632599]"
1584453575730851633,,1460494,,1584453575,730616224,'',"[shoulder_pan_joint, shoulder_lift_joint, elbow_joint, wrist_1_joint, wrist_2_joint,","[1.5523645877838135, -1.0810769240008753, 2.2621874809265137, -2.7377784887896937, -1.5670059362994593, 2.748246192932129]","[0.044562142342329025, 0.03921877592802048, -0.08879192173480988, 0.04592354968190193, 0.0, 0.029394907876849174]","[0.9429932832717896, -3.616333484649658, -2.291130304336548, -0.1704712063074112, 0.0628051832318306, 0.3409424126148224]"
1584453575842863351,,1460508,,1584453575,842622912,'',"[shoulder_pan_joint, shoulder_lift_joint, elbow_joint, wrist_1_joint, wrist_2_joint,","[1.5569467544555664, -1.0774319807635706, 2.252190113067627, -2.732283417378561, -1.5669696966754358, 2.750760555267334]","[0.03973010182380676, 0.027650004252791405, -0.08438172936439514, 0.04438956826925278, 0.0, 0.019347332417964935]","[1.0253907442092896, -3.337097406387329, -2.2418105602264404, -0.1996307522058487, 0.1211242824792862, 0.3095398247241974]"
1584453575954897601,,1460522,,1584453575,954648636,'',"[shoulder_pan_joint, shoulder_lift_joint, elbow_joint, wrist_1_joint, wrist_2_joint,","[1.5617445707321167, -1.0734160582171839, 2.242337226867676, -2.727207962666647, -1.5669940153705042, 2.752412796020508]","[0.04963706433773041, 0.04229952022433281, -0.07554855197668076, 0.04435122013092041, 0.0, 0.011945875361561775]","[0.8102417588233948, -3.410339593887329, -2.297855854034424, -0.1435547024011612, 0.0964508131146431, 0.3229980766773224]"
1584453576066898668,,1460536,,1584453576,66626570,'',"[shoulder_pan_joint, shoulder_lift_joint, elbow_joint, wrist_1_joint, wrist_2_joint,","[1.5677175521850586, -1.0690520445453089, 2.234344959259033, -2.7227066198932093, -1.5669577757464808, 2.750892400741577]","[0.050161171704530716, 0.03677719086408615, -0.07395065575838089, 0.03627864643931389, 0.0, -0.03453374281525612]","[0.7644653916358948, -3.813171863555908, -2.174556255340576, -0.0942077711224556, 0.0919647291302681, -0.3274841606616974]"
1584453576178939561,,1460550,,1584453576,178699903,'',"[shoulder_pan_joint, shoulder_lift_joint, elbow_joint, wrist_1_joint, wrist_2_joint,","[1.5732111930847168, -1.0659106413470667, 2.2278642654418945, -2.718635861073629, -1.5669940153705042, 2.7483301162719727]","[0.04628787189722061, 0.015480423346161842, -0.040893372148275375, 0.02847451902925968, 0.0, -0.01432354561984539]","[0.9521485567092896, -3.657532215118408, -2.4032208919525146, -0.1390686184167862, 0.1054229810833931, -0.2938385307788849]"
1584453576290876959,,1460564,,1584453576,290635618,'',"[shoulder_pan_joint, shoulder_lift_joint, elbow_joint, wrist_1_joint, wrist_2_joint,","[1.5778049230575562, -1.0653231779681605, 2.2249956130981445, -2.717031780873434, -1.5669696966754358, 2.746497869491577]","[0.03335129842162132, 0.0006775081856176257, -0.009229451417922974, 0.0030871364288032055, 0.0, -0.014074274338781834]","[0.9750367403030396, -3.927612781524658, -2.5018606185913086, -0.2534637749195099, 0.1143951565027237, -0.3544006645679474]"
1584453576402864191,,1460578,,1584453576,402622119,'',"[shoulder_pan_joint, shoulder_lift_joint, elbow_joint, wrist_1_joint, wrist_2_joint,","[1.580479621887207, -1.065502945576803, 2.225175380706787, -2.7173669973956507, -1.5669696966754358, 2.7450733184814453]","[0.018791265785694122, -0.0020836573094129562, 0.0027867318131029606, -0.002837864449247718, 0.0, -0.004870389122515917]","[0.8422852158546448, -4.682922840118408, -1.833801031112671, -0.5697327256202698, 0.1099090725183487, -0.2489776909351349]"
1584453576514884745,,1460592,,1584453576,514601897,'',"[shoulder_pan_joint, shoulder_lift_joint, elbow_joint, wrist_1_joint, wrist_2_joint,","[1.5821106433868408, -1.065514866505758, 2.225175380706787, -2.717414681111471, -1.5669940153705042, 2.748389959335327]","[0.009497897699475288, -0.00023009712458588183, 0.00029401297797448933, 0.0, 0.0, 0.04663301631808281]","[0.9521485567092896, -4.664612293243408, -1.831559181213379, -0.5383301377296448, 0.1300964504480362, 0.3499145805835724]"
1584453576626868039,,1460606,,1584453576,626618073,'',"[shoulder_pan_joint, shoulder_lift_joint, elbow_joint, wrist_1_joint, wrist_2_joint,","[1.5821949243545532, -1.065514866505758, 2.225139617919922, -2.717414681111471, -1.5669577757464808, 2.7519099712371826]","[-0.0033364081755280495, -0.00010226538870483637, 0.00015339808305725455, 0.0, 0.0, 0.014611166901886463]","[-0.2334595024585724, -4.426575183868408, -1.9324406385421753, -0.5383301377296448, 0.1256103664636612, 0.3207550346851349]"
1584453576739017986,,1460620,,1584453576,738716062,'',"[shoulder_pan_joint, shoulder_lift_joint, elbow_joint, wrist_1_joint, wrist_2_joint,","[1.5821589231491089, -1.065491024647848, 2.225139617919922, -2.717426602040426, -1.5669696966754358, 2.752053737640381]","[-0.00020453077740967274, -6.391586794052273e-05, 0.00010226538870483637, 0.0, 0.0, -0.000862864195369184]","[0.01831054873764515, -4.605103015899658, -1.9884859323501587, -0.5158997178077698, 0.1300964504480362, 0.0]"
1584453576850940847,,1460634,,1584453576,850608196,'',"[shoulder_pan_joint, shoulder_lift_joint, elbow_joint, wrist_1_joint, wrist_2_joint,","[1.5821828842163086, -1.0656111876117151, 2.225139617919922, -2.717438522969381, -1.5669577757464808, 2.75207781791687]","[-0.00010226538870483637, -0.0005241101025603712, 7.669904152862728e-05, -9.58738019107841e-05, 0.0, -0.00026844663079828024]","[-0.02288818545639515, -4.953003406524658, -2.266470432281494, -0.4710388779640198, 0.0538330152630806, -0.01345825381577015]"
1584453576962869539,,1460648,,1584453576,962571533,'',"[shoulder_pan_joint, shoulder_lift_joint, elbow_joint, wrist_1_joint, wrist_2_joint,","[1.582170844078064, -1.0655987898456019, 2.225139617919922, -2.717390839253561, -1.5669577757464808, 2.75207781791687]","[-6.391586794052273e-05, -0.00029401297797448933, -1.2783173588104546e-05, -9.58738019107841e-05, 0.0, -0.00013422331539914012]","[-0.02288818545639515, -4.948425769805908, -2.266470432281494, -0.4755249619483948, 0.0493469275534153, -0.01345825381577015]"
1584453577074899902,,1460662,,1584453577,74588140,'',"[shoulder_pan_joint, shoulder_lift_joint, elbow_joint, wrist_1_joint, wrist_2_joint,","[1.582170844078064, -1.0656350294696253, 2.225139617919922, -2.717426602040426, -1.5669696966754358, 2.752089738845825]","[-5.1132694352418184e-05, -0.00012783173588104546, -1.2783173588104546e-05, -9.58738019107841e-05, 0.0, -9.58738019107841e-05]","[0.004577637184411287, -4.920959949493408, -2.2575032711029053, -0.4620667099952698, 0.0448608435690403, -0.006729126907885075]"
1584453577187004833,,1460676,,1584453577,186690396,'',"[shoulder_pan_joint, shoulder_lift_joint, elbow_joint, wrist_1_joint, wrist_2_joint,","[1.5821349620819092, -1.065622631703512, 2.225127696990967, -2.717414681111471, -1.5669458548175257, 2.752065658569336]","[-3.834952076431364e-05, -7.669904152862728e-05, -1.2783173588104546e-05, -7.669904152862728e-05, 0.0, -5.752428114647046e-05]","[0.0, -4.747009754180908, -2.26198673248291, -0.4710388779640198, 0.0560760572552681, -0.011215210892260075]"
1584453577298926173,,1460690,,1584453577,298609271,'',"[shoulder_pan_joint, shoulder_lift_joint, elbow_joint, wrist_1_joint, wrist_2_joint,","[1.5821828842163086, -1.0655868689166468, 2.225127696990967, -2.717414681111471, -1.5669696966754358, 2.752089738845825]","[-2.5566347176209092e-05, -5.1132694352418184e-05, -1.2783173588104546e-05, -5.752428114647046e-05, 0.0, -5.752428114647046e-05]","[-0.01373291201889515, -4.399109363555908, -2.264228582382202, -0.4867401719093323, 0.0471038855612278, -0.008972168900072575]"
1584453577410856788,,1460704,,1584453577,410552801,'',"[shoulder_pan_joint, shoulder_lift_joint, elbow_joint, wrist_1_joint, wrist_2_joint,","[1.582170844078064, -1.0656350294696253, 2.225127696990967, -2.717426602040426, -1.566981617604391, 2.752053737640381]","[-2.5566347176209092e-05, -3.834952076431364e-05, -1.2783173588104546e-05, -3.834952076431364e-05, 0.0, -3.834952076431364e-05]","[-0.009155274368822575, -4.174805164337158, -2.27319598197937, -0.4777680039405823, 0.0538330152630806, -0.011215210892260075]"
1584453577522882031,,1460718,,1584453577,522566562,'',"[shoulder_pan_joint, shoulder_lift_joint, elbow_joint, wrist_1_joint, wrist_2_joint,","[1.5821828842163086, -1.0655987898456019, 2.225127696990967, -2.717390839253561, -1.5669696966754358, 2.75207781791687]","[-2.5566347176209092e-05, -3.834952076431364e-05, -1.2783173588104546e-05, -3.834952076431364e-05, 0.0, -3.834952076431364e-05]","[-0.0457763709127903, -4.064941883087158, -2.2507777214050293, -0.4979553818702698, 0.0471038855612278, -0.006729126907885075]"
1584453577634838796,,1460732,,1584453577,634532234,'',"[shoulder_pan_joint, shoulder_lift_joint, elbow_joint, wrist_1_joint, wrist_2_joint,","[1.5821468830108643, -1.065622631703512, 2.2251157760620117, -2.717402760182516, -1.566981617604391, 2.752089738845825]","[-1.2783173588104546e-05, -2.5566347176209092e-05, -1.2783173588104546e-05, -3.834952076431364e-05, 0.0, -3.834952076431364e-05]","[0.0, -3.982544422149658, -2.27319598197937, -0.5158997178077698, 0.0426178015768528, -0.008972168900072575]"
1584453577747004281,,1460746,,1584453577,746699081,'',"[shoulder_pan_joint, shoulder_lift_joint, elbow_joint, wrist_1_joint, wrist_2_joint,","[1.582170844078064, -1.0655749479876917, 2.2251157760620117, -2.717426602040426, -1.5669940153705042, 2.752089738845825]","[-1.2783173588104546e-05, 0.0, -1.2783173588104546e-05, -1.917476038215682e-05, 0.0, -1.917476038215682e-05]","[-0.0366210974752903, -4.298401355743408, -2.264228582382202, -0.4665527939796448, 0.0538330152630806, -0.008972168900072575]"
1584453577858867902,,1460760,,1584453577,858581877,'',"[shoulder_pan_joint, shoulder_lift_joint, elbow_joint, wrist_1_joint, wrist_2_joint,","[1.5821589231491089, -1.065622631703512, 2.225127696990967, -2.717426602040426, -1.5669696966754358, 2.752053737640381]","[-1.2783173588104546e-05, 0.0, -1.2783173588104546e-05, -1.917476038215682e-05, 0.0, -1.917476038215682e-05]","[-0.009155274368822575, -4.142761707305908, -2.268712282180786, -0.4710388779640198, 0.0493469275534153, -0.0695343092083931]"
1584453577970808607,,1460774,,1584453577,970534315,'',"[shoulder_pan_joint, shoulder_lift_joint, elbow_joint, wrist_1_joint, wrist_2_joint,","[1.5821828842163086, -1.065622631703512, 2.225127696990967, -2.717402760182516, -1.566981617604391, 2.7480783462524414]","[-1.2783173588104546e-05, 0.0, -1.2783173588104546e-05, -1.917476038215682e-05, 0.0, -0.1025274395942688]","[-0.01373291201889515, -4.243469715118408, -2.2418105602264404, -0.4620667099952698, 0.0515899695456028, -0.4127197563648224]"
1584453578082874986,,1460788,,1584453578,82588040,'',"[shoulder_pan_joint, shoulder_lift_joint, elbow_joint, wrist_1_joint, wrist_2_joint,","[1.582170844078064, -1.0655868689166468, 2.2251033782958984, -2.717402760182516, -1.5669577757464808, 2.728166103363037]","[-1.2783173588104546e-05, 0.0, -1.2783173588104546e-05, -1.917476038215682e-05, 0.0, -0.20377017557621002]","[0.004577637184411287, -3.955078601837158, -2.2283596992492676, -0.4912262558937073, 0.0515899695456028, -0.3835602104663849]"
1584453578194861087,,1460802,,1584453578,194563170,'',"[shoulder_pan_joint, shoulder_lift_joint, elbow_joint, wrist_1_joint, wrist_2_joint,","[1.5821949243545532, -1.0656111876117151, 2.225127696990967, -2.717438522969381, -1.5669696966754358, 2.705524206161499]","[-1.2783173588104546e-05, 0.0, -1.2783173588104546e-05, -1.917476038215682e-05, 0.0, -0.2018718719482422]","[-0.02288818545639515, -3.959656238555908, -2.2418105602264404, -0.4643097519874573, 0.0493469275534153, -0.4396362900733948]"
1584453578306835204,,1460816,,1584453578,306545112,'',"[shoulder_pan_joint, shoulder_lift_joint, elbow_joint, wrist_1_joint, wrist_2_joint,","[1.5821828842163086, -1.0655749479876917, 2.225139617919922, -2.717402760182516, -1.5669458548175257, 2.6830379962921143]","[-1.2783173588104546e-05, 0.0, -1.2783173588104546e-05, -1.917476038215682e-05, 0.0, -0.1991107165813446]","[-0.009155274368822575, -4.010010242462158, -2.2395687103271484, -0.4912262558937073, 0.0493469275534153, -0.5181427597999573]"
1584453578418843484,,1460830,,1584453578,418561027,'',"[shoulder_pan_joint, shoulder_lift_joint, elbow_joint, wrist_1_joint, wrist_2_joint,","[1.582170844078064, -1.0655511061297815, 2.2251033782958984, -2.717414681111471, -1.5669458548175257, 2.6605758666992188]","[-1.2783173588104546e-05, 0.0, -1.2783173588104546e-05, -1.917476038215682e-05, 0.0, -0.20202527940273285]","[0.004577637184411287, -3.982544422149658, -2.2193925380706787, -0.4643097519874573, 0.0471038855612278, -0.3319702446460724]"
1584453578530801372,,1460844,,1584453578,530518033,'',"[shoulder_pan_joint, shoulder_lift_joint, elbow_joint, wrist_1_joint, wrist_2_joint,","[1.582170844078064, -1.0655868689166468, 2.2251157760620117, -2.717402760182516, -1.5669458548175257, 2.638413667678833]","[-1.2783173588104546e-05, 0.0, -1.2783173588104546e-05, -1.917476038215682e-05, 0.0, -0.20041459798812866]","[0.004577637184411287, -3.950500965118408, -2.185765266418457, -0.4643097519874573, 0.0515899695456028, -0.5450592637062073]"
1584453578642951698,,1460858,,1584453578,642646438,'',"[shoulder_pan_joint, shoulder_lift_joint, elbow_joint, wrist_1_joint, wrist_2_joint,","[1.582170844078064, -1.065622631703512, 2.2251033782958984, -2.717426602040426, -1.5669458548175257, 2.6159403324127197]","[0.0, 0.0, -1.2783173588104546e-05, 0.0, 0.0, -0.2015267312526703]","[0.009155274368822575, -4.014587879180908, -2.102818250656128, -0.4687958359718323, 0.0515899695456028, -0.3992615044116974]"
1584453578754810800,,1460872,,1584453578,754509588,'',"[shoulder_pan_joint, shoulder_lift_joint, elbow_joint, wrist_1_joint, wrist_2_joint,","[1.582170844078064, -1.0655987898456019, 2.2251157760620117, -2.717414681111471, -1.5669458548175257, 2.5934553146362305]","[0.0, 0.0, -1.2783173588104546e-05, 0.0, 0.0, -0.1950264871120453]","[-0.01373291201889515, -3.987122058868408, -2.087125539779663, -0.4822540879249573, 0.0448608435690403, -0.5248718857765198]"
1584453578866781522,,1460886,,1584453578,866493484,'',"[shoulder_pan_joint, shoulder_lift_joint, elbow_joint, wrist_1_joint, wrist_2_joint,","[1.5821589231491089, -1.0655987898456019, 2.2251157760620117, -2.717402760182516, -1.5668981711017054, 2.571174383163452]","[0.0, 0.0, -1.2783173588104546e-05, 0.0, 0.0, -0.2018718719482422]","[0.009155274368822575, -3.909302234649658, -2.0647075176239014, -0.4889832139015198, 0.0493469275534153, -0.4329071640968323]"
1584453578978815741,,1460900,,1584453578,978505261,'',"[shoulder_pan_joint, shoulder_lift_joint, elbow_joint, wrist_1_joint, wrist_2_joint,","[1.582170844078064, -1.0655987898456019, 2.225127696990967, -2.717426602040426, -1.5669577757464808, 2.548678159713745]","[0.0, 0.0, -1.2783173588104546e-05, 0.0, 0.0, -0.19857381284236908]","[-0.004577637184411287, -3.987122058868408, -2.087125539779663, -0.4800110459327698, 0.0538330152630806, -0.4800110459327698]"
1584453579090869518,,1460914,,1584453579,90543930,'',"[shoulder_pan_joint, shoulder_lift_joint, elbow_joint, wrist_1_joint, wrist_2_joint,","[1.5821589231491089, -1.0655868689166468, 2.225127696990967, -2.717438522969381, -1.5669220129596155, 2.526313304901123]","[0.0, 0.0, -1.2783173588104546e-05, 0.0, 0.0, -0.19884225726127625]","[-0.01373291201889515, -4.042053699493408, -2.0714330673217773, -0.4441223740577698, 0.0515899695456028, -0.3925323784351349]"
1584453579202805794,,1460928,,1584453579,202502397,'',"[shoulder_pan_joint, shoulder_lift_joint, elbow_joint, wrist_1_joint, wrist_2_joint,","[1.5821828842163086, -1.0655749479876917, 2.225127696990967, -2.717414681111471, -1.5669458548175257, 2.503901243209839]","[0.0, 0.0, -1.2783173588104546e-05, 0.0, 0.0, -0.20206362009048462]","[-0.01831054873764515, -3.890991687774658, -2.0759165287017822, -0.4777680039405823, 0.0471038855612278, -0.4127197563648224]"
1584453579314781214,,1460942,,1584453579,314473669,'',"[shoulder_pan_joint, shoulder_lift_joint, elbow_joint, wrist_1_joint, wrist_2_joint,","[1.5821828842163086, -1.0655868689166468, 2.225127696990967, -2.717426602040426, -1.566981617604391, 2.4814891815185547]","[0.0, 0.0, -1.2783173588104546e-05, 0.0, 0.0, -0.19959008693695068]","[-0.0274658240377903, -3.964233875274658, -2.082642078399658, -0.5091705918312073, 0.0493469275534153, -0.4979553818702698]"
1584453579426815173,,1460956,,1584453579,426499223,'',"[shoulder_pan_joint, shoulder_lift_joint, elbow_joint, wrist_1_joint, wrist_2_joint,","[1.5821589231491089, -1.0656111876117151, 2.2251157760620117, -2.717390839253561, -1.5669458548175257, 2.4590892791748047]","[0.0, 0.0, -1.2783173588104546e-05, 0.0, 0.0, -0.20006944239139557]","[-0.02288818545639515, -3.959656238555908, -2.0759165287017822, -0.4486084580421448, 0.0471038855612278, -0.3858032524585724]"
1584453579538813536,,1460970,,1584453579,538500852,'',"[shoulder_pan_joint, shoulder_lift_joint, elbow_joint, wrist_1_joint, wrist_2_joint,","[1.582170844078064, -1.0655868689166468, 2.225139617919922, -2.7174509207354944, -1.5669458548175257, 2.4366180896759033]","[0.0, 0.0, -1.2783173588104546e-05, 0.0, 0.0, -0.19794104993343353]","[-0.0457763709127903, -3.977966785430908, -2.0669493675231934, -0.4643097519874573, 0.0448608435690403, -0.5024414658546448]"
1584453579650861991,,1460984,,1584453579,650571769,'',"[shoulder_pan_joint, shoulder_lift_joint, elbow_joint, wrist_1_joint, wrist_2_joint,","[1.5821828842163086, -1.065622631703512, 2.2250914573669434, -2.717426602040426, -1.5669220129596155, 2.4143261909484863]","[0.0, 0.0, -1.2783173588104546e-05, 0.0, 0.0, -0.20039542019367218]","[-0.02288818545639515, -4.069519519805908, -2.078158378601074, -0.4755249619483948, 0.0336456336081028, -0.4216919243335724]"
1584453579762889840,,1460998,,1584453579,762614606,'',"[shoulder_pan_joint, shoulder_lift_joint, elbow_joint, wrist_1_joint, wrist_2_joint,","[1.5821828842163086, -1.0655749479876917, 2.2251157760620117, -2.717390839253561, -1.5669458548175257, 2.391986846923828]","[0.0, 0.0, -1.2783173588104546e-05, 0.0, 0.0, -0.19918741285800934]","[-0.004577637184411287, -3.927612781524658, -2.0669493675231934, -0.4486084580421448, 0.0448608435690403, -0.4755249619483948]"
1584453579874837978,,1461012,,1584453579,874482224,'',"[shoulder_pan_joint, shoulder_lift_joint, elbow_joint, wrist_1_joint, wrist_2_joint,","[1.582170844078064, -1.0655868689166468, 2.2250914573669434, -2.717402760182516, -1.5669100920306605, 2.3695037364959717]","[0.0, 0.0, -0.0, 0.0, 0.0, -0.2004912942647934]","[-0.01831054873764515, -3.936768054962158, -2.089367389678955, -0.4777680039405823, 0.0426178015768528, -0.4508515000343323]"
1584453579986761622,,1461026,,1584453579,986463665,'',"[shoulder_pan_joint, shoulder_lift_joint, elbow_joint, wrist_1_joint, wrist_2_joint,","[1.5821828842163086, -1.0655749479876917, 2.225151538848877, -2.717402760182516, -1.5669220129596155, 2.346949577331543]","[0.0, 0.0, -0.0, 0.0, 0.0, -0.20018449425697327]","[0.01373291201889515, -4.000854969024658, -2.096092939376831, -0.4732819199562073, 0.0314025916159153, -0.4306641221046448]"
1584453580098824304,,1461040,,1584453580,98531768,'',"[shoulder_pan_joint, shoulder_lift_joint, elbow_joint, wrist_1_joint, wrist_2_joint,","[1.582170844078064, -1.0655868689166468, 2.225127696990967, -2.717414681111471, -1.5669220129596155, 2.3246700763702393]","[0.0, 0.0, -0.0, 0.0, 0.0, -0.20121993124485016]","[-0.02288818545639515, -4.019165515899658, -2.082642078399658, -0.4486084580421448, 0.004486084450036287, -0.5024414658546448]"
1584453580210717700,,1461054,,1584453580,210436906,'',"[shoulder_pan_joint, shoulder_lift_joint, elbow_joint, wrist_1_joint, wrist_2_joint,","[1.5821589231491089, -1.0655868689166468, 2.225127696990967, -2.717414681111471, -1.5669339338885706, 2.302199602127075]","[0.0, 0.0, -0.0, 0.0, 0.0, -0.20097066462039948]","[-0.0274658240377903, -3.868103504180908, -2.0557403564453125, -0.4575806260108948, -0.011215210892260075, -0.4015045464038849]"
1584453580322726804,,1461068,,1584453580,322429679,'',"[shoulder_pan_joint, shoulder_lift_joint, elbow_joint, wrist_1_joint, wrist_2_joint,","[1.5821589231491089, -1.0655987898456019, 2.225139617919922, -2.717402760182516, -1.5669458548175257, 2.2797763347625732]","[0.0, 0.0, -0.0, 0.0, 0.0, -0.19997356832027435]","[-0.0411987341940403, -4.005432605743408, -2.078158378601074, -0.4508515000343323, -0.011215210892260075, -0.5203858017921448]"
1584453580434747758,,1461082,,1584453580,434445303,'',"[shoulder_pan_joint, shoulder_lift_joint, elbow_joint, wrist_1_joint, wrist_2_joint,","[1.582170844078064, -1.0656111876117151, 2.225139617919922, -2.717414681111471, -1.5669339338885706, 2.2574737071990967]","[0.0, 0.0, -0.0, 0.0, 0.0, -0.20269639790058136]","[0.01373291201889515, -4.096985340118408, -2.0736746788024902, -0.4889832139015198, -0.008972168900072575, -0.4441223740577698]"
1584453580546798188,,1461096,,1584453580,546500963,'',"[shoulder_pan_joint, shoulder_lift_joint, elbow_joint, wrist_1_joint, wrist_2_joint,","[1.5821949243545532, -1.065622631703512, 2.225139617919922, -2.717414681111471, -1.5669220129596155, 2.235051155090332]","[0.0, 0.0, -0.0, 0.0, 0.0, -0.19987769424915314]","[0.009155274368822575, -4.032898426055908, -2.0624656677246094, -0.4800110459327698, -0.004486084450036287, -0.5203858017921448]"
1584453580658794066,,1461110,,1584453580,658485289,'',"[shoulder_pan_joint, shoulder_lift_joint, elbow_joint, wrist_1_joint, wrist_2_joint,","[1.5822068452835083, -1.0655749479876917, 2.225151538848877, -2.717426602040426, -1.5669339338885706, 2.2125933170318604]","[0.0, 0.0, -0.0, 0.0, 0.0, -0.1984395980834961]","[0.0320434607565403, -4.014587879180908, -2.080400228500366, -0.4643097519874573, -0.011215210892260075, -0.4643097519874573]"
1584453580770732236,,1461124,,1584453580,770434720,'',"[shoulder_pan_joint, shoulder_lift_joint, elbow_joint, wrist_1_joint, wrist_2_joint,","[1.5821949243545532, -1.0656111876117151, 2.225139617919922, -2.717402760182516, -1.5669339338885706, 2.1947202682495117]","[0.0, 0.0, -0.0, 0.0, 0.0, -0.0894119068980217]","[0.009155274368822575, -4.028320789337158, -2.082642078399658, -0.4889832139015198, -0.006729126907885075, -0.4194488823413849]"
1584453580882773459,,1461138,,1584453580,882460555,'',"[shoulder_pan_joint, shoulder_lift_joint, elbow_joint, wrist_1_joint, wrist_2_joint,","[1.5821828842163086, -1.0655630270587366, 2.225127696990967, -2.7173669973956507, -1.5669339338885706, 2.192493438720703]","[0.0, 0.0, -0.0, 0.0, 0.0, 0.0013614079216495156]","[-0.0411987341940403, -4.051208972930908, -2.078158378601074, -0.4822540879249573, -0.01345825381577015, -0.004486084450036287]"
1584453580994782582,,1461152,,1584453580,994488392,'',"[shoulder_pan_joint, shoulder_lift_joint, elbow_joint, wrist_1_joint, wrist_2_joint,","[1.5822068452835083, -1.0655749479876917, 2.225127696990967, -2.717390839253561, -1.5669100920306605, 2.192708730697632]","[0.0, 0.0, -0.0, 0.0, 0.0, 0.0033172336407005787]","[-0.0320434607565403, -3.895569324493408, -2.089367389678955, -0.4800110459327698, -0.011215210892260075, 0.1076660305261612]"
1584453581106762570,,1461166,,1584453581,106453142,'',"[shoulder_pan_joint, shoulder_lift_joint, elbow_joint, wrist_1_joint, wrist_2_joint,","[1.5821589231491089, -1.065622631703512, 2.225163459777832, -2.717414681111471, -1.5669458548175257, 2.192840576171875]","[0.0, 0.0, -0.0, 0.0, 0.0, 0.0004218447138555348]","[-0.0366210974752903, -3.936768054962158, -2.0759165287017822, -0.4800110459327698, -0.006729126907885075, 0.0829925611615181]"
1584453581218693487,,1461180,,1584453581,218388477,'',"[shoulder_pan_joint, shoulder_lift_joint, elbow_joint, wrist_1_joint, wrist_2_joint,","[1.5821828842163086, -1.0656111876117151, 2.225175380706787, -2.717402760182516, -1.5669458548175257, 2.1928646564483643]","[0.0, 0.0, -0.0, 0.0, 0.0, 0.00017257283616345376]","[-0.009155274368822575, -4.028320789337158, -2.0669493675231934, -0.4508515000343323, -0.01345825381577015, 0.0785064771771431]"
1584453581330826120,,1461194,,1584453581,330526991,'',"[shoulder_pan_joint, shoulder_lift_joint, elbow_joint, wrist_1_joint, wrist_2_joint,","[1.5821828842163086, -1.0655749479876917, 2.225163459777832, -2.717438522969381, -1.5669339338885706, 2.19285249710083]","[0.0, 0.0, -0.0, 0.0, 0.0, 0.00015339808305725455]","[-0.02288818545639515, -4.032898426055908, -2.082642078399658, -0.4844971299171448, -0.008972168900072575, 0.0829925611615181]"
1584453581442721600,,1461208,,1584453581,442419907,'',"[shoulder_pan_joint, shoulder_lift_joint, elbow_joint, wrist_1_joint, wrist_2_joint,","[1.582170844078064, -1.0655749479876917, 2.225139617919922, -2.717402760182516, -1.5669458548175257, 2.1928765773773193]","[0.0, 0.0, -0.0, 0.0, 0.0, 0.00015339808305725455]","[0.0, -4.060364246368408, -2.0422894954681396, -0.4441223740577698, -0.004486084450036287, 0.0874786451458931]"
1584453581554737827,,1461222,,1584453581,554395297,'',"[shoulder_pan_joint, shoulder_lift_joint, elbow_joint, wrist_1_joint, wrist_2_joint,","[1.5821828842163086, -1.065622631703512, 2.2251157760620117, -2.717402760182516, -1.5669339338885706, 2.1928646564483643]","[0.0, 0.0, -0.0, 0.0, 0.0, 0.00011504856229294091]","[-0.02288818545639515, -4.028320789337158, -2.093851089477539, -0.4553375840187073, 0.004486084450036287, 0.0874786451458931]"
1584453581666678952,,1461236,,1584453581,666386977,'',"[shoulder_pan_joint, shoulder_lift_joint, elbow_joint, wrist_1_joint, wrist_2_joint,","[1.5821589231491089, -1.0655511061297815, 2.225163459777832, -2.7173669973956507, -1.5669339338885706, 2.1928646564483643]","[0.0, 0.0, -0.0, 0.0, 0.0, 7.669904152862728e-05]","[-0.0274658240377903, -3.955078601837158, -2.0647075176239014, -0.4755249619483948, -0.01794433780014515, 0.0897216871380806]"
1584453581778704035,,1461250,,1584453581,778437297,'',"[shoulder_pan_joint, shoulder_lift_joint, elbow_joint, wrist_1_joint, wrist_2_joint,","[1.5821468830108643, -1.0655987898456019, 2.225127696990967, -2.717390839253561, -1.5669339338885706, 2.1929004192352295]","[0.0, 0.0, -0.0, 0.0, 0.0, 5.752428114647046e-05]","[-0.009155274368822575, -3.936768054962158, -2.0647075176239014, -0.4643097519874573, -0.006729126907885075, 0.0874786451458931]"
1584453581890643557,,1461264,,1584453581,890371840,'',"[shoulder_pan_joint, shoulder_lift_joint, elbow_joint, wrist_1_joint, wrist_2_joint,","[1.5821589231491089, -1.0655987898456019, 2.225127696990967, -2.717390839253561, -1.5669577757464808, 2.1928646564483643]","[0.0, 0.0, -0.0, 0.0, 0.0, 3.834952076431364e-05]","[-0.0320434607565403, -3.945923328399658, -2.0647075176239014, -0.4530945420265198, -0.008972168900072575, 0.0897216871380806]"
1584453582002644074,,1461278,,1584453582,2372487,'',"[shoulder_pan_joint, shoulder_lift_joint, elbow_joint, wrist_1_joint, wrist_2_joint,","[1.582170844078064, -1.0655868689166468, 2.225151538848877, -2.717414681111471, -1.5669339338885706, 2.1928646564483643]","[0.0, 0.0, -0.0, 0.0, 0.0, 3.834952076431364e-05]","[-0.009155274368822575, -4.046631336212158, -2.0759165287017822, -0.4687958359718323, -0.011215210892260075, 0.0874786451458931]"
1584453582114648949,,1461292,,1584453582,114377662,'',"[shoulder_pan_joint, shoulder_lift_joint, elbow_joint, wrist_1_joint, wrist_2_joint,","[1.582170844078064, -1.0655987898456019, 2.225127696990967, -2.717390839253561, -1.5669458548175257, 2.1928765773773193]","[0.0, 0.0, -0.0, 0.0, 0.0, 3.834952076431364e-05]","[-0.0274658240377903, -4.037476062774658, -2.082642078399658, -0.4844971299171448, -0.006729126907885075, 0.0964508131146431]"
1584453582226643294,,1461306,,1584453582,226354124,'',"[shoulder_pan_joint, shoulder_lift_joint, elbow_joint, wrist_1_joint, wrist_2_joint,","[1.582170844078064, -1.0655987898456019, 2.225139617919922, -2.717390839253561, -1.5669458548175257, 2.1928646564483643]","[0.0, 0.0, -0.0, 0.0, 0.0, 1.917476038215682e-05]","[-0.009155274368822575, -3.872681140899658, -2.017629384994507, -0.4912262558937073, -0.004486084450036287, 0.0874786451458931]"
1584453582338619466,,1461320,,1584453582,338329123,'',"[shoulder_pan_joint, shoulder_lift_joint, elbow_joint, wrist_1_joint, wrist_2_joint,","[1.5821589231491089, -1.0655868689166468, 2.225163459777832, -2.717414681111471, -1.5669458548175257, 2.1928765773773193]","[0.0, 0.0, -0.0, 0.0, 0.0, 1.917476038215682e-05]","[-0.01831054873764515, -4.064941883087158, -2.0422894954681396, -0.4643097519874573, -0.01345825381577015, 0.0852356031537056]"
1584453582450761356,,1461334,,1584453582,450487945,'',"[shoulder_pan_joint, shoulder_lift_joint, elbow_joint, wrist_1_joint, wrist_2_joint,","[1.5821589231491089, -1.0655868689166468, 2.225127696990967, -2.717402760182516, -1.5669577757464808, 2.1928884983062744]","[0.0, 0.0, -0.0, 0.0, 0.0, 1.917476038215682e-05]","[-0.01373291201889515, -4.028320789337158, -2.0467729568481445, -0.4755249619483948, -0.011215210892260075, 0.0829925611615181]"
1584453582562673908,,1461348,,1584453582,562349773,'',"[shoulder_pan_joint, shoulder_lift_joint, elbow_joint, wrist_1_joint, wrist_2_joint,","[1.5821589231491089, -1.0655630270587366, 2.225139617919922, -2.7173789183246058, -1.5669458548175257, 2.1928765773773193]","[0.0, 0.0, -0.0, 0.0, 0.0, 1.917476038215682e-05]","[-0.02288818545639515, -4.078674793243408, -2.0691912174224854, -0.4486084580421448, -0.01570129580795765, 0.0740203931927681]"
1584453582674619673,,1461362,,1584453582,674360829,'',"[shoulder_pan_joint, shoulder_lift_joint, elbow_joint, wrist_1_joint, wrist_2_joint,","[1.5822068452835083, -1.0655868689166468, 2.225151538848877, -2.717414681111471, -1.5669458548175257, 2.1928765773773193]","[0.0, 0.0, -0.0, 0.0, 0.0, 1.917476038215682e-05]","[-0.01373291201889515, -4.042053699493408, -2.024354934692383, -0.4620667099952698, -0.008972168900072575, 0.0785064771771431]"
1584453582786640758,,1461376,,1584453582,786361516,'',"[shoulder_pan_joint, shoulder_lift_joint, elbow_joint, wrist_1_joint, wrist_2_joint,","[1.5821949243545532, -1.0655749479876917, 2.225163459777832, -2.717414681111471, -1.5669696966754358, 2.1928884983062744]","[0.0, 0.0, -0.0, 0.0, 0.0, 1.917476038215682e-05]","[-0.0366210974752903, -4.101562976837158, -2.0602238178253174, -0.4822540879249573, -0.011215210892260075, 0.0942077711224556]"
1584453582898712607,,1461390,,1584453582,898408399,'',"[shoulder_pan_joint, shoulder_lift_joint, elbow_joint, wrist_1_joint, wrist_2_joint,","[1.5821949243545532, -1.065622631703512, 2.225127696990967, -2.717414681111471, -1.5669458548175257, 2.19285249710083]","[0.0, 0.0, -0.0, 0.0, 0.0, 1.917476038215682e-05]","[-0.0274658240377903, -4.064941883087158, -2.0355639457702637, -0.4755249619483948, -0.004486084450036287, 0.0874786451458931]"
1584453583010697756,,1461404,,1584453583,10385893,'',"[shoulder_pan_joint, shoulder_lift_joint, elbow_joint, wrist_1_joint, wrist_2_joint,","[1.5821949243545532, -1.0655868689166468, 2.225163459777832, -2.717402760182516, -1.5669339338885706, 2.1928646564483643]","[0.0, 0.0, -0.0, 0.0, 0.0, 1.917476038215682e-05]","[0.0, -3.991699695587158, -2.0422894954681396, -0.4620667099952698, -0.006729126907885075, 0.0897216871380806]"
1584453583122682923,,1461418,,1584453583,122359670,'',"[shoulder_pan_joint, shoulder_lift_joint, elbow_joint, wrist_1_joint, wrist_2_joint,","[1.5821589231491089, -1.0658391157733362, 2.225151538848877, -2.717426602040426, -1.5669339338885706, 2.192505359649658]","[-0.0005368932615965605, -0.0005880259559489787, -0.0003195793251506984, 0.0, 0.0, 0.0196157805621624]","[0.0457763709127903, -5.099487781524658, -2.1342036724090576, -0.5652466416358948, 0.0381317175924778, 0.1031799390912056]"
1584453583234624210,,1461432,,1584453583,234318248,'',"[shoulder_pan_joint, shoulder_lift_joint, elbow_joint, wrist_1_joint, wrist_2_joint,","[1.582170844078064, -1.0658028761493128, 2.225127696990967, -2.717402760182516, -1.5669577757464808, 2.1957976818084717]","[-0.0001661812566453591, -0.00021731395099777728, -0.0, 0.0, 0.0, 0.02569417841732502]","[-0.0686645582318306, -4.985046863555908, -2.174556255340576, -0.5338440537452698, 0.0515899695456028, 0.3140259087085724]"
1584453583346668257,,1461446,,1584453583,346357317,'',"[shoulder_pan_joint, shoulder_lift_joint, elbow_joint, wrist_1_joint, wrist_2_joint,","[1.5821828842163086, -1.065815273915426, 2.225151538848877, -2.717414681111471, -1.5669577757464808, 2.1982638835906982]","[-8.948221511673182e-05, -0.00015339808305725455, -0.0, 0.0, 0.0, 0.021283984184265137]","[-0.004577637184411287, -4.985046863555908, -2.2261178493499756, -0.4912262558937073, 0.0448608435690403, 0.3342132866382599]"
1584453583458740678,,1461460,,1584453583,458460585,'',"[shoulder_pan_joint, shoulder_lift_joint, elbow_joint, wrist_1_joint, wrist_2_joint,","[1.582170844078064, -1.065826718007223, 2.225139617919922, -2.717438522969381, -1.5669100920306605, 2.2008490562438965]","[-6.391586794052273e-05, -8.948221511673182e-05, -0.0, 0.0, 0.0, 0.028378644958138466]","[0.0549316480755806, -5.030823230743408, -2.2507777214050293, -0.4755249619483948, 0.0426178015768528, 0.2467346489429474]"
1584453583570597307,,1461474,,1584453583,570316041,'',"[shoulder_pan_joint, shoulder_lift_joint, elbow_joint, wrist_1_joint, wrist_2_joint,","[1.5821589231491089, -1.0658391157733362, 2.2250914573669434, -2.717414681111471, -1.5668981711017054, 2.2053146362304688]","[-5.1132694352418184e-05, -6.391586794052273e-05, -0.0, 0.0, 0.0, 0.04448544234037399]","[-0.0274658240377903, -4.966736316680908, -2.1543798446655273, -0.5203858017921448, 0.0605621412396431, 0.3050537407398224]"
1584453583682605688,,1461488,,1584453583,682301149,'',"[shoulder_pan_joint, shoulder_lift_joint, elbow_joint, wrist_1_joint, wrist_2_joint,","[1.5821828842163086, -1.0657909552203577, 2.2247314453125, -2.717271153126852, -1.5669696966754358, 2.2100911140441895]","[-3.834952076431364e-05, -3.834952076431364e-05, -0.009612946771085262, 0.003969175275415182, 0.0, 0.034936413168907166]","[-0.0549316480755806, -4.568481922149658, -2.380802869796753, -0.4127197563648224, 0.0583190992474556, 0.3185119926929474]"
1584453583794664823,,1461502,,1584453583,794360164,'',"[shoulder_pan_joint, shoulder_lift_joint, elbow_joint, wrist_1_joint, wrist_2_joint,","[1.582218885421753, -1.0653355757342737, 2.221311569213867, -2.715499226246969, -1.5669577757464808, 2.2135391235351562]","[-2.5566347176209092e-05, 0.00749093946069479, -0.046543534845113754, 0.025061411783099174, 0.0, 0.026288596913218498]","[0.02288818545639515, -3.643799304962158, -2.4278807640075684, -0.2220611870288849, 0.0403747595846653, 0.3028106987476349]"
1584453583906709363,,1461516,,1584453583,906402029,'',"[shoulder_pan_joint, shoulder_lift_joint, elbow_joint, wrist_1_joint, wrist_2_joint,","[1.5821828842163086, -1.0639203230487269, 2.215730667114258, -2.712327305470602, -1.5669696966754358, 2.2164359092712402]","[-2.5566347176209092e-05, 0.020133499056100845, -0.05652719363570213, 0.030622093006968498, 0.0, 0.031254857778549194]","[0.1190185695886612, -3.643799304962158, -2.3292412757873535, -0.2332763969898224, 0.0336456336081028, 0.2377624809741974]"
1584453584018573985,,1461530,,1584453584,18313869,'',"[shoulder_pan_joint, shoulder_lift_joint, elbow_joint, wrist_1_joint, wrist_2_joint,","[1.5822787284851074, -1.060347859059469, 2.20658540725708, -2.707825485860006, -1.5670178572284144, 2.2212843894958496]","[0.00046019424917176366, 0.04578932747244835, -0.09403302520513535, 0.05217452347278595, 0.0, 0.051292482763528824]","[0.1098632961511612, -3.794861316680908, -2.4346063137054443, -0.0919647291302681, 0.0269165076315403, 0.2871094048023224]"
1584453584130620458,,1461544,,1584453584,130292796,'',"[shoulder_pan_joint, shoulder_lift_joint, elbow_joint, wrist_1_joint, wrist_2_joint,","[1.5822547674179077, -1.054629151021139, 2.1955556869506836, -2.7015040556537073, -1.5670178572284144, 2.226958990097046]","[0.0001661812566453591, 0.047400008887052536, -0.0994403064250946, 0.05790777504444122, 0.0, 0.050161171704530716]","[0.1922607570886612, -3.968811511993408, -2.539971351623535, -0.2243042290210724, 0.02467346377670765, 0.3005676567554474]"
1584453584242595016,,1461558,,1584453584,242315494,'',"[shoulder_pan_joint, shoulder_lift_joint, elbow_joint, wrist_1_joint, wrist_2_joint,","[1.5823026895523071, -1.0505173842059534, 2.185666084289551, -2.6958897749530237, -1.5670178572284144, 2.2328248023986816]","[0.00011504856229294091, 0.03682832419872284, -0.08442007750272751, 0.045233260840177536, 0.0, 0.05901991203427315]","[0.1327514797449112, -3.808594226837158, -2.4839260578155518, -0.1906585842370987, 0.01570129580795765, 0.2130890041589737]"
1584453584354540299,,1461572,,1584453584,354293629,'',"[shoulder_pan_joint, shoulder_lift_joint, elbow_joint, wrist_1_joint, wrist_2_joint,","[1.5823626518249512, -1.0462129751788538, 2.1779370307922363, -2.691460911427633, -1.5669940153705042, 2.2403547763824463]","[0.0004090615548193455, 0.03326181694865227, -0.05423900485038757, 0.027400732040405273, 0.0, 0.06582695245742798]","[0.0640869215130806, -4.083252429962158, -2.468233346939087, -0.1435547024011612, 0.011215210892260075, 0.3409424126148224]"
1584453584466599476,,1461586,,1584453584,466285560,'',"[shoulder_pan_joint, shoulder_lift_joint, elbow_joint, wrist_1_joint, wrist_2_joint,","[1.5823986530303955, -1.0427005926715296, 2.1712279319763184, -2.687964741383688, -1.5669940153705042, 2.2461249828338623]","[0.0003834952076431364, 0.02658900059759617, -0.06172994524240494, 0.035051461309194565, 0.0, 0.03997937589883804]","[0.1098632961511612, -4.078674793243408, -2.452540636062622, -0.1794433742761612, 0.01570129580795765, 0.3252411186695099]"
1584453584578605954,,1461600,,1584453584,578292458,'',"[shoulder_pan_joint, shoulder_lift_joint, elbow_joint, wrist_1_joint, wrist_2_joint,","[1.5826386213302612, -1.0404227415667933, 2.164182662963867, -2.6842172781573694, -1.5670297781573694, 2.2506263256073]","[0.0062637547962367535, 0.01937929168343544, -0.0726851224899292, 0.03424612060189247, 0.0, 0.0458468534052372]","[0.2334595024585724, -3.758240222930908, -2.566873073577881, -0.2175751030445099, 0.006729126907885075, 0.3297272026538849]"
1584453584690523114,,1461614,,1584453584,690251437,'',"[shoulder_pan_joint, shoulder_lift_joint, elbow_joint, wrist_1_joint, wrist_2_joint,","[1.586129069328308, -1.0369694868670862, 2.1548209190368652, -2.6796324888812464, -1.567077938710348, 2.255713939666748]","[0.05953123793005943, 0.04373123496770859, -0.07531845569610596, 0.04488811269402504, -3.834952076431364e-05, 0.04483059048652649]","[0.5676270127296448, -3.973389148712158, -2.459266185760498, -0.1480407863855362, 0.011215210892260075, 0.4329071640968323]"
1584453584802537647,,1461628,,1584453584,802266180,'',"[shoulder_pan_joint, shoulder_lift_joint, elbow_joint, wrist_1_joint, wrist_2_joint,","[1.5956288576126099, -1.0320780912982386, 2.1475119590759277, -2.675178829823629, -1.5670178572284144, 2.2605981826782227]","[0.10333917289972305, 0.03640647977590561, -0.060323797166347504, 0.036201946437358856, -3.834952076431364e-05, 0.04611529782414436]","[0.6134033799171448, -4.467773914337158, -2.5825657844543457, -0.1368255764245987, 0.01570129580795765, 0.3566437065601349]"
1584453584914631528,,1461642,,1584453584,914274121,'',"[shoulder_pan_joint, shoulder_lift_joint, elbow_joint, wrist_1_joint, wrist_2_joint,","[1.6075148582458496, -1.0293691794024866, 2.142362594604492, -2.6714680830584925, -1.5670178572284144, 2.2669191360473633]","[0.10209921002388, 0.011479290202260017, -0.03749304637312889, 0.024888839572668076, -3.834952076431364e-05, 0.06766773015260696]","[0.9887696504592896, -4.216003894805908, -2.571356773376465, -0.2332763969898224, 0.0672912672162056, 0.3274841606616974]"
1584453585026546095,,1461656,,1584453585,26243830,'',"[shoulder_pan_joint, shoulder_lift_joint, elbow_joint, wrist_1_joint, wrist_2_joint,","[1.6187654733657837, -1.027978245412008, 2.1364336013793945, -2.6682475248919886, -1.5670297781573694, 2.2739343643188477]","[0.09281862527132034, 0.017858093604445457, -0.07333706319332123, 0.03464879095554352, -3.834952076431364e-05, 0.05044879391789436]","[1.0208131074905396, -3.950500965118408, -2.5220367908477783, -0.2444916069507599, 0.0628051832318306, 0.3880462944507599]"
1584453585138480838,,1461670,,1584453585,138240650,'',"[shoulder_pan_joint, shoulder_lift_joint, elbow_joint, wrist_1_joint, wrist_2_joint,","[1.6290689706802368, -1.024489704762594, 2.127142906188965, -2.663614575062887, -1.5670178572284144, 2.279141902923584]","[0.09131021052598953, 0.0418904609978199, -0.09205163270235062, 0.04628787189722061, -3.834952076431364e-05, 0.051062386482954025]","[0.7781983017921448, -4.087830066680908, -2.64982008934021, -0.1659851223230362, 0.0583190992474556, 0.2355194389820099]"
1584453585250418748,,1461684,,1584453585,250222121,'',"[shoulder_pan_joint, shoulder_lift_joint, elbow_joint, wrist_1_joint, wrist_2_joint,","[1.6390479803085327, -1.0191305319415491, 2.116004467010498, -2.6580479780780237, -1.5669940153705042, 2.286133289337158]","[0.0862608551979065, 0.04898511990904808, -0.09196215122938156, 0.05282646417617798, -3.834952076431364e-05, 0.06521335989236832]","[1.0070801973342896, -4.330444812774658, -2.6229183673858643, -0.1143951565027237, 0.0695343092083931, 0.2960815727710724]"
1584453585362453208,,1461698,,1584453585,362231314,'',"[shoulder_pan_joint, shoulder_lift_joint, elbow_joint, wrist_1_joint, wrist_2_joint,","[1.6471201181411743, -1.0146830717669886, 2.1061863899230957, -2.652540985737936, -1.5669940153705042, 2.292945146560669]","[0.06047719344496727, 0.03105032816529274, -0.07539515942335129, 0.042510442435741425, -3.834952076431364e-05, 0.060918211936950684]","[0.9658814668655396, -4.206848621368408, -2.7081072330474854, -0.2243042290210724, 0.0448608435690403, 0.2848663628101349]"
1584453585474565674,,1461712,,1584453585,474284048,'',"[shoulder_pan_joint, shoulder_lift_joint, elbow_joint, wrist_1_joint, wrist_2_joint,","[1.6531530618667603, -1.0107629934894007, 2.0975804328918457, -2.6477888266192835, -1.5669940153705042, 2.300882577896118]","[0.04563593119382858, 0.040113598108291626, -0.08085357397794724, 0.04494563862681389, -3.834952076431364e-05, 0.07326675951480865]","[1.0253907442092896, -4.225159168243408, -2.6184346675872803, -0.1929016262292862, 0.0269165076315403, 0.3274841606616974]"
1584453585586399389,,1461726,,1584453585,586198414,'',"[shoulder_pan_joint, shoulder_lift_joint, elbow_joint, wrist_1_joint, wrist_2_joint,","[1.6574229001998901, -1.0062068144427698, 2.088818073272705, -2.642736260090963, -1.5670178572284144, 2.3075149059295654]","[0.028391428291797638, 0.04036926105618477, -0.08131376653909683, 0.04511821269989014, -3.834952076431364e-05, 0.045348308980464935]","[0.9567261934280396, -4.568481922149658, -2.6812055110931396, -0.2400055229663849, 0.0493469275534153, 0.3902893364429474]"
1584453585698403963,,1461740,,1584453585,698216203,'',"[shoulder_pan_joint, shoulder_lift_joint, elbow_joint, wrist_1_joint, wrist_2_joint,","[1.6602656841278076, -1.0021069685565394, 2.079023838043213, -2.6372178236590784, -1.566981617604391, 2.3126866817474365]","[0.023725569248199463, 0.034821365028619766, -0.08574952930212021, 0.04626869782805443, -1.917476038215682e-05, 0.05483981594443321]","[0.8422852158546448, -4.307556629180908, -2.6049838066101074, -0.2400055229663849, 0.02467346377670765, 0.3274841606616974]"
1584453585810595106,,1461754,,1584453585,810278715,'',"[shoulder_pan_joint, shoulder_lift_joint, elbow_joint, wrist_1_joint, wrist_2_joint,","[1.6630003452301025, -0.9969518820392054, 2.0675973892211914, -2.6315434614764612, -1.5670059362994593, 2.318181276321411]","[0.022102106362581253, 0.055389489978551865, -0.10973075777292252, 0.05541505664587021, -1.917476038215682e-05, 0.03892476484179497]","[1.2405396699905396, -4.435730457305908, -2.542213201522827, -0.1906585842370987, 0.01570129580795765, 0.4104767143726349]"
1584453585922424643,,1461768,,1584453585,922183924,'',"[shoulder_pan_joint, shoulder_lift_joint, elbow_joint, wrist_1_joint, wrist_2_joint,","[1.6650751829147339, -0.9904063383685511, 2.0538530349731445, -2.624528233204977, -1.566981617604391, 2.3213658332824707]","[0.013460681773722172, 0.0517718531191349, -0.13157720863819122, 0.07338180392980576, -1.917476038215682e-05, 0.02684466354548931]","[0.9017945528030396, -4.371643543243408, -2.717074394226074, -0.2243042290210724, 0.011215210892260075, 0.3319702446460724]"
1584453586034517853,,1461782,,1584453586,34225837,'',"[shoulder_pan_joint, shoulder_lift_joint, elbow_joint, wrist_1_joint, wrist_2_joint,","[1.6658189296722412, -0.9837406317340296, 2.0385727882385254, -2.616279904042379, -1.5670178572284144, 2.3239517211914062]","[0.0013166668359190226, 0.07115114480257034, -0.1342744529247284, 0.07506918907165527, -1.917476038215682e-05, 0.017717478796839714]","[0.2151489406824112, -4.394531726837158, -2.9703989028930664, -0.2220611870288849, -0.006729126907885075, 0.2983246147632599]"
1584453586146493022,,1461796,,1584453586,146202660,'',"[shoulder_pan_joint, shoulder_lift_joint, elbow_joint, wrist_1_joint, wrist_2_joint,","[1.6658068895339966, -0.9764516989337366, 2.0242409706115723, -2.608211342488424, -1.5670178572284144, 2.326106548309326]","[-0.00046019424917176366, 0.05530000850558281, -0.12040471285581589, 0.0665939450263977, -1.917476038215682e-05, 0.025368208065629005]","[0.0595092847943306, -4.719543933868408, -2.934530019760132, -0.2669220268726349, -0.02467346377670765, 0.2601929008960724]"
1584453586258537822,,1461810,,1584453586,258217483,'',"[shoulder_pan_joint, shoulder_lift_joint, elbow_joint, wrist_1_joint, wrist_2_joint,","[1.6657710075378418, -0.9701102415667933, 2.012248992919922, -2.60156757036318, -1.5670297781573694, 2.32947039604187]","[0.0, 0.05606699734926224, -0.09886506199836731, 0.05186772719025612, -1.917476038215682e-05, 0.028263596817851067]","[0.004577637184411287, -5.108643054962158, -3.015235185623169, -0.1929016262292862, -0.01794433780014515, 0.3095398247241974]"
1584453586370509975,,1461824,,1584453586,370191961,'',"[shoulder_pan_joint, shoulder_lift_joint, elbow_joint, wrist_1_joint, wrist_2_joint,","[1.6657710075378418, -0.9652064482318323, 2.001986026763916, -2.5959532896624964, -1.5670059362994593, 2.3326308727264404]","[0.0, 0.031689487397670746, -0.08618415892124176, 0.04860801622271538, -1.917476038215682e-05, 0.026978887617588043]","[0.0366210974752903, -4.833984851837158, -3.0421369075775146, -0.1772003322839737, -0.0314025916159153, 0.3005676567554474]"
1584453586482492889,,1461838,,1584453586,482170708,'',"[shoulder_pan_joint, shoulder_lift_joint, elbow_joint, wrist_1_joint, wrist_2_joint,","[1.6657710075378418, -0.9611790815936487, 1.992382526397705, -2.5907214323626917, -1.5669940153705042, 2.3349056243896484]","[0.0, 0.038541268557310104, -0.07375890761613846, 0.043660927563905716, -1.917476038215682e-05, 0.01587670110166073]","[0.02288818545639515, -4.898071765899658, -2.9703989028930664, -0.2646789848804474, -0.0381317175924778, 0.3521576225757599]"
1584453586594607238,,1461852,,1584453586,594233190,'',"[shoulder_pan_joint, shoulder_lift_joint, elbow_joint, wrist_1_joint, wrist_2_joint,","[1.6657230854034424, -0.9572470823871058, 1.9841361045837402, -2.586339775715963, -1.5670297781573694, 2.336641550064087]","[0.0, 0.03488527983427048, -0.07154741883277893, 0.0415133573114872, 0.0, 0.015339808538556099]","[0.02288818545639515, -4.879761219024658, -2.9547061920166016, -0.1929016262292862, -0.0426178015768528, 0.3185119926929474]"
1584453586706801096,,1461866,,1584453586,706468915,'',"[shoulder_pan_joint, shoulder_lift_joint, elbow_joint, wrist_1_joint, wrist_2_joint,","[1.6657230854034424, -0.9542377630816858, 1.9771738052368164, -2.5822575728045862, -1.5670178572284144, 2.338329792022705]","[0.0, 0.020069582387804985, -0.06350680440664291, 0.03357500582933426, 0.0, 0.01595340110361576]","[0.0686645582318306, -4.824829578399658, -3.098182201385498, -0.2310333549976349, -0.0381317175924778, 0.3162689507007599]"
1584453586818539934,,1461880,,1584453586,818241827,'',"[shoulder_pan_joint, shoulder_lift_joint, elbow_joint, wrist_1_joint, wrist_2_joint,","[1.6657230854034424, -0.9518159071551722, 1.9691548347473145, -2.5780800024615687, -1.5670059362994593, 2.3398144245147705]","[0.0, 0.02876214124262333, -0.06809596717357635, 0.03702646121382713, 0.0, 0.013690778985619545]","[0.004577637184411287, -4.609680652618408, -2.8650338649749756, -0.2220611870288849, -0.0448608435690403, 0.2781372368335724]"
1584453586930478014,,1461894,,1584453586,930163977,'',"[shoulder_pan_joint, shoulder_lift_joint, elbow_joint, wrist_1_joint, wrist_2_joint,","[1.6657350063323975, -0.9477399031268519, 1.961064338684082, -2.5739977995501917, -1.5670059362994593, 2.3421006202697754]","[0.0, 0.041136253625154495, -0.08101975172758102, 0.03783180192112923, 0.0, 0.029950976371765137]","[0.1007080152630806, -4.797363758087158, -2.930046319961548, -0.2108459621667862, -0.0493469275534153, 0.2579498589038849]"
1584453587042475905,,1461908,,1584453587,42163712,'',"[shoulder_pan_joint, shoulder_lift_joint, elbow_joint, wrist_1_joint, wrist_2_joint,","[1.6657350063323975, -0.9430525938617151, 1.9526495933532715, -2.569700066243307, -1.5669940153705042, 2.3459556102752686]","[0.0, 0.03814499080181122, -0.07341376692056656, 0.03948083147406578, 0.0, 0.03714150935411453]","[0.1098632961511612, -5.030823230743408, -3.10042405128479, -0.1951446682214737, -0.0605621412396431, 0.2758941948413849]"
1584453587154512841,,1461922,,1584453587,154190408,'',"[shoulder_pan_joint, shoulder_lift_joint, elbow_joint, wrist_1_joint, wrist_2_joint,","[1.665747046470642, -0.9393246809588831, 1.9434423446655273, -2.5651868025409144, -1.5670178572284144, 2.3501815795898438]","[0.0, 0.03330016881227493, -0.08310341089963913, 0.04260631650686264, 0.0, 0.035837627947330475]","[0.0, -4.760742664337158, -2.8717594146728516, -0.1502838283777237, -0.0583190992474556, 0.3140259087085724]"
1584453587266444729,,1461936,,1584453587,266128628,'',"[shoulder_pan_joint, shoulder_lift_joint, elbow_joint, wrist_1_joint, wrist_2_joint,","[1.6657710075378418, -0.9343736807452601, 1.9328904151916504, -2.559967819844381, -1.5670655409442347, 2.3543479442596436]","[0.0, 0.05247492715716362, -0.10246992111206055, 0.05338253080844879, -5.752428114647046e-05, 0.040957286953926086]","[0.1098632961511612, -4.701233386993408, -2.916595458984375, -0.2175751030445099, -0.0785064771771431, 0.3072967827320099]"
1584453587378490631,,1461950,,1584453587,378167317,'',"[shoulder_pan_joint, shoulder_lift_joint, elbow_joint, wrist_1_joint, wrist_2_joint,","[1.6657589673995972, -0.9284756819354456, 1.9215941429138184, -2.553993527089254, -1.5670416990863245, 2.3595314025878906]","[0.0, 0.04237622022628784, -0.0905943512916565, 0.05320996046066284, -5.752428114647046e-05, 0.05420704558491707]","[0.1144409328699112, -5.081177234649658, -3.1676783561706543, -0.1929016262292862, -0.0785064771771431, 0.3095398247241974]"
1584453587490480397,,1461964,,1584453587,490155240,'',"[shoulder_pan_joint, shoulder_lift_joint, elbow_joint, wrist_1_joint, wrist_2_joint,","[1.6657589673995972, -0.9248312155352991, 1.9137191772460938, -2.5492051283465784, -1.5670655409442347, 2.3645715713500977]","[0.0, 0.028544826433062553, -0.055389489978551865, 0.03357500582933426, -0.00017257283616345376, 0.029931800439953804]","[-0.0732421949505806, -5.181885242462158, -3.2461416721343994, -0.2041168361902237, -0.0672912672162056, 0.3633728325366974]"
1584453587602592872,,1461978,,1584453587,602302500,'',"[shoulder_pan_joint, shoulder_lift_joint, elbow_joint, wrist_1_joint, wrist_2_joint,","[1.665747046470642, -0.9223616758929651, 1.9095535278320312, -2.5465477148639124, -1.567077938710348, 2.367025375366211]","[0.0, 0.014943529851734638, -0.017794176936149597, 0.013288108631968498, -0.00015339808305725455, 0.016030099242925644]","[-0.0366210974752903, -5.049133777618408, -3.190096378326416, -0.2512207329273224, -0.0785064771771431, 0.3207550346851349]"
1584453587714418523,,1461992,,1584453587,714117100,'',"[shoulder_pan_joint, shoulder_lift_joint, elbow_joint, wrist_1_joint, wrist_2_joint,","[1.6657710075378418, -0.9222176710711878, 1.909745693206787, -2.546990696583883, -1.5670416990863245, 2.3676600456237793]","[0.0, -0.0021731394808739424, 0.009855826385319233, -0.008954613469541073, -9.58738019107841e-05, -0.026557043194770813]","[-0.1693725734949112, -6.294250965118408, -2.2171506881713867, -0.6235657334327698, -0.0740203931927681, -0.1502838283777237]"
1584453587826421193,,1462006,,1584453587,826110683,'',"[shoulder_pan_joint, shoulder_lift_joint, elbow_joint, wrist_1_joint, wrist_2_joint,","[1.665747046470642, -0.9222176710711878, 1.9098896980285645, -2.5472539106952112, -1.5670536200152796, 2.3635895252227783]","[0.0, -0.0003707120195031166, -0.0011760519118979573, -0.00046019424917176366, -7.669904152862728e-05, -0.03936578333377838]","[-0.0366210974752903, -5.891418933868408, -2.658787250518799, -0.4665527939796448, -0.0695343092083931, -0.3431854546070099]"
