PorkPy/robot-pulling-data/deg70_stops1/joint_states_throttle.csv
rosbagTimestamp,header,seq,stamp,secs,nsecs,frame_id,name,wrist_3_joint],position,velocity,effort
1584445144496339059,,406544,,1584445144,496066899,'',"[shoulder_pan_joint, shoulder_lift_joint, elbow_joint, wrist_1_joint, wrist_2_joint,","[1.4047702550888062, -1.17180043855776, 2.4830944538116455, -2.862899128590719, -1.5669940153705042, 2.7207064628601074]","[0.0, 0.0, -0.0, 0.0, 0.0, 0.0]","[-0.6866455674171448, -2.682495355606079, -1.181434154510498, -0.5787048935890198, 0.02243042178452015, 0.008972168900072575]"
1584445144608326540,,406558,,1584445144,608040735,'',"[shoulder_pan_joint, shoulder_lift_joint, elbow_joint, wrist_1_joint, wrist_2_joint,","[1.4047702550888062, -1.17180043855776, 2.4830822944641113, -2.862899128590719, -1.5669940153705042, 2.7206943035125732]","[0.0, 0.0, -0.0, 0.0, 0.0, 0.0]","[-0.6729126572608948, -2.627563714981079, -1.1724668741226196, -0.5809479355812073, 0.0269165076315403, 0.01570129580795765]"
1584445144720412537,,406572,,1584445144,720094651,'',"[shoulder_pan_joint, shoulder_lift_joint, elbow_joint, wrist_1_joint, wrist_2_joint,","[1.4047822952270508, -1.171788517628805, 2.4830703735351562, -2.8628390471087855, -1.5669940153705042, 2.720682382583618]","[0.0, 0.0, -0.0, 0.0, 0.0, 0.0]","[-0.6912232041358948, -2.618408441543579, -1.179192304611206, -0.5854340195655823, 0.02467346377670765, 0.006729126907885075]"
1584445144832361576,,406586,,1584445144,832041406,'',"[shoulder_pan_joint, shoulder_lift_joint, elbow_joint, wrist_1_joint, wrist_2_joint,","[1.4047702550888062, -1.17180043855776, 2.483046531677246, -2.862875286732809, -1.5669940153705042, 2.7206943035125732]","[0.0, 0.0, -0.0, 0.0, 0.0, 0.0]","[-0.6958008408546448, -2.645874261856079, -1.1702251434326172, -0.5831909775733948, 0.02018737979233265, 0.011215210892260075]"
1584445144944300056,,406600,,1584445144,944007177,'',"[shoulder_pan_joint, shoulder_lift_joint, elbow_joint, wrist_1_joint, wrist_2_joint,","[1.4047702550888062, -1.17177659669985, 2.4830822944641113, -2.862875286732809, -1.5670059362994593, 2.7207183837890625]","[0.0, 0.0, -0.0, 0.0, 0.0, 0.0]","[-0.6637573838233948, -2.664184808731079, -1.1724668741226196, -0.5787048935890198, 0.0269165076315403, 0.011215210892260075]"
1584445145056360194,,406614,,1584445145,56106058,'',"[shoulder_pan_joint, shoulder_lift_joint, elbow_joint, wrist_1_joint, wrist_2_joint,","[1.4047702550888062, -1.17180043855776, 2.4830944538116455, -2.862863365803854, -1.5670178572284144, 2.7207064628601074]","[0.0, 0.0, -0.0, 0.0, 0.0, 0.0]","[-0.6729126572608948, -2.650451898574829, -1.179192304611206, -0.5944061875343323, 0.01794433780014515, 0.011215210892260075]"
1584445145168375087,,406628,,1584445145,168016415,'',"[shoulder_pan_joint, shoulder_lift_joint, elbow_joint, wrist_1_joint, wrist_2_joint,","[1.4047462940216064, -1.17180043855776, 2.4830822944641113, -2.8628514448748987, -1.5670178572284144, 2.7207303047180176]","[0.0, 0.0, -0.0, 0.0, 0.0, 0.0]","[-0.6546021103858948, -2.581787347793579, -1.1769505739212036, -0.5831909775733948, 0.0269165076315403, 0.011215210892260075]"
1584445145280287177,,406642,,1584445145,279996993,'',"[shoulder_pan_joint, shoulder_lift_joint, elbow_joint, wrist_1_joint, wrist_2_joint,","[1.4047343730926514, -1.17180043855776, 2.4830822944641113, -2.862863365803854, -1.5670297781573694, 2.7206943035125732]","[0.0, 0.0, -0.0, 0.0, 0.0, 0.0]","[-0.6591797471046448, -2.627563714981079, -1.181434154510498, -0.5787048935890198, 0.0269165076315403, 0.006729126907885075]"
1584445145392281541,,406656,,1584445145,391983232,'',"[shoulder_pan_joint, shoulder_lift_joint, elbow_joint, wrist_1_joint, wrist_2_joint,","[1.404758334159851, -1.1718123594867151, 2.483058452606201, -2.862875286732809, -1.5670536200152796, 2.7207303047180176]","[0.0, 0.0, -0.0, 0.0, 0.0, 0.0]","[-0.6774902939796448, -2.677917718887329, -1.1702251434326172, -0.5764618515968323, 0.01794433780014515, 0.006729126907885075]"
1584445145504276938,,406670,,1584445145,503998586,'',"[shoulder_pan_joint, shoulder_lift_joint, elbow_joint, wrist_1_joint, wrist_2_joint,","[1.4047343730926514, -1.17177659669985, 2.4830822944641113, -2.862863365803854, -1.5670297781573694, 2.7206943035125732]","[0.0, 0.0, -0.0, 0.0, 0.0, 0.0]","[-0.6454468369483948, -2.650451898574829, -1.1747087240219116, -0.5630035996437073, 0.0381317175924778, 0.01570129580795765]"
1584445145616354448,,406684,,1584445145,616068722,'',"[shoulder_pan_joint, shoulder_lift_joint, elbow_joint, wrist_1_joint, wrist_2_joint,","[1.4047343730926514, -1.171788517628805, 2.483058452606201, -2.862887207661764, -1.5670178572284144, 2.7207303047180176]","[0.0, 0.0, -0.0, 0.0, 0.0, 0.0]","[-0.7049561142921448, -2.636718988418579, -1.1724668741226196, -0.5787048935890198, 0.02467346377670765, 0.011215210892260075]"
1584445145728290333,,406698,,1584445145,727990311,'',"[shoulder_pan_joint, shoulder_lift_joint, elbow_joint, wrist_1_joint, wrist_2_joint,","[1.404758334159851, -1.1718247572528284, 2.4830703735351562, -2.862887207661764, -1.5670059362994593, 2.7206943035125732]","[0.0, 0.0, -0.0, 0.0, 0.0, 0.0]","[-0.6774902939796448, -2.655029535293579, -1.179192304611206, -0.5831909775733948, 0.0291595496237278, 0.004486084450036287]"
1584445145840286310,,406712,,1584445145,839968715,'',"[shoulder_pan_joint, shoulder_lift_joint, elbow_joint, wrist_1_joint, wrist_2_joint,","[1.4047462940216064, -1.171788517628805, 2.4830822944641113, -2.8628514448748987, -1.5670178572284144, 2.7207183837890625]","[0.0, 0.0, -0.0, 0.0, 0.0, 0.0]","[-0.6820679306983948, -2.636718988418579, -1.1769505739212036, -0.5809479355812073, 0.02018737979233265, 0.006729126907885075]"
1584445145952406150,,406726,,1584445145,952080660,'',"[shoulder_pan_joint, shoulder_lift_joint, elbow_joint, wrist_1_joint, wrist_2_joint,","[1.4047462940216064, -1.17180043855776, 2.4830822944641113, -2.862887207661764, -1.5670178572284144, 2.7207183837890625]","[0.0, 0.0, -0.0, 0.0, 0.0, 0.0]","[-0.6683350205421448, -2.659607172012329, -1.1747087240219116, -0.5697327256202698, 0.0269165076315403, 0.02018737979233265]"
1584445146064298664,,406740,,1584445146,63967784,'',"[shoulder_pan_joint, shoulder_lift_joint, elbow_joint, wrist_1_joint, wrist_2_joint,","[1.4047462940216064, -1.1718123594867151, 2.4830703735351562, -2.862875286732809, -1.5669940153705042, 2.720670461654663]","[0.0, 0.0, -0.0, 0.0, 0.0, 0.0]","[-0.6591797471046448, -2.609253168106079, -1.1724668741226196, -0.5787048935890198, 0.02467346377670765, 0.01570129580795765]"
1584445146176560459,,406754,,1584445146,176069299,'',"[shoulder_pan_joint, shoulder_lift_joint, elbow_joint, wrist_1_joint, wrist_2_joint,","[1.4047223329544067, -1.17180043855776, 2.483058452606201, -2.862887207661764, -1.5670297781573694, 2.7207183837890625]","[0.0, 0.0, -0.0, 0.0, 0.0, 0.0]","[-0.6912232041358948, -2.664184808731079, -1.1545324325561523, -0.5764618515968323, 0.02243042178452015, 0.01345825381577015]"
1584445146288555425,,406768,,1584445146,288079824,'',"[shoulder_pan_joint, shoulder_lift_joint, elbow_joint, wrist_1_joint, wrist_2_joint,","[1.404758334159851, -1.17180043855776, 2.4830822944641113, -2.862863365803854, -1.5670059362994593, 2.7206943035125732]","[0.0, 0.0, -0.0, 0.0, 0.0, 0.0]","[-0.6591797471046448, -2.645874261856079, -1.181434154510498, -0.5764618515968323, 0.0, 0.004486084450036287]"
1584445146400354283,,406782,,1584445146,399943714,'',"[shoulder_pan_joint, shoulder_lift_joint, elbow_joint, wrist_1_joint, wrist_2_joint,","[1.4047343730926514, -1.171788517628805, 2.4830703735351562, -2.862863365803854, -1.5670178572284144, 2.7207064628601074]","[0.0, 0.0, -0.0, 0.0, 0.0, 0.0]","[-0.6729126572608948, -2.645874261856079, -1.181434154510498, -0.5764618515968323, 0.01570129580795765, 0.01794433780014515]"
1584445146512310566,,406796,,1584445146,511963706,'',"[shoulder_pan_joint, shoulder_lift_joint, elbow_joint, wrist_1_joint, wrist_2_joint,","[1.4047462940216064, -1.17180043855776, 2.4830703735351562, -2.862863365803854, -1.5670178572284144, 2.7207303047180176]","[0.0, 0.0, -0.0, 0.0, 0.0, 0.0]","[-0.6866455674171448, -2.677917718887329, -1.1724668741226196, -0.5787048935890198, 0.011215210892260075, 0.0022430422250181437]"
1584445146624302366,,406810,,1584445146,623954173,'',"[shoulder_pan_joint, shoulder_lift_joint, elbow_joint, wrist_1_joint, wrist_2_joint,","[1.404758334159851, -1.1718362013446253, 2.4830703735351562, -2.862911049519674, -1.5670059362994593, 2.7207064628601074]","[0.0, 0.0, -0.0, 0.0, 0.0, 0.0]","[-0.6729126572608948, -2.650451898574829, -1.1657414436340332, -0.5630035996437073, 0.02018737979233265, 0.0022430422250181437]"
1584445146736424420,,406824,,1584445146,736035751,'',"[shoulder_pan_joint, shoulder_lift_joint, elbow_joint, wrist_1_joint, wrist_2_joint,","[1.4047343730926514, -1.1718362013446253, 2.4830822944641113, -2.862875286732809, -1.5670059362994593, 2.7207183837890625]","[0.0, 0.0, -0.0, 0.0, 0.0, 0.0]","[-0.6637573838233948, -2.687072992324829, -1.1679832935333252, -0.5876770615577698, 0.0336456336081028, 0.01794433780014515]"
1584445146848372067,,406838,,1584445146,847969272,'',"[shoulder_pan_joint, shoulder_lift_joint, elbow_joint, wrist_1_joint, wrist_2_joint,","[1.404758334159851, -1.17177659669985, 2.4830944538116455, -2.862899128590719, -1.5670178572284144, 2.720682382583618]","[0.0, 0.0, -0.0, 0.0, 0.0, 0.0]","[-0.6637573838233948, -2.659607172012329, -1.1657414436340332, -0.5899201035499573, 0.02018737979233265, 0.006729126907885075]"
1584445146960416766,,406852,,1584445146,960043085,'',"[shoulder_pan_joint, shoulder_lift_joint, elbow_joint, wrist_1_joint, wrist_2_joint,","[1.404758334159851, -1.171788517628805, 2.4830822944641113, -2.862887207661764, -1.5670536200152796, 2.7206943035125732]","[0.0, 0.0, -0.0, 0.0, 0.0, 0.0]","[-0.6820679306983948, -2.659607172012329, -1.1724668741226196, -0.5809479355812073, 0.0336456336081028, -0.0022430422250181437]"
1584445147072295664,,406866,,1584445147,71943113,'',"[shoulder_pan_joint, shoulder_lift_joint, elbow_joint, wrist_1_joint, wrist_2_joint,","[1.4047462940216064, -1.171788517628805, 2.4831063747406006, -2.862887207661764, -1.5670416990863245, 2.7206943035125732]","[0.0, 0.0, -0.0, 0.0, 0.0, 0.0]","[-0.6958008408546448, -2.586364984512329, -1.1724668741226196, -0.5831909775733948, 0.0336456336081028, 0.008972168900072575]"
1584445147184389916,,406880,,1584445147,183988543,'',"[shoulder_pan_joint, shoulder_lift_joint, elbow_joint, wrist_1_joint, wrist_2_joint,","[1.4047462940216064, -1.1718123594867151, 2.4830944538116455, -2.862887207661764, -1.5670297781573694, 2.7207303047180176]","[0.0, 0.0, -0.0, 0.0, 0.0, 0.0]","[-0.6774902939796448, -2.645874261856079, -1.1769505739212036, -0.5809479355812073, 0.02018737979233265, 0.004486084450036287]"
1584445147296376987,,406894,,1584445147,295979552,'',"[shoulder_pan_joint, shoulder_lift_joint, elbow_joint, wrist_1_joint, wrist_2_joint,","[1.4047702550888062, -1.1717646757708948, 2.483058452606201, -2.862863365803854, -1.5670178572284144, 2.7207064628601074]","[0.0, 0.0, -0.0, 0.0, 0.0, 0.0]","[-0.6774902939796448, -2.627563714981079, -1.1747087240219116, -0.5831909775733948, 0.02018737979233265, 0.008972168900072575]"
1584445147408293335,,406908,,1584445147,407931116,'',"[shoulder_pan_joint, shoulder_lift_joint, elbow_joint, wrist_1_joint, wrist_2_joint,","[1.4047702550888062, -1.1718362013446253, 2.483058452606201, -2.862863365803854, -1.5670416990863245, 2.7207303047180176]","[0.0, 0.0, -0.0, 0.0, 0.0, 0.0]","[-0.6912232041358948, -2.668762445449829, -1.1769505739212036, -0.5854340195655823, 0.02467346377670765, 0.008972168900072575]"
1584445147520225071,,406922,,1584445147,519948222,'',"[shoulder_pan_joint, shoulder_lift_joint, elbow_joint, wrist_1_joint, wrist_2_joint,","[1.4047343730926514, -1.171788517628805, 2.4830944538116455, -2.862863365803854, -1.5670178572284144, 2.7207183837890625]","[0.0, 0.0, -0.0, 0.0, 0.0, 0.0]","[-0.6729126572608948, -2.609253168106079, -1.1702251434326172, -0.5809479355812073, 0.01794433780014515, 0.01570129580795765]"
1584445147632268658,,406936,,1584445147,631963045,'',"[shoulder_pan_joint, shoulder_lift_joint, elbow_joint, wrist_1_joint, wrist_2_joint,","[1.4047702550888062, -1.171788517628805, 2.4830703735351562, -2.862863365803854, -1.5669940153705042, 2.7207183837890625]","[0.0, 0.0, -0.0, 0.0, 0.0, 0.0]","[-0.6958008408546448, -2.673340082168579, -1.1567742824554443, -0.5831909775733948, 0.02018737979233265, 0.011215210892260075]"
1584445147744244298,,406950,,1584445147,743945818,'',"[shoulder_pan_joint, shoulder_lift_joint, elbow_joint, wrist_1_joint, wrist_2_joint,","[1.4047822952270508, -1.17177659669985, 2.4830944538116455, -2.862875286732809, -1.5670536200152796, 2.7207303047180176]","[0.0, 0.0, -0.0, 0.0, 0.0, 0.0]","[-0.6866455674171448, -2.618408441543579, -1.1747087240219116, -0.5809479355812073, 0.0269165076315403, 0.01345825381577015]"
1584445147856177698,,406964,,1584445147,855900869,'',"[shoulder_pan_joint, shoulder_lift_joint, elbow_joint, wrist_1_joint, wrist_2_joint,","[1.4047462940216064, -1.17177659669985, 2.4830822944641113, -2.862863365803854, -1.5670297781573694, 2.7207183837890625]","[0.0, 0.0, -0.0, 0.0, 0.0, 0.0]","[-0.6912232041358948, -2.622986078262329, -1.1881595849990845, -0.5787048935890198, 0.0314025916159153, 0.004486084450036287]"
1584445147968287659,,406978,,1584445147,967967018,'',"[shoulder_pan_joint, shoulder_lift_joint, elbow_joint, wrist_1_joint, wrist_2_joint,","[1.404758334159851, -1.1718123594867151, 2.4831063747406006, -2.862863365803854, -1.5670297781573694, 2.7207064628601074]","[0.0, 0.0, -0.0, 0.0, 0.0, 0.0]","[-0.6591797471046448, -2.655029535293579, -1.181434154510498, -0.5719757676124573, 0.02467346377670765, 0.0022430422250181437]"
1584445148080274209,,406992,,1584445148,79949110,'',"[shoulder_pan_joint, shoulder_lift_joint, elbow_joint, wrist_1_joint, wrist_2_joint,","[1.404758334159851, -1.17180043855776, 2.4830703735351562, -2.862887207661764, -1.5670178572284144, 2.7207064628601074]","[0.0, 0.0, -0.0, 0.0, 0.0, 0.0]","[-0.6820679306983948, -2.673340082168579, -1.1724668741226196, -0.5764618515968323, 0.0269165076315403, 0.011215210892260075]"
1584445148192216516,,407006,,1584445148,191913769,'',"[shoulder_pan_joint, shoulder_lift_joint, elbow_joint, wrist_1_joint, wrist_2_joint,","[1.4047462940216064, -1.17180043855776, 2.4830822944641113, -2.862887207661764, -1.5670059362994593, 2.7207064628601074]","[0.0, 0.0, -0.0, 0.0, 0.0, 0.0]","[-0.7003784775733948, -2.655029535293579, -1.1679832935333252, -0.5854340195655823, 0.02243042178452015, 0.006729126907885075]"
1584445148304321518,,407020,,1584445148,303956093,'',"[shoulder_pan_joint, shoulder_lift_joint, elbow_joint, wrist_1_joint, wrist_2_joint,","[1.4047822952270508, -1.1718247572528284, 2.4830703735351562, -2.862875286732809, -1.5669940153705042, 2.7207183837890625]","[0.0, 0.0, -0.0, 0.0, 0.0, 0.0]","[-0.6912232041358948, -2.604675531387329, -1.18367600440979, -0.5697327256202698, 0.01794433780014515, 0.01345825381577015]"
1584445148416243577,,407034,,1584445148,415943685,'',"[shoulder_pan_joint, shoulder_lift_joint, elbow_joint, wrist_1_joint, wrist_2_joint,","[1.4047702550888062, -1.1718123594867151, 2.4830703735351562, -2.862875286732809, -1.5670059362994593, 2.7207183837890625]","[0.0, 0.0, -0.0, 0.0, 0.0, 0.0]","[-0.7049561142921448, -2.636718988418579, -1.18367600440979, -0.5764618515968323, 0.02018737979233265, 0.01345825381577015]"
1584445148528296601,,407048,,1584445148,527909375,'',"[shoulder_pan_joint, shoulder_lift_joint, elbow_joint, wrist_1_joint, wrist_2_joint,","[1.4047822952270508, -1.1718123594867151, 2.4831182956695557, -2.862875286732809, -1.5670536200152796, 2.7207183837890625]","[0.0, 0.0, -0.0, 0.0, 0.0, 0.0]","[-0.6683350205421448, -2.645874261856079, -1.1881595849990845, -0.5764618515968323, 0.02018737979233265, 0.004486084450036287]"
1584445148640219702,,407062,,1584445148,639877902,'',"[shoulder_pan_joint, shoulder_lift_joint, elbow_joint, wrist_1_joint, wrist_2_joint,","[1.4047702550888062, -1.17180043855776, 2.4830822944641113, -2.862887207661764, -1.5669940153705042, 2.720682382583618]","[0.0, 0.0, -0.0, 0.0, 0.0, 0.0]","[-0.6729126572608948, -2.645874261856079, -1.1634997129440308, -0.5787048935890198, 0.01794433780014515, 0.011215210892260075]"
1584445148752242119,,407076,,1584445148,751893035,'',"[shoulder_pan_joint, shoulder_lift_joint, elbow_joint, wrist_1_joint, wrist_2_joint,","[1.404758334159851, -1.1718123594867151, 2.483058452606201, -2.862875286732809, -1.5670059362994593, 2.7206943035125732]","[0.0, 0.0, -0.0, 0.0, 0.0, 0.0]","[-0.6820679306983948, -2.673340082168579, -1.1724668741226196, -0.5854340195655823, 0.02018737979233265, 0.011215210892260075]"
1584445148864283141,,407090,,1584445148,863949827,'',"[shoulder_pan_joint, shoulder_lift_joint, elbow_joint, wrist_1_joint, wrist_2_joint,","[1.4047462940216064, -1.1718247572528284, 2.4830703735351562, -2.862899128590719, -1.5670178572284144, 2.7206943035125732]","[0.0, 0.0, -0.0, 0.0, 0.0, 0.0]","[-0.6637573838233948, -2.636718988418579, -1.1724668741226196, -0.5787048935890198, 0.02467346377670765, 0.008972168900072575]"
1584445148976259191,,407104,,1584445148,975917150,'',"[shoulder_pan_joint, shoulder_lift_joint, elbow_joint, wrist_1_joint, wrist_2_joint,","[1.4047462940216064, -1.17177659669985, 2.4830944538116455, -2.862863365803854, -1.5670178572284144, 2.7207064628601074]","[0.0, 0.0, -0.0, 0.0, 0.0, 0.0]","[-0.6637573838233948, -2.604675531387329, -1.1747087240219116, -0.5764618515968323, 0.0336456336081028, 0.011215210892260075]"
1584445149088435106,,407118,,1584445149,87961569,'',"[shoulder_pan_joint, shoulder_lift_joint, elbow_joint, wrist_1_joint, wrist_2_joint,","[1.4047942161560059, -1.1718123594867151, 2.4830822944641113, -2.862887207661764, -1.566981617604391, 2.7207183837890625]","[0.0, 0.0, -0.0, 0.0, 0.0, 0.0]","[-0.6729126572608948, -2.691650629043579, -1.179192304611206, -0.5831909775733948, 0.02018737979233265, 0.006729126907885075]"
1584445149200357406,,407132,,1584445149,199914025,'',"[shoulder_pan_joint, shoulder_lift_joint, elbow_joint, wrist_1_joint, wrist_2_joint,","[1.404758334159851, -1.17180043855776, 2.483046531677246, -2.862863365803854, -1.5669940153705042, 2.7207064628601074]","[0.0, 0.0, -0.0, 0.0, 0.0, 0.0]","[-0.7141113877296448, -2.682495355606079, -1.1881595849990845, -0.5742188096046448, 0.01794433780014515, 0.004486084450036287]"
1584445149312217018,,407146,,1584445149,311887510,'',"[shoulder_pan_joint, shoulder_lift_joint, elbow_joint, wrist_1_joint, wrist_2_joint,","[1.4047462940216064, -1.1718123594867151, 2.4830703735351562, -2.8628514448748987, -1.5670297781573694, 2.7207183837890625]","[0.0, 0.0, -0.0, 0.0, 0.0, 0.0]","[-0.6546021103858948, -2.636718988418579, -1.1769505739212036, -0.5764618515968323, 0.0314025916159153, 0.008972168900072575]"
1584445149424215480,,407160,,1584445149,423901241,'',"[shoulder_pan_joint, shoulder_lift_joint, elbow_joint, wrist_1_joint, wrist_2_joint,","[1.404758334159851, -1.1718247572528284, 2.483058452606201, -2.862875286732809, -1.5670297781573694, 2.7207303047180176]","[0.0, 0.0, -0.0, 0.0, 0.0, 0.0]","[-0.6866455674171448, -2.641296625137329, -1.18367600440979, -0.5809479355812073, 0.02243042178452015, 0.011215210892260075]"
1584445149536271771,,407174,,1584445149,535929068,'',"[shoulder_pan_joint, shoulder_lift_joint, elbow_joint, wrist_1_joint, wrist_2_joint,","[1.4047462940216064, -1.1718123594867151, 2.483058452606201, -2.862899128590719, -1.5670178572284144, 2.7207064628601074]","[0.0, 0.0, -0.0, 0.0, 0.0, 0.0]","[-0.6820679306983948, -2.613830804824829, -1.1724668741226196, -0.5787048935890198, 0.02018737979233265, 0.02243042178452015]"
1584445149648260474,,407188,,1584445149,647928753,'',"[shoulder_pan_joint, shoulder_lift_joint, elbow_joint, wrist_1_joint, wrist_2_joint,","[1.4047822952270508, -1.17180043855776, 2.483058452606201, -2.862863365803854, -1.5670178572284144, 2.7207064628601074]","[0.0, 0.0, -0.0, 0.0, 0.0, 0.0]","[-0.6729126572608948, -2.655029535293579, -1.1634997129440308, -0.5674896836280823, 0.02243042178452015, 0.008972168900072575]"
1584445149760132960,,407202,,1584445149,759849328,'',"[shoulder_pan_joint, shoulder_lift_joint, elbow_joint, wrist_1_joint, wrist_2_joint,","[1.4047343730926514, -1.1718123594867151, 2.4830703735351562, -2.862863365803854, -1.5670178572284144, 2.7207064628601074]","[0.0, 0.0, -0.0, 0.0, 0.0, 0.0]","[-0.6820679306983948, -2.600097894668579, -1.1859177350997925, -0.5876770615577698, 0.0358886756002903, 0.004486084450036287]"
1584445149872265694,,407216,,1584445149,871960301,'',"[shoulder_pan_joint, shoulder_lift_joint, elbow_joint, wrist_1_joint, wrist_2_joint,","[1.404758334159851, -1.1718123594867151, 2.4830703735351562, -2.862875286732809, -1.5670059362994593, 2.7207183837890625]","[0.0, 0.0, -0.0, 0.0, 0.0, 0.0]","[-0.6958008408546448, -2.636718988418579, -1.181434154510498, -0.5921631455421448, 0.0269165076315403, 0.006729126907885075]"
1584445149984144241,,407230,,1584445149,983857855,'',"[shoulder_pan_joint, shoulder_lift_joint, elbow_joint, wrist_1_joint, wrist_2_joint,","[1.4047702550888062, -1.1718123594867151, 2.4830822944641113, -2.8628271261798304, -1.5670059362994593, 2.7207064628601074]","[0.0, 0.0, -0.0, 0.0, 0.0, 0.0]","[-0.7095337510108948, -2.673340082168579, -1.1724668741226196, -0.5787048935890198, 0.0471038855612278, 0.011215210892260075]"
1584445150096299998,,407244,,1584445150,95906100,'',"[shoulder_pan_joint, shoulder_lift_joint, elbow_joint, wrist_1_joint, wrist_2_joint,","[1.4047462940216064, -1.1717646757708948, 2.4830822944641113, -2.862863365803854, -1.5670297781573694, 2.7206943035125732]","[0.0, 0.0, -0.0, 0.0, 0.0, 0.0]","[-0.6958008408546448, -2.636718988418579, -1.192643165588379, -0.5742188096046448, 0.0650482252240181, 0.006729126907885075]"
1584445150208200246,,407258,,1584445150,207850030,'',"[shoulder_pan_joint, shoulder_lift_joint, elbow_joint, wrist_1_joint, wrist_2_joint,","[1.404758334159851, -1.17177659669985, 2.4830944538116455, -2.862863365803854, -1.5670297781573694, 2.7207183837890625]","[0.0, 0.0, -0.0, 0.0, 0.0, 0.0]","[-0.6774902939796448, -2.668762445449829, -1.2083358764648438, -0.5899201035499573, 0.0807495191693306, 0.008972168900072575]"
1584445150320185905,,407272,,1584445150,319804921,'',"[shoulder_pan_joint, shoulder_lift_joint, elbow_joint, wrist_1_joint, wrist_2_joint,","[1.4047702550888062, -1.17180043855776, 2.4830822944641113, -2.862863365803854, -1.5670178572284144, 2.7207064628601074]","[0.0, 0.0, -0.0, 0.0, 0.0, 0.0]","[-0.6774902939796448, -2.636718988418579, -1.1904014348983765, -0.5809479355812073, 0.1637420803308487, 0.011215210892260075]"
1584445150432174518,,407286,,1584445150,431836315,'',"[shoulder_pan_joint, shoulder_lift_joint, elbow_joint, wrist_1_joint, wrist_2_joint,","[1.404758334159851, -1.171788517628805, 2.483058452606201, -2.8628514448748987, -1.5669940153705042, 2.7206943035125732]","[0.0, 0.0, -0.0, 0.0, 0.0, 0.0]","[-0.6546021103858948, -2.627563714981079, -1.179192304611206, -0.5719757676124573, 0.1009368970990181, 0.011215210892260075]"
1584445150544236019,,407300,,1584445150,543850486,'',"[shoulder_pan_joint, shoulder_lift_joint, elbow_joint, wrist_1_joint, wrist_2_joint,","[1.4047462940216064, -1.1718123594867151, 2.4831063747406006, -2.862875286732809, -1.5670059362994593, 2.7206943035125732]","[0.0, 0.0, -0.0, 0.0, 0.0, 0.0]","[-0.7003784775733948, -2.650451898574829, -1.18367600440979, -0.5854340195655823, 0.1143951565027237, 0.008972168900072575]"
1584445150656173697,,407314,,1584445150,655824152,'',"[shoulder_pan_joint, shoulder_lift_joint, elbow_joint, wrist_1_joint, wrist_2_joint,","[1.404758334159851, -1.17180043855776, 2.4830822944641113, -2.862875286732809, -1.566981617604391, 2.7207064628601074]","[0.0, 0.0, -0.0, 0.0, 0.0, 0.0]","[-0.6683350205421448, -2.632141351699829, -1.1904014348983765, -0.5764618515968323, 0.0717773512005806, 0.0]"
1584445150768196525,,407328,,1584445150,767888858,'',"[shoulder_pan_joint, shoulder_lift_joint, elbow_joint, wrist_1_joint, wrist_2_joint,","[1.4047702550888062, -1.17180043855776, 2.4830703735351562, -2.862875286732809, -1.5670059362994593, 2.7207064628601074]","[0.0, 0.0, -0.0, 0.0, 0.0, 0.0]","[-0.6454468369483948, -2.664184808731079, -1.1904014348983765, -0.5787048935890198, 0.0874786451458931, 0.008972168900072575]"
1584445150880145023,,407342,,1584445150,879825585,'',"[shoulder_pan_joint, shoulder_lift_joint, elbow_joint, wrist_1_joint, wrist_2_joint,","[1.404758334159851, -1.17177659669985, 2.4830822944641113, -2.862863365803854, -1.5669940153705042, 2.7207064628601074]","[0.0, 0.0, -0.0, 0.0, 0.0, 0.0]","[-0.6866455674171448, -2.668762445449829, -1.1859177350997925, -0.5854340195655823, 0.0986938551068306, 0.006729126907885075]"
1584445150992135380,,407356,,1584445150,991860866,'',"[shoulder_pan_joint, shoulder_lift_joint, elbow_joint, wrist_1_joint, wrist_2_joint,","[1.404758334159851, -1.171788517628805, 2.4830944538116455, -2.862875286732809, -1.5669940153705042, 2.7207183837890625]","[0.0, 0.0, -0.0, 0.0, 0.0, 0.0]","[-0.6774902939796448, -2.645874261856079, -1.1859177350997925, -0.5854340195655823, 0.1188812404870987, 0.011215210892260075]"
1584445151104125747,,407370,,1584445151,103814825,'',"[shoulder_pan_joint, shoulder_lift_joint, elbow_joint, wrist_1_joint, wrist_2_joint,","[1.4047343730926514, -1.1718123594867151, 2.4830703735351562, -2.862863365803854, -1.5670178572284144, 2.7207183837890625]","[0.0, 0.0, -0.0, 0.0, 0.0, 0.0]","[-0.6774902939796448, -2.609253168106079, -1.1859177350997925, -0.5854340195655823, 0.1435547024011612, 0.006729126907885075]"
1584445151216074416,,407384,,1584445151,215806164,'',"[shoulder_pan_joint, shoulder_lift_joint, elbow_joint, wrist_1_joint, wrist_2_joint,","[1.404758334159851, -1.17180043855776, 2.483046531677246, -2.862887207661764, -1.5669940153705042, 2.720682382583618]","[0.0, 0.0, -0.0, 0.0, 0.0, 0.0]","[-0.6820679306983948, -2.655029535293579, -1.1769505739212036, -0.5809479355812073, 0.1099090725183487, 0.008972168900072575]"
1584445151328073670,,407398,,1584445151,327804506,'',"[shoulder_pan_joint, shoulder_lift_joint, elbow_joint, wrist_1_joint, wrist_2_joint,","[1.4047462940216064, -1.17180043855776, 2.4830703735351562, -2.8628514448748987, -1.5670059362994593, 2.7207064628601074]","[0.0, 0.0, -0.0, 0.0, 0.0, 0.0]","[-0.6866455674171448, -2.622986078262329, -1.1904014348983765, -0.5831909775733948, 0.0897216871380806, 0.01570129580795765]"
1584445151440065009,,407412,,1584445151,439775556,'',"[shoulder_pan_joint, shoulder_lift_joint, elbow_joint, wrist_1_joint, wrist_2_joint,","[1.4047702550888062, -1.1718123594867151, 2.4830703735351562, -2.862863365803854, -1.5670178572284144, 2.720682382583618]","[0.0, 0.0, -0.0, 0.0, 0.0, 0.0]","[-0.6729126572608948, -2.650451898574829, -1.1881595849990845, -0.5831909775733948, 0.1300964504480362, 0.006729126907885075]"
1584445151552048092,,407426,,1584445151,551786572,'',"[shoulder_pan_joint, shoulder_lift_joint, elbow_joint, wrist_1_joint, wrist_2_joint,","[1.404758334159851, -1.1718123594867151, 2.4830703735351562, -2.8628514448748987, -1.5670059362994593, 2.7207064628601074]","[0.0, 0.0, -0.0, 0.0, 0.0, 0.0]","[-0.6866455674171448, -2.622986078262329, -1.1724668741226196, -0.5831909775733948, 0.1031799390912056, 0.006729126907885075]"
1584445151664074657,,407440,,1584445151,663823366,'',"[shoulder_pan_joint, shoulder_lift_joint, elbow_joint, wrist_1_joint, wrist_2_joint,","[1.4047702550888062, -1.17180043855776, 2.4830822944641113, -2.862887207661764, -1.5670059362994593, 2.7207183837890625]","[0.0, 0.0, -0.0, 0.0, 0.0, 0.0]","[-0.6774902939796448, -2.600097894668579, -1.197126865386963, -0.5809479355812073, 0.0897216871380806, 0.011215210892260075]"
1584445151776108315,,407454,,1584445151,775843980,'',"[shoulder_pan_joint, shoulder_lift_joint, elbow_joint, wrist_1_joint, wrist_2_joint,","[1.404758334159851, -1.171788517628805, 2.483058452606201, -2.862887207661764, -1.5670297781573694, 2.7207064628601074]","[0.0, 0.0, -0.0, 0.0, 0.0, 0.0]","[-0.6866455674171448, -2.655029535293579, -1.1769505739212036, -0.5854340195655823, 0.1188812404870987, 0.01794433780014515]"
1584445151888044951,,407468,,1584445151,887781988,'',"[shoulder_pan_joint, shoulder_lift_joint, elbow_joint, wrist_1_joint, wrist_2_joint,","[1.4047462940216064, -1.1718123594867151, 2.4830822944641113, -2.862875286732809, -1.5669940153705042, 2.7207183837890625]","[0.0, 0.0, -0.0, 0.0, 0.0, 0.0]","[-0.6958008408546448, -2.641296625137329, -1.194885015487671, -0.5854340195655823, 0.1121521145105362, 0.008972168900072575]"
1584445152000075864,,407482,,1584445151,999822780,'',"[shoulder_pan_joint, shoulder_lift_joint, elbow_joint, wrist_1_joint, wrist_2_joint,","[1.404758334159851, -1.17180043855776, 2.4830703735351562, -2.8628514448748987, -1.5670059362994593, 2.7206943035125732]","[0.0, 0.0, -0.0, 0.0, 0.0, 0.0]","[-0.6820679306983948, -2.627563714981079, -1.18367600440979, -0.5742188096046448, 0.1121521145105362, 0.008972168900072575]"
1584445152112047015,,407496,,1584445152,111760238,'',"[shoulder_pan_joint, shoulder_lift_joint, elbow_joint, wrist_1_joint, wrist_2_joint,","[1.404758334159851, -1.171788517628805, 2.4830822944641113, -2.862863365803854, -1.5670178572284144, 2.7207183837890625]","[0.0, 0.0, -0.0, 0.0, 0.0, 0.0]","[-0.6774902939796448, -2.613830804824829, -1.1881595849990845, -0.5809479355812073, 0.1031799390912056, 0.0]"
1584445152224048944,,407510,,1584445152,223772816,'',"[shoulder_pan_joint, shoulder_lift_joint, elbow_joint, wrist_1_joint, wrist_2_joint,","[1.4047822952270508, -1.17180043855776, 2.4830703735351562, -2.8628390471087855, -1.5670297781573694, 2.7207064628601074]","[0.0, 0.0, -0.0, 0.0, 0.0, 0.0]","[-0.6958008408546448, -2.613830804824829, -1.194885015487671, -0.5854340195655823, 0.0897216871380806, 0.011215210892260075]"
1584445152336049911,,407524,,1584445152,335766069,'',"[shoulder_pan_joint, shoulder_lift_joint, elbow_joint, wrist_1_joint, wrist_2_joint,","[1.4047462940216064, -1.17180043855776, 2.4831063747406006, -2.862875286732809, -1.5670059362994593, 2.7207064628601074]","[0.0, 0.0, -0.0, 0.0, 0.0, 0.0]","[-0.6774902939796448, -2.618408441543579, -1.1769505739212036, -0.5831909775733948, 0.1009368970990181, 0.004486084450036287]"
1584445152448021543,,407538,,1584445152,447741708,'',"[shoulder_pan_joint, shoulder_lift_joint, elbow_joint, wrist_1_joint, wrist_2_joint,","[1.404758334159851, -1.1718123594867151, 2.4830822944641113, -2.8628514448748987, -1.5670297781573694, 2.720682382583618]","[0.0, 0.0, -0.0, 0.0, 0.0, 0.0]","[-0.6958008408546448, -2.641296625137329, -1.18367600440979, -0.5899201035499573, 0.1121521145105362, 0.01345825381577015]"
1584445152560012090,,407552,,1584445152,559746062,'',"[shoulder_pan_joint, shoulder_lift_joint, elbow_joint, wrist_1_joint, wrist_2_joint,","[1.4047462940216064, -1.171788517628805, 2.4830944538116455, -2.8628514448748987, -1.5670178572284144, 2.7206943035125732]","[0.0, 0.0, -0.0, 0.0, 0.0, 0.0]","[-0.6729126572608948, -2.632141351699829, -1.181434154510498, -0.5809479355812073, 0.0986938551068306, 0.0022430422250181437]"
1584445152672204205,,407566,,1584445152,671821658,'',"[shoulder_pan_joint, shoulder_lift_joint, elbow_joint, wrist_1_joint, wrist_2_joint,","[1.4047462940216064, -1.1718247572528284, 2.483058452606201, -2.862863365803854, -1.566981617604391, 2.7207064628601074]","[0.0, 0.0, -0.0, 0.0, 0.0, 0.0]","[-0.6820679306983948, -2.668762445449829, -1.18367600440979, -0.5899201035499573, 0.1076660305261612, 0.0022430422250181437]"
1584445152784122227,,407580,,1584445152,783777280,'',"[shoulder_pan_joint, shoulder_lift_joint, elbow_joint, wrist_1_joint, wrist_2_joint,","[1.404758334159851, -1.1718123594867151, 2.4831063747406006, -2.862887207661764, -1.5670059362994593, 2.7207183837890625]","[0.0, 0.0, -0.0, 0.0, 0.0, 0.0]","[-0.6958008408546448, -2.627563714981079, -1.1859177350997925, -0.5831909775733948, 0.0919647291302681, 0.011215210892260075]"
1584445152896086775,,407594,,1584445152,895775051,'',"[shoulder_pan_joint, shoulder_lift_joint, elbow_joint, wrist_1_joint, wrist_2_joint,","[1.4047462940216064, -1.17180043855776, 2.4830703735351562, -2.8628514448748987, -1.5670059362994593, 2.720670461654663]","[0.0, 0.0, -0.0, 0.0, 0.0, 0.0]","[-0.6820679306983948, -2.655029535293579, -1.18367600440979, -0.5787048935890198, 0.1166381984949112, 0.011215210892260075]"
1584445153008336198,,407608,,1584445153,7867519,'',"[shoulder_pan_joint, shoulder_lift_joint, elbow_joint, wrist_1_joint, wrist_2_joint,","[1.4047343730926514, -1.1717646757708948, 2.4830822944641113, -2.862863365803854, -1.5669940153705042, 2.7206943035125732]","[0.0, 0.0, -0.0, 0.0, 0.0, 0.0]","[-0.6774902939796448, -2.645874261856079, -1.197126865386963, -0.5809479355812073, 0.0964508131146431, 0.004486084450036287]"
1584445153120037673,,407622,,1584445153,119738112,'',"[shoulder_pan_joint, shoulder_lift_joint, elbow_joint, wrist_1_joint, wrist_2_joint,","[1.4047462940216064, -1.17177659669985, 2.4830703735351562, -2.862863365803854, -1.5670178572284144, 2.7207064628601074]","[0.0, 0.0, -0.0, 0.0, 0.0, 0.0]","[-0.6820679306983948, -2.627563714981079, -1.1747087240219116, -0.5764618515968323, 0.1166381984949112, 0.01794433780014515]"
1584445153232085107,,407636,,1584445153,231715865,'',"[shoulder_pan_joint, shoulder_lift_joint, elbow_joint, wrist_1_joint, wrist_2_joint,","[1.4047702550888062, -1.171788517628805, 2.4830703735351562, -2.8628514448748987, -1.5670059362994593, 2.7207064628601074]","[0.0, 0.0, -0.0, 0.0, 0.0, 0.0]","[-0.6820679306983948, -2.719116449356079, -1.1881595849990845, -0.5742188096046448, 0.0874786451458931, 0.011215210892260075]"
1584445153344045027,,407650,,1584445153,343703076,'',"[shoulder_pan_joint, shoulder_lift_joint, elbow_joint, wrist_1_joint, wrist_2_joint,","[1.404758334159851, -1.17180043855776, 2.483046531677246, -2.8628390471087855, -1.5670059362994593, 2.7207064628601074]","[0.0, 0.0, -0.0, 0.0, 0.0, 0.0]","[-0.6820679306983948, -2.645874261856079, -1.179192304611206, -0.5787048935890198, 0.0986938551068306, 0.01794433780014515]"
1584445153456021268,,407664,,1584445153,455714273,'',"[shoulder_pan_joint, shoulder_lift_joint, elbow_joint, wrist_1_joint, wrist_2_joint,","[1.4047702550888062, -1.1718247572528284, 2.483034372329712, -2.862863365803854, -1.5669696966754358, 2.7207303047180176]","[0.0, 0.0, -0.0, 0.0, 0.0, 0.0]","[-0.6958008408546448, -2.645874261856079, -1.1904014348983765, -0.5831909775733948, 0.0942077711224556, 0.01345825381577015]"
1584445153568115610,,407678,,1584445153,567767728,'',"[shoulder_pan_joint, shoulder_lift_joint, elbow_joint, wrist_1_joint, wrist_2_joint,","[1.404758334159851, -1.17180043855776, 2.4830703735351562, -2.862875286732809, -1.5670059362994593, 2.7207064628601074]","[0.0, 0.0, -0.0, 0.0, 0.0, 0.0]","[-0.6958008408546448, -2.687072992324829, -1.192643165588379, -0.5764618515968323, 0.0672912672162056, 0.011215210892260075]"
1584445153680186708,,407692,,1584445153,679813719,'',"[shoulder_pan_joint, shoulder_lift_joint, elbow_joint, wrist_1_joint, wrist_2_joint,","[1.404758334159851, -1.171788517628805, 2.483058452606201, -2.8628390471087855, -1.5670178572284144, 2.7206943035125732]","[0.0, 0.0, -0.0, 0.0, 0.0, 0.0]","[-0.6912232041358948, -2.645874261856079, -1.1904014348983765, -0.5742188096046448, 0.0964508131146431, 0.008972168900072575]"
1584445153792129767,,407706,,1584445153,791772667,'',"[shoulder_pan_joint, shoulder_lift_joint, elbow_joint, wrist_1_joint, wrist_2_joint,","[1.4047702550888062, -1.1717646757708948, 2.4830703735351562, -2.862875286732809, -1.5670178572284144, 2.7207183837890625]","[0.0, 0.0, -0.0, 0.0, 0.0, 0.0]","[-0.6591797471046448, -2.641296625137329, -1.1904014348983765, -0.5809479355812073, 0.1143951565027237, 0.006729126907885075]"
1584445153904101338,,407720,,1584445153,903718050,'',"[shoulder_pan_joint, shoulder_lift_joint, elbow_joint, wrist_1_joint, wrist_2_joint,","[1.4047822952270508, -1.17180043855776, 2.4830822944641113, -2.862863365803854, -1.5670297781573694, 2.7207303047180176]","[0.0, 0.0, -0.0, 0.0, 0.0, 0.0]","[-0.6774902939796448, -2.673340082168579, -1.194885015487671, -0.5876770615577698, 0.1009368970990181, 0.02467346377670765]"
1584445154016116331,,407734,,1584445154,15758801,'',"[shoulder_pan_joint, shoulder_lift_joint, elbow_joint, wrist_1_joint, wrist_2_joint,","[1.4047822952270508, -1.171788517628805, 2.4831063747406006, -2.8628514448748987, -1.5670059362994593, 2.7207183837890625]","[0.0, 0.0, -0.0, 0.0, 0.0, 0.0]","[-0.6683350205421448, -2.613830804824829, -1.181434154510498, -0.5787048935890198, 0.1121521145105362, 0.02018737979233265]"
1584445154128086871,,407748,,1584445154,127709273,'',"[shoulder_pan_joint, shoulder_lift_joint, elbow_joint, wrist_1_joint, wrist_2_joint,","[1.4047462940216064, -1.17177659669985, 2.4830703735351562, -2.862863365803854, -1.5669696966754358, 2.7206943035125732]","[0.0, 0.0, -0.0, 0.0, 0.0, 0.0]","[-0.6912232041358948, -2.655029535293579, -1.1724668741226196, -0.5876770615577698, 0.1031799390912056, 0.011215210892260075]"
1584445154240041381,,407762,,1584445154,239682899,'',"[shoulder_pan_joint, shoulder_lift_joint, elbow_joint, wrist_1_joint, wrist_2_joint,","[1.4047702550888062, -1.17180043855776, 2.483058452606201, -2.862863365803854, -1.5670178572284144, 2.7207064628601074]","[0.0, 0.0, -0.0, 0.0, 0.0, 0.0]","[-0.6912232041358948, -2.673340082168579, -1.181434154510498, -0.5764618515968323, 0.1121521145105362, 0.004486084450036287]"
1584445154352000469,,407776,,1584445154,351670330,'',"[shoulder_pan_joint, shoulder_lift_joint, elbow_joint, wrist_1_joint, wrist_2_joint,","[1.4047822952270508, -1.17177659669985, 2.4830822944641113, -2.8628514448748987, -1.5670416990863245, 2.7207422256469727]","[0.0, 0.0, -0.0, 0.0, 0.0, 0.0]","[-0.6912232041358948, -2.659607172012329, -1.197126865386963, -0.5742188096046448, 0.1054229810833931, 0.01345825381577015]"
1584445154464079372,,407790,,1584445154,463691776,'',"[shoulder_pan_joint, shoulder_lift_joint, elbow_joint, wrist_1_joint, wrist_2_joint,","[1.4047702550888062, -1.17180043855776, 2.4831063747406006, -2.862863365803854, -1.5670178572284144, 2.7207183837890625]","[0.0, 0.0, -0.0, 0.0, 0.0, 0.0]","[-0.6820679306983948, -2.618408441543579, -1.181434154510498, -0.5854340195655823, 0.1211242824792862, 0.008972168900072575]"
1584445154575940327,,407804,,1584445154,575654521,'',"[shoulder_pan_joint, shoulder_lift_joint, elbow_joint, wrist_1_joint, wrist_2_joint,","[1.4047822952270508, -1.171788517628805, 2.483058452606201, -2.862863365803854, -1.5670297781573694, 2.7207183837890625]","[0.0, 0.0, -0.0, 0.0, 0.0, 0.0]","[-0.6591797471046448, -2.622986078262329, -1.1769505739212036, -0.5764618515968323, 0.1143951565027237, 0.011215210892260075]"
1584445154688109459,,407818,,1584445154,687724367,'',"[shoulder_pan_joint, shoulder_lift_joint, elbow_joint, wrist_1_joint, wrist_2_joint,","[1.4047822952270508, -1.17177659669985, 2.4831182956695557, -2.862863365803854, -1.5670416990863245, 2.7207183837890625]","[0.0, 0.0, -0.0, 0.0, 0.0, 0.0]","[-0.6454468369483948, -2.673340082168579, -1.179192304611206, -0.5697327256202698, 0.1009368970990181, 0.01345825381577015]"
1584445154799989399,,407832,,1584445154,799656064,'',"[shoulder_pan_joint, shoulder_lift_joint, elbow_joint, wrist_1_joint, wrist_2_joint,","[1.4047702550888062, -1.17180043855776, 2.483058452606201, -2.862899128590719, -1.566981617604391, 2.7206943035125732]","[0.0, 0.0, -0.0, 0.0, 0.0, 0.0]","[-0.6729126572608948, -2.595520257949829, -1.179192304611206, -0.5809479355812073, 0.1076660305261612, 0.004486084450036287]"
1584445154912066589,,407846,,1584445154,911691656,'',"[shoulder_pan_joint, shoulder_lift_joint, elbow_joint, wrist_1_joint, wrist_2_joint,","[1.4047462940216064, -1.17180043855776, 2.483058452606201, -2.862875286732809, -1.5670297781573694, 2.7207183837890625]","[0.0, 0.0, -0.0, 0.0, 0.0, 0.0]","[-0.6729126572608948, -2.664184808731079, -1.1904014348983765, -0.5787048935890198, 0.0942077711224556, 0.004486084450036287]"
1584445155024029654,,407860,,1584445155,23737346,'',"[shoulder_pan_joint, shoulder_lift_joint, elbow_joint, wrist_1_joint, wrist_2_joint,","[1.4047462940216064, -1.1717646757708948, 2.483034372329712, -2.8628514448748987, -1.5670178572284144, 2.7206943035125732]","[0.0, 0.0, -0.0, 0.0, 0.0, 0.0]","[-0.6866455674171448, -2.636718988418579, -1.18367600440979, -0.5764618515968323, 0.1031799390912056, 0.01794433780014515]"
1584445155136043816,,407874,,1584445155,135674404,'',"[shoulder_pan_joint, shoulder_lift_joint, elbow_joint, wrist_1_joint, wrist_2_joint,","[1.4047942161560059, -1.1718123594867151, 2.4830944538116455, -2.862875286732809, -1.5670178572284144, 2.7207064628601074]","[0.0, 0.0, -0.0, 0.0, 0.0, 0.0]","[-0.6500244736671448, -2.682495355606079, -1.1904014348983765, -0.5764618515968323, 0.1031799390912056, 0.006729126907885075]"
1584445155247986654,,407888,,1584445155,247638702,'',"[shoulder_pan_joint, shoulder_lift_joint, elbow_joint, wrist_1_joint, wrist_2_joint,","[1.404758334159851, -1.1718247572528284, 2.483058452606201, -2.862863365803854, -1.5670059362994593, 2.7207064628601074]","[0.0, 0.0, -0.0, 0.0, 0.0, 0.0]","[-0.6637573838233948, -2.696228265762329, -1.192643165588379, -0.5854340195655823, 0.0986938551068306, 0.01345825381577015]"
1584445155360079052,,407902,,1584445155,359695784,'',"[shoulder_pan_joint, shoulder_lift_joint, elbow_joint, wrist_1_joint, wrist_2_joint,","[1.4052140712738037, -1.1718247572528284, 2.4828662872314453, -2.8626959959613245, -1.5670297781573694, 2.721113443374634]","[0.017078319564461708, 0.0, -0.009676862508058548, 0.004333495628088713, 0.0, 0.011562380008399487]","[0.7781983017921448, -3.300476312637329, -1.6768742799758911, -0.2915954887866974, 0.0605621412396431, 0.3633728325366974]"
1584445155471983859,,407916,,1584445155,471633642,'',"[shoulder_pan_joint, shoulder_lift_joint, elbow_joint, wrist_1_joint, wrist_2_joint,","[1.4064974784851074, -1.1718247572528284, 2.482290744781494, -2.862288777028219, -1.5670059362994593, 2.719593048095703]","[0.0017512948252260685, -0.0001661812566453591, 0.0028634308837354183, 0.0004985437844879925, 0.0, -0.04001772403717041]","[0.1647949367761612, -3.689575672149658, -1.3181846141815186, -0.4889832139015198, 0.0605621412396431, -0.3499145805835724]"
1584445155584170053,,407930,,1584445155,583750677,'',"[shoulder_pan_joint, shoulder_lift_joint, elbow_joint, wrist_1_joint, wrist_2_joint,","[1.4049381017684937, -1.1719086805926722, 2.4824225902557373, -2.86240798631777, -1.5670297781573694, 2.7172458171844482]","[-0.019545473158359528, -0.0003451456723269075, -0.0005624596378766, -0.00046019424917176366, 0.0, -0.003930825740098953]","[-0.9796143770217896, -3.437805414199829, -1.405615210533142, -0.4172058403491974, 0.0358886756002903, -0.2781372368335724]"
1584445155696124032,,407944,,1584445155,695711298,'',"[shoulder_pan_joint, shoulder_lift_joint, elbow_joint, wrist_1_joint, wrist_2_joint,","[1.4036545753479004, -1.1719086805926722, 2.482410430908203, -2.862432305012838, -1.5669940153705042, 2.7206943035125732]","[-0.0017896442441269755, -0.00012783173588104546, -0.0003962783666793257, -0.00017257283616345376, 0.0, 0.036029376089572906]","[-0.6500244736671448, -3.469848871231079, -1.468385934829712, -0.3947754204273224, 0.0403747595846653, 0.3544006645679474]"
1584445155808015534,,407958,,1584445155,807600666,'',"[shoulder_pan_joint, shoulder_lift_joint, elbow_joint, wrist_1_joint, wrist_2_joint,","[1.4050339460372925, -1.171920124684469, 2.482410430908203, -2.8623603026019495, -1.5670178572284144, 2.723496437072754]","[0.021041102707386017, -7.669904152862728e-05, -0.00014061490946915, -0.00011504856229294091, 0.0, 0.012942963279783726]","[0.7553101181983948, -3.538513660430908, -1.3921643495559692, -0.4127197563648224, 0.0628051832318306, 0.3409424126148224]"
1584445155919989309,,407972,,1584445155,919589841,'',"[shoulder_pan_joint, shoulder_lift_joint, elbow_joint, wrist_1_joint, wrist_2_joint,","[1.4069892168045044, -1.1719325224505823, 2.482410430908203, -2.86240798631777, -1.5670416990863245, 2.724945068359375]","[0.012233496643602848, -5.1132694352418184e-05, -0.00014061490946915, -7.669904152862728e-05, 0.0, 0.013383982703089714]","[1.0025025606155396, -3.570557117462158, -1.3630207777023315, -0.4172058403491974, 0.0919647291302681, 0.3207550346851349]"
1584445156032146429,,407986,,1584445156,31729738,'',"[shoulder_pan_joint, shoulder_lift_joint, elbow_joint, wrist_1_joint, wrist_2_joint,","[1.4056339263916016, -1.1719444433795374, 2.4824705123901367, -2.862432305012838, -1.5670059362994593, 2.7208261489868164]","[-0.0336836613714695, -5.1132694352418184e-05, 0.0007030745618976653, -5.752428114647046e-05, 0.0, -0.06291238963603973]","[-0.9704591035842896, -3.474426507949829, -1.3562953472137451, -0.4553375840187073, 0.0471038855612278, -0.3701019585132599]"
1584445156144039042,,408000,,1584445156,143612012,'',"[shoulder_pan_joint, shoulder_lift_joint, elbow_joint, wrist_1_joint, wrist_2_joint,","[1.4027070999145508, -1.1719086805926722, 2.4824345111846924, -2.862420384083883, -1.5669696966754358, 2.716240406036377]","[-0.0158894844353199, -5.1132694352418184e-05, -0.00011504856229294091, -5.752428114647046e-05, 0.0, -0.022300247102975845]","[-0.9475709199905396, -3.451538324356079, -1.407857060432434, -0.4284210503101349, 0.0381317175924778, -0.3813171684741974]"
1584445156255974877,,408014,,1584445156,255578003,'',"[shoulder_pan_joint, shoulder_lift_joint, elbow_joint, wrist_1_joint, wrist_2_joint,","[1.401519536972046, -1.1719444433795374, 2.482398509979248, -2.862420384083883, -1.5669940153705042, 2.7148277759552]","[-0.007375891320407391, -5.1132694352418184e-05, -0.00011504856229294091, -5.752428114647046e-05, 0.0, -0.0041609229519963264]","[-0.8239746689796448, -3.524780750274658, -1.3316354751586914, -0.4486084580421448, 0.0403747595846653, -0.2736511528491974]"
1584445156367957510,,408028,,1584445156,367606692,'',"[shoulder_pan_joint, shoulder_lift_joint, elbow_joint, wrist_1_joint, wrist_2_joint,","[1.4014596939086914, -1.1719444433795374, 2.4824345111846924, -2.862432305012838, -1.566981617604391, 2.718623399734497]","[-0.0022498385515064, -5.1132694352418184e-05, -0.00014061490946915, 0.0, 0.0, 0.03388180211186409]","[-0.4943848252296448, -3.625488758087158, -1.2621393203735352, -0.4777680039405823, 0.0314025916159153, 0.3117828667163849]"
1584445156480006076,,408042,,1584445156,479590988,'',"[shoulder_pan_joint, shoulder_lift_joint, elbow_joint, wrist_1_joint, wrist_2_joint,","[1.4012678861618042, -1.1719325224505823, 2.4824225902557373, -2.862432305012838, -1.566981617604391, 2.721353054046631]","[0.0012144014472141862, -3.834952076431364e-05, 0.00014061490946915, 0.0, 0.0, 0.01618349738419056]","[-0.1098632961511612, -3.552246570587158, -1.3361190557479858, -0.4486084580421448, 0.0381317175924778, 0.3095398247241974]"
1584445156592137708,,408056,,1584445156,591704305,'',"[shoulder_pan_joint, shoulder_lift_joint, elbow_joint, wrist_1_joint, wrist_2_joint,","[1.4011117219924927, -1.1718843618976038, 2.4823145866394043, -2.8623960653888147, -1.566981617604391, 2.7202157974243164]","[-0.002646117005497217, -3.834952076431364e-05, -0.0035537222865968943, 0.0, 0.0, -0.04749588295817375]","[-0.3890991508960724, -3.396606683731079, -1.4302750825881958, -0.3992615044116974, 0.0291595496237278, -0.3117828667163849]"
1584445156704131140,,408070,,1584445156,703716583,'',"[shoulder_pan_joint, shoulder_lift_joint, elbow_joint, wrist_1_joint, wrist_2_joint,","[1.4024311304092407, -1.17180043855776, 2.480742931365967, -2.860852066670553, -1.5670297781573694, 2.717090606689453]","[0.012374112382531166, 0.0015723303658887744, -0.01684822328388691, 0.016528643667697906, 0.0, -0.018024275079369545]","[0.8972169160842896, -2.879333734512329, -1.82259202003479, -0.2332763969898224, 0.0314025916159153, -0.3274841606616974]"
1584445156815946389,,408084,,1584445156,815570645,'',"[shoulder_pan_joint, shoulder_lift_joint, elbow_joint, wrist_1_joint, wrist_2_joint,","[1.403666615486145, -1.1712129751788538, 2.477527618408203, -2.8590920607196253, -1.5670416990863245, 2.7170186042785645]","[0.012553076259791851, 0.01395922526717186, -0.049138519912958145, 0.02203179895877838, 0.0, 0.05056384205818176]","[0.8697510361671448, -2.499389886856079, -1.5580583810806274, -0.1749572902917862, 0.0448608435690403, 0.2826233208179474]"
1584445156928042014,,408098,,1584445156,927625854,'',"[shoulder_pan_joint, shoulder_lift_joint, elbow_joint, wrist_1_joint, wrist_2_joint,","[1.4049739837646484, -1.1677120367633265, 2.4672815799713135, -2.854279343281881, -1.5670178572284144, 2.722466468811035]","[0.010993529111146927, 0.04809029772877693, -0.1297108680009842, 0.06703495979309082, 0.0, 0.04369927942752838]","[0.7873535752296448, -2.673340082168579, -1.5670255422592163, -0.1682281643152237, 0.02467346377670765, 0.4015045464038849]"
1584445157040157595,,408112,,1584445157,39742046,'',"[shoulder_pan_joint, shoulder_lift_joint, elbow_joint, wrist_1_joint, wrist_2_joint,","[1.4065934419631958, -1.1611292997943323, 2.450256109237671, -2.844724480305807, -1.5670297781573694, 2.727160692214966]","[0.018573950976133347, 0.07288965582847595, -0.16678206622600555, 0.09909515827894211, 0.0, 0.042644668370485306]","[0.7965088486671448, -2.444458246231079, -1.9279570579528809, -0.0964508131146431, 0.006729126907885075, 0.3297272026538849]"
1584445157152047324,,408126,,1584445157,151597811,'',"[shoulder_pan_joint, shoulder_lift_joint, elbow_joint, wrist_1_joint, wrist_2_joint,","[1.409580111503601, -1.152928654347555, 2.434394598007202, -2.834763828908102, -1.5670655409442347, 2.7330992221832275]","[0.03965340554714203, 0.053944993764162064, -0.10220146924257278, 0.06925923377275467, 0.0, 0.0694509819149971]","[0.6454468369483948, -3.158569574356079, -2.2081832885742188, -0.1278534084558487, 0.01570129580795765, 0.3297272026538849]"
1584445157263944556,,408140,,1584445157,263578340,'',"[shoulder_pan_joint, shoulder_lift_joint, elbow_joint, wrist_1_joint, wrist_2_joint,","[1.4166691303253174, -1.1498354117022913, 2.4304113388061523, -2.8311002890216272, -1.5670416990863245, 2.741086006164551]","[0.07805405557155609, 0.0013294500531628728, 0.009101619943976402, 0.0013230585027486086, 0.0, 0.06256724148988724]","[0.7232666611671448, -3.964233875274658, -1.9189897775650024, -0.3431854546070099, 0.0717773512005806, 0.3992615044116974]"
1584445157376024992,,408154,,1584445157,375581200,'',"[shoulder_pan_joint, shoulder_lift_joint, elbow_joint, wrist_1_joint, wrist_2_joint,","[1.4254729747772217, -1.1519811789142054, 2.434910297393799, -2.8342488447772425, -1.5670297781573694, 2.7467732429504395]","[0.08723237365484238, -0.029759228229522705, 0.0465691015124321, -0.028800489380955696, 0.0, 0.046671368181705475]","[1.0116578340530396, -4.747009754180908, -1.228512167930603, -0.7177734971046448, 0.1054229810833931, 0.3229980766773224]"
1584445157487923617,,408168,,1584445157,487532945,'',"[shoulder_pan_joint, shoulder_lift_joint, elbow_joint, wrist_1_joint, wrist_2_joint,","[1.435896635055542, -1.154811207448141, 2.4382100105285645, -2.836536232625143, -1.5670416990863245, 2.751490831375122]","[0.09964483976364136, -0.015505989082157612, 0.017909226939082146, -0.013614079914987087, 0.0, 0.038119424134492874]","[0.7415772080421448, -4.476929187774658, -1.1859177350997925, -0.7536621689796448, 0.1143951565027237, 0.3701019585132599]"
1584445157600024832,,408182,,1584445157,599647134,'',"[shoulder_pan_joint, shoulder_lift_joint, elbow_joint, wrist_1_joint, wrist_2_joint,","[1.4475435018539429, -1.1557467619525355, 2.4404296875, -2.837625328694479, -1.5670416990863245, 2.7548558712005615]","[0.09885228425264359, -0.006928480230271816, 0.028621524572372437, -0.016777915880084038, 0.0, 0.022242721170186996]","[0.7461548447608948, -4.641724109649658, -1.0783108472824097, -0.6931000351905823, 0.1727142482995987, 0.4037475883960724]"
1584445157711875447,,408196,,1584445157,711537453,'',"[shoulder_pan_joint, shoulder_lift_joint, elbow_joint, wrist_1_joint, wrist_2_joint,","[1.4586865901947021, -1.157065216694967, 2.4452290534973145, -2.840414826069967, -1.567077938710348, 2.757262706756592]","[0.10023286193609238, -0.019277025014162064, 0.058214571326971054, -0.03188762813806534, 0.0, 0.01854199357330799]","[0.8422852158546448, -4.902649402618408, -1.2464466094970703, -0.7357178330421448, 0.1457977443933487, 0.3431854546070099]"
1584445157823930275,,408210,,1584445157,823538000,'',"[shoulder_pan_joint, shoulder_lift_joint, elbow_joint, wrist_1_joint, wrist_2_joint,","[1.470549464225769, -1.1598470846759241, 2.4519362449645996, -2.844461266194479, -1.567077938710348, 2.7591543197631836]","[0.10404224693775177, -0.030078807845711708, 0.07009013742208481, -0.042625490576028824, 0.0, 0.014764565043151379]","[1.0986329317092896, -4.641724109649658, -1.1052125692367554, -0.6078644394874573, 0.2579498589038849, 0.3319702446460724]"
1584445157935843637,,408224,,1584445157,935525702,'',"[shoulder_pan_joint, shoulder_lift_joint, elbow_joint, wrist_1_joint, wrist_2_joint,","[1.481776475906372, -1.1642711798297327, 2.4615583419799805, -2.8508432547198694, -1.5670297781573694, 2.760148048400879]","[0.08945664763450623, -0.04885729029774666, 0.08706619590520859, -0.06406287103891373, 0.0, 0.0017832526937127113]","[0.9796143770217896, -4.600525379180908, -1.136597990989685, -0.4867401719093323, 0.2355194389820099, 0.0291595496237278]"
1584445158048076168,,408238,,1584445158,47679174,'',"[shoulder_pan_joint, shoulder_lift_joint, elbow_joint, wrist_1_joint, wrist_2_joint,","[1.490808367729187, -1.1692941824542444, 2.4694650173187256, -2.8577268759356897, -1.566981617604391, 2.755418300628662]","[0.07809240370988846, -0.028455344960093498, 0.04658188298344612, -0.0474383570253849, 0.0007094661123119295, -0.0585021935403347]","[0.8880616426467896, -4.380798816680908, -0.892240583896637, -0.3633728325366974, 0.2444916069507599, -0.2714081108570099]"
1584445158159886989,,408252,,1584445158,159539488,'',"[shoulder_pan_joint, shoulder_lift_joint, elbow_joint, wrist_1_joint, wrist_2_joint,","[1.4988808631896973, -1.1706731955157679, 2.47200870513916, -2.8601935545550745, -1.5670655409442347, 2.748389959335327]","[0.0686967745423317, -0.001163268811069429, 0.00732475845143199, -0.0015723303658887744, 0.00036432043998502195, -0.05650801956653595]","[0.8605957627296448, -4.188538074493408, -0.9841548204421997, -0.3678589165210724, 0.2310333549976349, -0.2848663628101349]"
1584445158271803036,,408266,,1584445158,271499648,'',"[shoulder_pan_joint, shoulder_lift_joint, elbow_joint, wrist_1_joint, wrist_2_joint,","[1.506089448928833, -1.1707451979266565, 2.4736640453338623, -2.860504929219381, -1.567077938710348, 2.741971969604492]","[0.05054466798901558, -0.0037326866295188665, 0.02358495444059372, -0.00903131254017353, -0.0001917476038215682, -0.06172355264425278]","[0.9933472871780396, -4.563904285430908, -1.1612578630447388, -0.4575806260108948, 0.2557068169116974, -0.2781372368335724]"
1584445158383916414,,408280,,1584445158,383539728,'',"[shoulder_pan_joint, shoulder_lift_joint, elbow_joint, wrist_1_joint, wrist_2_joint,","[1.5104074478149414, -1.1720402876483362, 2.4770476818084717, -2.862983051930563, -1.5670059362994593, 2.7329437732696533]","[0.03491084650158882, -0.016771523281931877, 0.03492363169789314, -0.029394907876849174, 0.0, -0.08791627734899521]","[0.8148193955421448, -4.344177722930908, -0.8810315728187561, -0.3140259087085724, 0.2444916069507599, -0.2848663628101349]"
1584445158495920737,,408294,,1584445158,495540685,'',"[shoulder_pan_joint, shoulder_lift_joint, elbow_joint, wrist_1_joint, wrist_2_joint,","[1.5145097970962524, -1.174342457448141, 2.481522560119629, -2.866814438496725, -1.5669220129596155, 2.7231132984161377]","[0.03759531304240227, -0.024761006236076355, 0.04434482753276825, -0.041494179517030716, 0.000517718552146107, -0.09717768430709839]","[0.6729126572608948, -4.362488269805908, -0.9662203192710876, -0.2198181450366974, 0.2198181450366974, -0.2646789848804474]"
1584445158607868835,,408308,,1584445158,607525070,'',"[shoulder_pan_joint, shoulder_lift_joint, elbow_joint, wrist_1_joint, wrist_2_joint,","[1.5182878971099854, -1.1771839300738733, 2.485541820526123, -2.8708370367633265, -1.5667899290667933, 2.7127439975738525]","[0.030858580023050308, -0.02617993950843811, 0.029823143035173416, -0.028838839381933212, 0.0008053399506025016, -0.07706335932016373]","[0.8285523056983948, -4.096985340118408, -1.0245074033737183, -0.2310333549976349, 0.2332763969898224, -0.2983246147632599]"
1584445158719816151,,408322,,1584445158,719495490,'',"[shoulder_pan_joint, shoulder_lift_joint, elbow_joint, wrist_1_joint, wrist_2_joint,","[1.5214906930923462, -1.1800015608416956, 2.4898250102996826, -2.8743327299701136, -1.5666464010821741, 2.703740119934082]","[0.03292945399880409, -0.022012624889612198, 0.04690146446228027, -0.03658544272184372, 0.0034706315491348505, -0.08160778135061264]","[0.6454468369483948, -4.188538074493408, -0.8967242240905762, -0.0762634351849556, 0.1929016262292862, -0.3409424126148224]"
1584445158831894784,,408336,,1584445158,831521554,'',"[shoulder_pan_joint, shoulder_lift_joint, elbow_joint, wrist_1_joint, wrist_2_joint,","[1.5266603231430054, -1.1823151747332972, 2.495379686355591, -2.8788583914386194, -1.5660832563983362, 2.696077346801758]","[0.061295315623283386, -0.020120715722441673, 0.04434482753276825, -0.038176946341991425, 0.004314321093261242, -0.06239467114210129]","[0.8285523056983948, -4.216003894805908, -0.7823919057846069, 0.011215210892260075, 0.1772003322839737, -0.2444916069507599]"
1584445158943867738,,408350,,1584445158,943504607,'',"[shoulder_pan_joint, shoulder_lift_joint, elbow_joint, wrist_1_joint, wrist_2_joint,","[1.533449411392212, -1.1842458883868616, 2.4999265670776367, -2.8822830359088343, -1.5658915678607386, 2.6877074241638184]","[0.057319749146699905, -0.01732119917869568, 0.04571262747049332, -0.029682528227567673, 0.0015723303658887744, -0.08626724779605865]","[0.6179810166358948, -4.142761707305908, -0.957253098487854, -0.02467346377670765, 0.1996307522058487, -0.3162689507007599]"
1584445159055924640,,408364,,1584445159,55605922,'',"[shoulder_pan_joint, shoulder_lift_joint, elbow_joint, wrist_1_joint, wrist_2_joint,","[1.5403223037719727, -1.187195126210348, 2.5071253776550293, -2.8871315161334437, -1.5652559439288538, 2.6784281730651855]","[0.05977411940693855, -0.03574175387620926, 0.079217329621315, -0.057198308408260345, 0.009223059751093388, -0.08923933655023575]","[0.7369995713233948, -4.165649890899658, -0.7868754863739014, 0.0493469275534153, 0.1614990383386612, -0.2579498589038849]"
1584445159167912071,,408378,,1584445159,167535866,'',"[shoulder_pan_joint, shoulder_lift_joint, elbow_joint, wrist_1_joint, wrist_2_joint,","[1.5459119081497192, -1.1917155424701136, 2.515366792678833, -2.8934534231769007, -1.563986603413717, 2.6674609184265137]","[0.040215864777565, -0.04224838688969612, 0.07328593730926514, -0.05205947533249855, 0.012080098502337933, -0.09447404742240906]","[0.7781983017921448, -3.982544422149658, -0.6501250863075256, 0.1614990383386612, 0.006729126907885075, -0.4104767143726349]"
1584445159279865990,,408392,,1584445159,279485647,'',"[shoulder_pan_joint, shoulder_lift_joint, elbow_joint, wrist_1_joint, wrist_2_joint,","[1.5505415201187134, -1.1955044905291956, 2.5228052139282227, -2.899020496998922, -1.5625365416156214, 2.656636953353882]","[0.044741109013557434, -0.02545129880309105, 0.049202434718608856, -0.039921849966049194, 0.009587380103766918, -0.10312186181545258]","[1.1718751192092896, -3.607178211212158, -0.6277069449424744, 0.0919647291302681, -0.1121521145105362, -0.3162689507007599]"
1584445159391829296,,408406,,1584445159,391442992,'',"[shoulder_pan_joint, shoulder_lift_joint, elbow_joint, wrist_1_joint, wrist_2_joint,","[1.5536960363388062, -1.197794262562887, 2.5281918048858643, -2.902719799672262, -1.5613144079791468, 2.645094633102417]","[0.01182443555444479, -0.021347898989915848, 0.0539066419005394, -0.036853890866041183, 0.011658254079520702, -0.1113094836473465]","[0.9017945528030396, -3.817749500274658, -0.4842310845851898, 0.1076660305261612, -0.2108459621667862, -0.2691650688648224]"
1584445159504006754,,408420,,1584445159,503587258,'',"[shoulder_pan_joint, shoulder_lift_joint, elbow_joint, wrist_1_joint, wrist_2_joint,","[1.554547667503357, -1.200479809437887, 2.5342142581939697, -2.9070780912982386, -1.5596488157855433, 2.6331934928894043]","[0.005560680292546749, -0.02364887110888958, 0.04628787189722061, -0.0344378687441349, 0.012463593855500221, -0.0956820547580719]","[0.6912232041358948, -3.895569324493408, -0.4797474443912506, 0.2086029201745987, -0.3297272026538849, -0.3072967827320099]"
1584445159615957226,,408434,,1584445159,615527591,'',"[shoulder_pan_joint, shoulder_lift_joint, elbow_joint, wrist_1_joint, wrist_2_joint,","[1.5545835494995117, -1.2030699888812464, 2.538892984390259, -2.9107535521136683, -1.5576356093036097, 2.621340274810791]","[-0.00012783173588104546, -0.020811006426811218, 0.04832039400935173, -0.02979757823050022, 0.028723791241645813, -0.1096029281616211]","[0.1556396633386612, -3.584290027618408, -0.4483621120452881, 0.3050537407398224, -0.6459961533546448, -0.3835602104663849]"
1584445159727888633,,408448,,1584445159,727488012,'',"[shoulder_pan_joint, shoulder_lift_joint, elbow_joint, wrist_1_joint, wrist_2_joint,","[1.554619550704956, -1.2055037657367151, 2.5457310676574707, -2.915507141743795, -1.5550959745990198, 2.608553171157837]","[3.834952076431364e-05, -0.022881880402565002, 0.06121861934661865, -0.04881893843412399, 0.020382769405841827, -0.11652501672506332]","[0.4760742783546448, -3.845215320587158, -0.4483621120452881, 0.3342132866382599, -0.7200165390968323, -0.2893524467945099]"
1584445159839818146,,408462,,1584445159,839441470,'',"[shoulder_pan_joint, shoulder_lift_joint, elbow_joint, wrist_1_joint, wrist_2_joint,","[1.5546435117721558, -1.2072785536395472, 2.551537036895752, -2.9203198591815394, -1.5529630819903772, 2.5952513217926025]","[3.834952076431364e-05, -0.013729128055274487, 0.04791133478283882, -0.03399685025215149, 0.015857527032494545, -0.1232745349407196]","[-0.01373291201889515, -3.923035144805908, -0.36093148589134216, 0.3611297905445099, -0.7626343369483948, -0.3229980766773224]"
1584445159951881980,,408476,,1584445159,951487230,'',"[shoulder_pan_joint, shoulder_lift_joint, elbow_joint, wrist_1_joint, wrist_2_joint,","[1.5546795129776, -1.209304157887594, 2.557307481765747, -2.9242590109454554, -1.5503266493426722, 2.5831234455108643]","[0.00011504856229294091, -0.02298414520919323, 0.051669586449861526, -0.030583743005990982, 0.02540655806660652, -0.10112768411636353]","[0.1922607570886612, -3.712463855743408, -0.3721405565738678, 0.4306641221046448, -0.8344116806983948, -0.2534637749195099]"
1584445160063873880,,408490,,1584445160,63478199,'',"[shoulder_pan_joint, shoulder_lift_joint, elbow_joint, wrist_1_joint, wrist_2_joint,","[1.5547277927398682, -1.2116549650775355, 2.5623581409454346, -2.9272168318377894, -1.5471637884723108, 2.5725629329681396]","[0.003668770892545581, -0.0196733046323061, 0.044689975678920746, -0.02425607107579708, 0.03434199467301369, -0.08015049993991852]","[0.5355835556983948, -3.698730945587158, -0.49319833517074585, 0.3454284965991974, -0.8523560166358948, -0.2489776909351349]"
1584445160175887000,,408504,,1584445160,175487231,'',"[shoulder_pan_joint, shoulder_lift_joint, elbow_joint, wrist_1_joint, wrist_2_joint,","[1.5570186376571655, -1.2140525023089808, 2.5686798095703125, -2.930293385182516, -1.5447190443622034, 2.563511848449707]","[0.036074116826057434, -0.028391428291797638, 0.06607622653245926, -0.03459126874804497, 0.021629130467772484, -0.08036141842603683]","[1.0986329317092896, -3.771973133087158, -0.4775056540966034, 0.2400055229663849, -0.8478699326515198, -0.3072967827320099]"
1584445160287920277,,408518,,1584445160,287502905,'',"[shoulder_pan_joint, shoulder_lift_joint, elbow_joint, wrist_1_joint, wrist_2_joint,","[1.5627399682998657, -1.217193905507223, 2.5753133296966553, -2.933549706135885, -1.5438802878009241, 2.554927349090576]","[0.06589725613594055, -0.020798223093152046, 0.05289677157998085, -0.022549517452716827, 0.0005560680292546749, -0.07529928535223007]","[1.2039185762405396, -3.767395496368408, -0.3228207230567932, 0.1211242824792862, -0.7603912949562073, -0.2489776909351349]"
1584445160400043773,,408532,,1584445160,399499624,'',"[shoulder_pan_joint, shoulder_lift_joint, elbow_joint, wrist_1_joint, wrist_2_joint,","[1.5694447755813599, -1.2189081350909632, 2.5817911624908447, -2.936028782521383, -1.5440962950335901, 2.5451102256774902]","[0.0434500053524971, -0.013486248441040516, 0.05480146408081055, -0.023508256301283836, -0.0021283982787281275, -0.0932852104306221]","[1.2725831270217896, -4.110718250274658, -0.215213805437088, 0.02018737979233265, -0.8568421006202698, -0.2758941948413849]"
1584445160511852290,,408546,,1584445160,511473780,'',"[shoulder_pan_joint, shoulder_lift_joint, elbow_joint, wrist_1_joint, wrist_2_joint,","[1.5727190971374512, -1.2199519316302698, 2.5846824645996094, -2.937357727681295, -1.5445516745196741, 2.5341193675994873]","[0.017436249181628227, -0.0011888351291418076, 0.0032213598024100065, -0.0019174760673195124, -0.005714078433811665, -0.1062856987118721]","[1.0437012910842896, -3.456115961074829, -0.27350088953971863, 0.0964508131146431, -0.8747864961624146, -0.2646789848804474]"
1584445160623987468,,408560,,1584445160,623548355,'',"[shoulder_pan_joint, shoulder_lift_joint, elbow_joint, wrist_1_joint, wrist_2_joint,","[1.573354959487915, -1.2198918501483362, 2.58413028717041, -2.9369023481952112, -1.5451386610614222, 2.522362232208252]","[-0.004065049346536398, 7.669904152862728e-05, -0.010252105072140694, 0.008206797763705254, -0.001035437104292214, -0.10854832082986832]","[-0.2517700493335724, -2.787781000137329, -0.8160190582275391, 0.4015045464038849, -0.886001706123352, -0.2781372368335724]"
1584445160735874722,,408574,,1584445160,735476275,'',"[shoulder_pan_joint, shoulder_lift_joint, elbow_joint, wrist_1_joint, wrist_2_joint,","[1.573138952255249, -1.2192800680743616, 2.5819833278656006, -2.9347594420062464, -1.5456417242633265, 2.509995222091675]","[-0.0004474110610317439, 0.010904046706855297, -0.024812139570713043, 0.021399032324552536, -0.002972087822854519, -0.10588302463293076]","[-0.009155274368822575, -2.339172601699829, -1.0155401229858398, 0.4710388779640198, -0.872543454170227, -0.2557068169116974]"
1584445160847871291,,408588,,1584445160,847446895,'',"[shoulder_pan_joint, shoulder_lift_joint, elbow_joint, wrist_1_joint, wrist_2_joint,","[1.5731629133224487, -1.2186806837665003, 2.5794639587402344, -2.9329755941974085, -1.5466597715960901, 2.497495651245117]","[0.0, 0.0009203884983435273, -0.02171861194074154, 0.011543205939233303, -0.010852914303541183, -0.09957452863454819]","[-0.0961303785443306, -2.137756586074829, -0.9550113081932068, 0.5046845078468323, -0.8837586641311646, -0.2758941948413849]"
1584445160959815201,,408602,,1584445160,959409791,'',"[shoulder_pan_joint, shoulder_lift_joint, elbow_joint, wrist_1_joint, wrist_2_joint,","[1.573138952255249, -1.2187164465533655, 2.576141357421875, -2.9324005285846155, -1.5482896010028284, 2.4928746223449707]","[0.0, 0.00017896443023346364, -0.030104374513030052, 0.0007478156476281583, -0.020804615691304207, -0.002147573046386242]","[-0.0778198316693306, -2.526855707168579, -0.21745562553405762, 0.3611297905445099, -0.7177734971046448, -0.004486084450036287]"
1584445161071854700,,408616,,1584445161,71416408,'',"[shoulder_pan_joint, shoulder_lift_joint, elbow_joint, wrist_1_joint, wrist_2_joint,","[1.5731748342514038, -1.2188003698932093, 2.5747976303100586, -2.9332388083087366, -1.5481341520892542, 2.492994546890259]","[0.0, -0.0005113269435241818, 0.0013166668359190226, 0.0024927188642323017, 0.008494419045746326, 0.0003834952076431364]","[-0.0274658240377903, -3.117370843887329, 0.20176294445991516, 0.2467346489429474, -0.4329071640968323, 0.008972168900072575]"
1584445161183806374,,408630,,1584445161,183400984,'',"[shoulder_pan_joint, shoulder_lift_joint, elbow_joint, wrist_1_joint, wrist_2_joint,","[1.5731868743896484, -1.2188003698932093, 2.5751216411590576, -2.933059040700094, -1.548229996358053, 2.4929585456848145]","[0.0, -0.0001917476038215682, 0.0044357613660395145, 0.0021283982787281275, 0.0007861651829443872, 0.00017257283616345376]","[-0.0320434607565403, -3.094482660293579, 0.5021655559539795, 0.3207550346851349, -0.4037475883960724, 0.008972168900072575]"
1584445161295818382,,408644,,1584445161,295423812,'',"[shoulder_pan_joint, shoulder_lift_joint, elbow_joint, wrist_1_joint, wrist_2_joint,","[1.5731629133224487, -1.2187884489642542, 2.5754213333129883, -2.932699982319967, -1.5483139196978968, 2.4929466247558594]","[0.0, -0.0001661812566453591, 0.005714078433811665, 0.0070946612395346165, -0.0013038837350904942, 9.58738019107841e-05]","[-0.0457763709127903, -2.925110101699829, 0.7936009168624878, 0.4620667099952698, -0.5809479355812073, 0.006729126907885075]"
1584445161407929044,,408658,,1584445161,407503897,'',"[shoulder_pan_joint, shoulder_lift_joint, elbow_joint, wrist_1_joint, wrist_2_joint,","[1.5731629133224487, -1.2188361326800745, 2.575469970703125, -2.932472530995504, -1.548697296773092, 2.4929823875427246]","[0.0, -8.948221511673182e-05, -0.0, 0.0004218447138555348, -0.0013230585027486086, 7.669904152862728e-05]","[-0.0411987341940403, -2.719116449356079, 0.6568505167961121, 0.4172058403491974, -0.5428162217140198, 0.01570129580795765]"
1584445161519774850,,408672,,1584445161,519403384,'',"[shoulder_pan_joint, shoulder_lift_joint, elbow_joint, wrist_1_joint, wrist_2_joint,","[1.5731748342514038, -1.2188122908221644, 2.5754332542419434, -2.932448689137594, -1.5487211386310022, 2.4929585456848145]","[0.0, -6.391586794052273e-05, -0.0, 0.00017257283616345376, -0.00024927189224399626, 5.752428114647046e-05]","[-0.0640869215130806, -2.481079339981079, 0.6613340973854065, 0.4082336723804474, -0.5428162217140198, 0.004486084450036287]"
1584445161631761821,,408686,,1584445161,631391216,'',"[shoulder_pan_joint, shoulder_lift_joint, elbow_joint, wrist_1_joint, wrist_2_joint,","[1.5731748342514038, -1.2187884489642542, 2.575469970703125, -2.932448689137594, -1.548673454915182, 2.4929466247558594]","[0.0, 1.2783173588104546e-05, -0.0, 0.00011504856229294091, -0.00013422331539914012, 3.834952076431364e-05]","[-0.0366210974752903, -2.270508050918579, 0.6680595278739929, 0.4059906303882599, -0.5428162217140198, 0.006729126907885075]"
1584445161743724626,,408700,,1584445161,743366675,'',"[shoulder_pan_joint, shoulder_lift_joint, elbow_joint, wrist_1_joint, wrist_2_joint,","[1.5731629133224487, -1.2187765280352991, 2.57548189163208, -2.932448689137594, -1.548685375844137, 2.4929823875427246]","[0.0, 1.2783173588104546e-05, -0.0, 7.669904152862728e-05, -9.58738019107841e-05, 3.834952076431364e-05]","[-0.02288818545639515, -1.940918207168579, 0.6725431680679321, 0.4059906303882599, -0.5540314316749573, 0.01570129580795765]"
1584445161855750650,,408714,,1584445161,855385225,'',"[shoulder_pan_joint, shoulder_lift_joint, elbow_joint, wrist_1_joint, wrist_2_joint,","[1.5731987953186035, -1.2187522093402308, 2.5754332542419434, -2.932448689137594, -1.5487092177020472, 2.4929585456848145]","[0.0, 0.0003323625132907182, -0.0, 5.752428114647046e-05, -5.752428114647046e-05, 3.834952076431364e-05]","[-0.009155274368822575, -2.192688226699829, 0.6725431680679321, 0.4104767143726349, -0.5428162217140198, 0.01345825381577015]"
1584445161967789087,,408728,,1584445161,967401561,'',"[shoulder_pan_joint, shoulder_lift_joint, elbow_joint, wrist_1_joint, wrist_2_joint,","[1.5731629133224487, -1.2187283674823206, 2.575469970703125, -2.932448689137594, -1.548685375844137, 2.4929704666137695]","[0.0, 0.00012783173588104546, -0.0, 3.834952076431364e-05, -5.752428114647046e-05, 1.917476038215682e-05]","[-0.0411987341940403, -2.197265863418579, 0.6680595278739929, 0.4015045464038849, -0.5495453476905823, 0.011215210892260075]"
1584445162079720534,,408742,,1584445162,79349659,'',"[shoulder_pan_joint, shoulder_lift_joint, elbow_joint, wrist_1_joint, wrist_2_joint,","[1.5731629133224487, -1.2187522093402308, 2.575493812561035, -2.932448689137594, -1.548697296773092, 2.4929585456848145]","[0.0, 7.669904152862728e-05, -0.0, 3.834952076431364e-05, 0.0, 1.917476038215682e-05]","[-0.0366210974752903, -2.206421136856079, 0.6546086668968201, 0.4037475883960724, -0.5405731797218323, 0.011215210892260075]"
1584445162191738673,,408756,,1584445162,191380241,'',"[shoulder_pan_joint, shoulder_lift_joint, elbow_joint, wrist_1_joint, wrist_2_joint,","[1.5731748342514038, -1.2187522093402308, 2.57548189163208, -2.9324362913714808, -1.5486615339862269, 2.492934465408325]","[0.0, 5.1132694352418184e-05, -0.0, 3.834952076431364e-05, 0.0, 1.917476038215682e-05]","[-0.0549316480755806, -2.201843500137329, 0.6725431680679321, 0.4104767143726349, -0.5450592637062073, 0.011215210892260075]"
1584445162303843404,,408770,,1584445162,303421183,'',"[shoulder_pan_joint, shoulder_lift_joint, elbow_joint, wrist_1_joint, wrist_2_joint,","[1.5731748342514038, -1.2187283674823206, 2.57548189163208, -2.932472530995504, -1.548697296773092, 2.4929585456848145]","[0.0, 3.834952076431364e-05, -0.0, 1.917476038215682e-05, 0.0, 1.917476038215682e-05]","[-0.02288818545639515, -2.201843500137329, 0.6613340973854065, 0.4059906303882599, -0.5495453476905823, 0.01345825381577015]"
1584445162415908001,,408784,,1584445162,415472364,'',"[shoulder_pan_joint, shoulder_lift_joint, elbow_joint, wrist_1_joint, wrist_2_joint,","[1.5731748342514038, -1.2187283674823206, 2.575469970703125, -2.932448689137594, -1.548697296773092, 2.4929585456848145]","[0.0, 3.834952076431364e-05, -0.0, 1.917476038215682e-05, 0.0, 1.917476038215682e-05]","[0.0, -2.188110589981079, 0.6590923070907593, 0.4082336723804474, -0.5473023056983948, 0.02243042178452015]"
1584445162527767001,,408798,,1584445162,527358175,'',"[shoulder_pan_joint, shoulder_lift_joint, elbow_joint, wrist_1_joint, wrist_2_joint,","[1.5731748342514038, -1.2187522093402308, 2.575493812561035, -2.932448689137594, -1.548697296773092, 2.4929704666137695]","[0.0, 2.5566347176209092e-05, -0.0, 1.917476038215682e-05, 0.0, 1.917476038215682e-05]","[-0.0686645582318306, -2.192688226699829, 0.6725431680679321, 0.3992615044116974, -0.5473023056983948, 0.008972168900072575]"
1584445162639801290,,408812,,1584445162,639371104,'',"[shoulder_pan_joint, shoulder_lift_joint, elbow_joint, wrist_1_joint, wrist_2_joint,","[1.5731748342514038, -1.2187164465533655, 2.575469970703125, -2.9324005285846155, -1.5487092177020472, 2.4929466247558594]","[0.0, 2.5566347176209092e-05, -0.0, 1.917476038215682e-05, 0.0, 1.917476038215682e-05]","[-0.0549316480755806, -2.201843500137329, 0.6703013777732849, 0.4059906303882599, -0.5517883896827698, 0.008972168900072575]"
1584445162751765067,,408826,,1584445162,751390726,'',"[shoulder_pan_joint, shoulder_lift_joint, elbow_joint, wrist_1_joint, wrist_2_joint,","[1.573138952255249, -1.2187283674823206, 2.575469970703125, -2.9324005285846155, -1.548673454915182, 2.49292254447937]","[0.0, 2.5566347176209092e-05, -0.0, 1.917476038215682e-05, 0.0, 1.917476038215682e-05]","[0.02288818545639515, -2.188110589981079, 0.6590923070907593, 0.4127197563648224, -0.5450592637062073, 0.01345825381577015]"
1584445162863806180,,408840,,1584445162,863423432,'',"[shoulder_pan_joint, shoulder_lift_joint, elbow_joint, wrist_1_joint, wrist_2_joint,","[1.5731629133224487, -1.2187407652484339, 2.575469970703125, -2.9324124495135706, -1.5487092177020472, 2.4929585456848145]","[0.0, 1.2783173588104546e-05, -0.0, 1.917476038215682e-05, 0.0, 0.0]","[-0.0640869215130806, -2.206421136856079, 0.6725431680679321, 0.4082336723804474, -0.5540314316749573, 0.011215210892260075]"
1584445162975720304,,408854,,1584445162,975342195,'',"[shoulder_pan_joint, shoulder_lift_joint, elbow_joint, wrist_1_joint, wrist_2_joint,","[1.5731748342514038, -1.2187407652484339, 2.575493812561035, -2.9324243704425257, -1.5486615339862269, 2.4929585456848145]","[0.0, 1.2783173588104546e-05, -0.0, 1.917476038215682e-05, 0.0, 0.0]","[-0.0595092847943306, -2.192688226699829, 0.6747849583625793, 0.4127197563648224, -0.5473023056983948, 0.008972168900072575]"
1584445163087827309,,408868,,1584445163,87386714,'',"[shoulder_pan_joint, shoulder_lift_joint, elbow_joint, wrist_1_joint, wrist_2_joint,","[1.5731748342514038, -1.2187407652484339, 2.5755059719085693, -2.9324124495135706, -1.5487092177020472, 2.4929585456848145]","[0.0, 1.2783173588104546e-05, -0.0, 1.917476038215682e-05, 0.0, 0.0]","[-0.01373291201889515, -2.192688226699829, 0.6635759472846985, 0.4037475883960724, -0.5428162217140198, 0.01570129580795765]"
1584445163199764948,,408882,,1584445163,199369226,'',"[shoulder_pan_joint, shoulder_lift_joint, elbow_joint, wrist_1_joint, wrist_2_joint,","[1.5731868743896484, -1.2187164465533655, 2.57545804977417, -2.9324124495135706, -1.5487092177020472, 2.492934465408325]","[0.0, 1.2783173588104546e-05, -0.0, 1.917476038215682e-05, 0.0, 0.0]","[0.0411987341940403, -2.201843500137329, 0.6747849583625793, 0.4037475883960724, -0.5473023056983948, 0.011215210892260075]"
1584445163311806170,,408896,,1584445163,311410218,'',"[shoulder_pan_joint, shoulder_lift_joint, elbow_joint, wrist_1_joint, wrist_2_joint,","[1.5731748342514038, -1.2187407652484339, 2.57548189163208, -2.9324362913714808, -1.548697296773092, 2.4929585456848145]","[0.0, 1.2783173588104546e-05, -0.0, 1.917476038215682e-05, 0.0, 0.0]","[-0.0274658240377903, -2.201843500137329, 0.6546086668968201, 0.4059906303882599, -0.5517883896827698, 0.008972168900072575]"
1584445163423751583,,408910,,1584445163,423337497,'',"[shoulder_pan_joint, shoulder_lift_joint, elbow_joint, wrist_1_joint, wrist_2_joint,","[1.5731748342514038, -1.2187045256244105, 2.5755298137664795, -2.932448689137594, -1.548697296773092, 2.4929823875427246]","[0.0, 1.2783173588104546e-05, 1.2783173588104546e-05, 1.917476038215682e-05, 0.0, 0.0]","[0.0, -2.206421136856079, 0.6680595278739929, 0.3992615044116974, -0.5495453476905823, 0.02018737979233265]"
1584445163535788587,,408924,,1584445163,535341189,'',"[shoulder_pan_joint, shoulder_lift_joint, elbow_joint, wrist_1_joint, wrist_2_joint,","[1.5731748342514038, -1.2187407652484339, 2.5755417346954346, -2.9324005285846155, -1.548673454915182, 2.4929585456848145]","[0.0, 1.2783173588104546e-05, 1.2783173588104546e-05, 1.917476038215682e-05, 0.0, 0.0]","[-0.02288818545639515, -2.210998773574829, 0.6590923070907593, 0.4015045464038849, -0.5562744736671448, 0.008972168900072575]"
1584445163647699706,,408938,,1584445163,647353857,'',"[shoulder_pan_joint, shoulder_lift_joint, elbow_joint, wrist_1_joint, wrist_2_joint,","[1.5731629133224487, -1.2187164465533655, 2.5755417346954346, -2.9324243704425257, -1.548697296773092, 2.4929704666137695]","[0.0, 1.2783173588104546e-05, 1.2783173588104546e-05, 1.917476038215682e-05, 0.0, 0.0]","[0.009155274368822575, -2.201843500137329, 0.6703013777732849, 0.4037475883960724, -0.5450592637062073, 0.006729126907885075]"
1584445163759776995,,408952,,1584445163,759362639,'',"[shoulder_pan_joint, shoulder_lift_joint, elbow_joint, wrist_1_joint, wrist_2_joint,","[1.573150873184204, -1.218764607106344, 2.5755059719085693, -2.9324005285846155, -1.5486615339862269, 2.4929704666137695]","[0.0, 0.0, 1.2783173588104546e-05, 1.917476038215682e-05, 0.0, 0.0]","[-0.0732421949505806, -2.233886957168579, 0.6501250863075256, 0.4037475883960724, -0.5450592637062073, 0.01570129580795765]"
1584445163871678496,,408966,,1584445163,871324262,'',"[shoulder_pan_joint, shoulder_lift_joint, elbow_joint, wrist_1_joint, wrist_2_joint,","[1.5731868743896484, -1.2187407652484339, 2.5755178928375244, -2.9323886076556605, -1.548685375844137, 2.4929585456848145]","[0.0, 0.0, 1.2783173588104546e-05, 1.917476038215682e-05, 0.0, 0.0]","[-0.0457763709127903, -2.178955316543579, 0.6546086668968201, 0.4059906303882599, -0.5517883896827698, 0.008972168900072575]"
1584445163983711713,,408980,,1584445163,983336700,'',"[shoulder_pan_joint, shoulder_lift_joint, elbow_joint, wrist_1_joint, wrist_2_joint,","[1.5733190774917603, -1.2187164465533655, 2.5745816230773926, -2.932711903248922, -1.5483139196978968, 2.493161916732788]","[0.012322979047894478, 0.004090615548193455, -0.06772525608539581, 0.001418932224623859, 0.006059224251657724, 0.01902136206626892]","[0.7919312119483948, -2.160644769668579, -1.5221893787384033, 0.0650482252240181, -0.0471038855612278, 0.2243042290210724]"
1584445164095714373,,408994,,1584445164,95353277,'',"[shoulder_pan_joint, shoulder_lift_joint, elbow_joint, wrist_1_joint, wrist_2_joint,","[1.5750219821929932, -1.2163308302508753, 2.5639171600341797, -2.928617302571432, -1.5492122809039515, 2.4948742389678955]","[0.012297413311898708, 0.033006154000759125, -0.07539515942335129, 0.05499321222305298, -0.008379369974136353, -0.0007478156476281583]","[1.0070801973342896, -2.394104242324829, -1.8001738786697388, 0.1121521145105362, 0.1861725002527237, 0.1480407863855362]"
1584445164207665256,,409008,,1584445164,207302286,'',"[shoulder_pan_joint, shoulder_lift_joint, elbow_joint, wrist_1_joint, wrist_2_joint,","[1.5740504264831543, -1.2141240278827112, 2.5593466758728027, -2.9247620741473597, -1.5500510374652308, 2.489187240600586]","[-0.020734308287501335, 0.00501100393012166, -0.007260842714458704, 0.008935438469052315, -0.0026269422378391027, -0.07817550003528595]","[-1.1169434785842896, -2.746582269668579, -1.9503751993179321, 0.02018737979233265, 0.1390686184167862, -0.2310333549976349]"
1584445164319737226,,409022,,1584445164,319393172,'',"[shoulder_pan_joint, shoulder_lift_joint, elbow_joint, wrist_1_joint, wrist_2_joint,","[1.572527289390564, -1.2141721884356897, 2.5595028400421143, -2.925241295491354, -1.5499313513385218, 2.4802439212799072]","[-0.00501100393012166, -0.000472977408207953, 0.001470064977183938, -0.0033747577108442783, -0.00026844663079828024, -0.07267234474420547]","[-0.9567261934280396, -3.350830316543579, -1.2576557397842407, -0.2377624809741974, 0.1211242824792862, -0.2893524467945099]"
1584445164431742521,,409036,,1584445164,431340438,'',"[shoulder_pan_joint, shoulder_lift_joint, elbow_joint, wrist_1_joint, wrist_2_joint,","[1.5742065906524658, -1.2141841093646448, 2.559574604034424, -2.9252050558673304, -1.5501230398761194, 2.473012924194336]","[0.031088678166270256, -0.0001661812566453591, -0.0, -0.00028762139845639467, -0.0013230585027486086, -0.06759102642536163]","[0.6500244736671448, -3.396606683731079, -1.327151894569397, -0.2512207329273224, 0.1256103664636612, -0.2332763969898224]"
1584445164543693625,,409050,,1584445164,543334592,'',"[shoulder_pan_joint, shoulder_lift_joint, elbow_joint, wrist_1_joint, wrist_2_joint,","[1.5781527757644653, -1.2142680327044886, 2.560210704803467, -2.925408665333883, -1.5511892477618616, 2.465590238571167]","[0.036138031631708145, -0.003592071821913123, 0.020056799054145813, -0.013230584561824799, -0.012770390138030052, -0.05934588238596916]","[0.8377075791358948, -3.895569324493408, -1.0267492532730103, -0.4306641221046448, 0.2826233208179474, -0.3476715385913849]"
1584445164655686026,,409064,,1584445164,655278161,'',"[shoulder_pan_joint, shoulder_lift_joint, elbow_joint, wrist_1_joint, wrist_2_joint,","[1.5815470218658447, -1.2157910505877894, 2.564265012741089, -2.927911106740133, -1.5520766417132776, 2.4590413570404053]","[0.027534956112504005, -0.018701782450079918, 0.052564408630132675, -0.02991262637078762, -0.0025310683995485306, -0.05675728991627693]","[0.8285523056983948, -4.161072254180908, -0.8855151534080505, -0.5450592637062073, 0.3229980766773224, -0.2557068169116974]"
1584445164767707010,,409078,,1584445164,767284788,'',"[shoulder_pan_joint, shoulder_lift_joint, elbow_joint, wrist_1_joint, wrist_2_joint,","[1.5850976705551147, -1.2180450598346155, 2.5711870193481445, -2.9322689215289515, -1.5521000067340296, 2.4528279304504395]","[0.03990906849503517, -0.018983012065291405, 0.055325575172901154, -0.040708016604185104, -0.00032597093377262354, -0.045348308980464935]","[0.6454468369483948, -4.147339344024658, -0.8115354180335999, -0.6213226914405823, 0.3072967827320099, -0.2736511528491974]"
1584445164879660888,,409092,,1584445164,879253926,'',"[shoulder_pan_joint, shoulder_lift_joint, elbow_joint, wrist_1_joint, wrist_2_joint,","[1.5899194478988647, -1.2193282286273401, 2.575397253036499, -2.9357174078570765, -1.5525553862201136, 2.447871208190918]","[0.040356479585170746, -0.006966829765588045, 0.025604696944355965, -0.02003762498497963, -0.007420632056891918, -0.046076949685811996]","[0.7965088486671448, -4.312134265899658, -0.7711828351020813, -0.5316010117530823, 0.3633728325366974, -0.2467346489429474]"
1584445164991705176,,409106,,1584445164,991273107,'',"[shoulder_pan_joint, shoulder_lift_joint, elbow_joint, wrist_1_joint, wrist_2_joint,","[1.5929421186447144, -1.2197001616107386, 2.578096628189087, -2.9375131765948694, -1.553525749837057, 2.4418256282806396]","[0.013652428984642029, -0.0021092237439006567, 0.02658900059759617, -0.017103886231780052, -0.0037774278316646814, -0.06571190059185028]","[0.7690430283546448, -4.330444812774658, -0.8160190582275391, -0.5203858017921448, 0.3386993706226349, -0.2287903130054474]"
1584445165103705412,,409120,,1584445165,103291707,'',"[shoulder_pan_joint, shoulder_lift_joint, elbow_joint, wrist_1_joint, wrist_2_joint,","[1.5933499336242676, -1.2203715483294886, 2.581023931503296, -2.939823929463522, -1.5535138289081019, 2.433852434158325]","[-0.0013166668359190226, -0.007810519076883793, 0.020926054567098618, -0.024179372936487198, -0.0003451456723269075, -0.07100413739681244]","[-0.1968383938074112, -4.243469715118408, -0.7397974729537964, -0.4059906303882599, 0.3050537407398224, -0.2960815727710724]"
1584445165215646507,,409134,,1584445165,215258920,'',"[shoulder_pan_joint, shoulder_lift_joint, elbow_joint, wrist_1_joint, wrist_2_joint,","[1.593337893486023, -1.2205751577960413, 2.5816235542297363, -2.9407337347613733, -1.5534537474261683, 2.4253885746002197]","[-0.0002812298189383, -0.0003195793251506984, -0.0024415862280875444, 0.0001917476038215682, -0.00015339808305725455, -0.08241312205791473]","[-0.1007080152630806, -3.359985589981079, -1.181434154510498, -0.1054229810833931, 0.2983246147632599, -0.2669220268726349]"
1584445165327679644,,409148,,1584445165,327265478,'',"[shoulder_pan_joint, shoulder_lift_joint, elbow_joint, wrist_1_joint, wrist_2_joint,","[1.5932416915893555, -1.2205989996539515, 2.580519437789917, -2.940338436757223, -1.5535019079791468, 2.4191627502441406]","[-0.001291100517846644, 3.834952076431364e-05, -0.011479290202260017, 0.0030487868934869766, 0.0, -0.019634954631328583]","[-0.0732421949505806, -3.085327386856079, -1.3428444862365723, -0.0314025916159153, 0.2871094048023224, -0.2287903130054474]"
1584445165439879403,,409162,,1584445165,439374397,'',"[shoulder_pan_joint, shoulder_lift_joint, elbow_joint, wrist_1_joint, wrist_2_joint,","[1.5930979251861572, -1.2205989996539515, 2.5797040462493896, -2.9406383673297327, -1.553969685231344, 2.418971300125122]","[-0.0006519418675452471, 3.834952076431364e-05, -0.009139969013631344, -0.001898301299661398, -0.0073631079867482185, 0.0006135923322290182]","[-0.1235962063074112, -3.103637933731079, -1.0222655534744263, -0.3005676567554474, 0.1839294582605362, -0.0740203931927681]"
1584445165551611476,,409176,,1584445165,551216897,'',"[shoulder_pan_joint, shoulder_lift_joint, elbow_joint, wrist_1_joint, wrist_2_joint,","[1.593026041984558, -1.2205870787249964, 2.579559803009033, -2.940662209187643, -1.553969685231344, 2.418959379196167]","[-0.0003067961661145091, 3.834952076431364e-05, -0.0003834952076431364, -0.0003067961661145091, -0.0003834952076431364, 0.0001917476038215682]","[-0.01831054873764515, -3.089905023574829, -0.8227444887161255, -0.2243042290210724, 0.5046845078468323, -0.0650482252240181]"
1584445165663663208,,409190,,1584445165,663240456,'',"[shoulder_pan_joint, shoulder_lift_joint, elbow_joint, wrist_1_joint, wrist_2_joint,","[1.593026041984558, -1.2205870787249964, 2.579644203186035, -2.9406140486346644, -1.5538495222674769, 2.418959379196167]","[-0.00012783173588104546, 3.834952076431364e-05, 0.0007669904152862728, -0.00015339808305725455, 0.0018024274613708258, 0.00011504856229294091]","[0.0778198316693306, -3.085327386856079, -0.5716617107391357, -0.1143951565027237, 0.5697327256202698, -0.0762634351849556]"
1584445165775558788,,409204,,1584445165,775202840,'',"[shoulder_pan_joint, shoulder_lift_joint, elbow_joint, wrist_1_joint, wrist_2_joint,","[1.5929900407791138, -1.2205989996539515, 2.5797998905181885, -2.9404943625079554, -1.553537670766012, 2.418971300125122]","[-7.669904152862728e-05, 3.834952076431364e-05, 0.001891909632831812, 0.0019174760673195124, 0.0016490294365212321, 7.669904152862728e-05]","[0.2288818657398224, -3.131103754043579, -0.2936771810054779, -0.0022430422250181437, 0.5495453476905823, -0.0740203931927681]"
1584445165887586965,,409218,,1584445165,887199730,'',"[shoulder_pan_joint, shoulder_lift_joint, elbow_joint, wrist_1_joint, wrist_2_joint,","[1.5930019617080688, -1.2206233183490198, 2.5799317359924316, -2.9403746763812464, -1.5535019079791468, 2.418959379196167]","[-5.1132694352418184e-05, 3.834952076431364e-05, 0.00046019424917176366, 0.0005944175645709038, 0.00024927189224399626, 5.752428114647046e-05]","[0.4440308213233948, -3.144836664199829, -0.3945586681365967, -0.0403747595846653, 0.5473023056983948, -0.0717773512005806]"
1584445165999684313,,409232,,1584445165,999238337,'',"[shoulder_pan_joint, shoulder_lift_joint, elbow_joint, wrist_1_joint, wrist_2_joint,","[1.593026041984558, -1.2206109205829065, 2.579943895339966, -2.940350357686178, -1.5535138289081019, 2.418971300125122]","[-3.834952076431364e-05, 2.5566347176209092e-05, 0.00015339808305725455, 0.0001917476038215682, 0.00013422331539914012, 3.834952076431364e-05]","[0.6637573838233948, -3.167724847793579, -0.38334959745407104, -0.0403747595846653, 0.5652466416358948, -0.0785064771771431]"
1584445166111636048,,409246,,1584445166,111200832,'',"[shoulder_pan_joint, shoulder_lift_joint, elbow_joint, wrist_1_joint, wrist_2_joint,","[1.593061923980713, -1.2205989996539515, 2.579943895339966, -2.9403746763812464, -1.5535019079791468, 2.418983221054077]","[-3.834952076431364e-05, 2.5566347176209092e-05, -0.0, 0.00011504856229294091, 9.58738019107841e-05, 3.834952076431364e-05]","[0.9338380098342896, -3.158569574356079, -0.3721405565738678, -0.0314025916159153, 0.5607605576515198, -0.0762634351849556]"
1584445166223747662,,409260,,1584445166,223336682,'',"[shoulder_pan_joint, shoulder_lift_joint, elbow_joint, wrist_1_joint, wrist_2_joint,","[1.5930500030517578, -1.2205989996539515, 2.579943895339966, -2.9403746763812464, -1.5534899870501917, 2.4189352989196777]","[0.00011504856229294091, 2.5566347176209092e-05, -0.0, 7.669904152862728e-05, 7.669904152862728e-05, 3.834952076431364e-05]","[1.2222291231155396, -3.099060297012329, -0.38783323764801025, -0.0358886756002903, 0.5764618515968323, -0.0672912672162056]"
1584445166335599329,,409274,,1584445166,335229506,'',"[shoulder_pan_joint, shoulder_lift_joint, elbow_joint, wrist_1_joint, wrist_2_joint,","[1.593133807182312, -1.2206109205829065, 2.579943895339966, -2.940338436757223, -1.5534656683551233, 2.418947219848633]","[0.0003834952076431364, 1.2783173588104546e-05, -0.0, 5.752428114647046e-05, 7.669904152862728e-05, 1.917476038215682e-05]","[0.9201050996780396, -3.103637933731079, -0.3743823766708374, -0.0358886756002903, 0.6325379014015198, -0.0650482252240181]"
1584445166447624852,,409288,,1584445166,447237927,'',"[shoulder_pan_joint, shoulder_lift_joint, elbow_joint, wrist_1_joint, wrist_2_joint,","[1.5931698083877563, -1.2205870787249964, 2.5799198150634766, -2.940350357686178, -1.5534537474261683, 2.418971300125122]","[0.00014061490946915, 1.2783173588104546e-05, -0.0, 3.834952076431364e-05, 7.669904152862728e-05, 1.917476038215682e-05]","[0.9063721895217896, -3.076172113418579, -0.39007502794265747, -0.0269165076315403, 0.5697327256202698, -0.0628051832318306]"
1584445166559639124,,409302,,1584445166,559232983,'',"[shoulder_pan_joint, shoulder_lift_joint, elbow_joint, wrist_1_joint, wrist_2_joint,","[1.5931458473205566, -1.2205870787249964, 2.5799078941345215, -2.9403746763812464, -1.5534418264972132, 2.418947219848633]","[7.669904152862728e-05, 1.2783173588104546e-05, -0.0, 3.834952076431364e-05, 7.669904152862728e-05, 1.917476038215682e-05]","[0.9704591035842896, -3.181457757949829, -0.3676569163799286, -0.0314025916159153, 0.5607605576515198, -0.0785064771771431]"
1584445166671589285,,409316,,1584445166,671220675,'',"[shoulder_pan_joint, shoulder_lift_joint, elbow_joint, wrist_1_joint, wrist_2_joint,","[1.5931577682495117, -1.2205632368670862, 2.5799198150634766, -2.940350357686178, -1.5534656683551233, 2.418959379196167]","[5.1132694352418184e-05, 1.2783173588104546e-05, -0.0, 3.834952076431364e-05, 5.752428114647046e-05, 1.917476038215682e-05]","[0.9155274629592896, -3.163147211074829, -0.3923168480396271, -0.0336456336081028, 0.6145935654640198, -0.0717773512005806]"
1584445166783663119,,409330,,1584445166,783290881,'',"[shoulder_pan_joint, shoulder_lift_joint, elbow_joint, wrist_1_joint, wrist_2_joint,","[1.593133807182312, -1.2205870787249964, 2.5799317359924316, -2.9403746763812464, -1.5534656683551233, 2.418971300125122]","[3.834952076431364e-05, 1.2783173588104546e-05, -0.0, 1.917476038215682e-05, 3.834952076431364e-05, 1.917476038215682e-05]","[0.9704591035842896, -3.112793207168579, -0.38783323764801025, -0.0314025916159153, 0.5450592637062073, -0.0628051832318306]"
1584445166895535274,,409344,,1584445166,895168567,'',"[shoulder_pan_joint, shoulder_lift_joint, elbow_joint, wrist_1_joint, wrist_2_joint,","[1.5931577682495117, -1.2205989996539515, 2.5799317359924316, -2.940326515828268, -1.5534537474261683, 2.418947219848633]","[3.834952076431364e-05, 1.2783173588104546e-05, -0.0, 1.917476038215682e-05, 3.834952076431364e-05, 1.917476038215682e-05]","[0.9429932832717896, -3.153991937637329, -0.3698987364768982, -0.0291595496237278, 0.5876770615577698, -0.0740203931927681]"
1584445167007719875,,409358,,1584445167,7281413,'',"[shoulder_pan_joint, shoulder_lift_joint, elbow_joint, wrist_1_joint, wrist_2_joint,","[1.593133807182312, -1.2205870787249964, 2.5799198150634766, -2.940350357686178, -1.5534537474261683, 2.4189352989196777]","[2.5566347176209092e-05, 1.2783173588104546e-05, -0.0, 1.917476038215682e-05, 3.834952076431364e-05, 1.917476038215682e-05]","[0.9292603731155396, -3.149414300918579, -0.36541512608528137, -0.0358886756002903, 0.5697327256202698, -0.0740203931927681]"
1584445167119612970,,409372,,1584445167,119222097,'',"[shoulder_pan_joint, shoulder_lift_joint, elbow_joint, wrist_1_joint, wrist_2_joint,","[1.5931698083877563, -1.2206109205829065, 2.5799317359924316, -2.940338436757223, -1.5534537474261683, 2.418959379196167]","[2.5566347176209092e-05, 1.2783173588104546e-05, -0.0, 1.917476038215682e-05, 1.917476038215682e-05, 1.917476038215682e-05]","[0.9658814668655396, -3.163147211074829, -0.38334959745407104, -0.0314025916159153, 0.5787048935890198, -0.0717773512005806]"
1584445167231706731,,409386,,1584445167,231303545,'',"[shoulder_pan_joint, shoulder_lift_joint, elbow_joint, wrist_1_joint, wrist_2_joint,","[1.5931698083877563, -1.2205870787249964, 2.579943895339966, -2.940350357686178, -1.5534537474261683, 2.418947219848633]","[2.5566347176209092e-05, 1.2783173588104546e-05, -0.0, 1.917476038215682e-05, 1.917476038215682e-05, 1.917476038215682e-05]","[0.9475709199905396, -3.144836664199829, -0.38783323764801025, -0.0403747595846653, 0.5271149277687073, -0.0762634351849556]"
1584445167343524704,,409400,,1584445167,343184196,'',"[shoulder_pan_joint, shoulder_lift_joint, elbow_joint, wrist_1_joint, wrist_2_joint,","[1.5931458473205566, -1.2206233183490198, 2.579955816268921, -2.940350357686178, -1.5534418264972132, 2.4189352989196777]","[1.2783173588104546e-05, 0.0, -0.0, 1.917476038215682e-05, 0.0, 0.0]","[0.9292603731155396, -3.048706293106079, -0.3743823766708374, -0.0314025916159153, 0.5293579697608948, -0.0695343092083931]"
1584445167455602806,,409414,,1584445167,455185484,'',"[shoulder_pan_joint, shoulder_lift_joint, elbow_joint, wrist_1_joint, wrist_2_joint,","[1.593133807182312, -1.2206109205829065, 2.579943895339966, -2.9403746763812464, -1.553417984639303, 2.418971300125122]","[1.2783173588104546e-05, 0.0, -0.0, 1.917476038215682e-05, 0.0, 0.0]","[0.9658814668655396, -3.076172113418579, -0.3968004584312439, -0.0381317175924778, 0.4934692978858948, -0.0695343092083931]"
1584445167567616877,,409428,,1584445167,567197572,'',"[shoulder_pan_joint, shoulder_lift_joint, elbow_joint, wrist_1_joint, wrist_2_joint,","[1.5932056903839111, -1.2205989996539515, 2.579955816268921, -2.9403627554522913, -1.553406063710348, 2.418971300125122]","[1.2783173588104546e-05, 0.0, -0.0, 1.917476038215682e-05, 0.0, 0.0]","[0.9475709199905396, -3.099060297012329, -0.38110780715942383, -0.0381317175924778, 0.5383301377296448, -0.0740203931927681]"
1584445167679534729,,409442,,1584445167,679143415,'',"[shoulder_pan_joint, shoulder_lift_joint, elbow_joint, wrist_1_joint, wrist_2_joint,","[1.5931698083877563, -1.2205870787249964, 2.579955816268921, -2.940350357686178, -1.553429905568258, 2.418971300125122]","[1.2783173588104546e-05, 0.0, -0.0, 1.917476038215682e-05, 0.0, 0.0]","[0.9613038301467896, -3.176880121231079, -0.3766241669654846, -0.0314025916159153, 0.5316010117530823, -0.0785064771771431]"
1584445167791755287,,409456,,1584445167,791298270,'',"[shoulder_pan_joint, shoulder_lift_joint, elbow_joint, wrist_1_joint, wrist_2_joint,","[1.5931577682495117, -1.2206109205829065, 2.579955816268921, -2.9403746763812464, -1.5533941427813929, 2.418959379196167]","[1.2783173588104546e-05, 0.0, -0.0, 0.0, 0.0, 0.0]","[0.9429932832717896, -3.117370843887329, -0.3676569163799286, -0.0381317175924778, 0.6056213974952698, -0.0762634351849556]"
1584445167903588509,,409470,,1584445167,903180665,'',"[shoulder_pan_joint, shoulder_lift_joint, elbow_joint, wrist_1_joint, wrist_2_joint,","[1.5931458473205566, -1.2205989996539515, 2.5799198150634766, -2.940350357686178, -1.553406063710348, 2.4189352989196777]","[1.2783173588104546e-05, 0.0, -0.0, 0.0, 0.0, 0.0]","[0.9475709199905396, -3.131103754043579, -0.3676569163799286, -0.0336456336081028, 0.6101074814796448, -0.0762634351849556]"
1584445168015590468,,409484,,1584445168,15187042,'',"[shoulder_pan_joint, shoulder_lift_joint, elbow_joint, wrist_1_joint, wrist_2_joint,","[1.5931577682495117, -1.2205870787249964, 2.5799078941345215, -2.9403627554522913, -1.5533941427813929, 2.418959379196167]","[1.2783173588104546e-05, 0.0, -0.0, 0.0, 0.0, 0.0]","[0.9658814668655396, -3.149414300918579, -0.38334959745407104, -0.0336456336081028, 0.5809479355812073, -0.0717773512005806]"
1584445168127617674,,409498,,1584445168,127230559,'',"[shoulder_pan_joint, shoulder_lift_joint, elbow_joint, wrist_1_joint, wrist_2_joint,","[1.5931458473205566, -1.2205870787249964, 2.579943895339966, -2.940338436757223, -1.553429905568258, 2.418959379196167]","[1.2783173588104546e-05, 0.0, -0.0, 0.0, 0.0, 0.0]","[0.9384156465530396, -3.135681390762329, -0.3788659870624542, -0.0358886756002903, 0.5854340195655823, -0.0785064771771431]"
