PorkPy/robot-pulling-data/deg20/joint_states_throttle.csv
rosbagTimestamp,header,seq,stamp,secs,nsecs,frame_id,name,wrist_3_joint],position,velocity,effort
1584376964358174917,,594429,,1584376964,357791411,'',"[shoulder_pan_joint, shoulder_lift_joint, elbow_joint, wrist_1_joint, wrist_2_joint,","[1.3999601602554321, -1.203369442616598, 2.467773199081421, -2.8269580046283167, -1.5627883116351526, 2.6503987312316895]","[0.0, 0.0, -0.0, 0.0, 0.0, 0.0]","[-0.0457763709127903, -3.675842761993408, -1.6813578605651855, -0.3678589165210724, -0.02467346377670765, 0.0269165076315403]"
1584376964470125425,,594443,,1584376964,469758851,'',"[shoulder_pan_joint, shoulder_lift_joint, elbow_joint, wrist_1_joint, wrist_2_joint,","[1.3999481201171875, -1.2033575216876429, 2.4678092002868652, -2.826969925557272, -1.5627639929400843, 2.6503987312316895]","[0.0, 0.0, -0.0, 0.0, 0.0, 0.0]","[-0.0686645582318306, -3.730774402618408, -1.6948087215423584, -0.3790741264820099, -0.0269165076315403, 0.0269165076315403]"
1584376964582202961,,594457,,1584376964,581833201,'',"[shoulder_pan_joint, shoulder_lift_joint, elbow_joint, wrist_1_joint, wrist_2_joint,","[1.3999241590499878, -1.203369442616598, 2.467785358428955, -2.8269580046283167, -1.562728230153219, 2.6503746509552]","[0.0, 0.0, -0.0, 0.0, 0.0, 0.0]","[-0.0411987341940403, -3.680420398712158, -1.7082595825195312, -0.3813171684741974, -0.02018737979233265, 0.0314025916159153]"
1584376964694064413,,594471,,1584376964,693760105,'',"[shoulder_pan_joint, shoulder_lift_joint, elbow_joint, wrist_1_joint, wrist_2_joint,","[1.3999481201171875, -1.2033575216876429, 2.4678092002868652, -2.8269341627704065, -1.5628002325641077, 2.6504106521606445]","[0.0, 0.0, -0.0, 0.0, 0.0, 0.0]","[-0.0457763709127903, -3.698730945587158, -1.7060178518295288, -0.3947754204273224, -0.02243042178452015, 0.0269165076315403]"
1584376964806061478,,594485,,1584376964,805766949,'',"[shoulder_pan_joint, shoulder_lift_joint, elbow_joint, wrist_1_joint, wrist_2_joint,","[1.3999481201171875, -1.203369442616598, 2.467785358428955, -2.8269580046283167, -1.5627639929400843, 2.6504106521606445]","[0.0, 0.0, -0.0, 0.0, 0.0, 0.0]","[-0.01831054873764515, -3.684998035430908, -1.7015341520309448, -0.4015045464038849, -0.02243042178452015, 0.02467346377670765]"
1584376964918066047,,594499,,1584376964,917763041,'',"[shoulder_pan_joint, shoulder_lift_joint, elbow_joint, wrist_1_joint, wrist_2_joint,","[1.3999241590499878, -1.2033456007586878, 2.4678092002868652, -2.8269341627704065, -1.5627759138690394, 2.6503865718841553]","[0.0, 0.0, -0.0, 0.0, 0.0, 0.0]","[-0.0320434607565403, -3.662109851837158, -1.7105014324188232, -0.3790741264820099, -0.0291595496237278, 0.0269165076315403]"
1584376965029992140,,594513,,1584376965,29718238,'',"[shoulder_pan_joint, shoulder_lift_joint, elbow_joint, wrist_1_joint, wrist_2_joint,","[1.3999241590499878, -1.2033575216876429, 2.46779727935791, -2.8269580046283167, -1.5627520720111292, 2.6503865718841553]","[0.0, 0.0, -0.0, 0.0, 0.0, 0.0]","[0.004577637184411287, -3.607178211212158, -1.7037760019302368, -0.3813171684741974, -0.02243042178452015, 0.02467346377670765]"
1584376965142019241,,594527,,1584376965,141747383,'',"[shoulder_pan_joint, shoulder_lift_joint, elbow_joint, wrist_1_joint, wrist_2_joint,","[1.3999361991882324, -1.203369442616598, 2.46779727935791, -2.8269341627704065, -1.5627883116351526, 2.6503865718841553]","[0.0, 0.0, -0.0, 0.0, 0.0, 0.0]","[-0.0732421949505806, -3.643799304962158, -1.7060178518295288, -0.3701019585132599, -0.02243042178452015, 0.0269165076315403]"
1584376965254107256,,594541,,1584376965,253766660,'',"[shoulder_pan_joint, shoulder_lift_joint, elbow_joint, wrist_1_joint, wrist_2_joint,","[1.3999241590499878, -1.2033575216876429, 2.467773199081421, -2.8269341627704065, -1.5627759138690394, 2.6504106521606445]","[0.0, 0.0, -0.0, 0.0, 0.0, 0.0]","[-0.0549316480755806, -3.666687488555908, -1.7060178518295288, -0.3611297905445099, -0.0314025916159153, 0.0269165076315403]"
1584376965366018080,,594555,,1584376965,365700737,'',"[shoulder_pan_joint, shoulder_lift_joint, elbow_joint, wrist_1_joint, wrist_2_joint,","[1.3999720811843872, -1.2033217589007776, 2.467773199081421, -2.8269341627704065, -1.5627639929400843, 2.6503746509552]","[0.0, 0.0, -0.0, 0.0, 0.0, 0.0]","[-0.0823974683880806, -3.634644031524658, -1.723952293395996, -0.3970184624195099, -0.02467346377670765, 0.0314025916159153]"
1584376965478044710,,594569,,1584376965,477726215,'',"[shoulder_pan_joint, shoulder_lift_joint, elbow_joint, wrist_1_joint, wrist_2_joint,","[1.3999361991882324, -1.2033456007586878, 2.467773199081421, -2.8269222418414515, -1.5627639929400843, 2.6503746509552]","[0.0, 0.0, -0.0, 0.0, 0.0, 0.0]","[-0.0411987341940403, -3.680420398712158, -1.7127432823181152, -0.3768310844898224, -0.02467346377670765, 0.0269165076315403]"
1584376965590002913,,594583,,1584376965,589657057,'',"[shoulder_pan_joint, shoulder_lift_joint, elbow_joint, wrist_1_joint, wrist_2_joint,","[1.3999481201171875, -1.2033575216876429, 2.467761278152466, -2.826969925557272, -1.5627883116351526, 2.6503865718841553]","[0.0, 0.0, -0.0, 0.0, 0.0, 0.0]","[-0.01831054873764515, -3.634644031524658, -1.7149850130081177, -0.4306641221046448, -0.02243042178452015, 0.0291595496237278]"
1584376965701996552,,594597,,1584376965,701680532,'',"[shoulder_pan_joint, shoulder_lift_joint, elbow_joint, wrist_1_joint, wrist_2_joint,","[1.3999241590499878, -1.2033818403827112, 2.46779727935791, -2.826981846486227, -1.5627883116351526, 2.6503865718841553]","[0.0, 0.0, -0.0, 0.0, 0.0, 0.0]","[-0.01373291201889515, -3.552246570587158, -1.7194687128067017, -0.3835602104663849, -0.0269165076315403, 0.0291595496237278]"
1584376965814043900,,594611,,1584376965,813701872,'',"[shoulder_pan_joint, shoulder_lift_joint, elbow_joint, wrist_1_joint, wrist_2_joint,","[1.3999122381210327, -1.2033336798297327, 2.46779727935791, -2.8269580046283167, -1.5627759138690394, 2.6504106521606445]","[0.0, 0.0, -0.0, 0.0, 0.0, 0.0]","[-0.0411987341940403, -3.730774402618408, -1.7060178518295288, -0.3858032524585724, -0.0291595496237278, 0.0291595496237278]"
1584376965925889573,,594625,,1584376965,925637151,'',"[shoulder_pan_joint, shoulder_lift_joint, elbow_joint, wrist_1_joint, wrist_2_joint,","[1.3999361991882324, -1.203369442616598, 2.4678332805633545, -2.8269222418414515, -1.5627883116351526, 2.6503865718841553]","[0.0, 0.0, -0.0, 0.0, 0.0, 0.0]","[-0.0778198316693306, -3.758240222930908, -1.7060178518295288, -0.3790741264820099, -0.02018737979233265, 0.0269165076315403]"
1584376966037998507,,594639,,1584376966,37692105,'',"[shoulder_pan_joint, shoulder_lift_joint, elbow_joint, wrist_1_joint, wrist_2_joint,","[1.3999481201171875, -1.2033456007586878, 2.467761278152466, -2.8269341627704065, -1.5627639929400843, 2.650362730026245]","[0.0, 0.0, -0.0, 0.0, 0.0, 0.0]","[-0.0503540076315403, -3.639221668243408, -1.723952293395996, -0.3880462944507599, -0.02243042178452015, 0.0269165076315403]"
1584376966150139821,,594653,,1584376966,149741518,'',"[shoulder_pan_joint, shoulder_lift_joint, elbow_joint, wrist_1_joint, wrist_2_joint,","[1.3999361991882324, -1.2033575216876429, 2.467773199081421, -2.826969925557272, -1.5628002325641077, 2.6503987312316895]","[0.0, 0.0, -0.0, 0.0, 0.0, 0.0]","[-0.0320434607565403, -3.694153308868408, -1.690325140953064, -0.3835602104663849, -0.0269165076315403, 0.02467346377670765]"
1584376966262093936,,594667,,1584376966,261682659,'',"[shoulder_pan_joint, shoulder_lift_joint, elbow_joint, wrist_1_joint, wrist_2_joint,","[1.3999361991882324, -1.2033575216876429, 2.4678092002868652, -2.8269341627704065, -1.5628002325641077, 2.6503865718841553]","[0.0, 0.0, -0.0, 0.0, 0.0, 0.0]","[-0.0549316480755806, -3.744507312774658, -1.7127432823181152, -0.3768310844898224, -0.02018737979233265, 0.0314025916159153]"
1584376966373977449,,594681,,1584376966,373678140,'',"[shoulder_pan_joint, shoulder_lift_joint, elbow_joint, wrist_1_joint, wrist_2_joint,","[1.3999361991882324, -1.2033575216876429, 2.4678092002868652, -2.8269103209124964, -1.5627401510821741, 2.6503987312316895]","[0.0, 0.0, -0.0, 0.0, 0.0, 0.0]","[-0.0274658240377903, -3.758240222930908, -1.741886854171753, -0.3880462944507599, -0.0269165076315403, 0.0269165076315403]"
1584376966485928648,,594695,,1584376966,485649317,'',"[shoulder_pan_joint, shoulder_lift_joint, elbow_joint, wrist_1_joint, wrist_2_joint,","[1.3999122381210327, -1.203369442616598, 2.46779727935791, -2.826969925557272, -1.5627883116351526, 2.6503865718841553]","[0.0, 0.0, -0.0, 0.0, 0.0, 0.0]","[-0.0320434607565403, -3.584290027618408, -1.726194143295288, -0.3835602104663849, -0.02467346377670765, 0.0291595496237278]"
1584376966598033575,,594709,,1584376966,597660839,'',"[shoulder_pan_joint, shoulder_lift_joint, elbow_joint, wrist_1_joint, wrist_2_joint,","[1.3999122381210327, -1.2033575216876429, 2.4678092002868652, -2.8269460836993616, -1.5627883116351526, 2.6503987312316895]","[0.0, 0.0, -0.0, 0.0, 0.0, 0.0]","[-0.0274658240377903, -3.547668933868408, -1.7127432823181152, -0.3701019585132599, -0.0269165076315403, 0.0269165076315403]"
1584376966710028386,,594723,,1584376966,709679465,'',"[shoulder_pan_joint, shoulder_lift_joint, elbow_joint, wrist_1_joint, wrist_2_joint,","[1.3999361991882324, -1.2034056822406214, 2.467785358428955, -2.8269341627704065, -1.5627639929400843, 2.6504106521606445]","[0.0, 0.0, -0.0, 0.0, 0.0, 0.0]","[-0.0457763709127903, -3.662109851837158, -1.739645004272461, -0.4015045464038849, -0.02018737979233265, 0.0269165076315403]"
1584376966821911749,,594737,,1584376966,821621116,'',"[shoulder_pan_joint, shoulder_lift_joint, elbow_joint, wrist_1_joint, wrist_2_joint,","[1.3999361991882324, -1.2034056822406214, 2.46779727935791, -2.8269580046283167, -1.5627639929400843, 2.6503746509552]","[0.0, 0.0, -0.0, 0.0, 0.0, 0.0]","[-0.0320434607565403, -3.552246570587158, -1.7194687128067017, -0.4037475883960724, -0.0291595496237278, 0.02243042178452015]"
1584376966933923962,,594751,,1584376966,933643699,'',"[shoulder_pan_joint, shoulder_lift_joint, elbow_joint, wrist_1_joint, wrist_2_joint,","[1.3999601602554321, -1.2033575216876429, 2.46779727935791, -2.8269460836993616, -1.5627520720111292, 2.6503987312316895]","[0.0, 0.0, -0.0, 0.0, 0.0, 0.0]","[-0.0366210974752903, -3.698730945587158, -1.721710443496704, -0.4015045464038849, -0.02467346377670765, 0.0269165076315403]"
1584376967045974026,,594765,,1584376967,45671582,'',"[shoulder_pan_joint, shoulder_lift_joint, elbow_joint, wrist_1_joint, wrist_2_joint,","[1.3999481201171875, -1.203369442616598, 2.467785358428955, -2.826969925557272, -1.5627639929400843, 2.6503746509552]","[0.0, 0.0, -0.0, 0.0, 0.0, 0.0]","[-0.0503540076315403, -3.652954578399658, -1.72843599319458, -0.3992615044116974, -0.02243042178452015, 0.0291595496237278]"
1584376967157882055,,594779,,1584376967,157619505,'',"[shoulder_pan_joint, shoulder_lift_joint, elbow_joint, wrist_1_joint, wrist_2_joint,","[1.3999241590499878, -1.2033336798297327, 2.46779727935791, -2.8269341627704065, -1.5627759138690394, 2.6503987312316895]","[0.0, 0.0, -0.0, 0.0, 0.0, 0.0]","[-0.0366210974752903, -3.684998035430908, -1.7329195737838745, -0.3835602104663849, -0.02467346377670765, 0.0314025916159153]"
1584376967269903205,,594793,,1584376967,269652667,'',"[shoulder_pan_joint, shoulder_lift_joint, elbow_joint, wrist_1_joint, wrist_2_joint,","[1.3999361991882324, -1.2033456007586878, 2.467773199081421, -2.8269341627704065, -1.5627520720111292, 2.6503987312316895]","[0.0, 0.0, -0.0, 0.0, 0.0, 0.0]","[-0.0823974683880806, -3.630066394805908, -1.7060178518295288, -0.3835602104663849, -0.02243042178452015, 0.0269165076315403]"
1584376967381849205,,594807,,1584376967,381599629,'',"[shoulder_pan_joint, shoulder_lift_joint, elbow_joint, wrist_1_joint, wrist_2_joint,","[1.3999361991882324, -1.203369442616598, 2.467773199081421, -2.8269580046283167, -1.5627759138690394, 2.6504225730895996]","[0.0, 0.0, -0.0, 0.0, 0.0, 0.0]","[-0.01831054873764515, -3.730774402618408, -1.7127432823181152, -0.4037475883960724, -0.02243042178452015, 0.0336456336081028]"
1584376967493821694,,594821,,1584376967,493577999,'',"[shoulder_pan_joint, shoulder_lift_joint, elbow_joint, wrist_1_joint, wrist_2_joint,","[1.3999481201171875, -1.2033456007586878, 2.46779727935791, -2.8269460836993616, -1.5627520720111292, 2.6503865718841553]","[0.0, 0.0, -0.0, 0.0, 0.0, 0.0]","[-0.02288818545639515, -3.584290027618408, -1.721710443496704, -0.4194488823413849, -0.02467346377670765, 0.0314025916159153]"
1584376967605881627,,594835,,1584376967,605642931,'',"[shoulder_pan_joint, shoulder_lift_joint, elbow_joint, wrist_1_joint, wrist_2_joint,","[1.3999481201171875, -1.2033575216876429, 2.4678332805633545, -2.8269103209124964, -1.5627883116351526, 2.6503865718841553]","[0.0, 0.0, -0.0, 0.0, 0.0, 0.0]","[-0.0640869215130806, -3.735352039337158, -1.7351614236831665, -0.3790741264820099, -0.02467346377670765, 0.02467346377670765]"
1584376967717895633,,594849,,1584376967,717636269,'',"[shoulder_pan_joint, shoulder_lift_joint, elbow_joint, wrist_1_joint, wrist_2_joint,","[1.3999601602554321, -1.2033093611346644, 2.4678332805633545, -2.8269222418414515, -1.5627883116351526, 2.6504106521606445]","[0.0, 0.0, -0.0, 0.0, 0.0, 0.0]","[-0.004577637184411287, -3.771973133087158, -1.726194143295288, -0.3947754204273224, -0.01794433780014515, 0.0269165076315403]"
1584376967829876668,,594863,,1584376967,829626812,'',"[shoulder_pan_joint, shoulder_lift_joint, elbow_joint, wrist_1_joint, wrist_2_joint,","[1.3999601602554321, -1.2033217589007776, 2.467761278152466, -2.8268263975726526, -1.5628002325641077, 2.648566961288452]","[0.0, 0.0, -0.0, 0.0016490294365212321, 0.0, -0.024812139570713043]","[0.01373291201889515, -3.767395496368408, -1.7105014324188232, -0.4373932480812073, -0.01794433780014515, -0.2960815727710724]"
1584376967941870006,,594877,,1584376967,941620250,'',"[shoulder_pan_joint, shoulder_lift_joint, elbow_joint, wrist_1_joint, wrist_2_joint,","[1.400104284286499, -1.2033217589007776, 2.4676411151885986, -2.8266828695880335, -1.562859837208883, 2.6465554237365723]","[0.0060720075853168964, 0.0, -0.00361763802357018, 0.0036048549227416515, 0.0, -0.016451943665742874]","[0.1785278469324112, -3.698730945587158, -1.831559181213379, -0.3588867485523224, -0.02018737979233265, -0.2714081108570099]"
1584376968053891217,,594891,,1584376968,53601085,'',"[shoulder_pan_joint, shoulder_lift_joint, elbow_joint, wrist_1_joint, wrist_2_joint,","[1.4028509855270386, -1.203249756489889, 2.4663212299346924, -2.825808827077047, -1.562859837208883, 2.644627809524536]","[0.047157127410173416, 0.0031830102670937777, -0.03062848374247551, 0.024505343288183212, 0.0, -0.020747089758515358]","[0.6591797471046448, -2.883911371231079, -1.916748046875, -0.3072967827320099, -0.008972168900072575, -0.2579498589038849]"
1584376968165887941,,594905,,1584376968,165594945,'',"[shoulder_pan_joint, shoulder_lift_joint, elbow_joint, wrist_1_joint, wrist_2_joint,","[1.4105395078659058, -1.2015593687640589, 2.459542751312256, -2.8217976729022425, -1.5629079977618616, 2.6440649032592773]","[0.08893253654241562, 0.031932368874549866, -0.09754839539527893, 0.052385445684194565, 0.0, 0.0435650534927845]","[0.7507324814796448, -2.563476800918579, -2.0422894954681396, -0.2310333549976349, -0.01570129580795765, 0.2579498589038849]"
1584376968277875117,,594919,,1584376968,277597259,'',"[shoulder_pan_joint, shoulder_lift_joint, elbow_joint, wrist_1_joint, wrist_2_joint,","[1.4220545291900635, -1.1954196135150355, 2.446488857269287, -2.8147223631488245, -1.5629079977618616, 2.6497642993927]","[0.10980746150016785, 0.06909305602312088, -0.13350746035575867, 0.07098495960235596, 0.0, 0.049988601356744766]","[0.7415772080421448, -2.980041742324829, -2.008662223815918, -0.1525268703699112, -0.01345825381577015, 0.3902893364429474]"
1584376968390030949,,594933,,1584376968,389663062,'',"[shoulder_pan_joint, shoulder_lift_joint, elbow_joint, wrist_1_joint, wrist_2_joint,","[1.4350570440292358, -1.1879742781268519, 2.4315030574798584, -2.80616265932192, -1.5628841559039515, 2.6558942794799805]","[0.11784807592630386, 0.06155098229646683, -0.12797234952449799, 0.07518423348665237, -9.58738019107841e-05, 0.06467646360397339]","[0.9292603731155396, -3.108215570449829, -2.2440524101257324, -0.2601929008960724, -0.02243042178452015, 0.3274841606616974]"
1584376968501872674,,594947,,1584376968,501564840,'',"[shoulder_pan_joint, shoulder_lift_joint, elbow_joint, wrist_1_joint, wrist_2_joint,","[1.448598861694336, -1.1810086409198206, 2.4187843799591064, -2.7986324469195765, -1.5628960768329065, 2.6625757217407227]","[0.11465228348970413, 0.05547897145152092, -0.0946977511048317, 0.06224127113819122, -9.58738019107841e-05, 0.052558016031980515]","[1.0070801973342896, -3.556824207305908, -2.4233973026275635, -0.1816864162683487, -0.02243042178452015, 0.3678589165210724]"
1584376968613941453,,594961,,1584376968,613583505,'',"[shoulder_pan_joint, shoulder_lift_joint, elbow_joint, wrist_1_joint, wrist_2_joint,","[1.4608336687088013, -1.177039925252096, 2.410205602645874, -2.7930410544024866, -1.5629199186908167, 2.6676762104034424]","[0.10815843194723129, 0.021207284182310104, -0.0702051892876625, 0.03641286864876747, -9.58738019107841e-05, 0.04866554215550423]","[0.9384156465530396, -3.190613031387329, -2.365110158920288, -0.2781372368335724, -0.008972168900072575, 0.2512207329273224]"
1584376968726014099,,594975,,1584376968,725655570,'',"[shoulder_pan_joint, shoulder_lift_joint, elbow_joint, wrist_1_joint, wrist_2_joint,","[1.473392367362976, -1.1742222944842737, 2.402766466140747, -2.789042297993795, -1.5629437605487269, 2.6741297245025635]","[0.11079176515340805, 0.03050065226852894, -0.06386473774909973, 0.037275735288858414, -7.669904152862728e-05, 0.06145510822534561]","[0.8834840059280396, -3.222656488418579, -2.288888454437256, -0.2826233208179474, -0.0022430422250181437, 0.3431854546070099]"
1584376968837826740,,594989,,1584376968,837517723,'',"[shoulder_pan_joint, shoulder_lift_joint, elbow_joint, wrist_1_joint, wrist_2_joint,","[1.4856027364730835, -1.170337978993551, 2.3941032886505127, -2.7845891157733362, -1.5631235281573694, 2.6799848079681396]","[0.10538448393344879, 0.041251301765441895, -0.0874752551317215, 0.04417864605784416, -0.0005752427969127893, 0.04279806464910507]","[1.0803223848342896, -3.268432855606079, -2.2462942600250244, -0.2355194389820099, 0.004486084450036287, 0.3386993706226349]"
1584376968949880231,,595003,,1584376968,949549533,'',"[shoulder_pan_joint, shoulder_lift_joint, elbow_joint, wrist_1_joint, wrist_2_joint,","[1.4971896409988403, -1.1656015555011194, 2.382823944091797, -2.7786744276629847, -1.5631354490863245, 2.684821844100952]","[0.09900567680597305, 0.040356479585170746, -0.12248837202787399, 0.06162767857313156, -0.00024927189224399626, 0.050525493919849396]","[0.9841920137405396, -3.131103754043579, -2.2350850105285645, -0.3409424126148224, 0.0, 0.2826233208179474]"
1584376969061862869,,595017,,1584376969,61545356,'',"[shoulder_pan_joint, shoulder_lift_joint, elbow_joint, wrist_1_joint, wrist_2_joint,","[1.5084764957427979, -1.1593192259417933, 2.3675129413604736, -2.7706297079669397, -1.563171688710348, 2.6908087730407715]","[0.09078609943389893, 0.07323480397462845, -0.14530633389949799, 0.08041894435882568, -0.00046019424917176366, 0.050410445779561996]","[0.9384156465530396, -3.222656488418579, -2.3314828872680664, -0.1480407863855362, -0.01570129580795765, 0.3880462944507599]"
1584376969173780786,,595031,,1584376969,173519458,'',"[shoulder_pan_joint, shoulder_lift_joint, elbow_joint, wrist_1_joint, wrist_2_joint,","[1.5177961587905884, -1.1513341108905237, 2.351877212524414, -2.761195961629049, -1.563303295766012, 2.6954903602600098]","[0.0765584260225296, 0.060157615691423416, -0.1304139345884323, 0.07863569259643555, -0.0007478156476281583, 0.03374757990241051]","[0.9017945528030396, -3.561401844024658, -2.5310041904449463, -0.4015045464038849, -0.02243042178452015, 0.3409424126148224]"
1584376969285875073,,595045,,1584376969,285517275,'',"[shoulder_pan_joint, shoulder_lift_joint, elbow_joint, wrist_1_joint, wrist_2_joint,","[1.5257368087768555, -1.1443803946124476, 2.3373336791992188, -2.753197971974508, -1.563315216694967, 2.6991183757781982]","[0.07359272986650467, 0.06349401921033859, -0.1272309273481369, 0.06582695245742798, -0.0004218447138555348, 0.03802355006337166]","[1.2084962129592896, -3.625488758087158, -2.6049838066101074, -0.2781372368335724, -0.0269165076315403, 0.2579498589038849]"
1584376969397938131,,595059,,1584376969,397575674,'',"[shoulder_pan_joint, shoulder_lift_joint, elbow_joint, wrist_1_joint, wrist_2_joint,","[1.5338692665100098, -1.1379902998553675, 2.322969675064087, -2.7456558386432093, -1.563303295766012, 2.703859567642212]","[0.06781473755836487, 0.05733253434300423, -0.1345045566558838, 0.0654626339673996, -0.00017257283616345376, 0.042702190577983856]","[0.8193970322608948, -3.639221668243408, -2.472717046737671, -0.3633728325366974, -0.02467346377670765, 0.3162689507007599]"
1584376969509777161,,595073,,1584376969,509506336,'',"[shoulder_pan_joint, shoulder_lift_joint, elbow_joint, wrist_1_joint, wrist_2_joint,","[1.5415098667144775, -1.1306284109698694, 2.307729482650757, -2.7376707235919397, -1.5633276144610804, 2.7079668045043945]","[0.06404370069503784, 0.0666770339012146, -0.13928546011447906, 0.07012210041284561, -0.00013422331539914012, 0.025962624698877335]","[0.9658814668655396, -3.771973133087158, -2.5041024684906006, -0.2826233208179474, -0.0358886756002903, 0.3544006645679474]"
1584376969621786299,,595087,,1584376969,621491037,'',"[shoulder_pan_joint, shoulder_lift_joint, elbow_joint, wrist_1_joint, wrist_2_joint,","[1.5476270914077759, -1.1236746946917933, 2.292296886444092, -2.7293508688556116, -1.5633514563189905, 2.710289478302002]","[0.048537708818912506, 0.06408204883337021, -0.14104953408241272, 0.06935510784387589, -0.00013422331539914012, 0.01696966215968132]","[1.0299683809280396, -3.717041492462158, -2.5265204906463623, -0.3072967827320099, -0.0471038855612278, 0.3050537407398224]"
1584376969733838096,,595101,,1584376969,733495246,'',"[shoulder_pan_joint, shoulder_lift_joint, elbow_joint, wrist_1_joint, wrist_2_joint,","[1.5534204244613647, -1.1160491148578089, 2.2767319679260254, -2.7211735884295862, -1.563315216694967, 2.7115585803985596]","[0.05325470119714737, 0.05841910466551781, -0.1344534158706665, 0.07280656695365906, -0.00011504856229294091, 0.0025310683995485306]","[0.8972169160842896, -3.987122058868408, -2.746217966079712, -0.1861725002527237, -0.0515899695456028, 0.1076660305261612]"
1584376969845760081,,595115,,1584376969,845470380,'',"[shoulder_pan_joint, shoulder_lift_joint, elbow_joint, wrist_1_joint, wrist_2_joint,","[1.5587818622589111, -1.1100190321551722, 2.2625951766967773, -2.713692013417379, -1.5633514563189905, 2.7078588008880615]","[0.042082205414772034, 0.059480104595422745, -0.11608400195837021, 0.061109960079193115, -7.669904152862728e-05, -0.04331578314304352]","[0.8285523056983948, -3.813171863555908, -2.916595458984375, -0.3207550346851349, -0.0628051832318306, -0.2781372368335724]"
1584376969957802641,,595129,,1584376969,957489406,'',"[shoulder_pan_joint, shoulder_lift_joint, elbow_joint, wrist_1_joint, wrist_2_joint,","[1.5640593767166138, -1.1038077513324183, 2.250150203704834, -2.707083527241842, -1.5633276144610804, 2.703141212463379]","[0.055389489978551865, 0.047157127410173416, -0.11585389822721481, 0.058348797261714935, -5.752428114647046e-05, -0.036432042717933655]","[0.8560181260108948, -4.055786609649658, -2.735008955001831, -0.2624359428882599, -0.0538330152630806, -0.3207550346851349]"
1584376970069817680,,595143,,1584376970,69479849,'',"[shoulder_pan_joint, shoulder_lift_joint, elbow_joint, wrist_1_joint, wrist_2_joint,","[1.570836067199707, -1.097945515309469, 2.2350406646728516, -2.699385468159811, -1.5633276144610804, 2.7001118659973145]","[0.0619983896613121, 0.07074208557605743, -0.16211619973182678, 0.07658398896455765, -5.752428114647046e-05, -0.02107306197285652]","[0.7003784775733948, -3.982544422149658, -2.5130696296691895, -0.3252411186695099, -0.0717773512005806, -0.3252411186695099]"
1584376970181759041,,595157,,1584376970,181464320,'',"[shoulder_pan_joint, shoulder_lift_joint, elbow_joint, wrist_1_joint, wrist_2_joint,","[1.5786325931549072, -1.088414494191305, 2.2139062881469727, -2.689197842274801, -1.5633633772479456, 2.6998844146728516]","[0.07760664820671082, 0.09115681052207947, -0.2188607156276703, 0.10929613560438156, -3.834952076431364e-05, 0.04818617179989815]","[1.0116578340530396, -3.868103504180908, -2.652061939239502, -0.2332763969898224, -0.1009368970990181, 0.1973877102136612]"
1584376970293856283,,595171,,1584376970,293490209,'',"[shoulder_pan_joint, shoulder_lift_joint, elbow_joint, wrist_1_joint, wrist_2_joint,","[1.5873526334762573, -1.0765212217914026, 2.1873464584350586, -2.6758015791522425, -1.5633514563189905, 2.707068681716919]","[0.08508480340242386, 0.11246635764837265, -0.2538866102695465, 0.1312512308359146, -0.0004410194815136492, 0.06667064130306244]","[0.9429932832717896, -3.822327136993408, -2.7932958602905273, -0.1839294582605362, -0.1143951565027237, 0.4149627983570099]"
1584376970405885017,,595185,,1584376970,405530265,'',"[shoulder_pan_joint, shoulder_lift_joint, elbow_joint, wrist_1_joint, wrist_2_joint,","[1.5971159934997559, -1.0625417868243616, 2.1577134132385254, -2.6601789633380335, -1.5634711424456995, 2.7133069038391113]","[0.08567282557487488, 0.12950633466243744, -0.2643304765224457, 0.135949045419693, -0.0004985437844879925, 0.047936901450157166]","[0.8697510361671448, -4.151916980743408, -2.8672757148742676, -0.1637420803308487, -0.1278534084558487, 0.3095398247241974]"
1584376970517866042,,595199,,1584376970,517522852,'',"[shoulder_pan_joint, shoulder_lift_joint, elbow_joint, wrist_1_joint, wrist_2_joint,","[1.6070711612701416, -1.0481913725482386, 2.1273837089538574, -2.644484345112936, -1.563507382069723, 2.7194972038269043]","[0.08261764794588089, 0.12337040901184082, -0.2737133204936981, 0.13426166772842407, -0.00046019424917176366, 0.06036214530467987]","[1.0986329317092896, -4.238892078399658, -2.842615842819214, -0.1614990383386612, -0.1323394924402237, 0.3207550346851349]"
1584376970629791463,,595213,,1584376970,629463231,'',"[shoulder_pan_joint, shoulder_lift_joint, elbow_joint, wrist_1_joint, wrist_2_joint,","[1.616199016571045, -1.0337684790240687, 2.096872329711914, -2.628610436116354, -1.5635908285724085, 2.725531816482544]","[0.08321846276521683, 0.12926344573497772, -0.2715018093585968, 0.13495196402072906, -0.0007094661123119295, 0.04657549411058426]","[0.8422852158546448, -4.170227527618408, -2.91211199760437, -0.1435547024011612, -0.1368255764245987, 0.3588867485523224]"
1584376970741768120,,595227,,1584376970,741445097,'',"[shoulder_pan_joint, shoulder_lift_joint, elbow_joint, wrist_1_joint, wrist_2_joint,","[1.6251946687698364, -1.0193942228900355, 2.0664210319519043, -2.6128562132464808, -1.563638989125387, 2.730668544769287]","[0.08372978866100311, 0.12981311976909637, -0.2722560167312622, 0.13677357137203217, -0.000517718552146107, 0.05158010497689247]","[1.3549805879592896, -4.513550281524658, -2.829164981842041, -0.1076660305261612, -0.1457977443933487, 0.2826233208179474]"
1584376970853825508,,595241,,1584376970,853494510,'',"[shoulder_pan_joint, shoulder_lift_joint, elbow_joint, wrist_1_joint, wrist_2_joint,","[1.6347063779830933, -1.0051997343646448, 2.0358481407165527, -2.596766773854391, -1.5637949148761194, 2.7368831634521484]","[0.08208075910806656, 0.13061846792697906, -0.27095213532447815, 0.1399374008178711, -0.0008053399506025016, 0.0543987937271595]","[0.8743286728858948, -4.595947742462158, -3.0690386295318604, -0.1009368970990181, -0.1368255764245987, 0.3005676567554474]"
1584376970965765487,,595255,,1584376970,965445349,'',"[shoulder_pan_joint, shoulder_lift_joint, elbow_joint, wrist_1_joint, wrist_2_joint,","[1.643905758857727, -0.9903581778155726, 2.005767345428467, -2.5809291044818323, -1.5638907591449183, 2.742462635040283]","[0.07773447781801224, 0.12645114958286285, -0.26604339480400085, 0.14327381551265717, -0.0021283982787281275, 0.046671368181705475]","[1.0711671113967896, -4.870605945587158, -3.0488624572753906, -0.1525268703699112, -0.1121521145105362, 0.3566437065601349]"
1584376971077816953,,595269,,1584376971,77478411,'',"[shoulder_pan_joint, shoulder_lift_joint, elbow_joint, wrist_1_joint, wrist_2_joint,","[1.6524815559387207, -0.9763439337359827, 1.9759135246276855, -2.5650318304644983, -1.5640342871295374, 2.7479465007781982]","[0.0789233148097992, 0.12679630517959595, -0.265429824590683, 0.14070439338684082, -0.0007669904152862728, 0.05313326045870781]","[0.8331299424171448, -4.843140125274658, -3.358232259750366, -0.1592559963464737, -0.1121521145105362, 0.3229980766773224]"
1584376971189716797,,595283,,1584376971,189430713,'',"[shoulder_pan_joint, shoulder_lift_joint, elbow_joint, wrist_1_joint, wrist_2_joint,","[1.6612372398376465, -0.9617179075824183, 1.9455547332763672, -2.5494449774371546, -1.5641301313983362, 2.7541255950927734]","[0.07874435186386108, 0.13130876421928406, -0.2711438834667206, 0.1425643414258957, -0.0016682040877640247, 0.05437961965799332]","[1.0025025606155396, -5.081177234649658, -3.2663180828094482, -0.1727142482995987, -0.0964508131146431, 0.3297272026538849]"
1584376971301865435,,595297,,1584376971,301504090,'',"[shoulder_pan_joint, shoulder_lift_joint, elbow_joint, wrist_1_joint, wrist_2_joint,","[1.67034113407135, -0.947188679371969, 1.9143195152282715, -2.533212486897604, -1.5642855803119105, 2.7601001262664795]","[0.07723593711853027, 0.1331878900527954, -0.2873913049697876, 0.14162477850914001, -0.0012271846644580364, 0.05558763071894646]","[0.7781983017921448, -4.866028308868408, -3.3402976989746094, -0.1772003322839737, -0.0874786451458931, 0.2848663628101349]"
1584376971413807007,,595311,,1584376971,413467313,'',"[shoulder_pan_joint, shoulder_lift_joint, elbow_joint, wrist_1_joint, wrist_2_joint,","[1.679048776626587, -0.9317124525653284, 1.8826632499694824, -2.516728226338522, -1.5643938223468226, 2.7676076889038086]","[0.07961360365152359, 0.14168868958950043, -0.278660386800766, 0.14634177088737488, -0.0009395632660016418, 0.0699111744761467]","[0.7690430283546448, -5.538940906524658, -3.3470232486724854, -0.2175751030445099, -0.0762634351849556, 0.3252411186695099]"
1584376971525702743,,595325,,1584376971,525395449,'',"[shoulder_pan_joint, shoulder_lift_joint, elbow_joint, wrist_1_joint, wrist_2_joint,","[1.6878643035888672, -0.9167750517474573, 1.8512945175170898, -2.5005672613727015, -1.5645492712603968, 2.774074077606201]","[0.08287331461906433, 0.13029888272285461, -0.2835819125175476, 0.14522963762283325, -0.0013614079216495156, 0.044677190482616425]","[1.2084962129592896, -5.451965808868408, -3.4994661808013916, -0.2130890041589737, -0.0628051832318306, 0.3970184624195099]"
1584376971637821655,,595339,,1584376971,637464799,'',"[shoulder_pan_joint, shoulder_lift_joint, elbow_joint, wrist_1_joint, wrist_2_joint,","[1.697231411933899, -0.9017308394061487, 1.819601058959961, -2.483999554310934, -1.5646932760821741, 2.7786242961883545]","[0.0802016332745552, 0.13799436390399933, -0.28523096442222595, 0.15426094830036163, -0.0009587380336597562, 0.0458468534052372]","[0.8377075791358948, -5.667114734649658, -3.4030683040618896, -0.3095398247241974, -0.0605621412396431, 0.3050537407398224]"
1584376971749794675,,595353,,1584376971,749434182,'',"[shoulder_pan_joint, shoulder_lift_joint, elbow_joint, wrist_1_joint, wrist_2_joint,","[1.7060832977294922, -0.8863142172442835, 1.7871513366699219, -2.467048470173971, -1.5648248831378382, 2.783928394317627]","[0.07456424832344055, 0.13675439357757568, -0.287097305059433, 0.1526886224746704, -0.0011696603614836931, 0.046076949685811996]","[1.0345460176467896, -5.511475086212158, -3.575687885284424, -0.3185119926929474, -0.0672912672162056, 0.3656158745288849]"
1584376971861704067,,595367,,1584376971,861380954,'',"[shoulder_pan_joint, shoulder_lift_joint, elbow_joint, wrist_1_joint, wrist_2_joint,","[1.7139753103256226, -0.870706860219137, 1.7551217079162598, -2.450421158467428, -1.564920727406637, 2.7893052101135254]","[0.07300470024347305, 0.14003966748714447, -0.28684163093566895, 0.14522963762283325, -0.0008820389630272985, 0.04628787189722061]","[0.9750367403030396, -5.744934558868408, -3.542060613632202, -0.2691650688648224, -0.0762634351849556, 0.3364563286304474]"
1584376971973715469,,595381,,1584376971,973401783,'',"[shoulder_pan_joint, shoulder_lift_joint, elbow_joint, wrist_1_joint, wrist_2_joint,","[1.7221308946609497, -0.8556507269488733, 1.723907470703125, -2.434188191090719, -1.5650046507464808, 2.7957351207733154]","[0.06977055966854095, 0.1309891790151596, -0.27413514256477356, 0.14352308213710785, -0.0007094661123119295, 0.07180947810411453]","[0.8010864853858948, -5.946350574493408, -3.748307228088379, -0.3095398247241974, -0.0874786451458931, 0.3050537407398224]"
1584376972085721931,,595395,,1584376972,85405130,'',"[shoulder_pan_joint, shoulder_lift_joint, elbow_joint, wrist_1_joint, wrist_2_joint,","[1.7302626371383667, -0.840761963521139, 1.6934375762939453, -2.4180992285357874, -1.5651362578021448, 2.8032429218292236]","[0.06847946345806122, 0.12840697169303894, -0.2696482539176941, 0.14120294153690338, -0.0008820389630272985, 0.05625874549150467]","[0.8331299424171448, -6.156921863555908, -3.6945037841796875, -0.2534637749195099, -0.0897216871380806, 0.3925323784351349]"
1584376972197700341,,595409,,1584376972,197387738,'',"[shoulder_pan_joint, shoulder_lift_joint, elbow_joint, wrist_1_joint, wrist_2_joint,","[1.737111210823059, -0.8265579382525843, 1.663327693939209, -2.4025610128985804, -1.5653041044818323, 2.8090267181396484]","[0.060029782354831696, 0.12438027560710907, -0.26743677258491516, 0.14110706746578217, -0.0033172336407005787, 0.05483981594443321]","[1.1306763887405396, -6.042480945587158, -3.8693649768829346, -0.3028106987476349, -0.1188812404870987, 0.2714081108570099]"
1584376972309777636,,595423,,1584376972,309448682,'',"[shoulder_pan_joint, shoulder_lift_joint, elbow_joint, wrist_1_joint, wrist_2_joint,","[1.7435879707336426, -0.8123410383807581, 1.6328697204589844, -2.3869627157794397, -1.5655558745013636, 2.815385103225708]","[0.05437961965799332, 0.13142380118370056, -0.2739945352077484, 0.1394772082567215, -0.00276116537861526, 0.056297097355127335]","[0.9887696504592896, -6.207275867462158, -3.734856367111206, -0.2422485649585724, -0.1278534084558487, 0.3790741264820099]"
1584376972421723887,,595437,,1584376972,421417936,'',"[shoulder_pan_joint, shoulder_lift_joint, elbow_joint, wrist_1_joint, wrist_2_joint,","[1.7494287490844727, -0.7975013891803187, 1.601630687713623, -2.371161762868063, -1.5658076445208948, 2.8210368156433105]","[0.05643771216273308, 0.1287265568971634, -0.28602349758148193, 0.14329297840595245, -0.00138058268930763, 0.0453866571187973]","[1.0299683809280396, -5.964661121368408, -3.8895413875579834, -0.2377624809741974, -0.1906585842370987, 0.3499145805835724]"
1584376972533653986,,595451,,1584376972,533367662,'',"[shoulder_pan_joint, shoulder_lift_joint, elbow_joint, wrist_1_joint, wrist_2_joint,","[1.755941390991211, -0.7823379675494593, 1.569455623626709, -2.354929272328512, -1.565939728413717, 2.8263776302337646]","[0.056833989918231964, 0.14163756370544434, -0.28974342346191406, 0.1485852152109146, -0.0014956312952563167, 0.055395882576704025]","[0.9841920137405396, -6.307983875274658, -3.817803382873535, -0.2332763969898224, -0.1951446682214737, 0.3319702446460724]"
1584376972645755416,,595465,,1584376972,645340762,'',"[shoulder_pan_joint, shoulder_lift_joint, elbow_joint, wrist_1_joint, wrist_2_joint,","[1.762046217918396, -0.7666834036456507, 1.5368366241455078, -2.338193718587057, -1.5660951773272913, 2.8316822052001953]","[0.05597751587629318, 0.1327788233757019, -0.29054874181747437, 0.15142308175563812, -0.0007478156476281583, 0.03380510210990906]","[1.0253907442092896, -6.317139148712158, -4.026291847229004, -0.2265472710132599, -0.2041168361902237, 0.3858032524585724]"
1584376972757798267,,595479,,1584376972,757382581,'',"[shoulder_pan_joint, shoulder_lift_joint, elbow_joint, wrist_1_joint, wrist_2_joint,","[1.7678871154785156, -0.7516282240497034, 1.5044207572937012, -2.32145864168276, -1.5662749449359339, 2.8346400260925293]","[0.047272175550460815, 0.1357828676700592, -0.2842210829257965, 0.14672526717185974, -0.0020133499056100845, 0.020842963829636574]","[0.8743286728858948, -6.518555164337158, -4.185460090637207, -0.1323394924402237, -0.1704712063074112, 0.3005676567554474]"
1584376972869703591,,595493,,1584376972,869385607,'',"[shoulder_pan_joint, shoulder_lift_joint, elbow_joint, wrist_1_joint, wrist_2_joint,","[1.772684931755066, -0.7365015188800257, 1.4731831550598145, -2.305788818989889, -1.5664547125445765, 2.836639881134033]","[0.04382072016596794, 0.12864986062049866, -0.27309972047805786, 0.13807745277881622, -0.0033747577108442783, 0.014783740043640137]","[0.7461548447608948, -6.587219715118408, -4.071127891540527, -0.0852356031537056, -0.1435547024011612, 0.3229980766773224]"
1584376972981772460,,595507,,1584376972,981381500,'',"[shoulder_pan_joint, shoulder_lift_joint, elbow_joint, wrist_1_joint, wrist_2_joint,","[1.7780219316482544, -0.7223814169513147, 1.4428811073303223, -2.2903345266925257, -1.5666101614581507, 2.8380885124206543]","[0.051541756838560104, 0.1225522831082344, -0.26684874296188354, 0.13462598621845245, -0.0013997574569657445, 0.014304371550679207]","[0.7324219346046448, -6.413269519805908, -4.073369979858398, -0.1233673244714737, -0.1727142482995987, 0.2669220268726349]"
1584376973093853281,,595521,,1584376973,93401077,'',"[shoulder_pan_joint, shoulder_lift_joint, elbow_joint, wrist_1_joint, wrist_2_joint,","[1.7837425470352173, -0.7086814085589808, 1.4137558937072754, -2.275574509297506, -1.5667184034930628, 2.840759038925171]","[0.050161171704530716, 0.12431636452674866, -0.2619144320487976, 0.13458764553070068, -0.0009203884983435273, 0.032462868839502335]","[0.7186890244483948, -6.559753894805908, -4.086820602416992, -0.2063598781824112, -0.1682281643152237, 0.2758941948413849]"
1584376973205790194,,595535,,1584376973,205371312,'',"[shoulder_pan_joint, shoulder_lift_joint, elbow_joint, wrist_1_joint, wrist_2_joint,","[1.7901593446731567, -0.6955087820636194, 1.3850035667419434, -2.260886017476217, -1.5668500105487269, 2.8447704315185547]","[0.05628431215882301, 0.12337040901184082, -0.2501283586025238, 0.1287585198879242, -0.0010929612908512354, 0.037640053778886795]","[0.6408692002296448, -6.587219715118408, -4.0599188804626465, -0.2018737941980362, -0.1637420803308487, 0.3274841606616974]"
1584376973317869974,,595549,,1584376973,317385039,'',"[shoulder_pan_joint, shoulder_lift_joint, elbow_joint, wrist_1_joint, wrist_2_joint,","[1.7958799600601196, -0.6821807066546839, 1.3572230339050293, -2.2469876448260706, -1.5669696966754358, 2.8488056659698486]","[0.04352670535445213, 0.12059646099805832, -0.24814696609973907, 0.12574808299541473, -0.0018024274613708258, 0.035703402012586594]","[0.8285523056983948, -6.925964832305908, -4.010599136352539, -0.1816864162683487, -0.1547699123620987, 0.3207550346851349]"
1584376973429751053,,595563,,1584376973,429338452,'',"[shoulder_pan_joint, shoulder_lift_joint, elbow_joint, wrist_1_joint, wrist_2_joint,","[1.8007732629776, -0.6695354620562952, 1.330716609954834, -2.233304802571432, -1.567101780568258, 2.8531765937805176]","[0.04706764593720436, 0.10263609886169434, -0.22755327820777893, 0.11736870557069778, -0.0013038837350904942, 0.04134078323841095]","[0.8102417588233948, -6.765747547149658, -4.174251079559326, -0.2153320610523224, -0.1570129543542862, 0.2646789848804474]"
1584376973541614257,,595577,,1584376973,541330598,'',"[shoulder_pan_joint, shoulder_lift_joint, elbow_joint, wrist_1_joint, wrist_2_joint,","[1.805810809135437, -0.6582811514483851, 1.306741714477539, -2.22091514268984, -1.5671857039081019, 2.8591883182525635]","[0.04199272394180298, 0.09975988417863846, -0.2070235013961792, 0.10162623226642609, -0.0009203884983435273, 0.06245219334959984]","[0.9933472871780396, -6.939697742462158, -4.041984558105469, -0.1143951565027237, -0.1480407863855362, 0.2983246147632599]"
1584376973653755121,,595591,,1584376973,653388527,'',"[shoulder_pan_joint, shoulder_lift_joint, elbow_joint, wrist_1_joint, wrist_2_joint,","[1.81053626537323, -0.6475413481341761, 1.2849173545837402, -2.209841553364889, -1.5673053900348108, 2.8656904697418213]","[0.04410194978117943, 0.09033868461847305, -0.18150828778743744, 0.09493423998355865, -0.0008053399506025016, 0.049796853214502335]","[0.7598877549171448, -6.701660633087158, -4.163042068481445, -0.0403747595846653, -0.1502838283777237, 0.3633728325366974]"
1584376973765640317,,595605,,1584376973,765305362,'',"[shoulder_pan_joint, shoulder_lift_joint, elbow_joint, wrist_1_joint, wrist_2_joint,","[1.815861463546753, -0.6393316427813929, 1.2675585746765137, -2.2003844420062464, -1.567329231892721, 2.870636224746704]","[0.045942723751068115, 0.0577799454331398, -0.12974920868873596, 0.06849224120378494, -0.00036432043998502195, 0.04559757933020592]","[0.6591797471046448, -6.967163562774658, -4.443268299102783, -0.1973877102136612, -0.1435547024011612, 0.2714081108570099]"
1584376973877646460,,595619,,1584376973,877287960,'',"[shoulder_pan_joint, shoulder_lift_joint, elbow_joint, wrist_1_joint, wrist_2_joint,","[1.8201308250427246, -0.6339018980609339, 1.2558541297912598, -2.1944473425494593, -1.567329231892721, 2.8760244846343994]","[0.029414081946015358, 0.03983236849308014, -0.08278383314609528, 0.036259472370147705, -0.0002109223569277674, 0.04659466817975044]","[0.6774902939796448, -7.099915504455566, -4.31548547744751, -0.1278534084558487, -0.1345825344324112, 0.3274841606616974]"
1584376973989669944,,595633,,1584376973,989272181,'',"[shoulder_pan_joint, shoulder_lift_joint, elbow_joint, wrist_1_joint, wrist_2_joint,","[1.823081135749817, -0.6307976881610315, 1.248795509338379, -2.1909154097186487, -1.5673649946795862, 2.880335569381714]","[0.023815052583813667, 0.012629775330424309, -0.03741635009646416, 0.019692478701472282, -0.0002109223569277674, 0.03436116874217987]","[0.8789063692092896, -6.980896472930908, -4.145107746124268, -0.1906585842370987, -0.1323394924402237, 0.3095398247241974]"
1584376974101731239,,595647,,1584376974,101308690,'',"[shoulder_pan_joint, shoulder_lift_joint, elbow_joint, wrist_1_joint, wrist_2_joint,","[1.8257195949554443, -0.6308696905719202, 1.248387336730957, -2.191178623829977, -1.5673530737506312, 2.883760452270508]","[0.02191036008298397, -0.005982525181025267, 0.01780696026980877, -0.01390170119702816, -0.00011504856229294091, 0.0240643247961998]","[0.8193970322608948, -8.784485816955566, -3.194580078125, -0.6549683213233948, -0.1323394924402237, 0.3050537407398224]"
1584376974213696374,,595661,,1584376974,213311486,'',"[shoulder_pan_joint, shoulder_lift_joint, elbow_joint, wrist_1_joint, wrist_2_joint,","[1.8273868560791016, -0.6307619253741663, 1.248159408569336, -2.1909874121295374, -1.5673649946795862, 2.886837959289551]","[0.007631554733961821, -0.0019686087034642696, 0.007375891320407391, -0.011543205939233303, -7.669904152862728e-05, 0.03315316140651703]","[0.9796143770217896, -8.560181617736816, -3.3470232486724854, -0.5181427597999573, -0.1368255764245987, 0.2624359428882599]"
1584376974325662592,,595675,,1584376974,325268176,'',"[shoulder_pan_joint, shoulder_lift_joint, elbow_joint, wrist_1_joint, wrist_2_joint,","[1.827494740486145, -0.6307976881610315, 1.248183250427246, -2.191035572682516, -1.567341152821676, 2.89062237739563]","[-0.00012783173588104546, 0.0055095478892326355, -0.009881393052637577, 0.0070946612395346165, -5.752428114647046e-05, 0.033421605825424194]","[0.0732421949505806, -7.246399879455566, -4.145107746124268, -0.2893524467945099, -0.1278534084558487, 0.3095398247241974]"
1584376974437679383,,595689,,1584376974,437282052,'',"[shoulder_pan_joint, shoulder_lift_joint, elbow_joint, wrist_1_joint, wrist_2_joint,","[1.8274827003479004, -0.6309297720538538, 1.248387336730957, -2.191286865864889, -1.5673769156085413, 2.893855571746826]","[-0.00024288029817398638, 0.00809174869209528, -0.014892397448420525, 0.021801702678203583, -5.752428114647046e-05, 0.021226460114121437]","[0.1098632961511612, -7.086182594299316, -4.203394889831543, -0.2377624809741974, -0.1413116604089737, 0.3588867485523224]"
1584376974549602170,,595703,,1584376974,549309844,'',"[shoulder_pan_joint, shoulder_lift_joint, elbow_joint, wrist_1_joint, wrist_2_joint,","[1.8274827003479004, -0.6311333815204065, 1.2487235069274902, -2.1918490568744105, -1.5673530737506312, 2.894310712814331]","[-0.00014061490946915, -0.0007925567333586514, -0.004512460436671972, 0.00036432043998502195, -5.752428114647046e-05, -0.03543495759367943]","[-0.0274658240377903, -7.987977027893066, -3.5981059074401855, -0.3925323784351349, -0.1300964504480362, -0.1502838283777237]"
1584376974661641915,,595717,,1584376974,661272976,'',"[shoulder_pan_joint, shoulder_lift_joint, elbow_joint, wrist_1_joint, wrist_2_joint,","[1.8274707794189453, -0.6311934630023401, 1.2489757537841797, -2.1919692198382776, -1.5673649946795862, 2.889089345932007]","[-8.948221511673182e-05, -0.0010993529576808214, 0.0026972496416419744, 0.0008820389630272985, -5.752428114647046e-05, -0.039576705545186996]","[0.0457763709127903, -8.184815406799316, -3.5151588916778564, -0.4239349663257599, -0.1166381984949112, -0.3566437065601349]"
1584376974773711405,,595731,,1584376974,773281312,'',"[shoulder_pan_joint, shoulder_lift_joint, elbow_joint, wrist_1_joint, wrist_2_joint,","[1.827434778213501, -0.631301228200094, 1.2493114471435547, -2.1922085920916956, -1.5673769156085413, 2.885341167449951]","[-6.391586794052273e-05, -0.0073631079867482185, 0.019174760207533836, -0.016221847385168076, -5.752428114647046e-05, -0.026499519124627113]","[-0.0411987341940403, -8.930970191955566, -3.1497437953948975, -0.6213226914405823, -0.1368255764245987, -0.3701019585132599]"
1584376974885713439,,595745,,1584376974,885312811,'',"[shoulder_pan_joint, shoulder_lift_joint, elbow_joint, wrist_1_joint, wrist_2_joint,","[1.8274108171463013, -0.6314452330218714, 1.2499241828918457, -2.192543331776754, -1.5673649946795862, 2.882850408554077]","[-6.391586794052273e-05, -0.0002556634717620909, 0.010277671739459038, -0.011389807797968388, -5.752428114647046e-05, -0.02532985806465149]","[-0.0595092847943306, -8.738709449768066, -3.1631946563720703, -0.5562744736671448, -0.1323394924402237, -0.2646789848804474]"
1584376974997715433,,595759,,1584376974,997268389,'',"[shoulder_pan_joint, shoulder_lift_joint, elbow_joint, wrist_1_joint, wrist_2_joint,","[1.8273868560791016, -0.6315291563617151, 1.2507882118225098, -2.1929505507098597, -1.567329231892721, 2.8798325061798096]","[-6.391586794052273e-05, -0.00024288029817398638, 0.010456635616719723, -0.008072573691606522, -3.834952076431364e-05, -0.030104374513030052]","[-0.01831054873764515, -8.674622535705566, -3.2371745109558105, -0.5360870957374573, -0.1345825344324112, -0.2534637749195099]"
1584376975109698262,,595773,,1584376975,109262228,'',"[shoulder_pan_joint, shoulder_lift_joint, elbow_joint, wrist_1_joint, wrist_2_joint,","[1.8273749351501465, -0.6316607634173792, 1.2519645690917969, -2.193669144307272, -1.5673530737506312, 2.875162363052368]","[-6.391586794052273e-05, -0.0043718451634049416, 0.016451943665742874, -0.01248276885598898, -3.834952076431364e-05, -0.047821853309869766]","[-0.0503540076315403, -8.601380348205566, -3.3111541271209717, -0.5966492295265198, -0.1278534084558487, -0.3319702446460724]"
1584376975221601592,,595787,,1584376975,221244195,'',"[shoulder_pan_joint, shoulder_lift_joint, elbow_joint, wrist_1_joint, wrist_2_joint,","[1.8273868560791016, -0.6327751318560999, 1.2547497749328613, -2.196122948323385, -1.5673769156085413, 2.870049238204956]","[-5.1132694352418184e-05, -0.01507136132568121, 0.03305728733539581, -0.025483256205916405, -1.917476038215682e-05, -0.04187767580151558]","[-0.004577637184411287, -8.995057106018066, -3.2618343830108643, -0.5966492295265198, -0.1390686184167862, -0.3611297905445099]"
1584376975333700247,,595801,,1584376975,333257671,'',"[shoulder_pan_joint, shoulder_lift_joint, elbow_joint, wrist_1_joint, wrist_2_joint,","[1.8273868560791016, -0.6348612944232386, 1.259683609008789, -2.1991637388812464, -1.567317310963766, 2.8652353286743164]","[-5.1132694352418184e-05, -0.026755182072520256, 0.06695826351642609, -0.03236699476838112, -1.917476038215682e-05, -0.047630105167627335]","[-0.0457763709127903, -8.885193824768066, -3.2371745109558105, -0.6213226914405823, -0.1278534084558487, -0.2646789848804474]"
1584376975445650144,,595815,,1584376975,445255517,'',"[shoulder_pan_joint, shoulder_lift_joint, elbow_joint, wrist_1_joint, wrist_2_joint,","[1.8273389339447021, -0.6398471037494105, 1.2712202072143555, -2.2053049246417444, -1.5673053900348108, 2.858565330505371]","[-0.00011504856229294091, -0.06640858948230743, 0.1360129714012146, -0.07228884845972061, -1.917476038215682e-05, -0.06258641928434372]","[-0.1052856519818306, -9.251404762268066, -3.2169981002807617, -0.5607605576515198, -0.1121521145105362, -0.3095398247241974]"
1584376975557642190,,595829,,1584376975,557265637,'',"[shoulder_pan_joint, shoulder_lift_joint, elbow_joint, wrist_1_joint, wrist_2_joint,","[1.8273749351501465, -0.6498544851886194, 1.290595531463623, -2.2154443899737757, -1.567329231892721, 2.852278470993042]","[-0.00011504856229294091, -0.10307072848081589, 0.20730473101139069, -0.10436821728944778, -1.917476038215682e-05, -0.04787937551736832]","[-0.1098632961511612, -8.999634742736816, -3.201305389404297, -0.7200165390968323, -0.0807495191693306, -0.2758941948413849]"
1584376975669551481,,595843,,1584376975,669201518,'',"[shoulder_pan_joint, shoulder_lift_joint, elbow_joint, wrist_1_joint, wrist_2_joint,","[1.8273389339447021, -0.6627276579486292, 1.3161540031433105, -2.228708092366354, -1.5672934691058558, 2.8463988304138184]","[-8.948221511673182e-05, -0.12726926803588867, 0.2487989068031311, -0.1261315792798996, -1.917476038215682e-05, -0.06166603043675423]","[-0.1876831203699112, -8.642579078674316, -3.1475019454956055, -0.5876770615577698, -0.0583190992474556, -0.2601929008960724]"
1584376975781639025,,595857,,1584376975,781244609,'',"[shoulder_pan_joint, shoulder_lift_joint, elbow_joint, wrist_1_joint, wrist_2_joint,","[1.8268711566925049, -0.6777814070331019, 1.3464546203613281, -2.244390312825338, -1.5672815481769007, 2.840064764022827]","[-0.014713432639837265, -0.14212332665920258, 0.29890894889831543, -0.15105876326560974, 0.0, -0.04741918295621872]","[-0.7507324814796448, -8.894349098205566, -2.93228816986084, -0.6168366074562073, -0.0336456336081028, -0.3745880424976349]"
1584376975893676195,,595871,,1584376975,893251652,'',"[shoulder_pan_joint, shoulder_lift_joint, elbow_joint, wrist_1_joint, wrist_2_joint,","[1.8235609531402588, -0.6948850790606897, 1.3814492225646973, -2.2622864882098597, -1.5672577063189905, 2.8357653617858887]","[-0.04513738676905632, -0.15805116295814514, 0.33619746565818787, -0.16427017748355865, 0.0, -0.03965340554714203]","[-0.8972169160842896, -8.633423805236816, -3.0735223293304443, -0.7043152451515198, -0.02243042178452015, -0.2871094048023224]"
1584376976005644877,,595885,,1584376976,5259618,'',"[shoulder_pan_joint, shoulder_lift_joint, elbow_joint, wrist_1_joint, wrist_2_joint,","[1.8167606592178345, -0.7137396971331995, 1.421523094177246, -2.2827447096454065, -1.5672577063189905, 2.8311076164245605]","[-0.07809240370988846, -0.17661233246326447, 0.38142433762550354, -0.19355003535747528, 0.00011504856229294091, -0.04899151250720024]","[-0.8377075791358948, -8.843995094299316, -2.8560667037963867, -0.5787048935890198, 0.011215210892260075, -0.2714081108570099]"
1584376976117695232,,595899,,1584376976,117310273,'',"[shoulder_pan_joint, shoulder_lift_joint, elbow_joint, wrist_1_joint, wrist_2_joint,","[1.8076099157333374, -0.7345235983477991, 1.4652347564697266, -2.305094544087545, -1.567209545766012, 2.825707197189331]","[-0.08224693685770035, -0.18933157622814178, 0.3964956998825073, -0.20603279769420624, 0.0002109223569277674, -0.04224199801683426]","[-1.0849000215530396, -8.409119606018066, -2.9479808807373047, -0.6415100693702698, 0.0448608435690403, -0.3499145805835724]"
1584376976229634008,,595913,,1584376976,229246485,'',"[shoulder_pan_joint, shoulder_lift_joint, elbow_joint, wrist_1_joint, wrist_2_joint,","[1.7985427379608154, -0.7561233679400843, 1.5094032287597656, -2.3277671972857874, -1.567197624837057, 2.822127103805542]","[-0.0773637667298317, -0.18938271701335907, 0.393235981464386, -0.19761507213115692, 0.0003451456723269075, -0.025828402489423752]","[-0.9933472871780396, -8.258057594299316, -2.721558094024658, -0.6616974472999573, 0.0628051832318306, -0.3252411186695099]"
1584376976341592040,,595927,,1584376976,341227409,'',"[shoulder_pan_joint, shoulder_lift_joint, elbow_joint, wrist_1_joint, wrist_2_joint,","[1.7897275686264038, -0.7769320646869105, 1.552299976348877, -2.349757973347799, -1.5671737829791468, 2.818726062774658]","[-0.08113480359315872, -0.18130375444889069, 0.3757230341434479, -0.1961577981710434, 0.00023009712458588183, -0.0351281613111496]","[-1.0620118379592896, -8.331299781799316, -2.7708778381347656, -0.6347809433937073, 0.0717773512005806, -0.2736511528491974]"
1584376976453650770,,595941,,1584376976,453197083,'',"[shoulder_pan_joint, shoulder_lift_joint, elbow_joint, wrist_1_joint, wrist_2_joint,","[1.7805405855178833, -0.7969377676593226, 1.5940790176391602, -2.3712332884417933, -1.5671613852130335, 2.813169479370117]","[-0.08321846276521683, -0.17318643629550934, 0.36866673827171326, -0.187950998544693, 0.00023009712458588183, -0.05869394168257713]","[-0.9292603731155396, -7.997132301330566, -2.548938512802124, -0.7177734971046448, 0.0717773512005806, -0.3252411186695099]"
1584376976565694773,,595955,,1584376976,565254431,'',"[shoulder_pan_joint, shoulder_lift_joint, elbow_joint, wrist_1_joint, wrist_2_joint,","[1.7714849710464478, -0.8163326422320765, 1.6347661018371582, -2.3923023382769983, -1.5671256224261683, 2.8070030212402344]","[-0.07733819633722305, -0.16849501430988312, 0.3629142940044403, -0.1854199320077896, 0.0003067961661145091, -0.05113908648490906]","[-1.0849000215530396, -8.180237770080566, -2.64982008934021, -0.5697327256202698, 0.1031799390912056, -0.3858032524585724]"
1584376976677606188,,595969,,1584376976,677230818,'',"[shoulder_pan_joint, shoulder_lift_joint, elbow_joint, wrist_1_joint, wrist_2_joint,","[1.7627776861190796, -0.8350203672992151, 1.6745409965515137, -2.4124491850482386, -1.5671137014972132, 2.8008363246917725]","[-0.07859095185995102, -0.16829048097133636, 0.34987545013427734, -0.18432697653770447, 0.0004410194815136492, -0.06787864863872528]","[-0.7827759385108948, -7.685853004455566, -2.535487651824951, -0.6459961533546448, 0.1188812404870987, -0.2601929008960724]"
1584376976789571143,,595983,,1584376976,789183770,'',"[shoulder_pan_joint, shoulder_lift_joint, elbow_joint, wrist_1_joint, wrist_2_joint,","[1.7536625862121582, -0.8536127249347132, 1.7132949829101562, -2.432596031819479, -1.5669940153705042, 2.7924304008483887]","[-0.08870244026184082, -0.16451944410800934, 0.33126315474510193, -0.17462454736232758, 0.0004026699753012508, -0.06649807095527649]","[-1.0391236543655396, -7.534790992736816, -2.454782485961914, -0.7267456650733948, 0.1323394924402237, -0.4239349663257599]"
1584376976901615456,,595997,,1584376976,901208126,'',"[shoulder_pan_joint, shoulder_lift_joint, elbow_joint, wrist_1_joint, wrist_2_joint,","[1.7439957857131958, -0.8713062445269983, 1.7500195503234863, -2.4514387289630335, -1.5669696966754358, 2.7849106788635254]","[-0.08904758840799332, -0.1495886892080307, 0.31568047404289246, -0.1671847403049469, 0.0004793690168298781, -0.07213544845581055]","[-0.8697510361671448, -7.507325172424316, -2.36735200881958, -0.7132874131202698, 0.1547699123620987, -0.2714081108570099]"
1584376977013556006,,596011,,1584376977,13144999,'',"[shoulder_pan_joint, shoulder_lift_joint, elbow_joint, wrist_1_joint, wrist_2_joint,","[1.7340526580810547, -0.8875849882708948, 1.7846784591674805, -2.4693229834186, -1.566885773335592, 2.7772111892700195]","[-0.09102898091077805, -0.13758529722690582, 0.3052366077899933, -0.15656191110610962, 0.0011888351291418076, -0.05892403796315193]","[-0.9475709199905396, -7.516480445861816, -2.4099464416503906, -0.6841278672218323, 0.1570129543542862, -0.3858032524585724]"
1584376977125638812,,596025,,1584376977,125205032,'',"[shoulder_pan_joint, shoulder_lift_joint, elbow_joint, wrist_1_joint, wrist_2_joint,","[1.723258137702942, -0.9034088293658655, 1.8190255165100098, -2.486789051686422, -1.5668261686908167, 2.771571159362793]","[-0.09772735834121704, -0.14442428946495056, 0.31458112597465515, -0.15625512599945068, 0.0007669904152862728, -0.05464806780219078]","[-0.9887696504592896, -7.484436988830566, -2.360626459121704, -0.7043152451515198, 0.1345825344324112, -0.3005676567554474]"
1584376977237584561,,596039,,1584376977,237143197,'',"[shoulder_pan_joint, shoulder_lift_joint, elbow_joint, wrist_1_joint, wrist_2_joint,","[1.711708426475525, -0.9194968382464808, 1.8545122146606445, -2.504733387623922, -1.5667780081378382, 2.764434576034546]","[-0.09923577308654785, -0.14654630422592163, 0.3262649476528168, -0.16624517738819122, 0.0006135923322290182, -0.0608990378677845]","[-1.0070801973342896, -7.406617164611816, -2.3539011478424072, -0.7267456650733948, 0.1300964504480362, -0.3319702446460724]"
1584376977349589080,,596053,,1584376977,349120695,'',"[shoulder_pan_joint, shoulder_lift_joint, elbow_joint, wrist_1_joint, wrist_2_joint,","[1.7005656957626343, -0.9368909041034144, 1.8915824890136719, -2.5236476103412073, -1.5666940847979944, 2.7584002017974854]","[-0.10027121007442474, -0.15261830389499664, 0.3253956735134125, -0.16812430322170258, 0.0006711166352033615, -0.05307573825120926]","[-0.6912232041358948, -7.209778785705566, -2.266470432281494, -0.6841278672218323, 0.1637420803308487, -0.2960815727710724]"
1584376977461702492,,596067,,1584376977,461274172,'',"[shoulder_pan_joint, shoulder_lift_joint, elbow_joint, wrist_1_joint, wrist_2_joint,","[1.6888957023620605, -0.9537103811847132, 1.9280285835266113, -2.54181939760317, -1.5666583220111292, 2.7513954639434814]","[-0.10501377284526825, -0.15219646692276, 0.3170738220214844, -0.15991750359535217, 0.000690291344653815, -0.07399539649486542]","[-0.9201050996780396, -7.131958961486816, -2.3225157260894775, -0.8052521347999573, 0.1547699123620987, -0.3162689507007599]"
1584376977573515604,,596081,,1584376977,573143780,'',"[shoulder_pan_joint, shoulder_lift_joint, elbow_joint, wrist_1_joint, wrist_2_joint,","[1.677093505859375, -0.9703620115863245, 1.963489055633545, -2.5601113478290003, -1.5665386358844202, 2.743360757827759]","[-0.10541004687547684, -0.14319710433483124, 0.3113597631454468, -0.16099128127098083, 0.0007094661123119295, -0.06866481900215149]","[-0.8605957627296448, -6.976318836212158, -2.3471755981445312, -0.7581482529640198, 0.1884155422449112, -0.2960815727710724]"
1584376977685456584,,596095,,1584376977,685141757,'',"[shoulder_pan_joint, shoulder_lift_joint, elbow_joint, wrist_1_joint, wrist_2_joint,","[1.665518879890442, -0.9864500204669397, 1.9985885620117188, -2.578127686177389, -1.5664904753314417, 2.7341291904449463]","[-0.10959014296531677, -0.1420721858739853, 0.30388161540031433, -0.1596682220697403, 0.0011504855938255787, -0.09025559574365616]","[-0.8651733994483948, -6.985474109649658, -2.194732427597046, -0.7357178330421448, 0.1659851223230362, -0.3768310844898224]"
1584376977797498703,,596109,,1584376977,797165812,'',"[shoulder_pan_joint, shoulder_lift_joint, elbow_joint, wrist_1_joint, wrist_2_joint,","[1.6528291702270508, -1.002418343220846, 2.0329432487487793, -2.595557991658346, -1.5663464705096644, 2.7247536182403564]","[-0.11720892041921616, -0.13904257118701935, 0.3075503706932068, -0.1548745334148407, 0.0007478156476281583, -0.08523181080818176]","[-0.9017945528030396, -7.012939929962158, -2.2283596992492676, -0.8164673447608948, 0.2175751030445099, -0.3095398247241974]"
1584376977909432430,,596123,,1584376977,909141707,'',"[shoulder_pan_joint, shoulder_lift_joint, elbow_joint, wrist_1_joint, wrist_2_joint,","[1.6398876905441284, -1.0180037657367151, 2.066828727722168, -2.6129282156573694, -1.566298786793844, 2.714348793029785]","[-0.11614791303873062, -0.13983513414859772, 0.3003406524658203, -0.15176822245121002, 0.000690291344653815, -0.08431141823530197]","[-1.0208131074905396, -6.756592273712158, -2.080400228500366, -0.7850647568702698, 0.2041168361902237, -0.4239349663257599]"
1584376978021428383,,596137,,1584376978,21147369,'',"[shoulder_pan_joint, shoulder_lift_joint, elbow_joint, wrist_1_joint, wrist_2_joint,","[1.626633882522583, -1.0332534948932093, 2.0993452072143555, -2.629700009022848, -1.566286865864889, 2.7052011489868164]","[-0.12066037207841873, -0.12981311976909637, 0.27690911293029785, -0.1496206521987915, 0.00028762139845639467, -0.08847234398126602]","[-0.9246827363967896, -6.413269519805908, -1.9705514907836914, -0.7559052109718323, 0.1973877102136612, -0.3454284965991974]"
1584376978133470853,,596151,,1584376978,133182355,'',"[shoulder_pan_joint, shoulder_lift_joint, elbow_joint, wrist_1_joint, wrist_2_joint,","[1.61293625831604, -1.0471842924701136, 2.1291117668151855, -2.645334545766012, -1.5661910215960901, 2.696687698364258]","[-0.11805260926485062, -0.11649306118488312, 0.24757172167301178, -0.13520123064517975, 0.0008436894277110696, -0.06256724148988724]","[-0.7232666611671448, -6.225586414337158, -1.8472518920898438, -0.7446900010108948, 0.1839294582605362, -0.3252411186695099]"
1584376978245396915,,596165,,1584376978,245109980,'',"[shoulder_pan_joint, shoulder_lift_joint, elbow_joint, wrist_1_joint, wrist_2_joint,","[1.5994787216186523, -1.0597251097308558, 2.154892921447754, -2.658910099660055, -1.5661314169513147, 2.6886653900146484]","[-0.12027688324451447, -0.09768901020288467, 0.2148851454257965, -0.11276676505804062, 0.0006135923322290182, -0.08174200356006622]","[-0.9155274629592896, -6.170654773712158, -1.784481167793274, -0.7357178330421448, 0.1794433742761612, -0.3409424126148224]"
1584376978357353244,,596179,,1584376978,357070948,'',"[shoulder_pan_joint, shoulder_lift_joint, elbow_joint, wrist_1_joint, wrist_2_joint,","[1.585217833518982, -1.0702269713031214, 2.177781105041504, -2.670929257069723, -1.5660951773272913, 2.679816961288452]","[-0.12850923836231232, -0.08610745519399643, 0.19562090933322906, -0.10306433588266373, 0.00032597093377262354, -0.08112841099500656]","[-1.1123658418655396, -6.101990222930908, -1.8472518920898438, -0.894973874092102, 0.1861725002527237, -0.3364563286304474]"
1584376978469414369,,596193,,1584376978,469149585,'',"[shoulder_pan_joint, shoulder_lift_joint, elbow_joint, wrist_1_joint, wrist_2_joint,","[1.570836067199707, -1.0796979109393519, 2.199540138244629, -2.6820624510394495, -1.5660832563983362, 2.669663667678833]","[-0.13201183080673218, -0.08948221802711487, 0.18678772449493408, -0.09437817335128784, 0.0003067961661145091, -0.09148278087377548]","[-1.1169434785842896, -6.028748035430908, -2.0602238178253174, -0.8276825547218323, 0.1704712063074112, -0.4104767143726349]"
1584376978581288455,,596207,,1584376978,581056362,'',"[shoulder_pan_joint, shoulder_lift_joint, elbow_joint, wrist_1_joint, wrist_2_joint,","[1.5552914142608643, -1.0890496412860315, 2.220050811767578, -2.6927416960345667, -1.5659874121295374, 2.6596899032592773]","[-0.14222559332847595, -0.08227250725030899, 0.18452510237693787, -0.09997720271348953, 0.0003067961661145091, -0.0972735583782196]","[-1.1215211153030396, -6.193542957305908, -1.9571006298065186, -0.6863709092140198, 0.1704712063074112, -0.3005676567554474]"
1584376978693338679,,596221,,1584376978,693045703,'',"[shoulder_pan_joint, shoulder_lift_joint, elbow_joint, wrist_1_joint, wrist_2_joint,","[1.5396864414215088, -1.0983055273639124, 2.2408971786499023, -2.7037070433246058, -1.565939728413717, 2.649728298187256]","[-0.1439896672964096, -0.07769612967967987, 0.1906099021434784, -0.10043739527463913, 0.0007286408799700439, -0.07717841118574142]","[-0.9155274629592896, -6.216431140899658, -1.820350170135498, -0.7940369248390198, 0.2018737941980362, -0.3319702446460724]"
1584376978805362003,,596235,,1584376978,805049349,'',"[shoulder_pan_joint, shoulder_lift_joint, elbow_joint, wrist_1_joint, wrist_2_joint,","[1.522786021232605, -1.1079323927508753, 2.2628955841064453, -2.7150805632220667, -1.5658438841449183, 2.640437126159668]","[-0.15649160742759705, -0.08450955897569656, 0.19279582798480988, -0.09953618049621582, 0.0011313108261674643, -0.0850784108042717]","[-1.0482789278030396, -5.891418933868408, -1.9907277822494507, -0.966751217842102, 0.1861725002527237, -0.3970184624195099]"
1584376978917344611,,596249,,1584376978,917036596,'',"[shoulder_pan_joint, shoulder_lift_joint, elbow_joint, wrist_1_joint, wrist_2_joint,","[1.5050101280212402, -1.1179078261004847, 2.2843284606933594, -2.726393524800436, -1.5656879583941858, 2.6319961547851562]","[-0.16188611090183258, -0.09432704001665115, 0.1868516504764557, -0.09896093606948853, 0.0010162623366340995, -0.07349685579538345]","[-1.0665894746780396, -5.635071277618408, -1.786723017692566, -0.7828217148780823, 0.1794433742761612, -0.3185119926929474]"
1584376979029376772,,596263,,1584376979,29091510,'',"[shoulder_pan_joint, shoulder_lift_joint, elbow_joint, wrist_1_joint, wrist_2_joint,","[1.4877498149871826, -1.1272710005389612, 2.3042736053466797, -2.737203900014059, -1.5656641165362757, 2.622621536254883]","[-0.1407555192708969, -0.07969029992818832, 0.17492493987083435, -0.09341943264007568, 0.00032597093377262354, -0.08082161098718643]","[-1.0070801973342896, -5.726624011993408, -1.6858415603637695, -0.7469330430030823, 0.1929016262292862, -0.3970184624195099]"
1584376979141545157,,596277,,1584376979,141145130,'',"[shoulder_pan_joint, shoulder_lift_joint, elbow_joint, wrist_1_joint, wrist_2_joint,","[1.472768783569336, -1.1358559767352503, 2.323725938796997, -2.7473443190204065, -1.5656278769122522, 2.615030527114868]","[-0.12964694201946259, -0.07177752256393433, 0.1728157252073288, -0.08977622538805008, 0.00028762139845639467, -0.06768690049648285]","[-1.2496949434280396, -5.708313465118408, -1.8562191724777222, -0.877029538154602, 0.1973877102136612, -0.3028106987476349]"
1584376979253429812,,596291,,1584376979,253062927,'',"[shoulder_pan_joint, shoulder_lift_joint, elbow_joint, wrist_1_joint, wrist_2_joint,","[1.4595261812210083, -1.1446440855609339, 2.343165397644043, -2.7576282660113733, -1.565604035054342, 2.6077632904052734]","[-0.0992613434791565, -0.08043172955513, 0.18577785789966583, -0.09596967697143555, 0.00032597093377262354, -0.050698067992925644]","[-1.2588502168655396, -5.529785633087158, -1.7105014324188232, -0.7760925889015198, 0.1929016262292862, -0.3790741264820099]"
1584376979365431686,,596305,,1584376979,365078036,'',"[shoulder_pan_joint, shoulder_lift_joint, elbow_joint, wrist_1_joint, wrist_2_joint,","[1.450122356414795, -1.1540077368365687, 2.3651130199432373, -2.7690375486956995, -1.5655558745013636, 2.6036922931671143]","[-0.07136845588684082, -0.09322768449783325, 0.20906880497932434, -0.10801142454147339, 0.0004218447138555348, -0.0326162688434124]","[-1.2588502168655396, -5.868530750274658, -1.721710443496704, -0.8142243027687073, 0.2153320610523224, -0.2871094048023224]"
1584376979477538376,,596319,,1584376979,477162875,'',"[shoulder_pan_joint, shoulder_lift_joint, elbow_joint, wrist_1_joint, wrist_2_joint,","[1.4420498609542847, -1.1643551031695765, 2.389183282852173, -2.7812960783587855, -1.565472427998678, 2.599836826324463]","[-0.07418075948953629, -0.0981108546257019, 0.22173692286014557, -0.11048496514558792, 0.0009779128013178706, -0.04009442403912544]","[-1.1169434785842896, -5.639648914337158, -1.6948087215423584, -0.8927308320999146, 0.2960815727710724, -0.2758941948413849]"
1584376979589522507,,596333,,1584376979,589144251,'',"[shoulder_pan_joint, shoulder_lift_joint, elbow_joint, wrist_1_joint, wrist_2_joint,","[1.4341214895248413, -1.1756728331195276, 2.414513111114502, -2.794501606618063, -1.5653999487506312, 2.594473123550415]","[-0.0688757374882698, -0.10149839520454407, 0.2312348186969757, -0.11802064627408981, 0.0009395632660016418, -0.04266384243965149]","[-1.1306763887405396, -5.676270008087158, -1.598410964012146, -0.8792725801467896, 0.2826233208179474, -0.3588867485523224]"
1584376979701347080,,596347,,1584376979,701057479,'',"[shoulder_pan_joint, shoulder_lift_joint, elbow_joint, wrist_1_joint, wrist_2_joint,","[1.4261928796768188, -1.187423054371969, 2.4404778480529785, -2.808065716420309, -1.5652559439288538, 2.590725898742676]","[-0.06653641909360886, -0.0985710546374321, 0.22681184113025665, -0.11817404627799988, 0.0012271846644580364, -0.025866752490401268]","[-0.8239746689796448, -5.497742176055908, -1.4459677934646606, -1.0407716035842896, 0.3028106987476349, -0.3207550346851349]"
1584376979813470621,,596361,,1584376979,813052671,'',"[shoulder_pan_joint, shoulder_lift_joint, elbow_joint, wrist_1_joint, wrist_2_joint,","[1.4188281297683716, -1.1983102003680628, 2.4642937183380127, -2.820875946675436, -1.5651004950152796, 2.588630437850952]","[-0.07052476704120636, -0.08604354411363602, 0.20063190162181854, -0.10904686152935028, 0.001418932224623859, -0.014476943761110306]","[-1.1535645723342896, -5.328369617462158, -1.4459677934646606, -0.930862545967102, 0.3297272026538849, -0.3185119926929474]"
1584376979925438792,,596375,,1584376979,925049496,'',"[shoulder_pan_joint, shoulder_lift_joint, elbow_joint, wrist_1_joint, wrist_2_joint,","[1.4108514785766602, -1.20782977739443, 2.485325813293457, -2.832393471394674, -1.5649808088885706, 2.5867507457733154]","[-0.07351603358983994, -0.07597040385007858, 0.17087267339229584, -0.09424394369125366, 0.0024735440965741873, -0.024524519219994545]","[-1.1535645723342896, -5.003357410430908, -1.5625419616699219, -0.8231964707374573, 0.2893524467945099, -0.3117828667163849]"
1584376980037411803,,596389,,1584376980,37064945,'',"[shoulder_pan_joint, shoulder_lift_joint, elbow_joint, wrist_1_joint, wrist_2_joint,","[1.4023711681365967, -1.2156232039081019, 2.502434253692627, -2.841588322316305, -1.5648248831378382, 2.5843801498413086]","[-0.06847946345806122, -0.0685305967926979, 0.13375034928321838, -0.07255729287862778, 0.0007286408799700439, -0.0240068007260561]","[-0.9017945528030396, -4.980469226837158, -1.2845574617385864, -0.9734803438186646, 0.3072967827320099, -0.2826233208179474]"
1584376980149482084,,596403,,1584376980,149110851,'',"[shoulder_pan_joint, shoulder_lift_joint, elbow_joint, wrist_1_joint, wrist_2_joint,","[1.3954743146896362, -1.2211745421039026, 2.51458740234375, -2.8485081831561487, -1.564669434224264, 2.5808959007263184]","[-0.057562630623579025, -0.03262265771627426, 0.08295001089572906, -0.04881893843412399, 0.0018024274613708258, -0.03021942265331745]","[-0.9521485567092896, -4.893494129180908, -1.228512167930603, -0.8703004121780396, 0.2601929008960724, -0.3117828667163849]"
1584376980261402376,,596417,,1584376980,261020493,'',"[shoulder_pan_joint, shoulder_lift_joint, elbow_joint, wrist_1_joint, wrist_2_joint,","[1.3894410133361816, -1.224135700856344, 2.522517204284668, -2.8527944723712366, -1.5644176642047327, 2.577998638153076]","[-0.045891594141721725, -0.021859226748347282, 0.04940696433186531, -0.029375731945037842, 0.0033172336407005787, -0.019711652770638466]","[-0.7736206650733948, -4.989624500274658, -1.4370005130767822, -0.944320797920227, 0.2243042290210724, -0.3297272026538849]"
1584376980373426732,,596431,,1584376980,373032566,'',"[shoulder_pan_joint, shoulder_lift_joint, elbow_joint, wrist_1_joint, wrist_2_joint,","[1.3845828771591187, -1.2259586493121546, 2.526212215423584, -2.8551886717425745, -1.5640223662005823, 2.575927495956421]","[-0.046658582985401154, -0.0113386744633317, 0.022242721170186996, -0.014476943761110306, 0.0022626216523349285, -0.010852914303541183]","[-1.1077882051467896, -4.893494129180908, -1.3876807689666748, -0.8456268906593323, 0.1435547024011612, -0.3162689507007599]"
1584376980485454154,,596445,,1584376980,485047826,'',"[shoulder_pan_joint, shoulder_lift_joint, elbow_joint, wrist_1_joint, wrist_2_joint,","[1.378777265548706, -1.2263906637774866, 2.528048038482666, -2.8559911886798304, -1.5637109915362757, 2.578908681869507]","[-0.05048075318336487, -0.00048576059634797275, 0.013805827125906944, -0.0016490294365212321, 0.002205097349360585, 0.05230874568223953]","[-0.9613038301467896, -4.472351551055908, -1.3675044775009155, -0.8658143281936646, 0.0515899695456028, 0.3005676567554474]"
1584376980597427214,,596459,,1584376980,597027098,'',"[shoulder_pan_joint, shoulder_lift_joint, elbow_joint, wrist_1_joint, wrist_2_joint,","[1.3737393617630005, -1.2264145056353968, 2.5295112133026123, -2.856218163167135, -1.5634830633746546, 2.5842843055725098]","[-0.03948722407221794, -0.00015339808305725455, 0.010661167092621326, -0.001418932224623859, 0.0016490294365212321, 0.042222823947668076]","[-1.0437012910842896, -4.550171375274658, -1.4482096433639526, -0.8568421006202698, 0.01345825381577015, 0.3342132866382599]"
1584376980709372793,,596473,,1584376980,709015306,'',"[shoulder_pan_joint, shoulder_lift_joint, elbow_joint, wrist_1_joint, wrist_2_joint,","[1.3696011304855347, -1.226438347493307, 2.5298473834991455, -2.856218163167135, -1.5632312933551233, 2.5888822078704834]","[-0.038669098168611526, -8.948221511673182e-05, 0.000818123109638691, -0.0003067961661145091, 0.002281796419993043, 0.03810025006532669]","[-0.9933472871780396, -3.991699695587158, -1.8943299055099487, -0.6549683213233948, -0.01794433780014515, 0.2714081108570099]"
1584376980821383143,,596487,,1584376980,821020486,'',"[shoulder_pan_joint, shoulder_lift_joint, elbow_joint, wrist_1_joint, wrist_2_joint,","[1.3660746812820435, -1.2264025847064417, 2.5298714637756348, -2.85620624223818, -1.5630033651935022, 2.5944972038269043]","[-0.02249838598072529, -5.1132694352418184e-05, -0.00017896443023346364, -0.0002109223569277674, 0.001725728390738368, 0.05771602690219879]","[-0.9613038301467896, -3.968811511993408, -1.9234734773635864, -0.6056213974952698, -0.0314025916159153, 0.2938385307788849]"
1584376980933350262,,596501,,1584376980,933010849,'',"[shoulder_pan_joint, shoulder_lift_joint, elbow_joint, wrist_1_joint, wrist_2_joint,","[1.3648033142089844, -1.2264145056353968, 2.5298714637756348, -2.856218163167135, -1.5629437605487269, 2.600890636444092]","[-0.0031830102670937777, -5.1132694352418184e-05, -0.0, -0.00011504856229294091, 0.000517718552146107, 0.054916512221097946]","[-0.7186890244483948, -4.032898426055908, -1.9481333494186401, -0.6168366074562073, -0.01570129580795765, 0.3274841606616974]"
1584376981045383996,,596515,,1584376981,45052257,'',"[shoulder_pan_joint, shoulder_lift_joint, elbow_joint, wrist_1_joint, wrist_2_joint,","[1.3653429746627808, -1.2264145056353968, 2.529907464981079, -2.85620624223818, -1.562967602406637, 2.607571601867676]","[0.015800002962350845, -5.1132694352418184e-05, -0.0, -7.669904152862728e-05, 0.0003834952076431364, 0.07244224101305008]","[0.7278442978858948, -3.977966785430908, -2.006420373916626, -0.5831909775733948, -0.01570129580795765, 0.2422485649585724]"
1584376981157409083,,596529,,1584376981,157073146,'',"[shoulder_pan_joint, shoulder_lift_joint, elbow_joint, wrist_1_joint, wrist_2_joint,","[1.368533730506897, -1.226450268422262, 2.5299313068389893, -2.8561704794513147, -1.5630033651935022, 2.6159167289733887]","[0.034629616886377335, -5.1132694352418184e-05, 0.0001661812566453591, 7.669904152862728e-05, 0.0001917476038215682, 0.06586530059576035]","[0.7278442978858948, -4.083252429962158, -2.0378057956695557, -0.5405731797218323, 0.0022430422250181437, 0.4149627983570099]"
1584376981269257521,,596543,,1584376981,268971938,'',"[shoulder_pan_joint, shoulder_lift_joint, elbow_joint, wrist_1_joint, wrist_2_joint,","[1.3710163831710815, -1.226438347493307, 2.52988338470459, -2.8561585585223597, -1.5630272070514124, 2.6223459243774414]","[0.009139969013631344, -3.834952076431364e-05, 0.0001661812566453591, 7.669904152862728e-05, 0.00011504856229294091, 0.05480146408081055]","[0.9979249238967896, -4.046631336212158, -1.9032971858978271, -0.6033783555030823, 0.0022430422250181437, 0.2624359428882599]"
1584376981381295392,,596557,,1584376981,380979202,'',"[shoulder_pan_joint, shoulder_lift_joint, elbow_joint, wrist_1_joint, wrist_2_joint,","[1.3706448078155518, -1.226438347493307, 2.5298473834991455, -2.8561466375934046, -1.5630396048175257, 2.6281650066375732]","[-0.020504210144281387, -3.834952076431364e-05, -0.0, 0.00017257283616345376, 7.669904152862728e-05, 0.042203646153211594]","[-0.7461548447608948, -4.087830066680908, -1.8786371946334839, -0.6280518174171448, 0.0022430422250181437, 0.3274841606616974]"
1584376981493308377,,596571,,1584376981,492988710,'',"[shoulder_pan_joint, shoulder_lift_joint, elbow_joint, wrist_1_joint, wrist_2_joint,","[1.3679816722869873, -1.2264745871173304, 2.529487133026123, -2.8561223188983362, -1.5630272070514124, 2.632678985595703]","[-0.019046928733587265, 0.0, -0.0062637547962367535, 0.00017257283616345376, 5.752428114647046e-05, 0.037275735288858414]","[-0.9475709199905396, -3.776550769805908, -2.0534985065460205, -0.5383301377296448, -0.0022430422250181437, 0.2871094048023224]"
1584376981605327884,,596585,,1584376981,605002797,'',"[shoulder_pan_joint, shoulder_lift_joint, elbow_joint, wrist_1_joint, wrist_2_joint,","[1.3674300909042358, -1.2264745871173304, 2.5288517475128174, -2.856062714253561, -1.5630152861224573, 2.6344265937805176]","[0.0016106799012050033, 0.0, -0.0012655341997742653, 0.0005560680292546749, 5.752428114647046e-05, -0.0033364081755280495]","[-0.0320434607565403, -3.959656238555908, -1.8472518920898438, -0.5338440537452698, 0.0, -0.006729126907885075]"
1584376981717267522,,596599,,1584376981,716974795,'',"[shoulder_pan_joint, shoulder_lift_joint, elbow_joint, wrist_1_joint, wrist_2_joint,","[1.3674659729003906, -1.2264745871173304, 2.528923511505127, -2.8560150305377405, -1.5630396048175257, 2.6344146728515625]","[0.00026844663079828024, 0.0, 0.000472977408207953, 0.0004026699753012508, 3.834952076431364e-05, -0.0003067961661145091]","[-0.0411987341940403, -3.579712390899658, -1.5087385177612305, -0.4418793320655823, -0.0381317175924778, 0.0493469275534153]"
1584376981829276249,,596613,,1584376981,828979735,'',"[shoulder_pan_joint, shoulder_lift_joint, elbow_joint, wrist_1_joint, wrist_2_joint,","[1.3674540519714355, -1.226450268422262, 2.528923511505127, -2.8560269514666956, -1.5630396048175257, 2.6343908309936523]","[0.00011504856229294091, 0.0, 0.0001917476038215682, 0.00017257283616345376, 3.834952076431364e-05, -0.00015339808305725455]","[-0.0778198316693306, -3.520203113555908, -1.4930458068847656, -0.4396362900733948, -0.0403747595846653, 0.0426178015768528]"
1584376981941331252,,596627,,1584376981,941009381,'',"[shoulder_pan_joint, shoulder_lift_joint, elbow_joint, wrist_1_joint, wrist_2_joint,","[1.3674300909042358, -1.226450268422262, 2.528899669647217, -2.8560150305377405, -1.5630396048175257, 2.6344027519226074]","[7.669904152862728e-05, 0.0, 0.00011504856229294091, 9.58738019107841e-05, 1.917476038215682e-05, -9.58738019107841e-05]","[-0.0320434607565403, -3.488159418106079, -1.4975295066833496, -0.4373932480812073, -0.0381317175924778, 0.0448608435690403]"
1584376982053289604,,596641,,1584376982,52992530,'',"[shoulder_pan_joint, shoulder_lift_joint, elbow_joint, wrist_1_joint, wrist_2_joint,","[1.3674300909042358, -1.226450268422262, 2.528947591781616, -2.8560150305377405, -1.5630515257464808, 2.6344146728515625]","[5.1132694352418184e-05, 0.0, 8.948221511673182e-05, 7.669904152862728e-05, 1.917476038215682e-05, -7.669904152862728e-05]","[-0.0595092847943306, -3.561401844024658, -1.4594186544418335, -0.4149627983570099, -0.0403747595846653, 0.0471038855612278]"
1584376982165332745,,596655,,1584376982,165064906,'',"[shoulder_pan_joint, shoulder_lift_joint, elbow_joint, wrist_1_joint, wrist_2_joint,","[1.3674180507659912, -1.226438347493307, 2.5288755893707275, -2.8560031096087855, -1.5630272070514124, 2.6344027519226074]","[3.834952076431364e-05, 0.0, 6.391586794052273e-05, 7.669904152862728e-05, 1.917476038215682e-05, -5.752428114647046e-05]","[-0.1052856519818306, -3.602600574493408, -1.4975295066833496, -0.4239349663257599, -0.0403747595846653, 0.0448608435690403]"
1584376982277326214,,596669,,1584376982,276990087,'',"[shoulder_pan_joint, shoulder_lift_joint, elbow_joint, wrist_1_joint, wrist_2_joint,","[1.3674659729003906, -1.2264626661883753, 2.528911590576172, -2.8560388723956507, -1.5630515257464808, 2.6344146728515625]","[3.834952076431364e-05, 0.0, 5.1132694352418184e-05, 7.669904152862728e-05, 1.917476038215682e-05, -3.834952076431364e-05]","[-0.0640869215130806, -3.520203113555908, -1.4908039569854736, -0.4508515000343323, -0.0403747595846653, 0.0448608435690403]"
1584376982389267275,,596683,,1584376982,388928693,'',"[shoulder_pan_joint, shoulder_lift_joint, elbow_joint, wrist_1_joint, wrist_2_joint,","[1.367442011833191, -1.226450268422262, 2.5288875102996826, -2.8560031096087855, -1.5630152861224573, 2.6344027519226074]","[2.5566347176209092e-05, 0.0, 3.834952076431364e-05, 7.669904152862728e-05, 1.917476038215682e-05, -3.834952076431364e-05]","[-0.0411987341940403, -3.520203113555908, -1.499771237373352, -0.5069275498390198, -0.0358886756002903, 0.0448608435690403]"
1584376982501266734,,596697,,1584376982,500927030,'',"[shoulder_pan_joint, shoulder_lift_joint, elbow_joint, wrist_1_joint, wrist_2_joint,","[1.3674180507659912, -1.2264745871173304, 2.5288875102996826, -2.8559911886798304, -1.5630033651935022, 2.6344265937805176]","[2.5566347176209092e-05, 0.0, 3.834952076431364e-05, 7.669904152862728e-05, 1.917476038215682e-05, -3.834952076431364e-05]","[-0.0732421949505806, -3.625488758087158, -1.4795949459075928, -0.4104767143726349, -0.0426178015768528, 0.0448608435690403]"
1584376982613231038,,596711,,1584376982,612927812,'',"[shoulder_pan_joint, shoulder_lift_joint, elbow_joint, wrist_1_joint, wrist_2_joint,","[1.3674659729003906, -1.226438347493307, 2.528899669647217, -2.8560269514666956, -1.5630515257464808, 2.6344265937805176]","[1.2783173588104546e-05, 0.0, 3.834952076431364e-05, 5.752428114647046e-05, 1.917476038215682e-05, -1.917476038215682e-05]","[-0.0549316480755806, -3.520203113555908, -1.5087385177612305, -0.4620667099952698, -0.0403747595846653, 0.0448608435690403]"
1584376982725204960,,596725,,1584376982,724906914,'',"[shoulder_pan_joint, shoulder_lift_joint, elbow_joint, wrist_1_joint, wrist_2_joint,","[1.3674300909042358, -1.2264745871173304, 2.528911590576172, -2.8560269514666956, -1.5630033651935022, 2.6343908309936523]","[1.2783173588104546e-05, 0.0, 2.5566347176209092e-05, 3.834952076431364e-05, 1.917476038215682e-05, -1.917476038215682e-05]","[-0.0457763709127903, -3.511047601699829, -1.4975295066833496, -0.3902893364429474, -0.0336456336081028, 0.0381317175924778]"
1584376982837230138,,596739,,1584376982,836907215,'',"[shoulder_pan_joint, shoulder_lift_joint, elbow_joint, wrist_1_joint, wrist_2_joint,","[1.3674540519714355, -1.2264626661883753, 2.528899669647217, -2.8560031096087855, -1.5630272070514124, 2.6344265937805176]","[1.2783173588104546e-05, 0.0, 2.5566347176209092e-05, 3.834952076431364e-05, 1.917476038215682e-05, -1.917476038215682e-05]","[-0.0595092847943306, -3.543091297149658, -1.5266729593276978, -0.4396362900733948, -0.0381317175924778, 0.0403747595846653]"
1584376982949296492,,596753,,1584376982,948964973,'',"[shoulder_pan_joint, shoulder_lift_joint, elbow_joint, wrist_1_joint, wrist_2_joint,","[1.367442011833191, -1.2264626661883753, 2.528923511505127, -2.8560269514666956, -1.5630396048175257, 2.6344027519226074]","[1.2783173588104546e-05, 0.0, 2.5566347176209092e-05, 3.834952076431364e-05, 0.0, -1.917476038215682e-05]","[-0.0640869215130806, -3.570557117462158, -1.5221893787384033, -0.4127197563648224, -0.0336456336081028, 0.0426178015768528]"
1584376983061251328,,596767,,1584376983,60908729,'',"[shoulder_pan_joint, shoulder_lift_joint, elbow_joint, wrist_1_joint, wrist_2_joint,","[1.3674300909042358, -1.226450268422262, 2.528923511505127, -2.8560507933246058, -1.5630515257464808, 2.6344146728515625]","[1.2783173588104546e-05, 0.0, 2.5566347176209092e-05, 1.917476038215682e-05, 0.0, -1.917476038215682e-05]","[-0.1098632961511612, -3.570557117462158, -1.5266729593276978, -0.4553375840187073, -0.0381317175924778, 0.0403747595846653]"
1584376983173346356,,596781,,1584376983,173035326,'',"[shoulder_pan_joint, shoulder_lift_joint, elbow_joint, wrist_1_joint, wrist_2_joint,","[1.3674780130386353, -1.2264626661883753, 2.528923511505127, -2.8559911886798304, -1.5630515257464808, 2.6344265937805176]","[1.2783173588104546e-05, 0.0, 1.2783173588104546e-05, 1.917476038215682e-05, 0.0, -1.917476038215682e-05]","[-0.0915527418255806, -3.460693597793579, -1.5311566591262817, -0.3992615044116974, -0.0381317175924778, 0.0471038855612278]"
1584376983285220322,,596795,,1584376983,284882691,'',"[shoulder_pan_joint, shoulder_lift_joint, elbow_joint, wrist_1_joint, wrist_2_joint,","[1.367442011833191, -1.2264745871173304, 2.528899669647217, -2.8560150305377405, -1.5630396048175257, 2.6344265937805176]","[1.2783173588104546e-05, 0.0, 1.2783173588104546e-05, 1.917476038215682e-05, 0.0, -1.917476038215682e-05]","[-0.1052856519818306, -3.561401844024658, -1.5199475288391113, -0.4373932480812073, -0.0403747595846653, 0.0403747595846653]"
1584376983397273131,,596809,,1584376983,396914792,'',"[shoulder_pan_joint, shoulder_lift_joint, elbow_joint, wrist_1_joint, wrist_2_joint,","[1.3674540519714355, -1.2264626661883753, 2.528911590576172, -2.856062714253561, -1.5630634466754358, 2.634450674057007]","[1.2783173588104546e-05, 0.0, 1.2783173588104546e-05, 1.917476038215682e-05, 0.0, -1.917476038215682e-05]","[-0.1190185695886612, -3.511047601699829, -1.549091100692749, -0.4104767143726349, -0.0403747595846653, 0.0426178015768528]"
1584376983509324647,,596823,,1584376983,508922046,'',"[shoulder_pan_joint, shoulder_lift_joint, elbow_joint, wrist_1_joint, wrist_2_joint,","[1.3674659729003906, -1.2264745871173304, 2.528923511505127, -2.8560269514666956, -1.5630272070514124, 2.6344265937805176]","[1.2783173588104546e-05, 0.0, 1.2783173588104546e-05, 1.917476038215682e-05, 0.0, 0.0]","[-0.0823974683880806, -3.538513660430908, -1.5401238203048706, -0.4575806260108948, -0.0381317175924778, 0.0448608435690403]"
1584376983621337652,,596837,,1584376983,620919011,'',"[shoulder_pan_joint, shoulder_lift_joint, elbow_joint, wrist_1_joint, wrist_2_joint,","[1.3674780130386353, -1.2264626661883753, 2.528899669647217, -2.8559911886798304, -1.5630272070514124, 2.6344265937805176]","[0.0, 0.0, 1.2783173588104546e-05, 1.917476038215682e-05, 0.0, 0.0]","[-0.0823974683880806, -3.511047601699829, -1.5401238203048706, -0.4575806260108948, -0.0381317175924778, 0.0381317175924778]"
1584376983733321783,,596851,,1584376983,732920584,'',"[shoulder_pan_joint, shoulder_lift_joint, elbow_joint, wrist_1_joint, wrist_2_joint,","[1.3674540519714355, -1.2264626661883753, 2.528923511505127, -2.8560031096087855, -1.5630272070514124, 2.6344387531280518]","[0.0, 0.0, 1.2783173588104546e-05, 1.917476038215682e-05, 0.0, 0.0]","[-0.0640869215130806, -3.552246570587158, -1.5289148092269897, -0.4486084580421448, -0.0358886756002903, 0.0493469275534153]"
1584376983845188114,,596865,,1584376983,844880430,'',"[shoulder_pan_joint, shoulder_lift_joint, elbow_joint, wrist_1_joint, wrist_2_joint,","[1.3674659729003906, -1.226438347493307, 2.528935670852661, -2.8560269514666956, -1.5630515257464808, 2.6344146728515625]","[0.0, 0.0, 1.2783173588104546e-05, 1.917476038215682e-05, 0.0, 0.0]","[-0.1235962063074112, -3.556824207305908, -1.5266729593276978, -0.4687958359718323, -0.0381317175924778, 0.0471038855612278]"
1584376983957264597,,596879,,1584376983,956922599,'',"[shoulder_pan_joint, shoulder_lift_joint, elbow_joint, wrist_1_joint, wrist_2_joint,","[1.367442011833191, -1.226438347493307, 2.528911590576172, -2.8560150305377405, -1.5630396048175257, 2.6344027519226074]","[0.0, 0.0, 1.2783173588104546e-05, 0.0, 0.0, 0.0]","[-0.0869751051068306, -3.579712390899658, -1.5311566591262817, -0.4284210503101349, -0.0358886756002903, 0.0381317175924778]"
1584376984069186172,,596893,,1584376984,68907251,'',"[shoulder_pan_joint, shoulder_lift_joint, elbow_joint, wrist_1_joint, wrist_2_joint,","[1.3674659729003906, -1.226450268422262, 2.528935670852661, -2.8560269514666956, -1.5630272070514124, 2.6344265937805176]","[0.0, 0.0, 1.2783173588104546e-05, 0.0, 0.0, 0.0]","[-0.0503540076315403, -3.598022937774658, -1.5177057981491089, -0.4486084580421448, -0.0358886756002903, 0.0448608435690403]"
1584376984181126751,,596907,,1584376984,180878278,'',"[shoulder_pan_joint, shoulder_lift_joint, elbow_joint, wrist_1_joint, wrist_2_joint,","[1.3674659729003906, -1.226438347493307, 2.528923511505127, -2.8560150305377405, -1.5630634466754358, 2.6344387531280518]","[0.0, 0.0, 1.2783173588104546e-05, 0.0, 0.0, 0.0]","[-0.0411987341940403, -3.533936023712158, -1.5423656702041626, -0.4486084580421448, -0.0403747595846653, 0.0426178015768528]"
1584376984293250082,,596921,,1584376984,292944442,'',"[shoulder_pan_joint, shoulder_lift_joint, elbow_joint, wrist_1_joint, wrist_2_joint,","[1.3674540519714355, -1.226450268422262, 2.528899669647217, -2.8559911886798304, -1.5630272070514124, 2.634450674057007]","[0.0, 0.0, 1.2783173588104546e-05, 0.0, 0.0, 0.0]","[-0.0732421949505806, -3.538513660430908, -1.5311566591262817, -0.4261780083179474, -0.0426178015768528, 0.0426178015768528]"
1584376984405178950,,596935,,1584376984,404854134,'',"[shoulder_pan_joint, shoulder_lift_joint, elbow_joint, wrist_1_joint, wrist_2_joint,","[1.3674540519714355, -1.226438347493307, 2.528911590576172, -2.8560150305377405, -1.5630272070514124, 2.6344146728515625]","[0.0, 0.0, 1.2783173588104546e-05, 0.0, 0.0, 0.0]","[-0.0778198316693306, -3.543091297149658, -1.549091100692749, -0.4643097519874573, -0.0381317175924778, 0.0448608435690403]"
1584376984517155426,,596949,,1584376984,516852761,'',"[shoulder_pan_joint, shoulder_lift_joint, elbow_joint, wrist_1_joint, wrist_2_joint,","[1.3674300909042358, -1.2264626661883753, 2.528899669647217, -2.8560031096087855, -1.5630396048175257, 2.6344146728515625]","[0.0, 0.0, 1.2783173588104546e-05, 0.0, 0.0, 0.0]","[-0.0778198316693306, -3.565979480743408, -1.5401238203048706, -0.4396362900733948, -0.0403747595846653, 0.0403747595846653]"
1584376984629158503,,596963,,1584376984,628846220,'',"[shoulder_pan_joint, shoulder_lift_joint, elbow_joint, wrist_1_joint, wrist_2_joint,","[1.3675379753112793, -1.226342503224508, 2.528791666030884, -2.8560031096087855, -1.5630396048175257, 2.6346540451049805]","[0.006110357120633125, 0.006033658050000668, -0.0022242721170186996, 0.0, 0.0, 0.010469418950378895]","[0.3067016899585724, -2.407837152481079, -2.0602238178253174, -0.5226288437843323, -0.0560760572552681, 0.3162689507007599]"
1584376984741258009,,596977,,1584376984,740958801,'',"[shoulder_pan_joint, shoulder_lift_joint, elbow_joint, wrist_1_joint, wrist_2_joint,","[1.3689775466918945, -1.224232021962301, 2.527088165283203, -2.8562424818622034, -1.563171688710348, 2.6379826068878174]","[0.0203380286693573, 0.030193855985999107, -0.02419854700565338, -0.005407282616943121, -0.002070874208584428, 0.04494563862681389]","[0.6774902939796448, -2.270508050918579, -2.264228582382202, -0.8187103867530823, -0.1278534084558487, 0.2287903130054474]"
1584376984853220871,,596991,,1584376984,852910051,'',"[shoulder_pan_joint, shoulder_lift_joint, elbow_joint, wrist_1_joint, wrist_2_joint,","[1.3720600605010986, -1.2196758429156702, 2.523381233215332, -2.8571046034442347, -1.563411060963766, 2.6449270248413086]","[0.03533269092440605, 0.05011003836989403, -0.03965340554714203, -0.010814565233886242, -0.010584468021988869, 0.0776577815413475]","[0.8422852158546448, -2.403259515762329, -2.3157904148101807, -0.8187103867530823, -0.0986938551068306, 0.3499145805835724]"
1584376984965169956,,597005,,1584376984,964855439,'',"[shoulder_pan_joint, shoulder_lift_joint, elbow_joint, wrist_1_joint, wrist_2_joint,","[1.3768219947814941, -1.2129853407489222, 2.517970323562622, -2.8583853880511683, -1.5638425985919397, 2.6555111408233643]","[0.04866554215550423, 0.06982169300317764, -0.05505712702870369, -0.010757040232419968, 0.0, 0.11060001701116562]","[1.2039185762405396, -2.192688226699829, -2.284404993057251, -0.7581482529640198, -0.2646789848804474, 0.3499145805835724]"
1584376985077110606,,597019,,1584376985,76802921,'',"[shoulder_pan_joint, shoulder_lift_joint, elbow_joint, wrist_1_joint, wrist_2_joint,","[1.3829278945922852, -1.2040050665484827, 2.510460376739502, -2.85966664949526, -1.5645135084735315, 2.669663667678833]","[0.059480104595422745, 0.09055600315332413, -0.07519062608480453, -0.008743690326809883, -0.00552233075723052, 0.14177817106246948]","[1.2496949434280396, -2.339172601699829, -2.27319598197937, -0.7805786728858948, -0.1906585842370987, 0.3409424126148224]"
1584376985189133219,,597033,,1584376985,188832307,'',"[shoulder_pan_joint, shoulder_lift_joint, elbow_joint, wrist_1_joint, wrist_2_joint,","[1.3901244401931763, -1.1931899229632776, 2.501654624938965, -2.860875908528463, -1.5653398672686976, 2.6865220069885254]","[0.06313609331846237, 0.08966118097305298, -0.07571473717689514, -0.009357282891869545, -0.0046786414459347725, 0.14329297840595245]","[0.7965088486671448, -2.453613519668579, -2.109543800354004, -0.7402039170265198, -0.2355194389820099, 0.3745880424976349]"
1584376985301138219,,597047,,1584376985,300856022,'',"[shoulder_pan_joint, shoulder_lift_joint, elbow_joint, wrist_1_joint, wrist_2_joint,","[1.3961217403411865, -1.1844256559955042, 2.4941439628601074, -2.861689869557516, -1.5660117308246058, 2.7004833221435547]","[0.04653075337409973, 0.06782751530408859, -0.0565655417740345, -0.0054456316865980625, -0.007765777874737978, 0.10887429118156433]","[1.0849000215530396, -2.439880609512329, -2.1633472442626953, -0.6639404892921448, -0.1592559963464737, 0.2871094048023224]"
1584376985413149460,,597061,,1584376985,412833861,'',"[shoulder_pan_joint, shoulder_lift_joint, elbow_joint, wrist_1_joint, wrist_2_joint,","[1.4005600214004517, -1.1781428495990198, 2.4886014461517334, -2.862181011830465, -1.5663588682757776, 2.7106964588165283]","[0.0333385169506073, 0.04614725708961487, -0.04385906830430031, -0.003930825740098953, -0.0054456316865980625, 0.07552938163280487]","[0.7415772080421448, -2.357483148574829, -2.0557403564453125, -0.6729126572608948, -0.1480407863855362, 0.4486084580421448]"
1584376985525112291,,597075,,1584376985,524817591,'',"[shoulder_pan_joint, shoulder_lift_joint, elbow_joint, wrist_1_joint, wrist_2_joint,","[1.4034029245376587, -1.1739466826068323, 2.4849061965942383, -2.8624919096576136, -1.5666940847979944, 2.7174017429351807]","[0.017845310270786285, 0.028928320854902267, -0.023214243352413177, -0.0044293696992099285, -0.004870389122515917, 0.04458131641149521]","[0.6774902939796448, -2.709961175918579, -2.1521382331848145, -0.6863709092140198, -0.1816864162683487, 0.3319702446460724]"
1584376985637123092,,597089,,1584376985,636799207,'',"[shoulder_pan_joint, shoulder_lift_joint, elbow_joint, wrist_1_joint, wrist_2_joint,","[1.4046623706817627, -1.1718605200396937, 2.4831783771514893, -2.862647835408346, -1.5668380896197718, 2.7205629348754883]","[0.004550809971988201, 0.008066182024776936, -0.0068517811596393585, -0.001073786523193121, -0.0033747577108442783, 0.012712866067886353]","[0.4623413681983948, -2.613830804824829, -1.869670033454895, -0.6998291611671448, -0.0919647291302681, 0.2624359428882599]"
1584376985749168998,,597103,,1584376985,748831889,'',"[shoulder_pan_joint, shoulder_lift_joint, elbow_joint, wrist_1_joint, wrist_2_joint,","[1.404686450958252, -1.17180043855776, 2.4830944538116455, -2.86280328432192, -1.5668981711017054, 2.7206344604492188]","[-0.00020453077740967274, 0.0003579288604669273, -0.0004090615548193455, -0.0019558256026357412, -0.0014381069922819734, -0.0009203884983435273]","[0.0503540076315403, -3.158569574356079, -1.6028945446014404, -0.6684265732765198, -0.1300964504480362, -0.006729126907885075]"
1584376985861188616,,597117,,1584376985,860875131,'',"[shoulder_pan_joint, shoulder_lift_joint, elbow_joint, wrist_1_joint, wrist_2_joint,","[1.4046504497528076, -1.1718362013446253, 2.4831182956695557, -2.8628271261798304, -1.5668981711017054, 2.7206225395202637]","[-0.00012783173588104546, 0.00012783173588104546, -0.00017896443023346364, -0.00028762139845639467, -0.00024927189224399626, -0.00023009712458588183]","[0.1052856519818306, -3.236389398574829, -1.6118618249893188, -0.6661835312843323, -0.1323394924402237, -0.01345825381577015]"
1584376985973185660,,597131,,1584376985,972826490,'',"[shoulder_pan_joint, shoulder_lift_joint, elbow_joint, wrist_1_joint, wrist_2_joint,","[1.404638409614563, -1.1718123594867151, 2.4830944538116455, -2.8628152052508753, -1.5669339338885706, 2.720646381378174]","[-7.669904152862728e-05, 7.669904152862728e-05, -0.00011504856229294091, -0.00028762139845639467, -0.00013422331539914012, -0.00013422331539914012]","[0.2243042290210724, -3.222656488418579, -1.6611815690994263, -0.6773987412452698, -0.1323394924402237, -0.01345825381577015]"
1584376986085101013,,597145,,1584376986,84788610,'',"[shoulder_pan_joint, shoulder_lift_joint, elbow_joint, wrist_1_joint, wrist_2_joint,","[1.4046744108200073, -1.1718123594867151, 2.4830944538116455, -2.8628390471087855, -1.5669940153705042, 2.720646381378174]","[-3.834952076431364e-05, 5.1132694352418184e-05, -7.669904152862728e-05, -0.00015339808305725455, -9.58738019107841e-05, -7.669904152862728e-05]","[0.3890991508960724, -3.213501214981079, -1.7486122846603394, -0.6616974472999573, -0.1457977443933487, -0.011215210892260075]"
1584376986197137732,,597159,,1584376986,196828665,'',"[shoulder_pan_joint, shoulder_lift_joint, elbow_joint, wrist_1_joint, wrist_2_joint,","[1.4046744108200073, -1.1718247572528284, 2.4831182956695557, -2.8628514448748987, -1.5669577757464808, 2.7206108570098877]","[-3.834952076431364e-05, 3.834952076431364e-05, -6.391586794052273e-05, -0.00015339808305725455, -9.58738019107841e-05, -5.752428114647046e-05]","[0.5905151963233948, -3.240967035293579, -1.8517354726791382, -0.6616974472999573, -0.1368255764245987, -0.01570129580795765]"
1584376986309065678,,597173,,1584376986,308787700,'',"[shoulder_pan_joint, shoulder_lift_joint, elbow_joint, wrist_1_joint, wrist_2_joint,","[1.4046744108200073, -1.1718247572528284, 2.4830944538116455, -2.862875286732809, -1.5669577757464808, 2.7206225395202637]","[0.0, 3.834952076431364e-05, -1.2783173588104546e-05, -0.00013422331539914012, -9.58738019107841e-05, -5.752428114647046e-05]","[0.4394531846046448, -3.195190668106079, -1.867428183555603, -0.6572113633155823, -0.1390686184167862, -0.011215210892260075]"
1584376986421106535,,597187,,1584376986,420740832,'',"[shoulder_pan_joint, shoulder_lift_joint, elbow_joint, wrist_1_joint, wrist_2_joint,","[1.4047223329544067, -1.17180043855776, 2.483142375946045, -2.8628514448748987, -1.5669458548175257, 2.7205870151519775]","[0.0, 2.5566347176209092e-05, -1.2783173588104546e-05, -9.58738019107841e-05, -7.669904152862728e-05, -3.834952076431364e-05]","[0.4760742783546448, -3.245544672012329, -1.8382846117019653, -0.6370239853858948, -0.1323394924402237, -0.01345825381577015]"
