PorkPy/robot-pulling-data/single_traj_200mm/joint_states_throttle.csv
rosbagTimestamp,header,seq,stamp,secs,nsecs,frame_id,name,wrist_3_joint],position,velocity,effort
1584460284919519676,,2299179,,1584460284,919113938,'',"[shoulder_pan_joint, shoulder_lift_joint, elbow_joint, wrist_1_joint, wrist_2_joint,","[1.4047343730926514, -1.1718247572528284, 2.4829862117767334, -2.8627551237689417, -1.566885773335592, 2.7205989360809326]","[0.0, 0.0, -0.0, 0.0, 0.0, 0.0]","[0.5035400986671448, -4.389954090118408, -1.4392423629760742, -0.4800110459327698, 0.0426178015768528, 0.006729126907885075]"
1584460285031619913,,2299193,,1584460285,31205669,'',"[shoulder_pan_joint, shoulder_lift_joint, elbow_joint, wrist_1_joint, wrist_2_joint,","[1.4047343730926514, -1.171788517628805, 2.4829981327056885, -2.8627198378192347, -1.5669100920306605, 2.7206225395202637]","[0.0, 0.0, -0.0, 0.0, 0.0, 0.0]","[0.5172730088233948, -4.399109363555908, -1.4370005130767822, -0.4643097519874573, 0.0605621412396431, 0.004486084450036287]"
1584460285143841136,,2299207,,1584460285,143396155,'',"[shoulder_pan_joint, shoulder_lift_joint, elbow_joint, wrist_1_joint, wrist_2_joint,","[1.4047223329544067, -1.1718485991107386, 2.482962131500244, -2.8627551237689417, -1.566885773335592, 2.7205870151519775]","[0.0, 0.0, -0.0, 0.0, 0.0, 0.0]","[0.4989624619483948, -4.298401355743408, -1.4257915019989014, -0.4710388779640198, 0.0605621412396431, 0.006729126907885075]"
1584460285255662142,,2299221,,1584460285,255273907,'',"[shoulder_pan_joint, shoulder_lift_joint, elbow_joint, wrist_1_joint, wrist_2_joint,","[1.4047462940216064, -1.17180043855776, 2.482962131500244, -2.8627551237689417, -1.5669100920306605, 2.7206108570098877]","[0.0, 0.0, -0.0, 0.0, 0.0, 0.0]","[0.4943848252296448, -4.399109363555908, -1.4235496520996094, -0.4867401719093323, 0.0515899695456028, 0.008972168900072575]"
1584460285367721804,,2299235,,1584460285,367171315,'',"[shoulder_pan_joint, shoulder_lift_joint, elbow_joint, wrist_1_joint, wrist_2_joint,","[1.4047462940216064, -1.1718247572528284, 2.4829862117767334, -2.862767521535055, -1.5669100920306605, 2.7206108570098877]","[0.0, 0.0, -0.0, 0.0, 0.0, 0.0]","[0.4989624619483948, -4.357910633087158, -1.4280333518981934, -0.4755249619483948, 0.0583190992474556, 0.02018737979233265]"
1584460285479452451,,2299249,,1584460285,479093981,'',"[shoulder_pan_joint, shoulder_lift_joint, elbow_joint, wrist_1_joint, wrist_2_joint,","[1.4047343730926514, -1.1718123594867151, 2.4829981327056885, -2.8627551237689417, -1.5668981711017054, 2.7206344604492188]","[0.0, 0.0, -0.0, 0.0, 0.0, 0.0]","[0.5126953721046448, -4.421997547149658, -1.421307921409607, -0.4777680039405823, 0.0605621412396431, 0.004486084450036287]"
1584460285591631105,,2299263,,1584460285,591237630,'',"[shoulder_pan_joint, shoulder_lift_joint, elbow_joint, wrist_1_joint, wrist_2_joint,","[1.4047104120254517, -1.1718247572528284, 2.4829862117767334, -2.862791363392965, -1.5669100920306605, 2.7205989360809326]","[0.0, 0.0, -0.0, 0.0, 0.0, 0.0]","[0.4714966416358948, -4.353332996368408, -1.419066071510315, -0.4822540879249573, 0.0672912672162056, 0.004486084450036287]"
1584460285703722135,,2299277,,1584460285,703282313,'',"[shoulder_pan_joint, shoulder_lift_joint, elbow_joint, wrist_1_joint, wrist_2_joint,","[1.4047223329544067, -1.1718123594867151, 2.482962131500244, -2.8627551237689417, -1.5668981711017054, 2.7206225395202637]","[0.0, 0.0, -0.0, 0.0, 0.0, 0.0]","[0.5081177353858948, -4.344177722930908, -1.4347587823867798, -0.4710388779640198, 0.0672912672162056, 0.008972168900072575]"
1584460285815530687,,2299291,,1584460285,815127935,'',"[shoulder_pan_joint, shoulder_lift_joint, elbow_joint, wrist_1_joint, wrist_2_joint,","[1.4047223329544067, -1.1718123594867151, 2.4829742908477783, -2.86277944246401, -1.566861931477682, 2.7206225395202637]","[0.0, 0.0, -0.0, 0.0, 0.0, 0.0]","[0.4989624619483948, -4.385376453399658, -1.4257915019989014, -0.4800110459327698, 0.0515899695456028, 0.008972168900072575]"
1584460285927526590,,2299305,,1584460285,927083001,'',"[shoulder_pan_joint, shoulder_lift_joint, elbow_joint, wrist_1_joint, wrist_2_joint,","[1.4047223329544067, -1.1718123594867151, 2.482962131500244, -2.8627312819110315, -1.5668981711017054, 2.720646381378174]","[0.0, 0.0, -0.0, 0.0, 0.0, 0.0]","[0.5081177353858948, -4.348755359649658, -1.4280333518981934, -0.4822540879249573, 0.0515899695456028, 0.004486084450036287]"
1584460286039715142,,2299319,,1584460286,39152591,'',"[shoulder_pan_joint, shoulder_lift_joint, elbow_joint, wrist_1_joint, wrist_2_joint,","[1.4047223329544067, -1.1718247572528284, 2.4829862117767334, -2.8627312819110315, -1.5668981711017054, 2.7205989360809326]","[0.0, 0.0, -0.0, 0.0, 0.0, 0.0]","[0.4943848252296448, -4.344177722930908, -1.4235496520996094, -0.4777680039405823, 0.0560760572552681, 0.004486084450036287]"
1584460286151600608,,2299333,,1584460286,151062503,'',"[shoulder_pan_joint, shoulder_lift_joint, elbow_joint, wrist_1_joint, wrist_2_joint,","[1.4047104120254517, -1.171788517628805, 2.4829742908477783, -2.86277944246401, -1.5669100920306605, 2.7206344604492188]","[0.0, 0.0, -0.0, 0.0, 0.0, 0.0]","[0.4943848252296448, -4.321289539337158, -1.4235496520996094, -0.4800110459327698, 0.0650482252240181, 0.004486084450036287]"
1584460286263707207,,2299347,,1584460286,263133866,'',"[shoulder_pan_joint, shoulder_lift_joint, elbow_joint, wrist_1_joint, wrist_2_joint,","[1.4047104120254517, -1.17180043855776, 2.482962131500244, -2.86277944246401, -1.5669220129596155, 2.7206225395202637]","[0.0, 0.0, -0.0, 0.0, 0.0, 0.0]","[0.4623413681983948, -4.367065906524658, -1.4235496520996094, -0.4732819199562073, 0.0515899695456028, 0.008972168900072575]"
1584460286375490512,,2299361,,1584460286,375041323,'',"[shoulder_pan_joint, shoulder_lift_joint, elbow_joint, wrist_1_joint, wrist_2_joint,","[1.4047462940216064, -1.1718485991107386, 2.482950210571289, -2.862767521535055, -1.5669100920306605, 2.7206225395202637]","[0.0, 0.0, -0.0, 0.0, 0.0, 0.0]","[0.5172730088233948, -4.344177722930908, -1.4123406410217285, -0.4800110459327698, 0.0583190992474556, 0.011215210892260075]"
1584460286487389223,,2299375,,1584460286,486994286,'',"[shoulder_pan_joint, shoulder_lift_joint, elbow_joint, wrist_1_joint, wrist_2_joint,","[1.4047343730926514, -1.1718247572528284, 2.4829862117767334, -2.86277944246401, -1.5669100920306605, 2.7206225395202637]","[0.0, 0.0, -0.0, 0.0, 0.0, 0.0]","[0.4806519150733948, -4.380798816680908, -1.416824221611023, -0.4800110459327698, 0.0493469275534153, 0.004486084450036287]"
1584460286599647186,,2299389,,1584460286,599146681,'',"[shoulder_pan_joint, shoulder_lift_joint, elbow_joint, wrist_1_joint, wrist_2_joint,","[1.4047223329544067, -1.1718123594867151, 2.4829862117767334, -2.862767521535055, -1.566885773335592, 2.7206225395202637]","[0.0, 0.0, -0.0, 0.0, 0.0, 0.0]","[0.4943848252296448, -4.312134265899658, -1.4257915019989014, -0.4732819199562073, 0.0560760572552681, 0.006729126907885075]"
1584460286711656383,,2299403,,1584460286,711138255,'',"[shoulder_pan_joint, shoulder_lift_joint, elbow_joint, wrist_1_joint, wrist_2_joint,","[1.4047343730926514, -1.17180043855776, 2.482950210571289, -2.8627551237689417, -1.5669100920306605, 2.7206108570098877]","[0.0, 0.0, -0.0, 0.0, 0.0, 0.0]","[0.5172730088233948, -4.371643543243408, -1.4145824909210205, -0.4665527939796448, 0.0583190992474556, 0.006729126907885075]"
1584460286823576924,,2299417,,1584460286,823013011,'',"[shoulder_pan_joint, shoulder_lift_joint, elbow_joint, wrist_1_joint, wrist_2_joint,","[1.4045661687850952, -1.1717284361468714, 2.4830222129821777, -2.862647835408346, -1.566873852406637, 2.720431089401245]","[-0.01619628071784973, 0.003962783608585596, 0.002032524673268199, 0.0029529130551964045, 0.0, -0.020536167547106743]","[-0.8605957627296448, -3.085327386856079, -0.9908802509307861, -0.2871094048023224, 0.0426178015768528, -0.3095398247241974]"
1584460286935553641,,2299431,,1584460286,935064908,'',"[shoulder_pan_joint, shoulder_lift_joint, elbow_joint, wrist_1_joint, wrist_2_joint,","[1.4026591777801514, -1.1717045942889612, 2.48435378074646, -2.86280328432192, -1.566885773335592, 2.7198801040649414]","[-0.010661167092621326, -0.0004090615548193455, 0.012834305875003338, -0.0020133499056100845, 0.0, 0.03576092794537544]","[-0.8972169160842896, -3.790283679962158, -0.7532483339309692, -0.6011353135108948, 0.0358886756002903, 0.1772003322839737]"
1584460287047629062,,2299445,,1584460287,47096196,'',"[shoulder_pan_joint, shoulder_lift_joint, elbow_joint, wrist_1_joint, wrist_2_joint,","[1.4014716148376465, -1.1716445128070276, 2.4849183559417725, -2.8627432028399866, -1.566873852406637, 2.722766160964966]","[-0.013038837350904942, 0.0, -0.0003707120195031166, -0.00023009712458588183, 0.0, 0.007880826480686665]","[-0.8056641221046448, -3.231811761856079, -1.0491673946380615, -0.3678589165210724, 0.0381317175924778, 0.2714081108570099]"
1584460287159460046,,2299459,,1584460287,159048758,'',"[shoulder_pan_joint, shoulder_lift_joint, elbow_joint, wrist_1_joint, wrist_2_joint,","[1.3997803926467896, -1.171464745198385, 2.4843180179595947, -2.8621090094195765, -1.5669220129596155, 2.718491554260254]","[-0.010558901354670525, 0.007427023723721504, -0.016630908474326134, 0.017544904723763466, 0.0, -0.03244369477033615]","[-1.0345460176467896, -2.719116449356079, -1.5177057981491089, -0.2512207329273224, 0.01794433780014515, -0.3633728325366974]"
1584460287271549824,,2299473,,1584460287,271123498,'',"[shoulder_pan_joint, shoulder_lift_joint, elbow_joint, wrist_1_joint, wrist_2_joint,","[1.401843547821045, -1.1695225874530237, 2.4815704822540283, -2.8596070448504847, -1.566981617604391, 2.7200119495391846]","[0.041072335094213486, 0.019750002771615982, -0.024045148864388466, 0.01775582879781723, 0.0, 0.05204029753804207]","[1.1123658418655396, -2.861023187637329, -1.5916855335235596, -0.1345825344324112, 0.0515899695456028, 0.3342132866382599]"
1584460287383589368,,2299487,,1584460287,383057254,'',"[shoulder_pan_joint, shoulder_lift_joint, elbow_joint, wrist_1_joint, wrist_2_joint,","[1.407001256942749, -1.168323818837301, 2.4797346591949463, -2.8581460157977503, -1.5669696966754358, 2.7247776985168457]","[0.04851214215159416, 0.0011377024929970503, -0.010482202284038067, 0.009855826385319233, -0.00032597093377262354, 0.03593350201845169]","[0.9658814668655396, -2.938843011856079, -1.6522144079208374, -0.1166381984949112, 0.0897216871380806, 0.3409424126148224]"
1584460287495414331,,2299501,,1584460287,494982054,'',"[shoulder_pan_joint, shoulder_lift_joint, elbow_joint, wrist_1_joint, wrist_2_joint,","[1.4123870134353638, -1.1683114210711878, 2.4786553382873535, -2.857619110737936, -1.566981617604391, 2.7284653186798096]","[0.04927913472056389, 0.00017896443023346364, -0.0113386744633317, 0.005215534940361977, -0.00015339808305725455, 0.03303811326622963]","[1.0574342012405396, -3.012085199356079, -1.6185872554779053, -0.1480407863855362, 0.0740203931927681, 0.3005676567554474]"
1584460287607533914,,2299515,,1584460287,607053747,'',"[shoulder_pan_joint, shoulder_lift_joint, elbow_joint, wrist_1_joint, wrist_2_joint,","[1.4173765182495117, -1.167663876210348, 2.475895643234253, -2.8561223188983362, -1.5669940153705042, 2.7324767112731934]","[0.04048430919647217, 0.015633821487426758, -0.043718453496694565, 0.022760439664125443, -9.58738019107841e-05, 0.045405831187963486]","[0.9338380098342896, -2.604675531387329, -1.5647838115692139, -0.1278534084558487, 0.0762634351849556, 0.3342132866382599]"
1584460287719388743,,2299529,,1584460287,719011689,'',"[shoulder_pan_joint, shoulder_lift_joint, elbow_joint, wrist_1_joint, wrist_2_joint,","[1.4213111400604248, -1.165121857319967, 2.4679293632507324, -2.8520525137530726, -1.566981617604391, 2.737421751022339]","[0.028749357908964157, 0.030104374513030052, -0.08773092180490494, 0.05135000869631767, -7.669904152862728e-05, 0.038541268557310104]","[0.8789063692092896, -2.357483148574829, -1.5849601030349731, -0.1256103664636612, 0.0628051832318306, 0.3431854546070099]"
1584460287831461309,,2299543,,1584460287,831016709,'',"[shoulder_pan_joint, shoulder_lift_joint, elbow_joint, wrist_1_joint, wrist_2_joint,","[1.4242255687713623, -1.1603382269488733, 2.4570109844207764, -2.845670525227682, -1.566981617604391, 2.7413012981414795]","[0.025898709893226624, 0.05362541228532791, -0.11003755778074265, 0.06369855254888535, -5.752428114647046e-05, 0.029529130086302757]","[0.9201050996780396, -2.792358636856079, -1.5580583810806274, 0.01570129580795765, 0.0426178015768528, 0.3342132866382599]"
1584460287943405535,,2299557,,1584460287,942991101,'',"[shoulder_pan_joint, shoulder_lift_joint, elbow_joint, wrist_1_joint, wrist_2_joint,","[1.427584171295166, -1.1543915907489222, 2.4451088905334473, -2.83851129213442, -1.5670297781573694, 2.7439236640930176]","[0.03454013541340828, 0.045648712664842606, -0.10800503194332123, 0.06404370069503784, -3.834952076431364e-05, 0.01840776950120926]","[0.9109498262405396, -2.961731195449829, -1.6566979885101318, -0.1682281643152237, 0.0448608435690403, 0.2938385307788849]"
1584460288055346495,,2299571,,1584460288,54965543,'',"[shoulder_pan_joint, shoulder_lift_joint, elbow_joint, wrist_1_joint, wrist_2_joint,","[1.4316385984420776, -1.1497514883624476, 2.4333269596099854, -2.8314717451678675, -1.5670297781573694, 2.7468929290771484]","[0.04001133143901825, 0.04327104240655899, -0.11261975765228271, 0.060208749026060104, -3.834952076431364e-05, 0.0370648130774498]","[0.8148193955421448, -2.737426996231079, -1.688083291053772, -0.0695343092083931, 0.0426178015768528, 0.2871094048023224]"
1584460288167541319,,2299585,,1584460288,167123058,'',"[shoulder_pan_joint, shoulder_lift_joint, elbow_joint, wrist_1_joint, wrist_2_joint,","[1.4365562200546265, -1.1443441549884241, 2.4208123683929443, -2.8240607420550745, -1.5670059362994593, 2.7512993812561035]","[0.05023787170648575, 0.052078649401664734, -0.11988060176372528, 0.06390947848558426, -3.834952076431364e-05, 0.03996020182967186]","[0.7415772080421448, -2.920532464981079, -1.6477307081222534, -0.1099090725183487, 0.0403747595846653, 0.3274841606616974]"
1584460288279524387,,2299599,,1584460288,278966395,'',"[shoulder_pan_joint, shoulder_lift_joint, elbow_joint, wrist_1_joint, wrist_2_joint,","[1.4428894519805908, -1.1388171354876917, 2.407097816467285, -2.8164222876178187, -1.5669940153705042, 2.7550830841064453]","[0.0567956380546093, 0.048166997730731964, -0.12995374202728271, 0.06845389306545258, -3.834952076431364e-05, 0.02805267460644245]","[0.8468628525733948, -2.719116449356079, -1.7665467262268066, 0.1076660305261612, 0.0471038855612278, 0.3207550346851349]"
1584460288391360691,,2299613,,1584460288,390962267,'',"[shoulder_pan_joint, shoulder_lift_joint, elbow_joint, wrist_1_joint, wrist_2_joint,","[1.4490187168121338, -1.1321623961078089, 2.3922550678253174, -2.8081615606891077, -1.5670297781573694, 2.758160352706909]","[0.055325575172901154, 0.06570551544427872, -0.13481134176254272, 0.0786932185292244, -3.834952076431364e-05, 0.02935655787587166]","[0.9567261934280396, -2.966308832168579, -1.8562191724777222, -0.1300964504480362, 0.0381317175924778, 0.3386993706226349]"
1584460288503352126,,2299627,,1584460288,502970102,'',"[shoulder_pan_joint, shoulder_lift_joint, elbow_joint, wrist_1_joint, wrist_2_joint,","[1.4553879499435425, -1.125437084828512, 2.376620054244995, -2.799086872731344, -1.5670416990863245, 2.7612497806549072]","[0.05903269350528717, 0.0592244416475296, -0.1402314156293869, 0.08352525532245636, -3.834952076431364e-05, 0.031254857778549194]","[0.8193970322608948, -2.980041742324829, -1.9100226163864136, 0.01794433780014515, 0.0471038855612278, 0.2624359428882599]"
1584460288615617271,,2299641,,1584460288,615073585,'',"[shoulder_pan_joint, shoulder_lift_joint, elbow_joint, wrist_1_joint, wrist_2_joint,","[1.462284803390503, -1.1179798285113733, 2.3607208728790283, -2.7896292845355433, -1.5670297781573694, 2.7655842304229736]","[0.0682365819811821, 0.06396699696779251, -0.14018027484416962, 0.0802847221493721, -3.834952076431364e-05, 0.04176262766122818]","[0.8102417588233948, -3.263855218887329, -2.0669493675231934, -0.1413116604089737, 0.0403747595846653, 0.3297272026538849]"
1584460288727552841,,2299655,,1584460288,727094154,'',"[shoulder_pan_joint, shoulder_lift_joint, elbow_joint, wrist_1_joint, wrist_2_joint,","[1.4705853462219238, -1.112260643635885, 2.345505714416504, -2.781224552785055, -1.5670297781573694, 2.769404172897339]","[0.074883833527565, 0.05137557536363602, -0.13311117887496948, 0.07499248534440994, -3.834952076431364e-05, 0.024927187711000443]","[0.8697510361671448, -2.897644281387329, -1.9369243383407593, -0.0986938551068306, 0.0358886756002903, 0.3566437065601349]"
1584460288839607834,,2299669,,1584460288,839164405,'',"[shoulder_pan_joint, shoulder_lift_joint, elbow_joint, wrist_1_joint, wrist_2_joint,","[1.4792698621749878, -1.1056426207171839, 2.3312017917633057, -2.773047749196188, -1.5670416990863245, 2.771583080291748]","[0.07605988532304764, 0.05891764536499977, -0.12175972759723663, 0.07439807057380676, -3.834952076431364e-05, 0.01512888539582491]","[0.9292603731155396, -3.208923578262329, -2.0669493675231934, -0.0897216871380806, 0.0493469275534153, 0.3588867485523224]"
1584460288951425473,,2299683,,1584460288,951038670,'',"[shoulder_pan_joint, shoulder_lift_joint, elbow_joint, wrist_1_joint, wrist_2_joint,","[1.4873420000076294, -1.1001752058612269, 2.3178093433380127, -2.7652538458453577, -1.567077938710348, 2.77321195602417]","[0.07544629275798798, 0.04893398657441139, -0.11818043887615204, 0.06651724129915237, -3.834952076431364e-05, 0.012770390138030052]","[0.9933472871780396, -3.062439203262329, -1.9750350713729858, -0.0448608435690403, 0.0426178015768528, 0.3252411186695099]"
1584460289063381962,,2299697,,1584460289,62999708,'',"[shoulder_pan_joint, shoulder_lift_joint, elbow_joint, wrist_1_joint, wrist_2_joint,","[1.495882272720337, -1.093785587941305, 2.304297685623169, -2.757843796406881, -1.567077938710348, 2.7724692821502686]","[0.07411684095859528, 0.05884094908833504, -0.12072429060935974, 0.06444636732339859, -3.834952076431364e-05, -0.03909733518958092]","[0.8422852158546448, -3.396606683731079, -2.0422894954681396, -0.0538330152630806, 0.0583190992474556, -0.2377624809741974]"
1584460289175467251,,2299711,,1584460289,174998285,'',"[shoulder_pan_joint, shoulder_lift_joint, elbow_joint, wrist_1_joint, wrist_2_joint,","[1.504542350769043, -1.0880425612079065, 2.2902209758758545, -2.750192944203512, -1.5670297781573694, 2.7683143615722656]","[0.07650729268789291, 0.04917686805129051, -0.12909726798534393, 0.07274904102087021, -3.834952076431364e-05, -0.03664296865463257]","[0.7690430283546448, -3.199768304824829, -1.9727933406829834, -0.0717773512005806, 0.0493469275534153, -0.3185119926929474]"
1584460289287297364,,2299725,,1584460289,286935107,'',"[shoulder_pan_joint, shoulder_lift_joint, elbow_joint, wrist_1_joint, wrist_2_joint,","[1.5129144191741943, -1.0815084616290491, 2.2748360633850098, -2.741657559071676, -1.5670536200152796, 2.7654528617858887]","[0.07611101865768433, 0.06472120434045792, -0.13984791934490204, 0.08266238868236542, -3.834952076431364e-05, -0.01587670110166073]","[1.1444092988967896, -3.373718500137329, -2.170072555541992, -0.1054229810833931, 0.0538330152630806, -0.3140259087085724]"
1584460289399376572,,2299739,,1584460289,398989268,'',"[shoulder_pan_joint, shoulder_lift_joint, elbow_joint, wrist_1_joint, wrist_2_joint,","[1.5211666822433472, -1.0748909155475062, 2.2590670585632324, -2.7326906363116663, -1.5670416990863245, 2.7642431259155273]","[0.07363107800483704, 0.06091182306408882, -0.1438618302345276, 0.07817550003528595, -3.834952076431364e-05, -0.0025310683995485306]","[0.7827759385108948, -3.259277582168579, -2.001936912536621, -0.1502838283777237, 0.0628051832318306, -0.1816864162683487]"
1584460289511656375,,2299753,,1584460289,511187719,'',"[shoulder_pan_joint, shoulder_lift_joint, elbow_joint, wrist_1_joint, wrist_2_joint,","[1.5298867225646973, -1.067253891621725, 2.2429375648498535, -2.7239516417132776, -1.567077938710348, 2.7677276134490967]","[0.07868043333292007, 0.06771247088909149, -0.13825002312660217, 0.07786870002746582, -3.834952076431364e-05, 0.03689223900437355]","[0.7415772080421448, -3.630066394805908, -2.17903995513916, 0.011215210892260075, 0.0538330152630806, 0.3319702446460724]"
1584460289623381752,,2299767,,1584460289,623023192,'',"[shoulder_pan_joint, shoulder_lift_joint, elbow_joint, wrist_1_joint, wrist_2_joint,","[1.538343071937561, -1.0604799429522913, 2.2281155586242676, -2.7155593077289026, -1.5670536200152796, 2.770960807800293]","[0.07439807057380676, 0.06132088229060173, -0.12395843118429184, 0.07217379659414291, -3.834952076431364e-05, 0.021226460114121437]","[1.2359620332717896, -3.758240222930908, -2.1498963832855225, -0.1570129543542862, 0.0471038855612278, 0.3364563286304474]"
1584460289735495214,,2299781,,1584460289,735087212,'',"[shoulder_pan_joint, shoulder_lift_joint, elbow_joint, wrist_1_joint, wrist_2_joint,","[1.5459598302841187, -1.0539220015155237, 2.2144222259521484, -2.7078855673419397, -1.567077938710348, 2.77276873588562]","[0.06102687120437622, 0.046722497791051865, -0.11604564636945724, 0.06734175980091095, -1.917476038215682e-05, 0.011658254079520702]","[0.7827759385108948, -3.730774402618408, -2.3314828872680664, -0.0291595496237278, 0.0493469275534153, 0.3229980766773224]"
1584460289847537623,,2299795,,1584460289,847049321,'',"[shoulder_pan_joint, shoulder_lift_joint, elbow_joint, wrist_1_joint, wrist_2_joint,","[1.5526167154312134, -1.049269978200094, 2.201880931854248, -2.7007620970355433, -1.5670297781573694, 2.773451566696167]","[0.05884094908833504, 0.04765567183494568, -0.10438739508390427, 0.057140786200761795, -1.917476038215682e-05, -0.025502430275082588]","[0.8560181260108948, -3.488159418106079, -2.3292412757873535, -0.1233673244714737, 0.0471038855612278, -0.1256103664636612]"
1584460289959414102,,2299809,,1584460289,958908167,'',"[shoulder_pan_joint, shoulder_lift_joint, elbow_joint, wrist_1_joint, wrist_2_joint,","[1.5584698915481567, -1.0433958212481897, 2.1901907920837402, -2.6945608297931116, -1.5670536200152796, 2.769212484359741]","[0.04688867926597595, 0.051592886447906494, -0.09751004725694656, 0.052500493824481964, -1.917476038215682e-05, -0.04172427952289581]","[0.8010864853858948, -3.881836414337158, -2.300097703933716, -0.0448608435690403, 0.0515899695456028, -0.2557068169116974]"
1584460290071543504,,2299823,,1584460290,70928776,'',"[shoulder_pan_joint, shoulder_lift_joint, elbow_joint, wrist_1_joint, wrist_2_joint,","[1.5639395713806152, -1.0389717260943812, 2.180049419403076, -2.6889942328082483, -1.5670297781573694, 2.765033721923828]","[0.04839709401130676, 0.03158722072839737, -0.07162412256002426, 0.04364175349473953, -1.917476038215682e-05, -0.030622093006968498]","[0.9841920137405396, -3.712463855743408, -2.38752818107605, -0.0852356031537056, 0.0515899695456028, -0.3566437065601349]"
1584460290183288939,,2299837,,1584460290,182924087,'',"[shoulder_pan_joint, shoulder_lift_joint, elbow_joint, wrist_1_joint, wrist_2_joint,","[1.569084882736206, -1.0355432669269007, 2.1734118461608887, -2.6851747671710413, -1.5670536200152796, 2.762411594390869]","[0.04080389067530632, 0.027215376496315002, -0.04904903843998909, 0.02743908204138279, -1.917476038215682e-05, -0.017717478796839714]","[1.0345460176467896, -4.032898426055908, -2.452540636062622, -0.1368255764245987, 0.0605621412396431, -0.3117828667163849]"
1584460290295218377,,2299851,,1584460290,294879814,'',"[shoulder_pan_joint, shoulder_lift_joint, elbow_joint, wrist_1_joint, wrist_2_joint,","[1.5731748342514038, -1.0331814924823206, 2.169931411743164, -2.6830681006061, -1.5670536200152796, 2.7611303329467773]","[0.034335605800151825, 0.011504855938255787, -0.006915696896612644, 0.008417719975113869, -1.917476038215682e-05, 0.016892964020371437]","[0.9063721895217896, -4.142761707305908, -2.5153114795684814, -0.1480407863855362, 0.0515899695456028, 0.0314025916159153]"
1584460290407193110,,2299865,,1584460290,406885686,'',"[shoulder_pan_joint, shoulder_lift_joint, elbow_joint, wrist_1_joint, wrist_2_joint,","[1.5770372152328491, -1.0330613295184534, 2.17012357711792, -2.68311578432192, -1.5670536200152796, 2.7661471366882324]","[0.032699357718229294, -0.000472977408207953, 0.0020453077740967274, -0.0007861651829443872, -1.917476038215682e-05, 0.04692063853144646]","[0.8651733994483948, -4.856873035430908, -1.9279570579528809, -0.4867401719093323, 0.0897216871380806, 0.3162689507007599]"
1584460290519205673,,2299879,,1584460290,518865057,'',"[shoulder_pan_joint, shoulder_lift_joint, elbow_joint, wrist_1_joint, wrist_2_joint,","[1.5800597667694092, -1.0330494085894983, 2.1701717376708984, -2.6831401030169886, -1.5670655409442347, 2.770254373550415]","[0.022127673029899597, -0.00014061490946915, 0.00029401297797448933, -0.0002109223569277674, -1.917476038215682e-05, 0.022012624889612198]","[0.7827759385108948, -4.765320301055908, -2.0512566566467285, -0.4082336723804474, 0.0762634351849556, 0.3656158745288849]"
1584460290631309848,,2299893,,1584460290,630864777,'',"[shoulder_pan_joint, shoulder_lift_joint, elbow_joint, wrist_1_joint, wrist_2_joint,","[1.5818229913711548, -1.0330851713763636, 2.1701955795288086, -2.68311578432192, -1.5670297781573694, 2.7722299098968506]","[0.008986570872366428, 0.0, 0.00015339808305725455, -0.00011504856229294091, 0.0, 0.012252671644091606]","[0.9979249238967896, -4.728699207305908, -2.019871234893799, -0.4194488823413849, 0.0829925611615181, 0.3140259087085724]"
1584460290743354542,,2299907,,1584460290,742951549,'',"[shoulder_pan_joint, shoulder_lift_joint, elbow_joint, wrist_1_joint, wrist_2_joint,","[1.5815709829330444, -1.0330732504474085, 2.1701836585998535, -2.6831401030169886, -1.5670178572284144, 2.768805503845215]","[-0.010840130969882011, 0.0, 0.00010226538870483637, -7.669904152862728e-05, 0.0, -0.06076481565833092]","[-0.7781983017921448, -4.724121570587158, -2.008662223815918, -0.4418793320655823, 0.0672912672162056, -0.2983246147632599]"
1584460290855380801,,2299921,,1584460290,854957961,'',"[shoulder_pan_joint, shoulder_lift_joint, elbow_joint, wrist_1_joint, wrist_2_joint,","[1.5797717571258545, -1.0330732504474085, 2.1701836585998535, -2.6831639448748987, -1.5670416990863245, 2.7629141807556152]","[-0.016873789951205254, 0.0, 7.669904152862728e-05, -5.752428114647046e-05, 0.0, -0.04055461660027504]","[-1.0574342012405396, -4.742432117462158, -1.9862442016601562, -0.4418793320655823, 0.0672912672162056, -0.3678589165210724]"
1584460290967463375,,2299935,,1584460290,967014617,'',"[shoulder_pan_joint, shoulder_lift_joint, elbow_joint, wrist_1_joint, wrist_2_joint,","[1.577972650527954, -1.0330613295184534, 2.1701717376708984, -2.6831401030169886, -1.5670178572284144, 2.7593817710876465]","[-0.01569773629307747, 0.0, 6.391586794052273e-05, -5.752428114647046e-05, 0.0, -0.02605849876999855]","[-0.9338380098342896, -4.733276844024658, -1.9907277822494507, -0.4239349663257599, 0.0740203931927681, -0.2758941948413849]"
1584460291079258643,,2299949,,1584460291,78928997,'',"[shoulder_pan_joint, shoulder_lift_joint, elbow_joint, wrist_1_joint, wrist_2_joint,","[1.5768693685531616, -1.0330851713763636, 2.1701955795288086, -2.6831520239459437, -1.5670297781573694, 2.757046937942505]","[-0.0011377024929970503, 0.0, 5.1132694352418184e-05, -3.834952076431364e-05, 0.0, -0.0067878649570047855]","[-0.2563476860523224, -4.664612293243408, -2.01090407371521, -0.4306641221046448, 0.0515899695456028, -0.1816864162683487]"
1584460291191465169,,2299963,,1584460291,191059280,'',"[shoulder_pan_joint, shoulder_lift_joint, elbow_joint, wrist_1_joint, wrist_2_joint,","[1.5769652128219604, -1.033013645802633, 2.1703033447265625, -2.6831520239459437, -1.5670178572284144, 2.757143020629883]","[0.00026844663079828024, 0.0009715211926959455, 0.0018791265320032835, -1.917476038215682e-05, 0.0, 0.000690291344653815]","[0.01373291201889515, -4.142761707305908, -1.7598212957382202, -0.3050537407398224, 0.0471038855612278, 0.0291595496237278]"
1584460291303254976,,2299977,,1584460291,302899712,'',"[shoulder_pan_joint, shoulder_lift_joint, elbow_joint, wrist_1_joint, wrist_2_joint,","[1.576977252960205, -1.032989803944723, 2.170339584350586, -2.6831401030169886, -1.5670416990863245, 2.757166862487793]","[0.00011504856229294091, 0.0003195793251506984, 0.0003323625132907182, -1.917476038215682e-05, 0.0, 0.00026844663079828024]","[0.01831054873764515, -4.220581531524658, -1.8517354726791382, -0.2938385307788849, 0.0493469275534153, 0.0336456336081028]"
1584460291415225852,,2299991,,1584460291,414876630,'',"[shoulder_pan_joint, shoulder_lift_joint, elbow_joint, wrist_1_joint, wrist_2_joint,","[1.5769652128219604, -1.0329654852496546, 2.1703152656555176, -2.6831277052508753, -1.5670655409442347, 2.757166862487793]","[7.669904152862728e-05, 0.00014061490946915, 0.0001661812566453591, -1.917476038215682e-05, 0.0, 0.00026844663079828024]","[0.009155274368822575, -4.257202625274658, -2.001936912536621, -0.3005676567554474, 0.0471038855612278, 0.0403747595846653]"
1584460291527397482,,2300005,,1584460291,526975033,'',"[shoulder_pan_joint, shoulder_lift_joint, elbow_joint, wrist_1_joint, wrist_2_joint,","[1.5769652128219604, -1.0330255667315882, 2.1702914237976074, -2.6831277052508753, -1.5670416990863245, 2.757154941558838]","[5.1132694352418184e-05, 7.669904152862728e-05, 0.00010226538870483637, -1.917476038215682e-05, 0.0, 0.00013422331539914012]","[0.01831054873764515, -4.289246082305908, -2.1274781227111816, -0.2915954887866974, 0.0403747595846653, 0.0336456336081028]"
1584460291639326129,,2300019,,1584460291,638915502,'',"[shoulder_pan_joint, shoulder_lift_joint, elbow_joint, wrist_1_joint, wrist_2_joint,","[1.5769652128219604, -1.0330012480365198, 2.1703152656555176, -2.6831401030169886, -1.5670059362994593, 2.757154941558838]","[3.834952076431364e-05, 5.1132694352418184e-05, 6.391586794052273e-05, -1.917476038215682e-05, 0.0, 9.58738019107841e-05]","[-0.01831054873764515, -4.504395008087158, -2.297855854034424, -0.3431854546070099, 0.0628051832318306, 0.0291595496237278]"
1584460291751499724,,2300033,,1584460291,751023665,'',"[shoulder_pan_joint, shoulder_lift_joint, elbow_joint, wrist_1_joint, wrist_2_joint,","[1.5769891738891602, -1.0330255667315882, 2.1702795028686523, -2.6831277052508753, -1.5670178572284144, 2.757178783416748]","[3.834952076431364e-05, 3.834952076431364e-05, 6.391586794052273e-05, -1.917476038215682e-05, 0.0, 7.669904152862728e-05]","[-0.004577637184411287, -4.701233386993408, -2.5130696296691895, -0.3005676567554474, 0.0493469275534153, 0.02243042178452015]"
1584460291863279132,,2300047,,1584460291,862865459,'',"[shoulder_pan_joint, shoulder_lift_joint, elbow_joint, wrist_1_joint, wrist_2_joint,","[1.5769652128219604, -1.0329774061786097, 2.1702795028686523, -2.6831401030169886, -1.5670297781573694, 2.7571909427642822]","[2.5566347176209092e-05, 3.834952076431364e-05, -0.000690291344653815, -1.917476038215682e-05, 0.0, 5.752428114647046e-05]","[0.0, -4.861450672149658, -2.6699962615966797, -0.2938385307788849, 0.0426178015768528, 0.02018737979233265]"
1584460291975364932,,2300061,,1584460291,974870759,'',"[shoulder_pan_joint, shoulder_lift_joint, elbow_joint, wrist_1_joint, wrist_2_joint,","[1.576977252960205, -1.0330012480365198, 2.1701598167419434, -2.6831277052508753, -1.5670536200152796, 2.757166862487793]","[2.5566347176209092e-05, 0.0, -0.0003579288604669273, -1.917476038215682e-05, 0.0, 3.834952076431364e-05]","[0.0, -4.985046863555908, -2.5310041904449463, -0.3117828667163849, 0.0403747595846653, -0.02243042178452015]"
1584460292087302686,,2300075,,1584460292,86891498,'',"[shoulder_pan_joint, shoulder_lift_joint, elbow_joint, wrist_1_joint, wrist_2_joint,","[1.576977252960205, -1.0330374876605433, 2.1701717376708984, -2.6831277052508753, -1.5670655409442347, 2.757178783416748]","[1.2783173588104546e-05, -0.00014061490946915, -0.0001661812566453591, -1.917476038215682e-05, 0.0, 3.834952076431364e-05]","[-0.01373291201889515, -4.861450672149658, -2.544455051422119, -0.3140259087085724, 0.0471038855612278, -0.0807495191693306]"
1584460292199209983,,2300089,,1584460292,198884094,'',"[shoulder_pan_joint, shoulder_lift_joint, elbow_joint, wrist_1_joint, wrist_2_joint,","[1.576977252960205, -1.0330374876605433, 2.1701598167419434, -2.6831277052508753, -1.5670297781573694, 2.757178783416748]","[1.2783173588104546e-05, -0.00012783173588104546, -0.00010226538870483637, -1.917476038215682e-05, 0.0, 3.834952076431364e-05]","[0.0320434607565403, -4.774475574493408, -2.5265204906463623, -0.3095398247241974, 0.0650482252240181, -0.0695343092083931]"
1584460292311282969,,2300103,,1584460292,310887851,'',"[shoulder_pan_joint, shoulder_lift_joint, elbow_joint, wrist_1_joint, wrist_2_joint,","[1.5769412517547607, -1.0330494085894983, 2.1701836585998535, -2.68311578432192, -1.5670297781573694, 2.757154941558838]","[1.2783173588104546e-05, -7.669904152862728e-05, -7.669904152862728e-05, -1.917476038215682e-05, 0.0, 1.917476038215682e-05]","[-0.004577637184411287, -4.870605945587158, -2.5265204906463623, -0.3072967827320099, 0.0358886756002903, -0.0717773512005806]"
1584460292423234569,,2300117,,1584460292,422846434,'',"[shoulder_pan_joint, shoulder_lift_joint, elbow_joint, wrist_1_joint, wrist_2_joint,","[1.576977252960205, -1.0330012480365198, 2.1701478958129883, -2.6831277052508753, -1.5670178572284144, 2.757166862487793]","[1.2783173588104546e-05, -5.1132694352418184e-05, -6.391586794052273e-05, -1.917476038215682e-05, 0.0, 1.917476038215682e-05]","[0.009155274368822575, -4.902649402618408, -2.548938512802124, -0.3342132866382599, 0.0291595496237278, -0.0695343092083931]"
1584460292535268672,,2300131,,1584460292,534871981,'',"[shoulder_pan_joint, shoulder_lift_joint, elbow_joint, wrist_1_joint, wrist_2_joint,","[1.5769891738891602, -1.0330255667315882, 2.170111656188965, -2.68309194246401, -1.5670297781573694, 2.757166862487793]","[1.2783173588104546e-05, -3.834952076431364e-05, -6.391586794052273e-05, -1.917476038215682e-05, 0.0, 1.917476038215682e-05]","[0.0, -4.833984851837158, -2.5242786407470703, -0.3162689507007599, 0.0403747595846653, -0.0785064771771431]"
1584460292647078868,,2300145,,1584460292,646760513,'',"[shoulder_pan_joint, shoulder_lift_joint, elbow_joint, wrist_1_joint, wrist_2_joint,","[1.5769412517547607, -1.0330494085894983, 2.1701598167419434, -2.6831277052508753, -1.5670297781573694, 2.757154941558838]","[1.2783173588104546e-05, -3.834952076431364e-05, -6.391586794052273e-05, -1.917476038215682e-05, 0.0, 1.917476038215682e-05]","[0.009155274368822575, -4.788208484649658, -2.5310041904449463, -0.3207550346851349, 0.0426178015768528, -0.0695343092083931]"
1584460292759322653,,2300159,,1584460292,758883233,'',"[shoulder_pan_joint, shoulder_lift_joint, elbow_joint, wrist_1_joint, wrist_2_joint,","[1.5769652128219604, -1.033013645802633, 2.1701478958129883, -2.68311578432192, -1.5670297781573694, 2.757143020629883]","[1.2783173588104546e-05, -2.5566347176209092e-05, -6.391586794052273e-05, -1.917476038215682e-05, 0.0, 1.917476038215682e-05]","[-0.004577637184411287, -4.934692859649658, -2.5108277797698975, -0.3207550346851349, 0.0448608435690403, -0.0717773512005806]"
1584460292871452266,,2300173,,1584460292,871049493,'',"[shoulder_pan_joint, shoulder_lift_joint, elbow_joint, wrist_1_joint, wrist_2_joint,","[1.5769412517547607, -1.0330374876605433, 2.1701478958129883, -2.6831401030169886, -1.5670297781573694, 2.757178783416748]","[1.2783173588104546e-05, -2.5566347176209092e-05, -6.391586794052273e-05, -1.917476038215682e-05, 0.0, 1.917476038215682e-05]","[0.009155274368822575, -4.824829578399658, -2.5175533294677734, -0.3028106987476349, 0.0538330152630806, -0.0695343092083931]"
1584460292983306133,,2300187,,1584460292,982902579,'',"[shoulder_pan_joint, shoulder_lift_joint, elbow_joint, wrist_1_joint, wrist_2_joint,","[1.5769412517547607, -1.033013645802633, 2.1701478958129883, -2.6831277052508753, -1.5670059362994593, 2.757154941558838]","[1.2783173588104546e-05, -2.5566347176209092e-05, -6.391586794052273e-05, -1.917476038215682e-05, 0.0, 0.0]","[0.0274658240377903, -4.907227039337158, -2.5332460403442383, -0.3185119926929474, 0.0403747595846653, -0.2130890041589737]"
1584460293095339415,,2300201,,1584460293,94906917,'',"[shoulder_pan_joint, shoulder_lift_joint, elbow_joint, wrist_1_joint, wrist_2_joint,","[1.5769532918930054, -1.0330012480365198, 2.1701598167419434, -2.68311578432192, -1.5670297781573694, 2.7555501461029053]","[0.0, -1.2783173588104546e-05, -5.1132694352418184e-05, 0.0, 0.0, 0.003930825740098953]","[0.01373291201889515, -4.888916492462158, -2.5310041904449463, -0.3072967827320099, 0.0493469275534153, -0.02467346377670765]"
1584460293207426458,,2300215,,1584460293,206964154,'',"[shoulder_pan_joint, shoulder_lift_joint, elbow_joint, wrist_1_joint, wrist_2_joint,","[1.5769652128219604, -1.032989803944723, 2.1701717376708984, -2.6831277052508753, -1.5670059362994593, 2.755514144897461]","[0.0, -1.2783173588104546e-05, -3.834952076431364e-05, 0.0, 0.0, 0.0]","[-0.004577637184411287, -4.797363758087158, -2.5332460403442383, -0.3050537407398224, 0.0381317175924778, 0.006729126907885075]"
1584460293319431067,,2300229,,1584460293,318927125,'',"[shoulder_pan_joint, shoulder_lift_joint, elbow_joint, wrist_1_joint, wrist_2_joint,","[1.5769532918930054, -1.033013645802633, 2.1701598167419434, -2.68311578432192, -1.5670416990863245, 2.75553822517395]","[0.0, -1.2783173588104546e-05, -3.834952076431364e-05, 0.0, 0.0, 0.0]","[0.01831054873764515, -4.861450672149658, -2.537729501724243, -0.3050537407398224, 0.0538330152630806, 0.02467346377670765]"
1584460293431279774,,2300243,,1584460293,430828621,'',"[shoulder_pan_joint, shoulder_lift_joint, elbow_joint, wrist_1_joint, wrist_2_joint,","[1.5769532918930054, -1.0330255667315882, 2.1701717376708984, -2.68311578432192, -1.5670536200152796, 2.75553822517395]","[0.0, -1.2783173588104546e-05, -2.5566347176209092e-05, 0.0, 0.0, 0.00013422331539914012]","[0.009155274368822575, -4.792786121368408, -2.5063440799713135, -0.2893524467945099, 0.0336456336081028, 0.0650482252240181]"
1584460293543460111,,2300257,,1584460293,542853658,'',"[shoulder_pan_joint, shoulder_lift_joint, elbow_joint, wrist_1_joint, wrist_2_joint,","[1.576977252960205, -1.033013645802633, 2.1701717376708984, -2.68311578432192, -1.5670416990863245, 2.755622148513794]","[0.0, -1.2783173588104546e-05, -2.5566347176209092e-05, 0.0, 0.0, 0.0005368932615965605]","[-0.01373291201889515, -4.930115222930908, -2.5063440799713135, -0.3319702446460724, 0.0515899695456028, 0.0628051832318306]"
1584460293655215234,,2300271,,1584460293,654782495,'',"[shoulder_pan_joint, shoulder_lift_joint, elbow_joint, wrist_1_joint, wrist_2_joint,","[1.5769652128219604, -1.0329654852496546, 2.1701598167419434, -2.6831401030169886, -1.5670178572284144, 2.7555739879608154]","[0.0, -1.2783173588104546e-05, -2.5566347176209092e-05, 0.0, 0.0, 0.0001917476038215682]","[0.01373291201889515, -4.884338855743408, -2.5287623405456543, -0.2915954887866974, 0.0358886756002903, 0.0672912672162056]"
1584460293767386874,,2300285,,1584460293,766951160,'',"[shoulder_pan_joint, shoulder_lift_joint, elbow_joint, wrist_1_joint, wrist_2_joint,","[1.5769412517547607, -1.032989803944723, 2.1701598167419434, -2.6831277052508753, -1.5670536200152796, 2.7555861473083496]","[0.0, -1.2783173588104546e-05, -2.5566347176209092e-05, 0.0, 0.0, 0.00011504856229294091]","[0.0320434607565403, -4.884338855743408, -2.539971351623535, -0.3297272026538849, 0.0583190992474556, 0.0672912672162056]"
1584460293879173476,,2300299,,1584460293,878849290,'',"[shoulder_pan_joint, shoulder_lift_joint, elbow_joint, wrist_1_joint, wrist_2_joint,","[1.5769532918930054, -1.033013645802633, 2.170135498046875, -2.68311578432192, -1.5670178572284144, 2.7555739879608154]","[0.0, -1.2783173588104546e-05, -2.5566347176209092e-05, 0.0, 0.0, 0.00011504856229294091]","[0.0320434607565403, -4.925537586212158, -2.5287623405456543, -0.3454284965991974, 0.0426178015768528, 0.0717773512005806]"
1584460293991368891,,2300313,,1584460293,990932055,'',"[shoulder_pan_joint, shoulder_lift_joint, elbow_joint, wrist_1_joint, wrist_2_joint,","[1.5769891738891602, -1.033013645802633, 2.1701478958129883, -2.68311578432192, -1.5670536200152796, 2.7556099891662598]","[0.0, 0.0, -1.2783173588104546e-05, 0.0, 0.0, 0.00011504856229294091]","[0.0, -4.797363758087158, -2.535487651824951, -0.2714081108570099, 0.0358886756002903, 0.0628051832318306]"
1584460294103198593,,2300327,,1584460294,102805789,'',"[shoulder_pan_joint, shoulder_lift_joint, elbow_joint, wrist_1_joint, wrist_2_joint,","[1.5769532918930054, -1.0330374876605433, 2.1701836585998535, -2.6831401030169886, -1.5670297781573694, 2.7555980682373047]","[0.0, 0.0, -1.2783173588104546e-05, 0.0, 0.0, 9.58738019107841e-05]","[0.004577637184411287, -4.861450672149658, -2.5153114795684814, -0.3185119926929474, 0.0628051832318306, 0.0650482252240181]"
1584460294215174187,,2300341,,1584460294,214787104,'',"[shoulder_pan_joint, shoulder_lift_joint, elbow_joint, wrist_1_joint, wrist_2_joint,","[1.576977252960205, -1.0330374876605433, 2.1701717376708984, -2.68311578432192, -1.5670297781573694, 2.755634069442749]","[0.0, 0.0, -1.2783173588104546e-05, 0.0, 0.0, 7.669904152862728e-05]","[-0.004577637184411287, -4.943848133087158, -2.5130696296691895, -0.3252411186695099, 0.0448608435690403, 0.0605621412396431]"
1584460294327362900,,2300355,,1584460294,326890337,'',"[shoulder_pan_joint, shoulder_lift_joint, elbow_joint, wrist_1_joint, wrist_2_joint,","[1.5769412517547607, -1.0330012480365198, 2.170135498046875, -2.6831401030169886, -1.5670297781573694, 2.7555980682373047]","[0.0, 0.0, -1.2783173588104546e-05, 0.0, 0.0, 5.752428114647046e-05]","[-0.01373291201889515, -4.884338855743408, -2.5175533294677734, -0.3185119926929474, 0.0336456336081028, 0.0740203931927681]"
1584460294439079501,,2300369,,1584460294,438722614,'',"[shoulder_pan_joint, shoulder_lift_joint, elbow_joint, wrist_1_joint, wrist_2_joint,","[1.5769532918930054, -1.032989803944723, 2.1701717376708984, -2.6831277052508753, -1.5670416990863245, 2.755622148513794]","[0.0, 0.0, -1.2783173588104546e-05, 0.0, 0.0, 3.834952076431364e-05]","[-0.01373291201889515, -4.797363758087158, -2.5197949409484863, -0.2983246147632599, 0.0471038855612278, 0.0628051832318306]"
1584460294551257483,,2300383,,1584460294,550833421,'',"[shoulder_pan_joint, shoulder_lift_joint, elbow_joint, wrist_1_joint, wrist_2_joint,","[1.5769293308258057, -1.0330012480365198, 2.1701717376708984, -2.6831520239459437, -1.5670178572284144, 2.755622148513794]","[0.0, 0.0, -1.2783173588104546e-05, 0.0, 0.0, 3.834952076431364e-05]","[-0.01831054873764515, -4.756165027618408, -2.5153114795684814, -0.2983246147632599, 0.0336456336081028, 0.0628051832318306]"
1584460294663215245,,2300397,,1584460294,662769983,'',"[shoulder_pan_joint, shoulder_lift_joint, elbow_joint, wrist_1_joint, wrist_2_joint,","[1.5769412517547607, -1.0330374876605433, 2.1701478958129883, -2.6831277052508753, -1.5669940153705042, 2.7556099891662598]","[0.0, 0.0, -1.2783173588104546e-05, 0.0, 0.0, 3.834952076431364e-05]","[-0.01373291201889515, -4.902649402618408, -2.5287623405456543, -0.2826233208179474, 0.0358886756002903, 0.0583190992474556]"
1584460294775324669,,2300411,,1584460294,774853619,'',"[shoulder_pan_joint, shoulder_lift_joint, elbow_joint, wrist_1_joint, wrist_2_joint,","[1.5769891738891602, -1.0330012480365198, 2.170135498046875, -2.6831520239459437, -1.5670178572284144, 2.755622148513794]","[0.0, 0.0, -1.2783173588104546e-05, 0.0, 0.0, 1.917476038215682e-05]","[0.009155274368822575, -4.792786121368408, -2.5265204906463623, -0.3185119926929474, 0.0426178015768528, -0.0807495191693306]"
1584460294887332954,,2300425,,1584460294,886825767,'',"[shoulder_pan_joint, shoulder_lift_joint, elbow_joint, wrist_1_joint, wrist_2_joint,","[1.576977252960205, -1.0330255667315882, 2.1701478958129883, -2.683103863392965, -1.5670059362994593, 2.7506167888641357]","[0.0, 0.0, -1.2783173588104546e-05, 0.0, 0.0, -0.11943957954645157]","[0.004577637184411287, -4.980469226837158, -2.5153114795684814, -0.3274841606616974, 0.0493469275534153, -0.4172058403491974]"
1584460294999291347,,2300439,,1584460294,998741931,'',"[shoulder_pan_joint, shoulder_lift_joint, elbow_joint, wrist_1_joint, wrist_2_joint,","[1.5769532918930054, -1.0330374876605433, 2.1701836585998535, -2.6831401030169886, -1.5670178572284144, 2.7302255630493164]","[0.0, 0.0, -1.2783173588104546e-05, 0.0, 0.0, -0.20281143486499786]","[0.01831054873764515, -4.852295398712158, -2.5197949409484863, -0.2983246147632599, 0.0426178015768528, -0.4822540879249573]"
1584460295111179959,,2300453,,1584460295,110707766,'',"[shoulder_pan_joint, shoulder_lift_joint, elbow_joint, wrist_1_joint, wrist_2_joint,","[1.5769652128219604, -1.0330374876605433, 2.1701836585998535, -2.683103863392965, -1.5670178572284144, 2.707679033279419]","[0.0, 0.0, -1.2783173588104546e-05, 0.0, 0.0, -0.20168012380599976]","[-0.004577637184411287, -4.719543933868408, -2.5175533294677734, -0.3454284965991974, 0.0471038855612278, -0.3835602104663849]"
1584460295223074292,,2300467,,1584460295,222661420,'',"[shoulder_pan_joint, shoulder_lift_joint, elbow_joint, wrist_1_joint, wrist_2_joint,","[1.576977252960205, -1.0330255667315882, 2.1701598167419434, -2.6831401030169886, -1.5670178572284144, 2.685145139694214]","[0.0, 0.0, -1.2783173588104546e-05, 0.0, 0.0, -0.1990148425102234]","[-0.009155274368822575, -4.957581043243408, -2.5175533294677734, -0.3229980766773224, 0.0448608435690403, -0.4530945420265198]"
1584460295335109858,,2300481,,1584460295,334693700,'',"[shoulder_pan_joint, shoulder_lift_joint, elbow_joint, wrist_1_joint, wrist_2_joint,","[1.5769532918930054, -1.0330374876605433, 2.1701478958129883, -2.683103863392965, -1.5670178572284144, 2.6628150939941406]","[0.0, 0.0, -1.2783173588104546e-05, 0.0, 0.0, -0.20041459798812866]","[-0.02288818545639515, -4.888916492462158, -2.5332460403442383, -0.3229980766773224, 0.0471038855612278, -0.3970184624195099]"
1584460295447131027,,2300495,,1584460295,446703669,'',"[shoulder_pan_joint, shoulder_lift_joint, elbow_joint, wrist_1_joint, wrist_2_joint,","[1.576977252960205, -1.032989803944723, 2.1701478958129883, -2.68311578432192, -1.5670297781573694, 2.6404614448547363]","[0.0, 0.0, -0.0, 0.0, 0.0, -0.198094442486763]","[0.0274658240377903, -4.907227039337158, -2.5108277797698975, -0.2826233208179474, 0.0515899695456028, -0.4530945420265198]"
1584460295559311615,,2300509,,1584460295,558762239,'',"[shoulder_pan_joint, shoulder_lift_joint, elbow_joint, wrist_1_joint, wrist_2_joint,","[1.5769412517547607, -1.0330255667315882, 2.1701598167419434, -2.683080021535055, -1.5670178572284144, 2.617987632751465]","[0.0, 0.0, -0.0, 0.0, 0.0, -0.20089396834373474]","[-0.009155274368822575, -4.898071765899658, -2.5310041904449463, -0.2983246147632599, 0.0448608435690403, -0.4149627983570099]"
1584460295671085563,,2300523,,1584460295,670677801,'',"[shoulder_pan_joint, shoulder_lift_joint, elbow_joint, wrist_1_joint, wrist_2_joint,","[1.5769891738891602, -1.0330012480365198, 2.1701836585998535, -2.6831277052508753, -1.5670059362994593, 2.5954790115356445]","[0.0, 0.0, -0.0, 0.0, 0.0, -0.19909153878688812]","[-0.01831054873764515, -4.898071765899658, -2.5265204906463623, -0.3252411186695099, 0.0403747595846653, -0.4643097519874573]"
1584460295783214003,,2300537,,1584460295,782731291,'',"[shoulder_pan_joint, shoulder_lift_joint, elbow_joint, wrist_1_joint, wrist_2_joint,","[1.5769532918930054, -1.0330012480365198, 2.1701598167419434, -2.6831277052508753, -1.5670178572284144, 2.5732574462890625]","[0.0, 0.0, -0.0, 0.0, 0.0, -0.20131580531597137]","[-0.004577637184411287, -4.847717761993408, -2.4996187686920166, -0.3252411186695099, 0.0448608435690403, -0.5046845078468323]"
1584460295895045378,,2300551,,1584460295,894694232,'',"[shoulder_pan_joint, shoulder_lift_joint, elbow_joint, wrist_1_joint, wrist_2_joint,","[1.576977252960205, -1.0330494085894983, 2.1701717376708984, -2.683103863392965, -1.5670059362994593, 2.5507731437683105]","[0.0, 0.0, -0.0, 0.0, 0.0, -0.20194856822490692]","[-0.009155274368822575, -4.824829578399658, -2.539971351623535, -0.2893524467945099, 0.0403747595846653, -0.4194488823413849]"
1584460296007159762,,2300565,,1584460296,6745808,'',"[shoulder_pan_joint, shoulder_lift_joint, elbow_joint, wrist_1_joint, wrist_2_joint,","[1.5769652128219604, -1.0330374876605433, 2.170135498046875, -2.68309194246401, -1.5670059362994593, 2.5283126831054688]","[0.0, 0.0, -0.0, 0.0, 0.0, -0.19985853135585785]","[-0.0411987341940403, -4.824829578399658, -2.5130696296691895, -0.2736511528491974, 0.0381317175924778, -0.5114136338233948]"
1584460296119186201,,2300579,,1584460296,118743734,'',"[shoulder_pan_joint, shoulder_lift_joint, elbow_joint, wrist_1_joint, wrist_2_joint,","[1.5769532918930054, -1.033013645802633, 2.1701478958129883, -2.68311578432192, -1.5669940153705042, 2.5060203075408936]","[0.0, 0.0, -0.0, 0.0, 0.0, -0.20281143486499786]","[0.01373291201889515, -4.852295398712158, -2.535487651824951, -0.3386993706226349, 0.0403747595846653, -0.3768310844898224]"
1584460296231115690,,2300593,,1584460296,230691918,'',"[shoulder_pan_joint, shoulder_lift_joint, elbow_joint, wrist_1_joint, wrist_2_joint,","[1.5769652128219604, -1.0330374876605433, 2.1701717376708984, -2.68309194246401, -1.5670536200152796, 2.483548641204834]","[0.0, 0.0, -0.0, 0.0, 0.0, -0.1994558572769165]","[-0.0366210974752903, -4.902649402618408, -2.5310041904449463, -0.2893524467945099, 0.0403747595846653, -0.5495453476905823]"
1584460296343122352,,2300607,,1584460296,342633689,'',"[shoulder_pan_joint, shoulder_lift_joint, elbow_joint, wrist_1_joint, wrist_2_joint,","[1.5769652128219604, -1.033013645802633, 2.1701717376708984, -2.68311578432192, -1.5670059362994593, 2.461148738861084]","[0.0, 0.0, -0.0, 0.0, 0.0, -0.19822867214679718]","[0.0503540076315403, -4.870605945587158, -2.5108277797698975, -0.3431854546070099, 0.0426178015768528, -0.4216919243335724]"
1584460296455084982,,2300621,,1584460296,454649819,'',"[shoulder_pan_joint, shoulder_lift_joint, elbow_joint, wrist_1_joint, wrist_2_joint,","[1.5769532918930054, -1.033013645802633, 2.1701598167419434, -2.683103863392965, -1.5670178572284144, 2.4385931491851807]","[0.0, 0.0, -0.0, 0.0, 0.0, -0.1970781832933426]","[0.01831054873764515, -4.911804676055908, -2.5108277797698975, -0.3072967827320099, 0.0403747595846653, -0.5181427597999573]"
1584460296567156105,,2300635,,1584460296,566672352,'',"[shoulder_pan_joint, shoulder_lift_joint, elbow_joint, wrist_1_joint, wrist_2_joint,","[1.576977252960205, -1.0329774061786097, 2.1701478958129883, -2.683103863392965, -1.566981617604391, 2.4162895679473877]","[0.0, 0.0, -0.0, 0.0, 0.0, -0.2006063461303711]","[0.004577637184411287, -4.806519031524658, -2.5175533294677734, -0.3319702446460724, 0.0471038855612278, -0.4216919243335724]"
1584460296679144103,,2300649,,1584460296,678712527,'',"[shoulder_pan_joint, shoulder_lift_joint, elbow_joint, wrist_1_joint, wrist_2_joint,","[1.5769652128219604, -1.0330494085894983, 2.1701478958129883, -2.68309194246401, -1.5670178572284144, 2.393914222717285]","[0.0, 0.0, -0.0, 0.0, 0.0, -0.1993599832057953]","[-0.0503540076315403, -4.934692859649658, -2.5220367908477783, -0.3454284965991974, 0.0403747595846653, -0.4598236680030823]"
1584460296791162487,,2300663,,1584460296,790665689,'',"[shoulder_pan_joint, shoulder_lift_joint, elbow_joint, wrist_1_joint, wrist_2_joint,","[1.5769532918930054, -1.0330255667315882, 2.1701717376708984, -2.68311578432192, -1.5670059362994593, 2.371455430984497]","[0.0, 0.0, -0.0, 0.0, 0.0, -0.20062552392482758]","[-0.004577637184411287, -4.815674304962158, -2.5175533294677734, -0.3544006645679474, 0.0381317175924778, -0.5271149277687073]"
1584460296903272373,,2300677,,1584460296,902690025,'',"[shoulder_pan_joint, shoulder_lift_joint, elbow_joint, wrist_1_joint, wrist_2_joint,","[1.5769293308258057, -1.0330374876605433, 2.1701955795288086, -2.683103863392965, -1.5670536200152796, 2.349008560180664]","[0.0, 0.0, -0.0, 0.0, 0.0, -0.20181435346603394]","[0.0, -4.911804676055908, -2.5265204906463623, -0.2714081108570099, 0.0358886756002903, -0.3701019585132599]"
1584460297014956703,,2300691,,1584460297,14609394,'',"[shoulder_pan_joint, shoulder_lift_joint, elbow_joint, wrist_1_joint, wrist_2_joint,","[1.5769652128219604, -1.0330255667315882, 2.1701717376708984, -2.683080021535055, -1.5670178572284144, 2.3267409801483154]","[0.0, 0.0, -0.0, 0.0, 0.0, -0.20039542019367218]","[0.01373291201889515, -4.774475574493408, -2.5063440799713135, -0.3252411186695099, 0.0493469275534153, -0.6392670273780823]"
1584460297127108998,,2300705,,1584460297,126652485,'',"[shoulder_pan_joint, shoulder_lift_joint, elbow_joint, wrist_1_joint, wrist_2_joint,","[1.5769652128219604, -1.033013645802633, 2.1701955795288086, -2.68311578432192, -1.5670059362994593, 2.304210662841797]","[0.0, 0.0, -0.0, 0.0, 0.0, -0.20202527940273285]","[0.0, -4.801941394805908, -2.5108277797698975, -0.3162689507007599, 0.0381317175924778, -0.4306641221046448]"
1584460297239180201,,2300719,,1584460297,238710844,'',"[shoulder_pan_joint, shoulder_lift_joint, elbow_joint, wrist_1_joint, wrist_2_joint,","[1.576977252960205, -1.032989803944723, 2.1701598167419434, -2.683103863392965, -1.5670297781573694, 2.2818357944488525]","[0.0, 0.0, -0.0, 0.0, 0.0, -0.1972891092300415]","[-0.004577637184411287, -4.907227039337158, -2.5130696296691895, -0.3050537407398224, 0.0358886756002903, -0.5293579697608948]"
1584460297350923301,,2300733,,1584460297,350593655,'',"[shoulder_pan_joint, shoulder_lift_joint, elbow_joint, wrist_1_joint, wrist_2_joint,","[1.5769652128219604, -1.0330255667315882, 2.1701717376708984, -2.68309194246401, -1.5670416990863245, 2.2594969272613525]","[0.0, 0.0, -0.0, 0.0, 0.0, -0.20143085718154907]","[-0.01831054873764515, -4.934692859649658, -2.5220367908477783, -0.3409424126148224, 0.0403747595846653, -0.4418793320655823]"
1584460297463046942,,2300747,,1584460297,462551386,'',"[shoulder_pan_joint, shoulder_lift_joint, elbow_joint, wrist_1_joint, wrist_2_joint,","[1.5769652128219604, -1.0330012480365198, 2.1701717376708984, -2.68311578432192, -1.566981617604391, 2.237062692642212]","[0.0, 0.0, -0.0, 0.0, 0.0, -0.19761507213115692]","[-0.004577637184411287, -4.875183582305908, -2.5130696296691895, -0.3342132866382599, 0.0381317175924778, -0.5248718857765198]"
1584460297575035611,,2300761,,1584460297,574540917,'',"[shoulder_pan_joint, shoulder_lift_joint, elbow_joint, wrist_1_joint, wrist_2_joint,","[1.576977252960205, -1.033013645802633, 2.1701478958129883, -2.6830681006061, -1.5670178572284144, 2.2146642208099365]","[0.0, 0.0, -0.0, 0.0, 0.0, -0.1992449313402176]","[-0.01373291201889515, -4.971313953399658, -2.5242786407470703, -0.3611297905445099, 0.0336456336081028, -0.4665527939796448]"
1584460297686918131,,2300775,,1584460297,686602412,'',"[shoulder_pan_joint, shoulder_lift_joint, elbow_joint, wrist_1_joint, wrist_2_joint,","[1.5769412517547607, -1.0330255667315882, 2.1701598167419434, -2.6831277052508753, -1.5670297781573694, 2.19224214553833]","[0.0, 0.0, -0.0, 0.0, 0.0, -0.20168012380599976]","[-0.01831054873764515, -4.833984851837158, -2.5197949409484863, -0.4059906303882599, 0.0426178015768528, -0.4508515000343323]"
1584460297798983614,,2300789,,1584460297,798620305,'',"[shoulder_pan_joint, shoulder_lift_joint, elbow_joint, wrist_1_joint, wrist_2_joint,","[1.5769891738891602, -1.0329774061786097, 2.1701478958129883, -2.68311578432192, -1.566981617604391, 2.169891595840454]","[0.0, 0.0, -0.0, 0.0, 0.0, -0.20006944239139557]","[0.0274658240377903, -4.953003406524658, -2.5085859298706055, -0.3970184624195099, 0.0426178015768528, -0.5293579697608948]"
1584460297910887575,,2300803,,1584460297,910536699,'',"[shoulder_pan_joint, shoulder_lift_joint, elbow_joint, wrist_1_joint, wrist_2_joint,","[1.5769532918930054, -1.0330012480365198, 2.1701717376708984, -2.68309194246401, -1.5670059362994593, 2.147505283355713]","[0.0, 0.0, -0.0, 0.0, 0.0, -0.20035706460475922]","[0.01373291201889515, -4.866028308868408, -2.4928932189941406, -0.4082336723804474, 0.0403747595846653, -0.4194488823413849]"
1584460298023078501,,2300817,,1584460298,22562948,'',"[shoulder_pan_joint, shoulder_lift_joint, elbow_joint, wrist_1_joint, wrist_2_joint,","[1.5769891738891602, -1.033013645802633, 2.1701478958129883, -2.68311578432192, -1.5669940153705042, 2.1250712871551514]","[0.0, 0.0, -0.0, 0.0, 0.0, -0.2007022202014923]","[0.0, -4.870605945587158, -2.5175533294677734, -0.3992615044116974, 0.0448608435690403, -0.5719757676124573]"
1584460298135269799,,2300831,,1584460298,134751110,'',"[shoulder_pan_joint, shoulder_lift_joint, elbow_joint, wrist_1_joint, wrist_2_joint,","[1.5769412517547607, -1.032989803944723, 2.1701955795288086, -2.683103863392965, -1.5670178572284144, 2.1026251316070557]","[0.0, 0.0, -0.0, 0.0, 0.0, -0.20006944239139557]","[-0.004577637184411287, -4.907227039337158, -2.5063440799713135, -0.4059906303882599, 0.0538330152630806, -0.4553375840187073]"
1584460298247007669,,2300845,,1584460298,246607812,'',"[shoulder_pan_joint, shoulder_lift_joint, elbow_joint, wrist_1_joint, wrist_2_joint,","[1.5769532918930054, -1.032989803944723, 2.1701598167419434, -2.683103863392965, -1.5670059362994593, 2.0803468227386475]","[0.0, 0.0, -0.0, 0.0, 0.0, -0.19702066481113434]","[0.009155274368822575, -4.934692859649658, -2.5085859298706055, -0.4329071640968323, 0.0426178015768528, -0.5630035996437073]"
1584460298358909095,,2300859,,1584460298,358544003,'',"[shoulder_pan_joint, shoulder_lift_joint, elbow_joint, wrist_1_joint, wrist_2_joint,","[1.5769532918930054, -1.0330374876605433, 2.1701717376708984, -2.68309194246401, -1.566981617604391, 2.057828426361084]","[0.0, 0.0, -0.0, 0.0, 0.0, -0.20100900530815125]","[0.004577637184411287, -4.911804676055908, -2.5197949409484863, -0.3813171684741974, 0.0358886756002903, -0.4486084580421448]"
1584460298470955923,,2300873,,1584460298,470560073,'',"[shoulder_pan_joint, shoulder_lift_joint, elbow_joint, wrist_1_joint, wrist_2_joint,","[1.5769652128219604, -1.0330012480365198, 2.1701598167419434, -2.683103863392965, -1.5669940153705042, 2.0355143547058105]","[0.0, 0.0, -0.0, 0.0, 0.0, -0.19905318319797516]","[0.01831054873764515, -4.833984851837158, -2.5175533294677734, -0.4015045464038849, 0.0403747595846653, -0.5001984238624573]"
1584460298583195891,,2300887,,1584460298,582606069,'',"[shoulder_pan_joint, shoulder_lift_joint, elbow_joint, wrist_1_joint, wrist_2_joint,","[1.576977252960205, -1.032989803944723, 2.1701478958129883, -2.683080021535055, -1.5669940153705042, 2.0131402015686035]","[0.0, 0.0, -0.0, 0.0, 0.0, -0.2015267312526703]","[-0.01831054873764515, -4.801941394805908, -2.5153114795684814, -0.4127197563648224, 0.0336456336081028, -0.4912262558937073]"
1584460298695078702,,2300901,,1584460298,694524006,'',"[shoulder_pan_joint, shoulder_lift_joint, elbow_joint, wrist_1_joint, wrist_2_joint,","[1.5769293308258057, -1.0330012480365198, 2.1701478958129883, -2.683080021535055, -1.5669940153705042, 1.99062180519104]","[0.0, 0.0, -0.0, 0.0, 0.0, -0.2004912942647934]","[-0.004577637184411287, -4.852295398712158, -2.5242786407470703, -0.4351502060890198, 0.0426178015768528, -0.4710388779640198]"
1584460298806864562,,2300915,,1584460298,806517404,'',"[shoulder_pan_joint, shoulder_lift_joint, elbow_joint, wrist_1_joint, wrist_2_joint,","[1.5769891738891602, -1.033013645802633, 2.1702075004577637, -2.683103863392965, -1.566981617604391, 1.9682356119155884]","[0.0, 0.0, -0.0, 0.0, 0.0, -0.2008172571659088]","[0.01373291201889515, -4.879761219024658, -2.5085859298706055, -0.4351502060890198, 0.0269165076315403, -0.4508515000343323]"
1584460298918958768,,2300929,,1584460298,918494020,'',"[shoulder_pan_joint, shoulder_lift_joint, elbow_joint, wrist_1_joint, wrist_2_joint,","[1.5769652128219604, -1.0330255667315882, 2.1701836585998535, -2.68309194246401, -1.5670178572284144, 1.9459329843521118]","[0.0, 0.0, -0.0, 0.0, 0.0, -0.20258134603500366]","[0.0, -4.824829578399658, -2.5063440799713135, -0.4172058403491974, 0.0358886756002903, -0.4149627983570099]"
1584460299031018360,,2300943,,1584460299,30542300,'',"[shoulder_pan_joint, shoulder_lift_joint, elbow_joint, wrist_1_joint, wrist_2_joint,","[1.5769293308258057, -1.0330012480365198, 2.1701478958129883, -2.683080021535055, -1.566981617604391, 1.9234861135482788]","[0.0, 0.0, -0.0, 0.0, 0.0, -0.1991107165813446]","[0.01831054873764515, -4.975891590118408, -2.5108277797698975, -0.4194488823413849, 0.02467346377670765, -0.6145935654640198]"
1584460299142953709,,2300957,,1584460299,142541139,'',"[shoulder_pan_joint, shoulder_lift_joint, elbow_joint, wrist_1_joint, wrist_2_joint,","[1.5769532918930054, -1.033013645802633, 2.170135498046875, -2.683080021535055, -1.5669940153705042, 1.9009921550750732]","[0.0, 0.0, -0.0, 0.0, 0.0, -0.19782599806785583]","[0.01831054873764515, -4.888916492462158, -2.5018606185913086, -0.4104767143726349, 0.0381317175924778, -0.4508515000343323]"
1584460299255075066,,2300971,,1584460299,254637258,'',"[shoulder_pan_joint, shoulder_lift_joint, elbow_joint, wrist_1_joint, wrist_2_joint,","[1.5769652128219604, -1.0330255667315882, 2.1701717376708984, -2.683103863392965, -1.5669696966754358, 1.8786650896072388]","[0.0, 0.0, -0.0, 0.0, 0.0, -0.19870804250240326]","[-0.004577637184411287, -4.820251941680908, -2.5220367908477783, -0.3701019585132599, 0.0314025916159153, -0.5091705918312073]"
1584460299367111414,,2300985,,1584460299,366654891,'',"[shoulder_pan_joint, shoulder_lift_joint, elbow_joint, wrist_1_joint, wrist_2_joint,","[1.5769532918930054, -1.0330255667315882, 2.1701717376708984, -2.683103863392965, -1.5669940153705042, 1.8562902212142944]","[0.0, 0.0, -0.0, 0.0, 0.0, -0.20089396834373474]","[0.0, -4.879761219024658, -2.5153114795684814, -0.4329071640968323, 0.0291595496237278, -0.4239349663257599]"
1584460299478945795,,2300999,,1584460299,478520530,'',"[shoulder_pan_joint, shoulder_lift_joint, elbow_joint, wrist_1_joint, wrist_2_joint,","[1.5769652128219604, -1.0330012480365198, 2.1701598167419434, -2.683080021535055, -1.5669696966754358, 1.8338909149169922]","[0.0, 0.0, -0.0, 0.0, 0.0, -0.19932162761688232]","[0.0, -4.985046863555908, -2.5175533294677734, -0.4104767143726349, 0.02467346377670765, -0.4822540879249573]"
1584460299590896302,,2301013,,1584460299,590507266,'',"[shoulder_pan_joint, shoulder_lift_joint, elbow_joint, wrist_1_joint, wrist_2_joint,","[1.5769652128219604, -1.0330374876605433, 2.1701836585998535, -2.68309194246401, -1.5669940153705042, 1.8115040063858032]","[0.0, 0.0, -0.0, 0.0, 0.0, -0.20110487937927246]","[-0.02288818545639515, -5.053711414337158, -2.5108277797698975, -0.4284210503101349, 0.02018737979233265, -0.5540314316749573]"
1584460299702899508,,2301027,,1584460299,702502116,'',"[shoulder_pan_joint, shoulder_lift_joint, elbow_joint, wrist_1_joint, wrist_2_joint,","[1.576977252960205, -1.032989803944723, 2.1701478958129883, -2.68311578432192, -1.5670178572284144, 1.7945276498794556]","[0.0, 0.0, -0.0, 0.0, 0.0, -0.07491578906774521]","[0.01831054873764515, -5.017090320587158, -2.5085859298706055, -0.3813171684741974, -0.02467346377670765, -0.3902893364429474]"
1584460299814928643,,2301041,,1584460299,814459346,'',"[shoulder_pan_joint, shoulder_lift_joint, elbow_joint, wrist_1_joint, wrist_2_joint,","[1.5769652128219604, -1.0330012480365198, 2.1701478958129883, -2.683103863392965, -1.5669696966754358, 1.7929471731185913]","[0.0, 0.0, -0.0, 0.0, 0.0, 0.0011504855938255787]","[0.0366210974752903, -5.035400867462158, -2.4996187686920166, -0.3925323784351349, -0.0269165076315403, -0.011215210892260075]"
1584460299927097468,,2301055,,1584460299,926699234,'',"[shoulder_pan_joint, shoulder_lift_joint, elbow_joint, wrist_1_joint, wrist_2_joint,","[1.5769652128219604, -1.0330374876605433, 2.1701598167419434, -2.68311578432192, -1.5670059362994593, 1.793186902999878]","[0.0, 0.0, -0.0, 0.0, 0.0, 0.002205097349360585]","[-0.004577637184411287, -4.939270496368408, -2.4996187686920166, -0.4082336723804474, -0.02467346377670765, 0.0560760572552681]"
1584460300039090365,,2301069,,1584460300,38613975,'',"[shoulder_pan_joint, shoulder_lift_joint, elbow_joint, wrist_1_joint, wrist_2_joint,","[1.576977252960205, -1.032989803944723, 2.1701955795288086, -2.683080021535055, -1.5669940153705042, 1.793186902999878]","[0.0, 0.0, -0.0, 0.0, 0.0, 0.00032597093377262354]","[0.004577637184411287, -5.049133777618408, -2.5130696296691895, -0.4216919243335724, -0.011215210892260075, 0.01570129580795765]"
1584460300150808919,,2301083,,1584460300,150443176,'',"[shoulder_pan_joint, shoulder_lift_joint, elbow_joint, wrist_1_joint, wrist_2_joint,","[1.576977252960205, -1.033013645802633, 2.1701717376708984, -2.6830681006061, -1.5670059362994593, 1.7932108640670776]","[0.0, 0.0, -0.0, 0.0, 0.0, 0.00015339808305725455]","[0.01831054873764515, -5.076599597930908, -2.4996187686920166, -0.4486084580421448, -0.02467346377670765, 0.01570129580795765]"
1584460300262994967,,2301097,,1584460300,262544786,'',"[shoulder_pan_joint, shoulder_lift_joint, elbow_joint, wrist_1_joint, wrist_2_joint,","[1.5769412517547607, -1.033013645802633, 2.1701478958129883, -2.6831277052508753, -1.5670059362994593, 1.793246865272522]","[0.0, 0.0, -0.0, 0.0, 0.0, 9.58738019107841e-05]","[0.01373291201889515, -5.108643054962158, -2.5041024684906006, -0.4194488823413849, -0.02018737979233265, 0.011215210892260075]"
1584460300374816704,,2301111,,1584460300,374443697,'',"[shoulder_pan_joint, shoulder_lift_joint, elbow_joint, wrist_1_joint, wrist_2_joint,","[1.5769891738891602, -1.0330255667315882, 2.1701478958129883, -2.68309194246401, -1.5669940153705042, 1.7932348251342773]","[0.0, 0.0, -0.0, 0.0, 0.0, 7.669904152862728e-05]","[-0.004577637184411287, -5.085754871368408, -2.5041024684906006, -0.4037475883960724, -0.02018737979233265, 0.01570129580795765]"
1584460300486831391,,2301125,,1584460300,486429371,'',"[shoulder_pan_joint, shoulder_lift_joint, elbow_joint, wrist_1_joint, wrist_2_joint,","[1.5769652128219604, -1.0330012480365198, 2.1701598167419434, -2.6831277052508753, -1.5670178572284144, 1.793246865272522]","[0.0, 0.0, -0.0, 0.0, 0.0, 7.669904152862728e-05]","[-0.0274658240377903, -5.058289051055908, -2.5085859298706055, -0.4306641221046448, -0.02467346377670765, 0.01345825381577015]"
1584460300598785155,,2301139,,1584460300,598422077,'',"[shoulder_pan_joint, shoulder_lift_joint, elbow_joint, wrist_1_joint, wrist_2_joint,","[1.576977252960205, -1.033013645802633, 2.1701598167419434, -2.68309194246401, -1.5669696966754358, 1.7932348251342773]","[0.0, 0.0, -0.0, 0.0, 0.0, 7.669904152862728e-05]","[0.0411987341940403, -5.072021961212158, -2.4996187686920166, -0.4082336723804474, -0.02243042178452015, 0.008972168900072575]"
1584460300710828947,,2301153,,1584460300,710510983,'',"[shoulder_pan_joint, shoulder_lift_joint, elbow_joint, wrist_1_joint, wrist_2_joint,","[1.5769293308258057, -1.032989803944723, 2.1701478958129883, -2.68311578432192, -1.5669940153705042, 1.793198823928833]","[0.0, 0.0, -0.0, 0.0, 0.0, 7.669904152862728e-05]","[-0.0274658240377903, -5.039978504180908, -2.5041024684906006, -0.3970184624195099, -0.02018737979233265, 0.011215210892260075]"
1584460300822711297,,2301167,,1584460300,822382383,'',"[shoulder_pan_joint, shoulder_lift_joint, elbow_joint, wrist_1_joint, wrist_2_joint,","[1.5769532918930054, -1.0330012480365198, 2.170135498046875, -2.683103863392965, -1.5669696966754358, 1.7932227849960327]","[0.0, 0.0, -0.0, 0.0, 0.0, 7.669904152862728e-05]","[0.0, -4.957581043243408, -2.5063440799713135, -0.4059906303882599, -0.02243042178452015, 0.01345825381577015]"
1584460300934917733,,2301181,,1584460300,934495264,'',"[shoulder_pan_joint, shoulder_lift_joint, elbow_joint, wrist_1_joint, wrist_2_joint,","[1.576977252960205, -1.0330255667315882, 2.1701478958129883, -2.683103863392965, -1.5670059362994593, 1.7932227849960327]","[0.0, 0.0, -0.0, 0.0, 0.0, 5.752428114647046e-05]","[0.01373291201889515, -4.861450672149658, -2.5041024684906006, -0.3790741264820099, -0.02243042178452015, 0.006729126907885075]"
1584460301046761371,,2301195,,1584460301,46407210,'',"[shoulder_pan_joint, shoulder_lift_joint, elbow_joint, wrist_1_joint, wrist_2_joint,","[1.5769891738891602, -1.0330012480365198, 2.1701717376708984, -2.683080021535055, -1.566981617604391, 1.793246865272522]","[0.0, 0.0, -0.0, 0.0, 0.0, 3.834952076431364e-05]","[-0.004577637184411287, -4.948425769805908, -2.5130696296691895, -0.3947754204273224, -0.02018737979233265, 0.01345825381577015]"
1584460301158932601,,2301209,,1584460301,158410265,'',"[shoulder_pan_joint, shoulder_lift_joint, elbow_joint, wrist_1_joint, wrist_2_joint,","[1.5769652128219604, -1.0330012480365198, 2.1701478958129883, -2.68309194246401, -1.5669940153705042, 1.7932227849960327]","[0.0, 0.0, -0.0, 0.0, 0.0, 3.834952076431364e-05]","[0.0, -4.898071765899658, -2.4973769187927246, -0.4104767143726349, -0.01570129580795765, 0.01570129580795765]"
1584460301270938803,,2301223,,1584460301,270408582,'',"[shoulder_pan_joint, shoulder_lift_joint, elbow_joint, wrist_1_joint, wrist_2_joint,","[1.5769532918930054, -1.0329654852496546, 2.1701717376708984, -2.68311578432192, -1.566981617604391, 1.7932348251342773]","[0.0, 0.0, -0.0, 0.0, 0.0, 3.834952076431364e-05]","[-0.004577637184411287, -5.085754871368408, -2.5220367908477783, -0.4015045464038849, -0.01570129580795765, 0.01570129580795765]"
1584460301382821704,,2301237,,1584460301,382420685,'',"[shoulder_pan_joint, shoulder_lift_joint, elbow_joint, wrist_1_joint, wrist_2_joint,","[1.5769652128219604, -1.0330255667315882, 2.170135498046875, -2.68311578432192, -1.5670059362994593, 1.7932227849960327]","[0.0, 0.0, -0.0, 0.0, 0.0, 1.917476038215682e-05]","[0.0366210974752903, -5.049133777618408, -2.5063440799713135, -0.3947754204273224, -0.01570129580795765, 0.011215210892260075]"
1584460301494893128,,2301251,,1584460301,494444039,'',"[shoulder_pan_joint, shoulder_lift_joint, elbow_joint, wrist_1_joint, wrist_2_joint,","[1.576977252960205, -1.0330374876605433, 2.171048164367676, -2.6833675543414515, -1.5669696966754358, 1.792971134185791]","[0.0, -0.001636246219277382, 0.030117155984044075, -0.01125558465719223, 0.0, -0.00797670055180788]","[-0.2655029594898224, -5.319214344024658, -1.2576557397842407, -0.6258087754249573, 0.0381317175924778, -0.2960815727710724]"
1584460301606733019,,2301265,,1584460301,606379268,'',"[shoulder_pan_joint, shoulder_lift_joint, elbow_joint, wrist_1_joint, wrist_2_joint,","[1.5769891738891602, -1.0332053343402308, 2.1734843254089355, -2.684289280568258, -1.5669577757464808, 1.7951624393463135]","[0.0003962783666793257, -0.00043462790199555457, 0.008973787538707256, -0.0016106799012050033, 0.0, 0.04975850135087967]","[0.1007080152630806, -4.980469226837158, -1.3047337532043457, -0.5585175156593323, 0.0471038855612278, 0.2915954887866974]"
1584460301719202897,,2301279,,1584460301,718706089,'',"[shoulder_pan_joint, shoulder_lift_joint, elbow_joint, wrist_1_joint, wrist_2_joint,","[1.5770131349563599, -1.0331457296954554, 2.1735925674438477, -2.6842411200152796, -1.5669940153705042, 1.8010042905807495]","[0.00017896443023346364, 0.00048576059634797275, -0.00024288029817398638, 0.000690291344653815, 0.0, 0.05251966789364815]","[-0.01373291201889515, -4.408264636993408, -1.7530958652496338, -0.3319702446460724, 0.0448608435690403, 0.3117828667163849]"
1584460301830844417,,2301293,,1584460301,830417930,'',"[shoulder_pan_joint, shoulder_lift_joint, elbow_joint, wrist_1_joint, wrist_2_joint,","[1.5779486894607544, -1.032917324696676, 2.172823905944824, -2.683667008076803, -1.5670178572284144, 1.8064639568328857]","[0.029516346752643585, 0.006890130694955587, -0.0186634324491024, 0.01848446950316429, 0.0, 0.0475534051656723]","[0.6546021103858948, -3.923035144805908, -2.0691912174224854, -0.2175751030445099, 0.0471038855612278, 0.3431854546070099]"
1584460301942777001,,2301307,,1584460301,942380610,'',"[shoulder_pan_joint, shoulder_lift_joint, elbow_joint, wrist_1_joint, wrist_2_joint,","[1.5836220979690552, -1.0310233275042933, 2.1702795028686523, -2.6813319365130823, -1.5670536200152796, 1.8119829893112183]","[0.06987282633781433, 0.016081232577562332, -0.013818610459566116, 0.017966751009225845, 0.0, 0.051791027188301086]","[0.6683350205421448, -4.055786609649658, -2.291130304336548, -0.1659851223230362, 0.1211242824792862, 0.2983246147632599]"
1584460302054804362,,2301321,,1584460302,54392753,'',"[shoulder_pan_joint, shoulder_lift_joint, elbow_joint, wrist_1_joint, wrist_2_joint,","[1.5931817293167114, -1.0306275526629847, 2.17012357711792, -2.680781666432516, -1.5670297781573694, 1.818782925605774]","[0.09572040289640427, -0.00017896443023346364, -0.0006008091731928289, 0.0, 0.0, 0.06448471546173096]","[0.7690430283546448, -4.550171375274658, -2.17903995513916, -0.2422485649585724, 0.1682281643152237, 0.3499145805835724]"
1584460302166979419,,2301335,,1584460302,166515873,'',"[shoulder_pan_joint, shoulder_lift_joint, elbow_joint, wrist_1_joint, wrist_2_joint,","[1.6046843528747559, -1.0306513945208948, 2.17012357711792, -2.680769745503561, -1.5670178572284144, 1.8256903886795044]","[0.10736587643623352, -0.0001661812566453591, -0.00020453077740967274, 0.0, 1.917476038215682e-05, 0.06285486370325089]","[0.7186890244483948, -4.893494129180908, -1.999695062637329, -0.3005676567554474, 0.1727142482995987, 0.3723450005054474]"
1584460302279062805,,2301349,,1584460302,278586636,'',"[shoulder_pan_joint, shoulder_lift_joint, elbow_joint, wrist_1_joint, wrist_2_joint,","[1.6169064044952393, -1.0306275526629847, 2.1700639724731445, -2.680769745503561, -1.5670178572284144, 1.8341904878616333]","[0.11060001701116562, 0.0, -0.00012783173588104546, 0.0, 1.917476038215682e-05, 0.08341020345687866]","[0.7049561142921448, -4.980469226837158, -1.9840023517608643, -0.3072967827320099, 0.2108459621667862, 0.3835602104663849]"
1584460302390806577,,2301363,,1584460302,390365984,'',"[shoulder_pan_joint, shoulder_lift_joint, elbow_joint, wrist_1_joint, wrist_2_joint,","[1.6293928623199463, -1.03066331544985, 2.17012357711792, -2.6807578245746058, -1.5669696966754358, 1.8424270153045654]","[0.11132866144180298, 0.0, -8.948221511673182e-05, 0.0, 0.00013422331539914012, 0.06584613025188446]","[0.6820679306983948, -5.007935047149658, -2.019871234893799, -0.2803802788257599, 0.1839294582605362, 0.3095398247241974]"
1584460302502886626,,2301377,,1584460302,502397723,'',"[shoulder_pan_joint, shoulder_lift_joint, elbow_joint, wrist_1_joint, wrist_2_joint,","[1.6417347192764282, -1.030675236378805, 2.170135498046875, -2.6807215849505823, -1.566981617604391, 1.8509029150009155]","[0.10930891335010529, 0.0, -6.391586794052273e-05, 7.669904152862728e-05, 0.00028762139845639467, 0.07936432957649231]","[0.8651733994483948, -5.058289051055908, -2.019871234893799, -0.2601929008960724, 0.2422485649585724, 0.4015045464038849]"
1584460302614800245,,2301391,,1584460302,614406770,'',"[shoulder_pan_joint, shoulder_lift_joint, elbow_joint, wrist_1_joint, wrist_2_joint,","[1.6534291505813599, -1.0307233969317835, 2.17012357711792, -2.6807459036456507, -1.5669339338885706, 1.8594027757644653]","[0.10250826925039291, 0.0, -5.1132694352418184e-05, 7.669904152862728e-05, 0.000517718552146107, 0.07721675932407379]","[0.8422852158546448, -5.099487781524658, -2.019871234893799, -0.2601929008960724, 0.2489776909351349, 0.2489776909351349]"
1584460302726726628,,2301405,,1584460302,726380722,'',"[shoulder_pan_joint, shoulder_lift_joint, elbow_joint, wrist_1_joint, wrist_2_joint,","[1.6650631427764893, -1.0306990782367151, 2.170135498046875, -2.6807335058795374, -1.5669100920306605, 1.8687406778335571]","[0.10170292854309082, -5.1132694352418184e-05, -5.1132694352418184e-05, 7.669904152862728e-05, 0.00024927189224399626, 0.0688757374882698]","[0.7507324814796448, -5.136108875274658, -1.9884859323501587, -0.2714081108570099, 0.2601929008960724, 0.3678589165210724]"
1584460302838750151,,2301419,,1584460302,838397693,'',"[shoulder_pan_joint, shoulder_lift_joint, elbow_joint, wrist_1_joint, wrist_2_joint,","[1.6759542226791382, -1.0307233969317835, 2.1701478958129883, -2.6807459036456507, -1.5669220129596155, 1.87538480758667]","[0.09425033628940582, -0.00014061490946915, -3.834952076431364e-05, 7.669904152862728e-05, 0.0002109223569277674, 0.05664224177598953]","[0.9887696504592896, -5.168152332305908, -2.0422894954681396, -0.2512207329273224, 0.3364563286304474, 0.2848663628101349]"
1584460302950748619,,2301433,,1584460302,950355875,'',"[shoulder_pan_joint, shoulder_lift_joint, elbow_joint, wrist_1_joint, wrist_2_joint,","[1.6861131191253662, -1.0307233969317835, 2.17012357711792, -2.6807459036456507, -1.566861931477682, 1.8820289373397827]","[0.09133577346801758, -0.00014061490946915, -3.834952076431364e-05, 5.752428114647046e-05, 0.00011504856229294091, 0.055338356643915176]","[0.8148193955421448, -5.104065418243408, -2.111785650253296, -0.2265472710132599, 0.3229980766773224, 0.3902893364429474]"
1584460303062714405,,2301447,,1584460303,62334445,'',"[shoulder_pan_joint, shoulder_lift_joint, elbow_joint, wrist_1_joint, wrist_2_joint,","[1.6961157321929932, -1.0307472387896937, 2.1701478958129883, -2.6807215849505823, -1.5668500105487269, 1.8874281644821167]","[0.08163334429264069, -0.00010226538870483637, -2.5566347176209092e-05, 5.752428114647046e-05, 0.00011504856229294091, 0.04325826093554497]","[0.6500244736671448, -5.172729969024658, -2.0579819679260254, -0.2444916069507599, 0.3521576225757599, 0.3566437065601349]"
1584460303174761904,,2301461,,1584460303,174342600,'',"[shoulder_pan_joint, shoulder_lift_joint, elbow_joint, wrist_1_joint, wrist_2_joint,","[1.705003261566162, -1.0307353178607386, 2.17012357711792, -2.6807215849505823, -1.5668500105487269, 1.893270492553711]","[0.0753440260887146, -6.391586794052273e-05, -2.5566347176209092e-05, 3.834952076431364e-05, 0.0001917476038215682, 0.06333423405885696]","[0.8285523056983948, -5.177307605743408, -2.17903995513916, -0.2041168361902237, 0.2915954887866974, 0.3185119926929474]"
1584460303286863143,,2301475,,1584460303,286370933,'',"[shoulder_pan_joint, shoulder_lift_joint, elbow_joint, wrist_1_joint, wrist_2_joint,","[1.7130637168884277, -1.0307472387896937, 2.170135498046875, -2.680697743092672, -1.5668142477618616, 1.9000461101531982]","[0.07117670774459839, -5.1132694352418184e-05, -2.5566347176209092e-05, 3.834952076431364e-05, 0.00023009712458588183, 0.05482063814997673]","[1.1535645723342896, -5.250549793243408, -2.0624656677246094, -0.2310333549976349, 0.3140259087085724, 0.3701019585132599]"
1584460303399008114,,2301489,,1584460303,398551391,'',"[shoulder_pan_joint, shoulder_lift_joint, elbow_joint, wrist_1_joint, wrist_2_joint,","[1.7201160192489624, -1.0307233969317835, 2.170135498046875, -2.6807215849505823, -1.5667899290667933, 1.9051700830459595]","[0.0518869012594223, -5.1132694352418184e-05, 2.5566347176209092e-05, 3.834952076431364e-05, 0.0004218447138555348, 0.04295146465301514]","[0.7644653916358948, -5.227661609649658, -2.0624656677246094, -0.2355194389820099, 0.3252411186695099, 0.2691650688648224]"
1584460303510932803,,2301503,,1584460303,510483163,'',"[shoulder_pan_joint, shoulder_lift_joint, elbow_joint, wrist_1_joint, wrist_2_joint,","[1.7252250909805298, -1.0307353178607386, 2.1702075004577637, -2.6807215849505823, -1.5667184034930628, 1.9108686447143555]","[0.037825409322977066, -5.1132694352418184e-05, 2.5566347176209092e-05, 3.834952076431364e-05, 0.0003834952076431364, 0.04950923100113869]","[1.1581422090530396, -5.223083972930908, -2.080400228500366, -0.2175751030445099, 0.2781372368335724, 0.2893524467945099]"
1584460303622685772,,2301517,,1584460303,622289101,'',"[shoulder_pan_joint, shoulder_lift_joint, elbow_joint, wrist_1_joint, wrist_2_joint,","[1.7282477617263794, -1.0307591597186487, 2.1702194213867188, -2.680697743092672, -1.5667060057269495, 1.9155012369155884]","[0.016924921423196793, -5.1132694352418184e-05, 2.5566347176209092e-05, 3.834952076431364e-05, 0.0002109223569277674, 0.03585680201649666]","[0.9017945528030396, -5.168152332305908, -2.10506010055542, -0.2287903130054474, 0.2803802788257599, 0.2848663628101349]"
1584460303734687766,,2301531,,1584460303,734308758,'',"[shoulder_pan_joint, shoulder_lift_joint, elbow_joint, wrist_1_joint, wrist_2_joint,","[1.7292312383651733, -1.030771557484762, 2.1702075004577637, -2.6807459036456507, -1.5667303244220179, 1.9194159507751465]","[0.0013550163712352514, -5.1132694352418184e-05, 2.5566347176209092e-05, 3.834952076431364e-05, 0.00011504856229294091, 0.03146577998995781]","[0.3524780571460724, -5.136108875274658, -2.093851089477539, -0.2287903130054474, 0.2534637749195099, 0.2983246147632599]"
1584460303846827356,,2301545,,1584460303,846354072,'',"[shoulder_pan_joint, shoulder_lift_joint, elbow_joint, wrist_1_joint, wrist_2_joint,","[1.7292072772979736, -1.030771557484762, 2.1701955795288086, -2.6807096640216272, -1.5667184034930628, 1.923462152481079]","[-0.00015339808305725455, -3.834952076431364e-05, 2.5566347176209092e-05, 3.834952076431364e-05, 7.669904152862728e-05, 0.041973549872636795]","[0.004577637184411287, -5.072021961212158, -2.1543798446655273, -0.2243042290210724, 0.3072967827320099, 0.2826233208179474]"
1584460303958694258,,2301559,,1584460303,958298198,'',"[shoulder_pan_joint, shoulder_lift_joint, elbow_joint, wrist_1_joint, wrist_2_joint,","[1.729195237159729, -1.0307472387896937, 2.1701955795288086, -2.6807335058795374, -1.5667184034930628, 1.9279158115386963]","[-0.00011504856229294091, -2.5566347176209092e-05, 2.5566347176209092e-05, 3.834952076431364e-05, 5.752428114647046e-05, 0.029394907876849174]","[-0.01373291201889515, -5.039978504180908, -2.1521382331848145, -0.2332763969898224, 0.2557068169116974, 0.3117828667163849]"
1584460304070919228,,2301573,,1584460304,70503592,'',"[shoulder_pan_joint, shoulder_lift_joint, elbow_joint, wrist_1_joint, wrist_2_joint,","[1.729183316230774, -1.0307591597186487, 2.1702075004577637, -2.680685822163717, -1.566742245350973, 1.9289333820343018]","[-7.669904152862728e-05, -2.5566347176209092e-05, 2.5566347176209092e-05, 3.834952076431364e-05, 5.752428114647046e-05, -0.0030871364288032055]","[-0.0640869215130806, -5.117798328399658, -2.1229946613311768, -0.2557068169116974, 0.2557068169116974, 0.0291595496237278]"
1584460304182822447,,2301587,,1584460304,182319378,'',"[shoulder_pan_joint, shoulder_lift_joint, elbow_joint, wrist_1_joint, wrist_2_joint,","[1.729183316230774, -1.0306990782367151, 2.1703991889953613, -2.6807578245746058, -1.5667899290667933, 1.9289573431015015]","[-5.1132694352418184e-05, 0.0005113269435241818, 0.000818123109638691, 0.0, -0.0004410194815136492, -0.00026844663079828024]","[-0.0778198316693306, -4.348755359649658, -1.8808790445327759, -0.2826233208179474, 0.0672912672162056, 0.02243042178452015]"
1584460304294581778,,2301601,,1584460304,294232576,'',"[shoulder_pan_joint, shoulder_lift_joint, elbow_joint, wrist_1_joint, wrist_2_joint,","[1.729195237159729, -1.03066331544985, 2.1704354286193848, -2.6807215849505823, -1.5667899290667933, 1.9289333820343018]","[-3.834952076431364e-05, 0.0, 0.00023009712458588183, 0.0, -0.00017257283616345376, -0.00013422331539914012]","[-0.1235962063074112, -4.307556629180908, -2.017629384994507, -0.2983246147632599, 0.0628051832318306, 0.0314025916159153]"
1584460304406779998,,2301615,,1584460304,406318276,'',"[shoulder_pan_joint, shoulder_lift_joint, elbow_joint, wrist_1_joint, wrist_2_joint,","[1.729195237159729, -1.0307114760028284, 2.17044734954834, -2.680697743092672, -1.5667899290667933, 1.928909420967102]","[-3.834952076431364e-05, 0.0, 0.0001661812566453591, 0.0, 0.0, -9.58738019107841e-05]","[-0.1235962063074112, -4.289246082305908, -2.205941677093506, -0.2781372368335724, 0.0650482252240181, 0.0269165076315403]"
1584460304518657229,,2301629,,1584460304,518297387,'',"[shoulder_pan_joint, shoulder_lift_joint, elbow_joint, wrist_1_joint, wrist_2_joint,","[1.729183316230774, -1.03066331544985, 2.1704235076904297, -2.6807335058795374, -1.5668142477618616, 1.9289213418960571]","[-2.5566347176209092e-05, 0.0, 0.0001661812566453591, 0.0, 0.0, -7.669904152862728e-05]","[-0.1052856519818306, -4.339600086212158, -2.4301226139068604, -0.3005676567554474, 0.0919647291302681, 0.0291595496237278]"
1584460304630935750,,2301643,,1584460304,630466102,'',"[shoulder_pan_joint, shoulder_lift_joint, elbow_joint, wrist_1_joint, wrist_2_joint,","[1.729195237159729, -1.0306990782367151, 2.1703033447265625, -2.6807215849505823, -1.5667899290667933, 1.9288973808288574]","[-2.5566347176209092e-05, 0.0, -0.0018791265320032835, 0.0, 0.0, -5.752428114647046e-05]","[-0.0686645582318306, -4.348755359649658, -2.450299024581909, -0.2871094048023224, 0.1480407863855362, 0.0314025916159153]"
1584460304742632002,,2301657,,1584460304,742259887,'',"[shoulder_pan_joint, shoulder_lift_joint, elbow_joint, wrist_1_joint, wrist_2_joint,","[1.7291712760925293, -1.030675236378805, 2.1702914237976074, -2.6807335058795374, -1.5667899290667933, 1.9289333820343018]","[-1.2783173588104546e-05, 0.0, -0.0002812298189383, 0.0, 1.917476038215682e-05, -3.834952076431364e-05]","[-0.0732421949505806, -4.280090808868408, -2.4951350688934326, -0.2960815727710724, 0.2557068169116974, 0.0269165076315403]"
1584460304854634477,,2301671,,1584460304,854263243,'',"[shoulder_pan_joint, shoulder_lift_joint, elbow_joint, wrist_1_joint, wrist_2_joint,","[1.729183316230774, -1.0306990782367151, 2.1703033447265625, -2.6807335058795374, -1.5667780081378382, 1.9289213418960571]","[-1.2783173588104546e-05, 0.0, -0.00015339808305725455, 0.0, 1.917476038215682e-05, -3.834952076431364e-05]","[-0.0640869215130806, -4.298401355743408, -2.4951350688934326, -0.2938385307788849, 0.1996307522058487, 0.0291595496237278]"
1584460304966710950,,2301685,,1584460304,966247745,'',"[shoulder_pan_joint, shoulder_lift_joint, elbow_joint, wrist_1_joint, wrist_2_joint,","[1.729195237159729, -1.030675236378805, 2.1703033447265625, -2.6807335058795374, -1.5667780081378382, 1.9289333820343018]","[-1.2783173588104546e-05, 0.0, -0.00010226538870483637, 0.0, 1.917476038215682e-05, -3.834952076431364e-05]","[-0.0823974683880806, -4.321289539337158, -2.4906516075134277, -0.2915954887866974, 0.2175751030445099, 0.02467346377670765]"
1584460305078777434,,2301699,,1584460305,78290114,'',"[shoulder_pan_joint, shoulder_lift_joint, elbow_joint, wrist_1_joint, wrist_2_joint,","[1.7292312383651733, -1.0306876341449183, 2.1702914237976074, -2.6807459036456507, -1.5667780081378382, 1.9289333820343018]","[0.0, 0.0, -7.669904152862728e-05, 0.0, 1.917476038215682e-05, -1.917476038215682e-05]","[-0.1007080152630806, -4.289246082305908, -2.5175533294677734, -0.2938385307788849, 0.1794433742761612, 0.01794433780014515]"
1584460305190879104,,2301713,,1584460305,190438531,'',"[shoulder_pan_joint, shoulder_lift_joint, elbow_joint, wrist_1_joint, wrist_2_joint,","[1.729195237159729, -1.030675236378805, 2.1702795028686523, -2.6807335058795374, -1.566766087208883, 1.9288973808288574]","[0.0, 0.0, -6.391586794052273e-05, 0.0, 1.917476038215682e-05, -1.917476038215682e-05]","[-0.1007080152630806, -4.325867176055908, -2.4951350688934326, -0.2960815727710724, 0.1816864162683487, 0.02467346377670765]"
1584460305302980093,,2301727,,1584460305,302486631,'',"[shoulder_pan_joint, shoulder_lift_joint, elbow_joint, wrist_1_joint, wrist_2_joint,","[1.7292072772979736, -1.0307233969317835, 2.1702914237976074, -2.6807096640216272, -1.566742245350973, 1.9285142421722412]","[0.0, 0.0, -5.1132694352418184e-05, 0.0, 1.917476038215682e-05, -0.021820876747369766]","[-0.1052856519818306, -4.312134265899658, -2.4884097576141357, -0.2871094048023224, 0.2018737941980362, -0.1547699123620987]"
1584460305414667809,,2301741,,1584460305,414212158,'',"[shoulder_pan_joint, shoulder_lift_joint, elbow_joint, wrist_1_joint, wrist_2_joint,","[1.729183316230774, -1.0306990782367151, 2.1703033447265625, -2.6807215849505823, -1.566754166279928, 1.9193919897079468]","[0.0, 0.0, -3.834952076431364e-05, 0.0, 1.917476038215682e-05, -0.16973498463630676]","[-0.0732421949505806, -4.238892078399658, -2.5018606185913086, -0.3028106987476349, 0.1929016262292862, -0.4508515000343323]"
1584460305526616073,,2301755,,1584460305,526256932,'',"[shoulder_pan_joint, shoulder_lift_joint, elbow_joint, wrist_1_joint, wrist_2_joint,","[1.7292191982269287, -1.0306513945208948, 2.1703033447265625, -2.6807335058795374, -1.5667780081378382, 1.8969095945358276]","[0.0, 0.0, -3.834952076431364e-05, 0.0, 1.917476038215682e-05, -0.2017376571893692]","[-0.0640869215130806, -4.330444812774658, -2.5175533294677734, -0.2803802788257599, 0.2153320610523224, -0.4486084580421448]"
1584460305638806348,,2301769,,1584460305,638343935,'',"[shoulder_pan_joint, shoulder_lift_joint, elbow_joint, wrist_1_joint, wrist_2_joint,","[1.7292191982269287, -1.030675236378805, 2.1703152656555176, -2.6807459036456507, -1.5667303244220179, 1.8744271993637085]","[0.0, 0.0, -2.5566347176209092e-05, 0.0, 1.917476038215682e-05, -0.20146921277046204]","[-0.1098632961511612, -4.307556629180908, -2.539971351623535, -0.2960815727710724, 0.2220611870288849, -0.4979553818702698]"
1584460305750806980,,2301783,,1584460305,750304771,'',"[shoulder_pan_joint, shoulder_lift_joint, elbow_joint, wrist_1_joint, wrist_2_joint,","[1.7292072772979736, -1.0306513945208948, 2.1703033447265625, -2.6807335058795374, -1.566742245350973, 1.8519444465637207]","[0.0, 0.0, -2.5566347176209092e-05, 0.0, 1.917476038215682e-05, -0.20229372382164001]","[-0.0915527418255806, -4.321289539337158, -2.548938512802124, -0.2960815727710724, 0.2063598781824112, -0.3992615044116974]"
1584460305862844310,,2301797,,1584460305,862416611,'',"[shoulder_pan_joint, shoulder_lift_joint, elbow_joint, wrist_1_joint, wrist_2_joint,","[1.729183316230774, -1.03066331544985, 2.1702914237976074, -2.6807215849505823, -1.566754166279928, 1.8296290636062622]","[0.0, 0.0, -2.5566347176209092e-05, 0.0, 1.917476038215682e-05, -0.19895730912685394]","[-0.1052856519818306, -4.321289539337158, -2.566873073577881, -0.3005676567554474, 0.2198181450366974, -0.6078644394874573]"
1584460305974930982,,2301811,,1584460305,974440195,'',"[shoulder_pan_joint, shoulder_lift_joint, elbow_joint, wrist_1_joint, wrist_2_joint,","[1.729183316230774, -1.0306513945208948, 2.170327663421631, -2.6807096640216272, -1.566742245350973, 1.8071342706680298]","[0.0, 0.0, -2.5566347176209092e-05, 0.0, 1.917476038215682e-05, -0.2013925015926361]","[-0.0961303785443306, -4.307556629180908, -2.566873073577881, -0.3005676567554474, 0.1816864162683487, -0.4486084580421448]"
1584460306086737460,,2301825,,1584460306,86273874,'',"[shoulder_pan_joint, shoulder_lift_joint, elbow_joint, wrist_1_joint, wrist_2_joint,","[1.7292072772979736, -1.03066331544985, 2.1703152656555176, -2.6807459036456507, -1.566742245350973, 1.7847589254379272]","[0.0, 0.0, -1.2783173588104546e-05, 0.0, 1.917476038215682e-05, -0.19801774621009827]","[-0.0595092847943306, -4.302978992462158, -2.5803239345550537, -0.3050537407398224, 0.1929016262292862, -0.4643097519874573]"
1584460306198561442,,2301839,,1584460306,198182914,'',"[shoulder_pan_joint, shoulder_lift_joint, elbow_joint, wrist_1_joint, wrist_2_joint,","[1.729195237159729, -1.0306990782367151, 2.1703033447265625, -2.680697743092672, -1.566766087208883, 1.7623952627182007]","[0.0, 0.0, -1.2783173588104546e-05, 0.0, 1.917476038215682e-05, -0.20131580531597137]","[-0.0915527418255806, -4.339600086212158, -2.5758402347564697, -0.2915954887866974, 0.2130890041589737, -0.4710388779640198]"
1584460306310606716,,2301853,,1584460306,310212009,'',"[shoulder_pan_joint, shoulder_lift_joint, elbow_joint, wrist_1_joint, wrist_2_joint,","[1.729195237159729, -1.0306990782367151, 2.1702914237976074, -2.6807335058795374, -1.566742245350973, 1.7398757934570312]","[0.0, 0.0, -1.2783173588104546e-05, 0.0, 1.917476038215682e-05, -0.1984395980834961]","[-0.1098632961511612, -4.302978992462158, -2.571356773376465, -0.3050537407398224, 0.1996307522058487, -0.4979553818702698]"
1584460306422535884,,2301867,,1584460306,422156655,'',"[shoulder_pan_joint, shoulder_lift_joint, elbow_joint, wrist_1_joint, wrist_2_joint,","[1.729195237159729, -1.0306876341449183, 2.1702914237976074, -2.6807335058795374, -1.566754166279928, 1.7175836563110352]","[0.0, 0.0, -1.2783173588104546e-05, 0.0, 1.917476038215682e-05, -0.1992449313402176]","[-0.0640869215130806, -4.353332996368408, -2.573598623275757, -0.3028106987476349, 0.1839294582605362, -0.5271149277687073]"
1584460306534902459,,2301881,,1584460306,534500047,'',"[shoulder_pan_joint, shoulder_lift_joint, elbow_joint, wrist_1_joint, wrist_2_joint,","[1.729195237159729, -1.0306876341449183, 2.170327663421631, -2.6807335058795374, -1.566766087208883, 1.6951476335525513]","[0.0, 0.0, -1.2783173588104546e-05, 0.0, 1.917476038215682e-05, -0.20194856822490692]","[-0.0640869215130806, -4.330444812774658, -2.5937747955322266, -0.3050537407398224, 0.2063598781824112, -0.4486084580421448]"
1584460306646550121,,2301895,,1584460306,646209164,'',"[shoulder_pan_joint, shoulder_lift_joint, elbow_joint, wrist_1_joint, wrist_2_joint,","[1.7292191982269287, -1.03066331544985, 2.1702795028686523, -2.6807578245746058, -1.566754166279928, 1.6727592945098877]","[0.0, 0.0, -1.2783173588104546e-05, 0.0, 0.0, -0.19863134622573853]","[-0.0686645582318306, -4.302978992462158, -2.5825657844543457, -0.2960815727710724, 0.2265472710132599, -0.5473023056983948]"
1584460306758581239,,2301909,,1584460306,758190519,'',"[shoulder_pan_joint, shoulder_lift_joint, elbow_joint, wrist_1_joint, wrist_2_joint,","[1.7292191982269287, -1.0306990782367151, 2.1702795028686523, -2.6807096640216272, -1.566742245350973, 1.6503468751907349]","[0.0, 0.0, -1.2783173588104546e-05, 0.0, 0.0, -0.2006063461303711]","[-0.0320434607565403, -4.298401355743408, -2.551180362701416, -0.3140259087085724, 0.2018737941980362, -0.3992615044116974]"
1584460306870709459,,2301923,,1584460306,870230454,'',"[shoulder_pan_joint, shoulder_lift_joint, elbow_joint, wrist_1_joint, wrist_2_joint,","[1.729195237159729, -1.030675236378805, 2.1703152656555176, -2.6807096640216272, -1.566742245350973, 1.627969741821289]","[0.0, 0.0, -1.2783173588104546e-05, 0.0, 0.0, -0.20041459798812866]","[-0.0640869215130806, -4.307556629180908, -2.5915329456329346, -0.2983246147632599, 0.2198181450366974, -0.5764618515968323]"
1584460306982558236,,2301937,,1584460306,982177495,'',"[shoulder_pan_joint, shoulder_lift_joint, elbow_joint, wrist_1_joint, wrist_2_joint,","[1.729183316230774, -1.030675236378805, 2.1703033447265625, -2.6807215849505823, -1.566742245350973, 1.6055090427398682]","[0.0, 0.0, -1.2783173588104546e-05, 0.0, 0.0, -0.19932162761688232]","[-0.1007080152630806, -4.339600086212158, -2.5915329456329346, -0.3005676567554474, 0.2108459621667862, -0.4441223740577698]"
1584460307094758430,,2301951,,1584460307,94362430,'',"[shoulder_pan_joint, shoulder_lift_joint, elbow_joint, wrist_1_joint, wrist_2_joint,","[1.7292072772979736, -1.030675236378805, 2.170327663421631, -2.6807335058795374, -1.5667303244220179, 1.5831555128097534]","[0.0, 0.0, -1.2783173588104546e-05, 0.0, 0.0, -0.19702066481113434]","[-0.1052856519818306, -4.330444812774658, -2.5803239345550537, -0.2893524467945099, 0.2243042290210724, -0.5450592637062073]"
1584460307206704189,,2301965,,1584460307,206232889,'',"[shoulder_pan_joint, shoulder_lift_joint, elbow_joint, wrist_1_joint, wrist_2_joint,","[1.7292191982269287, -1.03066331544985, 2.1703033447265625, -2.6807215849505823, -1.566766087208883, 1.560718059539795]","[0.0, 0.0, -1.2783173588104546e-05, 0.0, 0.0, -0.20131580531597137]","[-0.0640869215130806, -4.321289539337158, -2.5870494842529297, -0.2893524467945099, 0.1884155422449112, -0.4239349663257599]"
1584460307318615794,,2301979,,1584460307,318165593,'',"[shoulder_pan_joint, shoulder_lift_joint, elbow_joint, wrist_1_joint, wrist_2_joint,","[1.729183316230774, -1.03066331544985, 2.1702914237976074, -2.6807215849505823, -1.5667184034930628, 1.5382801294326782]","[0.0, 0.0, -1.2783173588104546e-05, 0.0, 0.0, -0.1994558572769165]","[-0.0640869215130806, -4.307556629180908, -2.5892910957336426, -0.2893524467945099, 0.2063598781824112, -0.4508515000343323]"
1584460307430606637,,2301993,,1584460307,430214584,'',"[shoulder_pan_joint, shoulder_lift_joint, elbow_joint, wrist_1_joint, wrist_2_joint,","[1.729183316230774, -1.030675236378805, 2.1703033447265625, -2.6807096640216272, -1.5667184034930628, 1.5159502029418945]","[0.0, 0.0, -1.2783173588104546e-05, 0.0, 0.0, -0.2007022202014923]","[-0.0549316480755806, -4.325867176055908, -2.5892910957336426, -0.2848663628101349, 0.1839294582605362, -0.4777680039405823]"
1584460307542767357,,2302007,,1584460307,542263626,'',"[shoulder_pan_joint, shoulder_lift_joint, elbow_joint, wrist_1_joint, wrist_2_joint,","[1.7291712760925293, -1.0306394735919397, 2.1702795028686523, -2.6807215849505823, -1.5667184034930628, 1.4934879541397095]","[0.0, 0.0, -1.2783173588104546e-05, 0.0, 0.0, -0.20075973868370056]","[-0.0457763709127903, -4.312134265899658, -2.5870494842529297, -0.3050537407398224, 0.1794433742761612, -0.4015045464038849]"
1584460307654624821,,2302021,,1584460307,654221237,'',"[shoulder_pan_joint, shoulder_lift_joint, elbow_joint, wrist_1_joint, wrist_2_joint,","[1.729183316230774, -1.0307114760028284, 2.1702914237976074, -2.6807459036456507, -1.5667303244220179, 1.4711564779281616]","[0.0, 0.0, -0.0, 0.0, 0.0, -0.20018449425697327]","[-0.0457763709127903, -4.312134265899658, -2.6049838066101074, -0.2893524467945099, 0.2041168361902237, -0.5136566758155823]"
1584460307766683400,,2302035,,1584460307,766128874,'',"[shoulder_pan_joint, shoulder_lift_joint, elbow_joint, wrist_1_joint, wrist_2_joint,","[1.7292191982269287, -1.03066331544985, 2.1702675819396973, -2.6807215849505823, -1.566742245350973, 1.4487779140472412]","[0.0, 0.0, -0.0, 0.0, 0.0, -0.20258134603500366]","[-0.0640869215130806, -4.280090808868408, -2.5982584953308105, -0.2893524467945099, 0.1929016262292862, -0.4239349663257599]"
1584460307878499126,,2302049,,1584460307,878140126,'',"[shoulder_pan_joint, shoulder_lift_joint, elbow_joint, wrist_1_joint, wrist_2_joint,","[1.729183316230774, -1.0306876341449183, 2.1702795028686523, -2.6807215849505823, -1.566742245350973, 1.4263265132904053]","[0.0, 0.0, -0.0, 0.0, 0.0, -0.19895730912685394]","[-0.0457763709127903, -4.321289539337158, -2.5915329456329346, -0.3117828667163849, 0.2198181450366974, -0.5831909775733948]"
1584460307990561883,,2302063,,1584460307,990189207,'',"[shoulder_pan_joint, shoulder_lift_joint, elbow_joint, wrist_1_joint, wrist_2_joint,","[1.729183316230774, -1.030675236378805, 2.1703033447265625, -2.6807215849505823, -1.5667184034930628, 1.4040542840957642]","[0.0, 0.0, -0.0, 0.0, 0.0, -0.19976265728473663]","[-0.0320434607565403, -4.257202625274658, -2.5825657844543457, -0.2960815727710724, 0.2175751030445099, -0.4575806260108948]"
1584460308102592391,,2302077,,1584460308,102200278,'',"[shoulder_pan_joint, shoulder_lift_joint, elbow_joint, wrist_1_joint, wrist_2_joint,","[1.729195237159729, -1.0306990782367151, 2.1702795028686523, -2.6807215849505823, -1.566742245350973, 1.3815066814422607]","[0.0, 0.0, -0.0, 0.0, 0.0, -0.1984395980834961]","[-0.0732421949505806, -4.261780261993408, -2.6027419567108154, -0.3028106987476349, 0.2041168361902237, -0.5001984238624573]"
