PorkPy/robot-pulling-data/deg90_stops1/joint_states_throttle.csv
rosbagTimestamp,header,seq,stamp,secs,nsecs,frame_id,name,wrist_3_joint],position,velocity,effort
1584445712871329569,,477594,,1584445712,871049967,'',"[shoulder_pan_joint, shoulder_lift_joint, elbow_joint, wrist_1_joint, wrist_2_joint,","[1.4048181772232056, -1.17180043855776, 2.4829981327056885, -2.86277944246401, -1.5670059362994593, 2.7206943035125732]","[0.0, 0.0, -0.0, 0.0, 0.0, 0.0]","[-0.6225586533546448, -3.163147211074829, -1.2643811702728271, -0.3454284965991974, -0.0336456336081028, 0.02018737979233265]"
1584445712983282118,,477608,,1584445712,982994091,'',"[shoulder_pan_joint, shoulder_lift_joint, elbow_joint, wrist_1_joint, wrist_2_joint,","[1.404758334159851, -1.1718605200396937, 2.4829742908477783, -2.8627432028399866, -1.5670297781573694, 2.7206943035125732]","[0.0, 0.0, -0.0, 0.0, 0.0, 0.0]","[-0.6408692002296448, -3.149414300918579, -1.2733484506607056, -0.3476715385913849, -0.0493469275534153, 0.01794433780014515]"
1584445713095368317,,477622,,1584445713,95039524,'',"[shoulder_pan_joint, shoulder_lift_joint, elbow_joint, wrist_1_joint, wrist_2_joint,","[1.4047822952270508, -1.1718485991107386, 2.482950210571289, -2.86280328432192, -1.5670059362994593, 2.720670461654663]","[0.0, 0.0, -0.0, 0.0, 0.0, 0.0]","[-0.6362915635108948, -3.186035394668579, -1.2711066007614136, -0.3454284965991974, -0.0515899695456028, 0.02467346377670765]"
1584445713207396999,,477636,,1584445713,207049130,'',"[shoulder_pan_joint, shoulder_lift_joint, elbow_joint, wrist_1_joint, wrist_2_joint,","[1.404758334159851, -1.1718247572528284, 2.4830100536346436, -2.862767521535055, -1.5670297781573694, 2.720658540725708]","[0.0, 0.0, -0.0, 0.0, 0.0, 0.0]","[-0.6317139267921448, -3.158569574356079, -1.2688647508621216, -0.3476715385913849, -0.0493469275534153, 0.01794433780014515]"
1584445713319400444,,477650,,1584445713,319021266,'',"[shoulder_pan_joint, shoulder_lift_joint, elbow_joint, wrist_1_joint, wrist_2_joint,","[1.404758334159851, -1.1718247572528284, 2.4830100536346436, -2.8627551237689417, -1.5670178572284144, 2.7206943035125732]","[0.0, 0.0, -0.0, 0.0, 0.0, 0.0]","[-0.6271362900733948, -3.080749750137329, -1.2442048788070679, -0.3454284965991974, -0.0426178015768528, 0.0269165076315403]"
1584445713431460354,,477664,,1584445713,430999755,'',"[shoulder_pan_joint, shoulder_lift_joint, elbow_joint, wrist_1_joint, wrist_2_joint,","[1.4047702550888062, -1.1718247572528284, 2.4829742908477783, -2.8628271261798304, -1.5670059362994593, 2.720682382583618]","[0.0, 0.0, -0.0, 0.0, 0.0, 0.0]","[-0.6408692002296448, -3.089905023574829, -1.2598974704742432, -0.3431854546070099, -0.0493469275534153, 0.01570129580795765]"
1584445713543349416,,477678,,1584445713,543012487,'',"[shoulder_pan_joint, shoulder_lift_joint, elbow_joint, wrist_1_joint, wrist_2_joint,","[1.404758334159851, -1.1718247572528284, 2.4829862117767334, -2.862791363392965, -1.5670178572284144, 2.7206943035125732]","[0.0, 0.0, -0.0, 0.0, 0.0, 0.0]","[-0.6546021103858948, -3.163147211074829, -1.2711066007614136, -0.3454284965991974, -0.0515899695456028, 0.02243042178452015]"
1584445713655425937,,477692,,1584445713,655050747,'',"[shoulder_pan_joint, shoulder_lift_joint, elbow_joint, wrist_1_joint, wrist_2_joint,","[1.4047462940216064, -1.1718485991107386, 2.4829981327056885, -2.86277944246401, -1.5670297781573694, 2.720682382583618]","[0.0, 0.0, -0.0, 0.0, 0.0, 0.0]","[-0.6500244736671448, -3.140259027481079, -1.2531720399856567, -0.3521576225757599, -0.0358886756002903, 0.02018737979233265]"
1584445713767327351,,477706,,1584445713,767006002,'',"[shoulder_pan_joint, shoulder_lift_joint, elbow_joint, wrist_1_joint, wrist_2_joint,","[1.4047702550888062, -1.1718362013446253, 2.4829981327056885, -2.8627432028399866, -1.5670178572284144, 2.720682382583618]","[0.0, 0.0, -0.0, 0.0, 0.0, 0.0]","[-0.6454468369483948, -3.140259027481079, -1.2509303092956543, -0.3431854546070099, -0.0538330152630806, 0.02467346377670765]"
1584445713879330946,,477720,,1584445713,878948573,'',"[shoulder_pan_joint, shoulder_lift_joint, elbow_joint, wrist_1_joint, wrist_2_joint,","[1.4047702550888062, -1.1718485991107386, 2.4829981327056885, -2.862767521535055, -1.5670059362994593, 2.720670461654663]","[0.0, 0.0, -0.0, 0.0, 0.0, 0.0]","[-0.6362915635108948, -3.149414300918579, -1.2643811702728271, -0.3454284965991974, -0.0381317175924778, 0.01794433780014515]"
1584445713991290679,,477734,,1584445713,991026176,'',"[shoulder_pan_joint, shoulder_lift_joint, elbow_joint, wrist_1_joint, wrist_2_joint,","[1.404758334159851, -1.1718605200396937, 2.4829862117767334, -2.8627551237689417, -1.5670178572284144, 2.720658540725708]","[0.0, 0.0, -0.0, 0.0, 0.0, 0.0]","[-0.6362915635108948, -3.186035394668579, -1.2621393203735352, -0.3521576225757599, -0.0448608435690403, 0.01794433780014515]"
1584445714103490511,,477748,,1584445714,103060629,'',"[shoulder_pan_joint, shoulder_lift_joint, elbow_joint, wrist_1_joint, wrist_2_joint,","[1.404758334159851, -1.1718605200396937, 2.4829742908477783, -2.862791363392965, -1.5670297781573694, 2.720682382583618]","[0.0, 0.0, -0.0, 0.0, 0.0, 0.0]","[-0.6454468369483948, -3.126526117324829, -1.2554138898849487, -0.3544006645679474, -0.0538330152630806, 0.01794433780014515]"
1584445714215361137,,477762,,1584445714,215030160,'',"[shoulder_pan_joint, shoulder_lift_joint, elbow_joint, wrist_1_joint, wrist_2_joint,","[1.4047942161560059, -1.1718485991107386, 2.4829742908477783, -2.862791363392965, -1.5670178572284144, 2.7207064628601074]","[0.0, 0.0, -0.0, 0.0, 0.0, 0.0]","[-0.6408692002296448, -3.199768304824829, -1.2598974704742432, -0.3476715385913849, -0.0403747595846653, 0.02018737979233265]"
1584445714327265608,,477776,,1584445714,326945370,'',"[shoulder_pan_joint, shoulder_lift_joint, elbow_joint, wrist_1_joint, wrist_2_joint,","[1.4047702550888062, -1.1718485991107386, 2.4829981327056885, -2.862767521535055, -1.5669940153705042, 2.720682382583618]","[0.0, 0.0, -0.0, 0.0, 0.0, 0.0]","[-0.6500244736671448, -3.126526117324829, -1.2733484506607056, -0.3544006645679474, -0.0560760572552681, 0.011215210892260075]"
1584445714439373768,,477790,,1584445714,438993208,'',"[shoulder_pan_joint, shoulder_lift_joint, elbow_joint, wrist_1_joint, wrist_2_joint,","[1.4047702550888062, -1.1718247572528284, 2.4829862117767334, -2.8627432028399866, -1.5670178572284144, 2.7206943035125732]","[0.0, 0.0, -0.0, 0.0, 0.0, 0.0]","[-0.6362915635108948, -3.149414300918579, -1.2711066007614136, -0.3521576225757599, -0.0515899695456028, 0.01345825381577015]"
1584445714551453575,,477804,,1584445714,551039693,'',"[shoulder_pan_joint, shoulder_lift_joint, elbow_joint, wrist_1_joint, wrist_2_joint,","[1.4047822952270508, -1.1718605200396937, 2.4829862117767334, -2.862767521535055, -1.5670178572284144, 2.7206943035125732]","[0.0, 0.0, -0.0, 0.0, 0.0, 0.0]","[-0.6317139267921448, -3.181457757949829, -1.2643811702728271, -0.3544006645679474, -0.0403747595846653, 0.01794433780014515]"
1584445714663333009,,477818,,1584445714,662992443,'',"[shoulder_pan_joint, shoulder_lift_joint, elbow_joint, wrist_1_joint, wrist_2_joint,","[1.4047702550888062, -1.1718123594867151, 2.4829742908477783, -2.862791363392965, -1.5670178572284144, 2.720682382583618]","[0.0, 0.0, -0.0, 0.0, 0.0, 0.0]","[-0.6546021103858948, -3.135681390762329, -1.2621393203735352, -0.3476715385913849, -0.0448608435690403, 0.01794433780014515]"
1584445714775369755,,477832,,1584445714,774955172,'',"[shoulder_pan_joint, shoulder_lift_joint, elbow_joint, wrist_1_joint, wrist_2_joint,","[1.4047702550888062, -1.1718247572528284, 2.4829981327056885, -2.862791363392965, -1.5670178572284144, 2.720670461654663]","[0.0, 0.0, -0.0, 0.0, 0.0, 0.0]","[-0.6408692002296448, -3.103637933731079, -1.2576557397842407, -0.3566437065601349, -0.0515899695456028, 0.011215210892260075]"
1584445714887313268,,477846,,1584445714,886955581,'',"[shoulder_pan_joint, shoulder_lift_joint, elbow_joint, wrist_1_joint, wrist_2_joint,","[1.4047822952270508, -1.1718123594867151, 2.4829862117767334, -2.862791363392965, -1.5670059362994593, 2.7207064628601074]","[0.0, 0.0, -0.0, 0.0, 0.0, 0.0]","[-0.6500244736671448, -3.190613031387329, -1.2643811702728271, -0.3431854546070099, -0.0560760572552681, 0.01570129580795765]"
1584445714999442047,,477860,,1584445714,999023516,'',"[shoulder_pan_joint, shoulder_lift_joint, elbow_joint, wrist_1_joint, wrist_2_joint,","[1.404758334159851, -1.1718605200396937, 2.4829742908477783, -2.8627551237689417, -1.5670297781573694, 2.720658540725708]","[0.0, 0.0, -0.0, 0.0, 0.0, 0.0]","[-0.6546021103858948, -3.135681390762329, -1.2643811702728271, -0.3454284965991974, -0.0448608435690403, 0.01794433780014515]"
1584445715111345716,,477874,,1584445715,110969173,'',"[shoulder_pan_joint, shoulder_lift_joint, elbow_joint, wrist_1_joint, wrist_2_joint,","[1.4047702550888062, -1.1718362013446253, 2.4829862117767334, -2.86277944246401, -1.5670059362994593, 2.7206943035125732]","[0.0, 0.0, -0.0, 0.0, 0.0, 0.0]","[-0.6088257431983948, -3.172302484512329, -1.2711066007614136, -0.3431854546070099, -0.0493469275534153, 0.01570129580795765]"
1584445715223289860,,477888,,1584445715,222920290,'',"[shoulder_pan_joint, shoulder_lift_joint, elbow_joint, wrist_1_joint, wrist_2_joint,","[1.404758334159851, -1.1718247572528284, 2.4829862117767334, -2.86277944246401, -1.5669940153705042, 2.7206943035125732]","[0.0, 0.0, -0.0, 0.0, 0.0, 0.0]","[-0.6362915635108948, -3.112793207168579, -1.2688647508621216, -0.3476715385913849, -0.0336456336081028, 0.01794433780014515]"
1584445715335320515,,477902,,1584445715,334960744,'',"[shoulder_pan_joint, shoulder_lift_joint, elbow_joint, wrist_1_joint, wrist_2_joint,","[1.404758334159851, -1.1718485991107386, 2.4829981327056885, -2.862767521535055, -1.5670178572284144, 2.720682382583618]","[0.0, 0.0, -0.0, 0.0, 0.0, 0.0]","[-0.6500244736671448, -3.153991937637329, -1.2711066007614136, -0.3499145805835724, -0.0448608435690403, 0.01570129580795765]"
1584445715447303292,,477916,,1584445715,446915288,'',"[shoulder_pan_joint, shoulder_lift_joint, elbow_joint, wrist_1_joint, wrist_2_joint,","[1.4047702550888062, -1.1718605200396937, 2.482962131500244, -2.86277944246401, -1.5670416990863245, 2.720658540725708]","[0.0, 0.0, -0.0, 0.0, 0.0, 0.0]","[-0.6500244736671448, -3.121948480606079, -1.2643811702728271, -0.3476715385913849, -0.0403747595846653, 0.02243042178452015]"
1584445715559364835,,477930,,1584445715,558958337,'',"[shoulder_pan_joint, shoulder_lift_joint, elbow_joint, wrist_1_joint, wrist_2_joint,","[1.4047702550888062, -1.1718605200396937, 2.4829862117767334, -2.862767521535055, -1.5670178572284144, 2.7206943035125732]","[0.0, 0.0, -0.0, 0.0, 0.0, 0.0]","[-0.6362915635108948, -3.181457757949829, -1.2666230201721191, -0.3499145805835724, -0.0471038855612278, 0.0291595496237278]"
1584445715671285916,,477944,,1584445715,670895337,'',"[shoulder_pan_joint, shoulder_lift_joint, elbow_joint, wrist_1_joint, wrist_2_joint,","[1.404758334159851, -1.1718605200396937, 2.4829862117767334, -2.862791363392965, -1.5670297781573694, 2.7206943035125732]","[0.0, 0.0, -0.0, 0.0, 0.0, 0.0]","[-0.6591797471046448, -3.163147211074829, -1.2509303092956543, -0.3454284965991974, -0.0515899695456028, 0.01794433780014515]"
1584445715783251290,,477958,,1584445715,782871832,'',"[shoulder_pan_joint, shoulder_lift_joint, elbow_joint, wrist_1_joint, wrist_2_joint,","[1.4047942161560059, -1.1718247572528284, 2.4829742908477783, -2.86277944246401, -1.5670178572284144, 2.7206943035125732]","[0.0, 0.0, -0.0, 0.0, 0.0, 0.0]","[-0.6500244736671448, -3.158569574356079, -1.2464466094970703, -0.3566437065601349, -0.0493469275534153, 0.01794433780014515]"
1584445715895339192,,477972,,1584445715,894930610,'',"[shoulder_pan_joint, shoulder_lift_joint, elbow_joint, wrist_1_joint, wrist_2_joint,","[1.4047462940216064, -1.1718247572528284, 2.4829742908477783, -2.8627551237689417, -1.5670178572284144, 2.7206943035125732]","[0.0, 0.0, -0.0, 0.0, 0.0, 0.0]","[-0.6088257431983948, -3.158569574356079, -1.2643811702728271, -0.3476715385913849, -0.0448608435690403, 0.02243042178452015]"
1584445716007342817,,477986,,1584445716,6961906,'',"[shoulder_pan_joint, shoulder_lift_joint, elbow_joint, wrist_1_joint, wrist_2_joint,","[1.404758334159851, -1.1718247572528284, 2.4829981327056885, -2.86277944246401, -1.5670178572284144, 2.720658540725708]","[0.0, 0.0, -0.0, 0.0, 0.0, 0.0]","[-0.6408692002296448, -3.126526117324829, -1.2576557397842407, -0.3476715385913849, -0.0381317175924778, 0.02243042178452015]"
1584445716119411223,,478000,,1584445716,118924615,'',"[shoulder_pan_joint, shoulder_lift_joint, elbow_joint, wrist_1_joint, wrist_2_joint,","[1.4047702550888062, -1.1718485991107386, 2.4829742908477783, -2.8627551237689417, -1.5670536200152796, 2.720646381378174]","[0.0, 0.0, -0.0, 0.0, 0.0, 0.0]","[-0.6317139267921448, -3.213501214981079, -1.2576557397842407, -0.3521576225757599, -0.0381317175924778, 0.01570129580795765]"
1584445716231351190,,478014,,1584445716,230890931,'',"[shoulder_pan_joint, shoulder_lift_joint, elbow_joint, wrist_1_joint, wrist_2_joint,","[1.4047822952270508, -1.1718362013446253, 2.4829862117767334, -2.862767521535055, -1.5670178572284144, 2.7206943035125732]","[0.0, 0.0, -0.0, 0.0, 0.0, 0.0]","[-0.6591797471046448, -3.149414300918579, -1.2621393203735352, -0.3476715385913849, -0.0471038855612278, 0.02243042178452015]"
1584445716343271379,,478028,,1584445716,342878496,'',"[shoulder_pan_joint, shoulder_lift_joint, elbow_joint, wrist_1_joint, wrist_2_joint,","[1.4047942161560059, -1.1718123594867151, 2.4829862117767334, -2.862767521535055, -1.5669940153705042, 2.720670461654663]","[0.0, 0.0, -0.0, 0.0, 0.0, 0.0]","[-0.6271362900733948, -3.140259027481079, -1.2733484506607056, -0.3499145805835724, -0.0403747595846653, 0.01345825381577015]"
1584445716455260036,,478042,,1584445716,454909563,'',"[shoulder_pan_joint, shoulder_lift_joint, elbow_joint, wrist_1_joint, wrist_2_joint,","[1.4047822952270508, -1.1718485991107386, 2.4830100536346436, -2.8627432028399866, -1.5670178572284144, 2.720670461654663]","[0.0, 0.0, -0.0, 0.0, 0.0, 0.0]","[-0.6271362900733948, -3.176880121231079, -1.2643811702728271, -0.3454284965991974, -0.0515899695456028, 0.01570129580795765]"
1584445716567190515,,478056,,1584445716,566873664,'',"[shoulder_pan_joint, shoulder_lift_joint, elbow_joint, wrist_1_joint, wrist_2_joint,","[1.4047702550888062, -1.1718123594867151, 2.4829862117767334, -2.86280328432192, -1.5670178572284144, 2.720670461654663]","[0.0, 0.0, -0.0, 0.0, 0.0, 0.0]","[-0.6362915635108948, -3.140259027481079, -1.2666230201721191, -0.3454284965991974, -0.0471038855612278, 0.02243042178452015]"
1584445716679272586,,478070,,1584445716,678857762,'',"[shoulder_pan_joint, shoulder_lift_joint, elbow_joint, wrist_1_joint, wrist_2_joint,","[1.4047343730926514, -1.1718485991107386, 2.4829742908477783, -2.86277944246401, -1.5670297781573694, 2.720670461654663]","[0.0, 0.0, -0.0, 0.0, 0.0, 0.0]","[-0.6271362900733948, -3.149414300918579, -1.2554138898849487, -0.3499145805835724, -0.0426178015768528, 0.01570129580795765]"
1584445716791383372,,478084,,1584445716,790893137,'',"[shoulder_pan_joint, shoulder_lift_joint, elbow_joint, wrist_1_joint, wrist_2_joint,","[1.4047822952270508, -1.1718362013446253, 2.4829981327056885, -2.8627551237689417, -1.5670178572284144, 2.7207064628601074]","[0.0, 0.0, -0.0, 0.0, 0.0, 0.0]","[-0.6134033799171448, -3.135681390762329, -1.275590181350708, -0.3409424126148224, -0.0538330152630806, 0.02467346377670765]"
1584445716903316766,,478098,,1584445716,902928461,'',"[shoulder_pan_joint, shoulder_lift_joint, elbow_joint, wrist_1_joint, wrist_2_joint,","[1.404758334159851, -1.1718247572528284, 2.4829742908477783, -2.86280328432192, -1.5670059362994593, 2.7206943035125732]","[0.0, 0.0, -0.0, 0.0, 0.0, 0.0]","[-0.6454468369483948, -3.121948480606079, -1.2688647508621216, -0.3431854546070099, -0.0426178015768528, 0.01570129580795765]"
1584445717015242936,,478112,,1584445717,14882834,'',"[shoulder_pan_joint, shoulder_lift_joint, elbow_joint, wrist_1_joint, wrist_2_joint,","[1.4047343730926514, -1.1718485991107386, 2.4829862117767334, -2.86280328432192, -1.5670297781573694, 2.720682382583618]","[0.0, 0.0, -0.0, 0.0, 0.0, 0.0]","[-0.6500244736671448, -3.149414300918579, -1.2621393203735352, -0.3409424126148224, -0.0515899695456028, 0.01345825381577015]"
1584445717127375291,,478126,,1584445717,126875599,'',"[shoulder_pan_joint, shoulder_lift_joint, elbow_joint, wrist_1_joint, wrist_2_joint,","[1.4047702550888062, -1.1718247572528284, 2.4829742908477783, -2.862791363392965, -1.5670059362994593, 2.720658540725708]","[0.0, 0.0, -0.0, 0.0, 0.0, 0.0]","[-0.6591797471046448, -3.117370843887329, -1.27783203125, -0.3476715385913849, -0.0381317175924778, 0.01794433780014515]"
1584445717239196126,,478140,,1584445717,238851362,'',"[shoulder_pan_joint, shoulder_lift_joint, elbow_joint, wrist_1_joint, wrist_2_joint,","[1.4047822952270508, -1.1718724409686487, 2.482962131500244, -2.8627432028399866, -1.5669940153705042, 2.720670461654663]","[0.0, 0.0, -0.0, 0.0, 0.0, 0.0]","[-0.6362915635108948, -3.172302484512329, -1.2554138898849487, -0.3521576225757599, -0.0538330152630806, 0.02018737979233265]"
1584445717351284299,,478154,,1584445717,350843446,'',"[shoulder_pan_joint, shoulder_lift_joint, elbow_joint, wrist_1_joint, wrist_2_joint,","[1.4047702550888062, -1.1718247572528284, 2.4829862117767334, -2.8627551237689417, -1.5670059362994593, 2.7206943035125732]","[0.0, 0.0, -0.0, 0.0, 0.0, 0.0]","[-0.6454468369483948, -3.158569574356079, -1.2823156118392944, -0.3499145805835724, -0.0538330152630806, 0.01794433780014515]"
1584445717463277484,,478168,,1584445717,462893848,'',"[shoulder_pan_joint, shoulder_lift_joint, elbow_joint, wrist_1_joint, wrist_2_joint,","[1.4047822952270508, -1.1718247572528284, 2.4829862117767334, -2.8628271261798304, -1.5670536200152796, 2.7206943035125732]","[0.0, 0.0, -0.0, 0.0, 0.0, 0.0]","[-0.6500244736671448, -3.140259027481079, -1.2643811702728271, -0.3409424126148224, -0.0426178015768528, 0.01570129580795765]"
1584445717575226648,,478182,,1584445717,574815040,'',"[shoulder_pan_joint, shoulder_lift_joint, elbow_joint, wrist_1_joint, wrist_2_joint,","[1.404758334159851, -1.1718247572528284, 2.4829742908477783, -2.8627432028399866, -1.5670178572284144, 2.7207064628601074]","[0.0, 0.0, -0.0, 0.0, 0.0, 0.0]","[-0.6729126572608948, -3.153991937637329, -1.2688647508621216, -0.3431854546070099, -0.0426178015768528, 0.02018737979233265]"
1584445717687186501,,478196,,1584445717,686795411,'',"[shoulder_pan_joint, shoulder_lift_joint, elbow_joint, wrist_1_joint, wrist_2_joint,","[1.4047702550888062, -1.1718362013446253, 2.4829981327056885, -2.86277944246401, -1.5670178572284144, 2.720682382583618]","[0.0, 0.0, -0.0, 0.0, 0.0, 0.0]","[-0.6408692002296448, -3.131103754043579, -1.2890410423278809, -0.3476715385913849, -0.0403747595846653, 0.01570129580795765]"
1584445717799311503,,478210,,1584445717,798840504,'',"[shoulder_pan_joint, shoulder_lift_joint, elbow_joint, wrist_1_joint, wrist_2_joint,","[1.4047702550888062, -1.1718485991107386, 2.4829981327056885, -2.8627551237689417, -1.5670059362994593, 2.7207064628601074]","[0.0, 0.0, -0.0, 0.0, 0.0, 0.0]","[-0.6637573838233948, -3.131103754043579, -1.2464466094970703, -0.3521576225757599, -0.0381317175924778, 0.011215210892260075]"
1584445717911251780,,478224,,1584445717,910833600,'',"[shoulder_pan_joint, shoulder_lift_joint, elbow_joint, wrist_1_joint, wrist_2_joint,","[1.404758334159851, -1.1718605200396937, 2.4829862117767334, -2.862791363392965, -1.5670297781573694, 2.7206943035125732]","[0.0, 0.0, -0.0, 0.0, 0.0, 0.0]","[-0.6454468369483948, -3.195190668106079, -1.2643811702728271, -0.3521576225757599, -0.0269165076315403, 0.008972168900072575]"
1584445718023336226,,478238,,1584445718,22839459,'',"[shoulder_pan_joint, shoulder_lift_joint, elbow_joint, wrist_1_joint, wrist_2_joint,","[1.4047702550888062, -1.1718485991107386, 2.4829981327056885, -2.862767521535055, -1.5670059362994593, 2.7206943035125732]","[0.0, 0.0, -0.0, 0.0, 0.0, 0.0]","[-0.6362915635108948, -3.204345941543579, -1.2554138898849487, -0.3409424126148224, -0.02243042178452015, 0.01570129580795765]"
1584445718135163011,,478252,,1584445718,134775448,'',"[shoulder_pan_joint, shoulder_lift_joint, elbow_joint, wrist_1_joint, wrist_2_joint,","[1.404758334159851, -1.1718362013446253, 2.4829742908477783, -2.862767521535055, -1.5670178572284144, 2.720670461654663]","[0.0, 0.0, -0.0, 0.0, 0.0, 0.0]","[-0.6225586533546448, -3.158569574356079, -1.27783203125, -0.3476715385913849, -0.0314025916159153, 0.011215210892260075]"
1584445718247046422,,478266,,1584445718,246779474,'',"[shoulder_pan_joint, shoulder_lift_joint, elbow_joint, wrist_1_joint, wrist_2_joint,","[1.4047702550888062, -1.17180043855776, 2.482950210571289, -2.86277944246401, -1.5670178572284144, 2.720682382583618]","[0.0, 0.0, -0.0, 0.0, 0.0, 0.0]","[-0.5950928330421448, -3.149414300918579, -1.2621393203735352, -0.3454284965991974, -0.01794433780014515, 0.02018737979233265]"
1584445718359173116,,478280,,1584445718,358817853,'',"[shoulder_pan_joint, shoulder_lift_joint, elbow_joint, wrist_1_joint, wrist_2_joint,","[1.4047942161560059, -1.1718247572528284, 2.4829862117767334, -2.862767521535055, -1.5669940153705042, 2.7206943035125732]","[0.0, 0.0, -0.0, 0.0, 0.0, 0.0]","[-0.6546021103858948, -3.158569574356079, -1.2576557397842407, -0.3431854546070099, -0.0336456336081028, 0.02018737979233265]"
1584445718471096662,,478294,,1584445718,470753452,'',"[shoulder_pan_joint, shoulder_lift_joint, elbow_joint, wrist_1_joint, wrist_2_joint,","[1.4047822952270508, -1.1718362013446253, 2.4829742908477783, -2.8627551237689417, -1.5670178572284144, 2.720682382583618]","[0.0, 0.0, -0.0, 0.0, 0.0, 0.0]","[-0.6362915635108948, -3.144836664199829, -1.2845574617385864, -0.3431854546070099, -0.0291595496237278, 0.01794433780014515]"
1584445718583076212,,478308,,1584445718,582763799,'',"[shoulder_pan_joint, shoulder_lift_joint, elbow_joint, wrist_1_joint, wrist_2_joint,","[1.4047822952270508, -1.1718247572528284, 2.4829981327056885, -2.8627551237689417, -1.5670059362994593, 2.720682382583618]","[0.0, 0.0, -0.0, 0.0, 0.0, 0.0]","[-0.6362915635108948, -3.153991937637329, -1.275590181350708, -0.3588867485523224, -0.02243042178452015, 0.011215210892260075]"
1584445718695188440,,478322,,1584445718,694777103,'',"[shoulder_pan_joint, shoulder_lift_joint, elbow_joint, wrist_1_joint, wrist_2_joint,","[1.404758334159851, -1.1718605200396937, 2.482962131500244, -2.86277944246401, -1.5670178572284144, 2.7206943035125732]","[0.0, 0.0, -0.0, 0.0, 0.0, 0.0]","[-0.6866455674171448, -3.153991937637329, -1.2688647508621216, -0.3476715385913849, -0.0314025916159153, 0.02243042178452015]"
1584445718807101947,,478336,,1584445718,806760560,'',"[shoulder_pan_joint, shoulder_lift_joint, elbow_joint, wrist_1_joint, wrist_2_joint,","[1.4047822952270508, -1.1718485991107386, 2.4829862117767334, -2.86277944246401, -1.5670178572284144, 2.720682382583618]","[0.0, 0.0, -0.0, 0.0, 0.0, 0.0]","[-0.6683350205421448, -3.190613031387329, -1.2711066007614136, -0.3499145805835724, -0.0314025916159153, 0.01794433780014515]"
1584445718919282612,,478350,,1584445718,918802617,'',"[shoulder_pan_joint, shoulder_lift_joint, elbow_joint, wrist_1_joint, wrist_2_joint,","[1.404758334159851, -1.1718362013446253, 2.4829742908477783, -2.8627551237689417, -1.5670178572284144, 2.720670461654663]","[0.0, 0.0, -0.0, 0.0, 0.0, 0.0]","[-0.6225586533546448, -3.140259027481079, -1.2576557397842407, -0.3476715385913849, -0.02467346377670765, 0.02243042178452015]"
1584445719031099860,,478364,,1584445719,30769794,'',"[shoulder_pan_joint, shoulder_lift_joint, elbow_joint, wrist_1_joint, wrist_2_joint,","[1.4047822952270508, -1.1718485991107386, 2.4829981327056885, -2.862791363392965, -1.5670178572284144, 2.720658540725708]","[0.0, 0.0, -0.0, 0.0, 0.0, 0.0]","[-0.6637573838233948, -3.163147211074829, -1.2621393203735352, -0.3454284965991974, -0.0269165076315403, 0.0269165076315403]"
1584445719143130506,,478378,,1584445719,142769392,'',"[shoulder_pan_joint, shoulder_lift_joint, elbow_joint, wrist_1_joint, wrist_2_joint,","[1.4047942161560059, -1.1718247572528284, 2.4829862117767334, -2.862767521535055, -1.5670059362994593, 2.720658540725708]","[0.0, 0.0, -0.0, 0.0, 0.0, 0.0]","[-0.6591797471046448, -3.181457757949829, -1.2666230201721191, -0.3476715385913849, -0.02243042178452015, 0.02243042178452015]"
1584445719255144510,,478392,,1584445719,254746728,'',"[shoulder_pan_joint, shoulder_lift_joint, elbow_joint, wrist_1_joint, wrist_2_joint,","[1.4047702550888062, -1.1718362013446253, 2.4830100536346436, -2.862767521535055, -1.5670178572284144, 2.720646381378174]","[0.0, 0.0, -0.0, 0.0, 0.0, 0.0]","[-0.6591797471046448, -3.140259027481079, -1.2621393203735352, -0.3431854546070099, -0.02467346377670765, 0.02018737979233265]"
1584445719367078054,,478406,,1584445719,366722491,'',"[shoulder_pan_joint, shoulder_lift_joint, elbow_joint, wrist_1_joint, wrist_2_joint,","[1.4047462940216064, -1.17180043855776, 2.483034372329712, -2.8627432028399866, -1.5669940153705042, 2.720670461654663]","[0.0, 0.0, -0.0, 0.0, 0.0, 0.0]","[-0.6866455674171448, -3.153991937637329, -1.2598974704742432, -0.3521576225757599, -0.0291595496237278, 0.02243042178452015]"
1584445719479166197,,478420,,1584445719,478785266,'',"[shoulder_pan_joint, shoulder_lift_joint, elbow_joint, wrist_1_joint, wrist_2_joint,","[1.404758334159851, -1.1718485991107386, 2.4829742908477783, -2.862767521535055, -1.5670178572284144, 2.720682382583618]","[0.0, 0.0, -0.0, 0.0, 0.0, 0.0]","[-0.6271362900733948, -3.181457757949829, -1.2598974704742432, -0.3521576225757599, -0.0291595496237278, 0.01570129580795765]"
1584445719591115741,,478434,,1584445719,590727818,'',"[shoulder_pan_joint, shoulder_lift_joint, elbow_joint, wrist_1_joint, wrist_2_joint,","[1.404758334159851, -1.1718485991107386, 2.4829742908477783, -2.8627551237689417, -1.5670059362994593, 2.7206943035125732]","[0.0, 0.0, -0.0, 0.0, 0.0, 0.0]","[-0.6820679306983948, -3.158569574356079, -1.2531720399856567, -0.3431854546070099, -0.0269165076315403, 0.02018737979233265]"
1584445719703051761,,478448,,1584445719,702693051,'',"[shoulder_pan_joint, shoulder_lift_joint, elbow_joint, wrist_1_joint, wrist_2_joint,","[1.4047702550888062, -1.1718247572528284, 2.4829981327056885, -2.862767521535055, -1.5669940153705042, 2.7207064628601074]","[0.0, 0.0, -0.0, 0.0, 0.0, 0.0]","[-0.6134033799171448, -3.140259027481079, -1.2509303092956543, -0.3454284965991974, -0.02467346377670765, 0.01794433780014515]"
1584445719815089309,,478462,,1584445719,814697047,'',"[shoulder_pan_joint, shoulder_lift_joint, elbow_joint, wrist_1_joint, wrist_2_joint,","[1.4047702550888062, -1.1718485991107386, 2.4829981327056885, -2.862767521535055, -1.5670297781573694, 2.720670461654663]","[0.0, 0.0, -0.0, 0.0, 0.0, 0.0]","[-0.6088257431983948, -3.163147211074829, -1.2576557397842407, -0.3499145805835724, -0.0314025916159153, 0.01794433780014515]"
1584445719927158496,,478476,,1584445719,926715940,'',"[shoulder_pan_joint, shoulder_lift_joint, elbow_joint, wrist_1_joint, wrist_2_joint,","[1.4047702550888062, -1.1718123594867151, 2.4829742908477783, -2.862767521535055, -1.5670178572284144, 2.720670461654663]","[0.0, 0.0, -0.0, 0.0, 0.0, 0.0]","[-0.6591797471046448, -3.140259027481079, -1.2554138898849487, -0.3476715385913849, -0.0269165076315403, 0.01345825381577015]"
1584445720039083114,,478490,,1584445720,38708665,'',"[shoulder_pan_joint, shoulder_lift_joint, elbow_joint, wrist_1_joint, wrist_2_joint,","[1.4047702550888062, -1.1718362013446253, 2.4829981327056885, -2.8627432028399866, -1.566981617604391, 2.720682382583618]","[0.0, 0.0, -0.0, 0.0, 0.0, 0.0]","[-0.6500244736671448, -3.153991937637329, -1.2576557397842407, -0.3454284965991974, -0.0314025916159153, 0.01570129580795765]"
1584445720151047315,,478504,,1584445720,150698294,'',"[shoulder_pan_joint, shoulder_lift_joint, elbow_joint, wrist_1_joint, wrist_2_joint,","[1.404758334159851, -1.1718247572528284, 2.4829981327056885, -2.86277944246401, -1.5670178572284144, 2.720670461654663]","[0.0, 0.0, -0.0, 0.0, 0.0, 0.0]","[-0.6912232041358948, -3.117370843887329, -1.2733484506607056, -0.3476715385913849, -0.0269165076315403, 0.01570129580795765]"
1584445720263097828,,478518,,1584445720,262681962,'',"[shoulder_pan_joint, shoulder_lift_joint, elbow_joint, wrist_1_joint, wrist_2_joint,","[1.4047462940216064, -1.1718362013446253, 2.4829742908477783, -2.8627551237689417, -1.5669940153705042, 2.7206943035125732]","[0.0, 0.0, -0.0, 0.0, 0.0, 0.0]","[-0.6042481064796448, -3.153991937637329, -1.2643811702728271, -0.3454284965991974, -0.02467346377670765, 0.01794433780014515]"
1584445720375107464,,478532,,1584445720,374690867,'',"[shoulder_pan_joint, shoulder_lift_joint, elbow_joint, wrist_1_joint, wrist_2_joint,","[1.4047822952270508, -1.1718362013446253, 2.4829981327056885, -2.8627551237689417, -1.5670178572284144, 2.720670461654663]","[0.0, 0.0, -0.0, 0.0, 0.0, 0.0]","[-0.6454468369483948, -3.144836664199829, -1.275590181350708, -0.3588867485523224, -0.02018737979233265, 0.01345825381577015]"
1584445720487072227,,478546,,1584445720,486696125,'',"[shoulder_pan_joint, shoulder_lift_joint, elbow_joint, wrist_1_joint, wrist_2_joint,","[1.4047822952270508, -1.1718362013446253, 2.482950210571289, -2.8627551237689417, -1.5670297781573694, 2.7206943035125732]","[0.0, 0.0, -0.0, 0.0, 0.0, 0.0]","[-0.6591797471046448, -3.172302484512329, -1.2666230201721191, -0.3364563286304474, -0.0381317175924778, 0.011215210892260075]"
1584445720599082204,,478560,,1584445720,598699560,'',"[shoulder_pan_joint, shoulder_lift_joint, elbow_joint, wrist_1_joint, wrist_2_joint,","[1.4047822952270508, -1.1718724409686487, 2.4830100536346436, -2.862767521535055, -1.566981617604391, 2.720682382583618]","[0.0, 0.0, -0.0, 0.0, 0.0, 0.0]","[-0.6546021103858948, -3.131103754043579, -1.2486884593963623, -0.3409424126148224, -0.02243042178452015, 0.01570129580795765]"
1584445720711182299,,478574,,1584445720,710755062,'',"[shoulder_pan_joint, shoulder_lift_joint, elbow_joint, wrist_1_joint, wrist_2_joint,","[1.4047702550888062, -1.1718485991107386, 2.4829862117767334, -2.862767521535055, -1.5670178572284144, 2.7207064628601074]","[0.0, 0.0, -0.0, 0.0, 0.0, 0.0]","[-0.6088257431983948, -3.144836664199829, -1.2509303092956543, -0.3476715385913849, -0.02467346377670765, 0.02018737979233265]"
1584445720823059148,,478588,,1584445720,822683337,'',"[shoulder_pan_joint, shoulder_lift_joint, elbow_joint, wrist_1_joint, wrist_2_joint,","[1.404758334159851, -1.1718605200396937, 2.482962131500244, -2.862767521535055, -1.5670297781573694, 2.720658540725708]","[0.0, 0.0, -0.0, 0.0, 0.0, 0.0]","[-0.6408692002296448, -3.172302484512329, -1.27783203125, -0.3476715385913849, -0.02243042178452015, 0.01345825381577015]"
1584445720935179361,,478602,,1584445720,934695668,'',"[shoulder_pan_joint, shoulder_lift_joint, elbow_joint, wrist_1_joint, wrist_2_joint,","[1.4047702550888062, -1.1718362013446253, 2.4829742908477783, -2.86277944246401, -1.5670297781573694, 2.720670461654663]","[0.0, 0.0, -0.0, 0.0, 0.0, 0.0]","[-0.6454468369483948, -3.158569574356079, -1.2688647508621216, -0.3431854546070099, -0.0269165076315403, 0.01570129580795765]"
1584445721047069814,,478616,,1584445721,46670449,'',"[shoulder_pan_joint, shoulder_lift_joint, elbow_joint, wrist_1_joint, wrist_2_joint,","[1.4047343730926514, -1.1718362013446253, 2.4829742908477783, -2.86277944246401, -1.5670297781573694, 2.7207183837890625]","[0.0, 0.0, -0.0, 0.0, 0.0, 0.0]","[-0.6500244736671448, -3.153991937637329, -1.2643811702728271, -0.3499145805835724, -0.02243042178452015, 0.01794433780014515]"
1584445721159029047,,478630,,1584445721,158653265,'',"[shoulder_pan_joint, shoulder_lift_joint, elbow_joint, wrist_1_joint, wrist_2_joint,","[1.4047822952270508, -1.1718605200396937, 2.4829981327056885, -2.8627551237689417, -1.5669940153705042, 2.720670461654663]","[0.0, 0.0, -0.0, 0.0, 0.0, 0.0]","[-0.6546021103858948, -3.158569574356079, -1.2531720399856567, -0.3431854546070099, -0.02467346377670765, 0.01345825381577015]"
1584445721271125996,,478644,,1584445721,270694852,'',"[shoulder_pan_joint, shoulder_lift_joint, elbow_joint, wrist_1_joint, wrist_2_joint,","[1.4047702550888062, -1.1718485991107386, 2.4830100536346436, -2.86277944246401, -1.5669940153705042, 2.7206943035125732]","[0.0, 0.0, -0.0, 0.0, 0.0, 0.0]","[-0.6225586533546448, -3.163147211074829, -1.2643811702728271, -0.3499145805835724, -0.02243042178452015, 0.01794433780014515]"
1584445721383034333,,478658,,1584445721,382636902,'',"[shoulder_pan_joint, shoulder_lift_joint, elbow_joint, wrist_1_joint, wrist_2_joint,","[1.4047702550888062, -1.1718485991107386, 2.4829742908477783, -2.86280328432192, -1.566981617604391, 2.7206943035125732]","[0.0, 0.0, -0.0, 0.0, 0.0, 0.0]","[-0.6271362900733948, -3.158569574356079, -1.280073881149292, -0.3499145805835724, -0.0291595496237278, 0.01570129580795765]"
1584445721494986593,,478672,,1584445721,494634245,'',"[shoulder_pan_joint, shoulder_lift_joint, elbow_joint, wrist_1_joint, wrist_2_joint,","[1.4052859544754028, -1.1718247572528284, 2.4827704429626465, -2.8627198378192347, -1.5669940153705042, 2.721628427505493]","[0.015863917768001556, 0.0, -0.003719903528690338, 0.0, 0.0, 0.03202185034751892]","[0.8010864853858948, -3.392029047012329, -1.6723906993865967, -0.2646789848804474, 0.0515899695456028, 0.3902893364429474]"
1584445721607091577,,478686,,1584445721,606649412,'',"[shoulder_pan_joint, shoulder_lift_joint, elbow_joint, wrist_1_joint, wrist_2_joint,","[1.4060417413711548, -1.1718605200396937, 2.482698440551758, -2.862623993550436, -1.5669577757464808, 2.722059488296509]","[-0.011990617029368877, 0.0, 0.00011504856229294091, 0.00046019424917176366, 0.00026844663079828024, -0.05675728991627693]","[-0.7644653916358948, -3.735352039337158, -1.179192304611206, -0.4912262558937073, 0.0493469275534153, -0.2198181450366974]"
1584445721719026253,,478700,,1584445721,718643960,'',"[shoulder_pan_joint, shoulder_lift_joint, elbow_joint, wrist_1_joint, wrist_2_joint,","[1.4039785861968994, -1.1718485991107386, 2.4826745986938477, -2.862647835408346, -1.566885773335592, 2.716479778289795]","[-0.012578642927110195, 0.0, 0.00011504856229294091, 0.00017257283616345376, 0.0004218447138555348, -0.03453374281525612]","[-1.0116578340530396, -3.538513660430908, -1.3809553384780884, -0.4037475883960724, 0.0560760572552681, -0.3611297905445099]"
1584445721830984223,,478714,,1584445721,830630694,'',"[shoulder_pan_joint, shoulder_lift_joint, elbow_joint, wrist_1_joint, wrist_2_joint,","[1.4044582843780518, -1.1718485991107386, 2.482614755630493, -2.862635914479391, -1.5669577757464808, 2.7162883281707764]","[0.024390295147895813, 0.0, -5.1132694352418184e-05, 0.00011504856229294091, 0.0002109223569277674, 0.053766027092933655]","[0.9155274629592896, -3.556824207305908, -1.4370005130767822, -0.3656158745288849, 0.0515899695456028, 0.2444916069507599]"
1584445721943158487,,478728,,1584445721,942669394,'',"[shoulder_pan_joint, shoulder_lift_joint, elbow_joint, wrist_1_joint, wrist_2_joint,","[1.4067496061325073, -1.1718247572528284, 2.4826505184173584, -2.8626120726214808, -1.5669458548175257, 2.722059488296509]","[0.01293657161295414, 0.0, -0.0, 7.669904152862728e-05, 0.0002109223569277674, 0.040957286953926086]","[0.9429932832717896, -3.657532215118408, -1.3495699167251587, -0.3992615044116974, 0.0493469275534153, 0.3633728325366974]"
1584445722055006010,,478742,,1584445722,54630249,'',"[shoulder_pan_joint, shoulder_lift_joint, elbow_joint, wrist_1_joint, wrist_2_joint,","[1.4061375856399536, -1.1718247572528284, 2.4826865196228027, -2.8625877539264124, -1.5669220129596155, 2.7242987155914307]","[-0.028391428291797638, 0.0, -0.0, 5.752428114647046e-05, 0.00015339808305725455, -0.017736652866005898]","[-1.0116578340530396, -3.538513660430908, -1.3562953472137451, -0.4284210503101349, 0.0471038855612278, -0.011215210892260075]"
1584445722167076981,,478756,,1584445722,166609990,'',"[shoulder_pan_joint, shoulder_lift_joint, elbow_joint, wrist_1_joint, wrist_2_joint,","[1.4029951095581055, -1.1718247572528284, 2.4826266765594482, -2.862623993550436, -1.5669100920306605, 2.7186832427978516]","[-0.01900857873260975, 0.0, -0.0, 3.834952076431364e-05, 9.58738019107841e-05, -0.05019952356815338]","[-1.0162354707717896, -3.533936023712158, -1.3899224996566772, -0.4127197563648224, 0.0448608435690403, -0.3633728325366974]"
1584445722278989817,,478770,,1584445722,278588999,'',"[shoulder_pan_joint, shoulder_lift_joint, elbow_joint, wrist_1_joint, wrist_2_joint,","[1.4021315574645996, -1.1718247572528284, 2.482614755630493, -2.8625877539264124, -1.5669100920306605, 2.714240789413452]","[-0.0008436894277110696, 0.0, -0.0, 3.834952076431364e-05, 5.752428114647046e-05, -0.02732403390109539]","[-0.1556396633386612, -3.515625476837158, -1.40337336063385, -0.4127197563648224, 0.0471038855612278, -0.3566437065601349]"
1584445722390915136,,478784,,1584445722,390571094,'',"[shoulder_pan_joint, shoulder_lift_joint, elbow_joint, wrist_1_joint, wrist_2_joint,","[1.4037505388259888, -1.1718123594867151, 2.4826505184173584, -2.862551991139547, -1.5669577757464808, 2.7131152153015137]","[0.031203726306557655, 0.0, -0.0, 3.834952076431364e-05, 0.0, 0.03064126707613468]","[0.7873535752296448, -3.529358386993408, -1.504254937171936, -0.3588867485523224, 0.0291595496237278, 0.1435547024011612]"
1584445722503122091,,478798,,1584445722,502679936,'',"[shoulder_pan_joint, shoulder_lift_joint, elbow_joint, wrist_1_joint, wrist_2_joint,","[1.408260703086853, -1.1718485991107386, 2.4826626777648926, -2.8625639120685022, -1.5669458548175257, 2.719114065170288]","[0.044613275676965714, 0.0, -0.0, 3.834952076431364e-05, 0.0, 0.05783107876777649]","[0.9063721895217896, -3.630066394805908, -1.369746208190918, -0.4015045464038849, 0.0695343092083931, 0.3364563286304474]"
1584445722614967270,,478812,,1584445722,614628879,'',"[shoulder_pan_joint, shoulder_lift_joint, elbow_joint, wrist_1_joint, wrist_2_joint,","[1.4144498109817505, -1.1718485991107386, 2.4826266765594482, -2.8625877539264124, -1.5669577757464808, 2.7248735427856445]","[0.06772525608539581, 0.0, -0.0, 3.834952076431364e-05, 0.0, 0.04559757933020592]","[0.9292603731155396, -3.703308582305908, -1.407857060432434, -0.3790741264820099, 0.1099090725183487, 0.3588867485523224]"
1584445722726964854,,478826,,1584445722,726573584,'',"[shoulder_pan_joint, shoulder_lift_joint, elbow_joint, wrist_1_joint, wrist_2_joint,","[1.4223425388336182, -1.1718485991107386, 2.4826505184173584, -2.862528149281637, -1.5670297781573694, 2.729806423187256]","[0.07662234455347061, 0.0, -0.0, 3.834952076431364e-05, 0.0, 0.04772597923874855]","[0.8056641221046448, -3.753662586212158, -1.4616605043411255, -0.3521576225757599, 0.1345825344324112, 0.2714081108570099]"
1584445722838943362,,478840,,1584445722,838563894,'',"[shoulder_pan_joint, shoulder_lift_joint, elbow_joint, wrist_1_joint, wrist_2_joint,","[1.4327058792114258, -1.1718123594867151, 2.4826385974884033, -2.8625639120685022, -1.5670536200152796, 2.7360570430755615]","[0.10294289886951447, 0.0, -0.0, 3.834952076431364e-05, 0.0, 0.05965267866849899]","[1.0253907442092896, -3.739929676055908, -1.593927264213562, -0.2758941948413849, 0.1727142482995987, 0.3678589165210724]"
1584445722950958068,,478854,,1584445722,950571537,'',"[shoulder_pan_joint, shoulder_lift_joint, elbow_joint, wrist_1_joint, wrist_2_joint,","[1.4454683065414429, -1.1718247572528284, 2.4826626777648926, -2.862528149281637, -1.5670655409442347, 2.74125337600708]","[0.11378302425146103, 0.0, -0.0, 3.834952076431364e-05, 0.0, 0.035952676087617874]","[1.1352540254592896, -3.849792957305908, -1.5603001117706299, -0.2871094048023224, 0.1929016262292862, 0.3858032524585724]"
1584445723062945904,,478868,,1584445723,62537903,'',"[shoulder_pan_joint, shoulder_lift_joint, elbow_joint, wrist_1_joint, wrist_2_joint,","[1.4583266973495483, -1.1718605200396937, 2.482722520828247, -2.862528149281637, -1.5671137014972132, 2.744438409805298]","[0.11764354258775711, 0.0, -0.0, 5.752428114647046e-05, 0.0, 0.02383422665297985]","[0.9841920137405396, -3.900146961212158, -1.5670255422592163, -0.2736511528491974, 0.2041168361902237, 0.3297272026538849]"
1584445723174895668,,478882,,1584445723,174550464,'',"[shoulder_pan_joint, shoulder_lift_joint, elbow_joint, wrist_1_joint, wrist_2_joint,","[1.4721688032150269, -1.1718247572528284, 2.4828782081604004, -2.8620851675616663, -1.5673769156085413, 2.7473599910736084]","[0.12124840170145035, 0.0, 0.0027867318131029606, 0.00475534051656723, -0.0023393207229673862, 0.027285683900117874]","[0.9292603731155396, -4.046631336212158, -1.5423656702041626, -0.3925323784351349, 0.2714081108570099, 0.3162689507007599]"
1584445723287019849,,478896,,1584445723,286545383,'',"[shoulder_pan_joint, shoulder_lift_joint, elbow_joint, wrist_1_joint, wrist_2_joint,","[1.484715223312378, -1.1723158995257776, 2.484990119934082, -2.8623722235309046, -1.5677006880389612, 2.749311923980713]","[0.09564370661973953, -0.011440940201282501, 0.031024761497974396, -0.005733253434300423, -0.0015339808305725455, 0.0018216022290289402]","[1.0253907442092896, -4.989624500274658, -1.2621393203735352, -0.8456268906593323, 0.3274841606616974, 0.1951446682214737]"
1584445723399084778,,478910,,1584445723,398599332,'',"[shoulder_pan_joint, shoulder_lift_joint, elbow_joint, wrist_1_joint, wrist_2_joint,","[1.4945268630981445, -1.1740902105914515, 2.4884932041168213, -2.8635337988482874, -1.567784611378805, 2.744007110595703]","[0.08000988513231277, -0.02027411386370659, 0.03038560412824154, -0.010066749528050423, -0.0006135923322290182, -0.05825292319059372]","[1.1032105684280396, -4.733276844024658, -1.098487138748169, -0.7581482529640198, 0.3274841606616974, -0.2332763969898224]"
1584445723510993065,,478924,,1584445723,510616463,'',"[shoulder_pan_joint, shoulder_lift_joint, elbow_joint, wrist_1_joint, wrist_2_joint,","[1.5033308267593384, -1.176584545766012, 2.492584466934204, -2.8655570189105433, -1.5679166952716272, 2.7358174324035645]","[0.07200761884450912, -0.028314730152487755, 0.04549531266093254, -0.02684466354548931, -0.0008820389630272985, -0.09361118078231812]","[0.9017945528030396, -4.595947742462158, -1.1096962690353394, -0.7693634629249573, 0.3207550346851349, -0.2871094048023224]"
1584445723623050130,,478938,,1584445723,622593348,'',"[shoulder_pan_joint, shoulder_lift_joint, elbow_joint, wrist_1_joint, wrist_2_joint,","[1.5099396705627441, -1.180049244557516, 2.4973716735839844, -2.8689330259906214, -1.5679286162005823, 2.7253401279449463]","[0.047336090356111526, -0.02486327290534973, 0.03116537630558014, -0.026135198771953583, -0.00023009712458588183, -0.09410972148180008]","[0.8880616426467896, -4.316711902618408, -1.1096962690353394, -0.7738495469093323, 0.3028106987476349, -0.2467346489429474]"
1584445723734970710,,478952,,1584445723,734541409,'',"[shoulder_pan_joint, shoulder_lift_joint, elbow_joint, wrist_1_joint, wrist_2_joint,","[1.5144139528274536, -1.1815360228167933, 2.5002150535583496, -2.8713038603412073, -1.5679524580584925, 2.713150978088379]","[0.03176618739962578, -0.006890130694955587, 0.025297900661826134, -0.022012624889612198, -0.0006327670998871326, -0.11351457983255386]","[0.8880616426467896, -4.577637195587158, -1.197126865386963, -0.7603912949562073, 0.3185119926929474, -0.3140259087085724]"
1584445723846854512,,478966,,1584445723,846526790,'',"[shoulder_pan_joint, shoulder_lift_joint, elbow_joint, wrist_1_joint, wrist_2_joint,","[1.5167527198791504, -1.1826394240008753, 2.503406047821045, -2.8739855925189417, -1.5678566137896937, 2.7000279426574707]","[0.00827071350067854, -0.013575729914009571, 0.03399045765399933, -0.03154247999191284, -0.00023009712458588183, -0.1278381198644638]","[0.8972169160842896, -4.380798816680908, -0.9774293899536133, -0.5630035996437073, 0.3252411186695099, -0.3319702446460724]"
1584445723958892711,,478980,,1584445723,958510438,'',"[shoulder_pan_joint, shoulder_lift_joint, elbow_joint, wrist_1_joint, wrist_2_joint,","[1.5160928964614868, -1.1845935026751917, 2.5072810649871826, -2.8785231749164026, -1.567568604146139, 2.6841156482696533]","[-0.017231717705726624, -0.020811006426811218, 0.029593046754598618, -0.045214083045721054, 0.0029529130551964045, -0.16032017767429352]","[-1.0208131074905396, -4.211426258087158, -0.9594948887825012, -0.2826233208179474, 0.2534637749195099, -0.4329071640968323]"
1584445724070941932,,478994,,1584445724,70530314,'',"[shoulder_pan_joint, shoulder_lift_joint, elbow_joint, wrist_1_joint, wrist_2_joint,","[1.5152052640914917, -1.1859725157367151, 2.509032726287842, -2.8816121260272425, -1.567329231892721, 2.665963888168335]","[0.011095794849097729, -0.0008436894277110696, 0.0043718451634049416, -0.0037390782963484526, 0.002205097349360585, -0.14965900778770447]","[0.5401611924171448, -3.753662586212158, -1.0626182556152344, -0.1884155422449112, 0.2287903130054474, -0.3274841606616974]"
1584445724182927383,,479008,,1584445724,182503923,'',"[shoulder_pan_joint, shoulder_lift_joint, elbow_joint, wrist_1_joint, wrist_2_joint,","[1.516932487487793, -1.1859481970416468, 2.5096683502197266, -2.8818276564227503, -1.5672453085528772, 2.649620532989502]","[0.005662946030497551, -0.0001661812566453591, 0.018433336168527603, -0.013671603985130787, 0.0033172336407005787, -0.1418740451335907]","[0.8880616426467896, -4.170227527618408, -1.1164216995239258, -0.3005676567554474, 0.2557068169116974, -0.3095398247241974]"
1584445724294903957,,479022,,1584445724,294506877,'',"[shoulder_pan_joint, shoulder_lift_joint, elbow_joint, wrist_1_joint, wrist_2_joint,","[1.5150734186172485, -1.1873868147479456, 2.5130879878997803, -2.885838333760397, -1.5663464705096644, 2.632080078125]","[-0.025975408032536507, -0.01944320648908615, 0.03579288721084595, -0.044255346059799194, 0.009779127314686775, -0.15834516286849976]","[-1.1535645723342896, -4.234314441680908, -0.8810315728187561, -0.1637420803308487, 0.0448608435690403, -0.3095398247241974]"
1584445724406812595,,479036,,1584445724,406476558,'',"[shoulder_pan_joint, shoulder_lift_joint, elbow_joint, wrist_1_joint, wrist_2_joint,","[1.5122668743133545, -1.1897013823138636, 2.516218900680542, -2.8902562300311487, -1.5649927298175257, 2.6138813495635986]","[-0.027458256110548973, -0.02208932302892208, 0.026103239506483078, -0.031504131853580475, 0.013460681773722172, -0.16747236251831055]","[-1.1260987520217896, -3.973389148712158, -0.8048099875450134, 0.006729126907885075, 0.0269165076315403, -0.2781372368335724]"
1584445724518800101,,479050,,1584445724,518490673,'',"[shoulder_pan_joint, shoulder_lift_joint, elbow_joint, wrist_1_joint, wrist_2_joint,","[1.509376049041748, -1.1918709913836878, 2.5188941955566406, -2.893489185963766, -1.563531223927633, 2.5960774421691895]","[-0.022076541557908058, -0.014598384499549866, 0.018331071361899376, -0.025847576558589935, 0.011562380008399487, -0.15280365943908691]","[-1.2771607637405396, -3.977966785430908, -0.685994029045105, 0.0560760572552681, -0.1525268703699112, -0.3252411186695099]"
1584445724630840204,,479064,,1584445724,630547488,'',"[shoulder_pan_joint, shoulder_lift_joint, elbow_joint, wrist_1_joint, wrist_2_joint,","[1.5075769424438477, -1.19232684770693, 2.5195541381835938, -2.8946388403521937, -1.5625246206866663, 2.581674098968506]","[-0.015736086294054985, -0.0003579288604669273, 0.0007286408799700439, -0.0008245147182606161, 0.006653641816228628, -0.12066676467657089]","[-0.9613038301467896, -3.355407953262329, -0.8474043607711792, 0.1772003322839737, -0.2153320610523224, -0.3342132866382599]"
1584445724742807251,,479078,,1584445724,742479068,'',"[shoulder_pan_joint, shoulder_lift_joint, elbow_joint, wrist_1_joint, wrist_2_joint,","[1.505105972290039, -1.1922906080829065, 2.5195062160491943, -2.8946507612811487, -1.5618656317340296, 2.5695104598999023]","[-0.02424968034029007, -0.00012783173588104546, 0.00024288029817398638, -0.0002109223569277674, 0.00586747657507658, -0.0972735583782196]","[-1.1169434785842896, -3.250122308731079, -0.8720642924308777, 0.1839294582605362, -0.2422485649585724, -0.2871094048023224]"
1584445724854843947,,479092,,1584445724,854507910,'',"[shoulder_pan_joint, shoulder_lift_joint, elbow_joint, wrist_1_joint, wrist_2_joint,","[1.5026832818984985, -1.1922906080829065, 2.519386053085327, -2.89457875887026, -1.5615900198565882, 2.558375597000122]","[-0.018139323219656944, -7.669904152862728e-05, -0.000690291344653815, 1.917476038215682e-05, 0.0011504855938255787, -0.08916263282299042]","[-1.0162354707717896, -3.208923578262329, -0.9056914448738098, 0.2108459621667862, -0.2108459621667862, -0.3386993706226349]"
1584445724966827315,,479106,,1584445724,966493512,'',"[shoulder_pan_joint, shoulder_lift_joint, elbow_joint, wrist_1_joint, wrist_2_joint,","[1.500920057296753, -1.1923030058490198, 2.5189900398254395, -2.8944347540484827, -1.5616501013385218, 2.5479958057403564]","[-0.012616991996765137, -5.1132694352418184e-05, -0.008321845903992653, 0.0018407769966870546, 0.00024927189224399626, -0.10452161729335785]","[-0.7919312119483948, -3.071594476699829, -0.957253098487854, 0.2243042290210724, -0.2108459621667862, -0.4172058403491974]"
1584445725078884490,,479120,,1584445725,78485586,'',"[shoulder_pan_joint, shoulder_lift_joint, elbow_joint, wrist_1_joint, wrist_2_joint,","[1.5004639625549316, -1.1915596167193812, 2.51601505279541, -2.891489330922262, -1.561793629323141, 2.537567138671875]","[0.007836085744202137, 0.0113386744633317, -0.032776057720184326, 0.033191509544849396, -3.834952076431364e-05, -0.0867849662899971]","[0.4531860947608948, -2.389526605606079, -1.3787134885787964, 0.2848663628101349, -0.1996307522058487, -0.2803802788257599]"
1584445725190923871,,479134,,1584445725,190508887,'',"[shoulder_pan_joint, shoulder_lift_joint, elbow_joint, wrist_1_joint, wrist_2_joint,","[1.5021193027496338, -1.1905882994281214, 2.5128839015960693, -2.887670342122213, -1.5623567740069788, 2.5287559032440186]","[0.01022653840482235, 0.0033875410445034504, -0.016528643667697906, 0.02329733408987522, -0.0024927188642323017, -0.04205024987459183]","[0.7141113877296448, -2.526855707168579, -1.4347587823867798, 0.1099090725183487, -0.1457977443933487, -0.3185119926929474]"
1584445725302826308,,479148,,1584445725,302468550,'',"[shoulder_pan_joint, shoulder_lift_joint, elbow_joint, wrist_1_joint, wrist_2_joint,","[1.5022155046463013, -1.1905882994281214, 2.512547492980957, -2.887167755757467, -1.5626443068133753, 2.5276782512664795]","[-0.0005752427969127893, 0.00020453077740967274, -0.0004985437844879925, 0.0004218447138555348, -0.0012655341997742653, 0.0013614079216495156]","[-0.1144409328699112, -3.089905023574829, -1.0962454080581665, -0.0695343092083931, -0.1435547024011612, -0.004486084450036287]"
1584445725414777114,,479162,,1584445725,414453380,'',"[shoulder_pan_joint, shoulder_lift_joint, elbow_joint, wrist_1_joint, wrist_2_joint,","[1.502191185951233, -1.1907079855548304, 2.5123918056488037, -2.8876341024981897, -1.5626800696002405, 2.5276663303375244]","[-0.00023009712458588183, -0.0003834952076431364, -0.0005624596378766, -0.0004793690168298781, 0.00032597093377262354, 0.00024927189224399626]","[0.0274658240377903, -3.575134754180908, -1.4257915019989014, -0.2265472710132599, -0.02018737979233265, -0.0426178015768528]"
1584445725526838888,,479176,,1584445725,526492732,'',"[shoulder_pan_joint, shoulder_lift_joint, elbow_joint, wrist_1_joint, wrist_2_joint,","[1.5022035837173462, -1.1906960646258753, 2.5123796463012695, -2.887610737477438, -1.5626681486712855, 2.5276782512664795]","[-0.00010226538870483637, -0.00014061490946915, -0.00020453077740967274, -0.0001917476038215682, 0.00015339808305725455, 0.00013422331539914012]","[0.01831054873764515, -3.446960687637329, -1.3114591836929321, -0.0942077711224556, -0.01570129580795765, -0.0426178015768528]"
1584445725638935857,,479190,,1584445725,638526694,'',"[shoulder_pan_joint, shoulder_lift_joint, elbow_joint, wrist_1_joint, wrist_2_joint,","[1.5022155046463013, -1.1906722227679651, 2.5123677253723145, -2.887298885975973, -1.5626323858844202, 2.5276663303375244]","[-6.391586794052273e-05, -7.669904152862728e-05, -0.00012783173588104546, 0.0034706315491348505, 9.58738019107841e-05, 9.58738019107841e-05]","[0.0274658240377903, -3.231811761856079, -1.1209052801132202, 0.0515899695456028, -0.01570129580795765, -0.0448608435690403]"
1584445725750835689,,479204,,1584445725,750490625,'',"[shoulder_pan_joint, shoulder_lift_joint, elbow_joint, wrist_1_joint, wrist_2_joint,","[1.5022155046463013, -1.190683666859762, 2.5123918056488037, -2.8872154394732874, -1.56260854402651, 2.5276782512664795]","[-5.1132694352418184e-05, -5.1132694352418184e-05, -8.948221511673182e-05, 0.0003451456723269075, 7.669904152862728e-05, 5.752428114647046e-05]","[0.0503540076315403, -3.172302484512329, -0.9146587252616882, 0.0, -0.01794433780014515, -0.0403747595846653]"
1584445725862790202,,479218,,1584445725,862458954,'',"[shoulder_pan_joint, shoulder_lift_joint, elbow_joint, wrist_1_joint, wrist_2_joint,","[1.502191185951233, -1.1907199064837855, 2.512439727783203, -2.8872392813311976, -1.5626562277423304, 2.5276663303375244]","[-3.834952076431364e-05, -3.834952076431364e-05, 0.0005624596378766, 0.00015339808305725455, 5.752428114647046e-05, 5.752428114647046e-05]","[0.0640869215130806, -3.048706293106079, -0.7173793911933899, 0.0022430422250181437, -0.01794433780014515, -0.0493469275534153]"
1584445725974736370,,479232,,1584445725,974411033,'',"[shoulder_pan_joint, shoulder_lift_joint, elbow_joint, wrist_1_joint, wrist_2_joint,","[1.502191185951233, -1.1906722227679651, 2.5124995708465576, -2.8872154394732874, -1.5626443068133753, 2.5276904106140137]","[-2.5566347176209092e-05, -3.834952076431364e-05, 0.0004218447138555348, 9.58738019107841e-05, 3.834952076431364e-05, 3.834952076431364e-05]","[0.0320434607565403, -2.838135004043579, -0.7711828351020813, 0.0022430422250181437, -0.02467346377670765, -0.0471038855612278]"
1584445726086727763,,479246,,1584445726,86418185,'',"[shoulder_pan_joint, shoulder_lift_joint, elbow_joint, wrist_1_joint, wrist_2_joint,","[1.5022035837173462, -1.1907079855548304, 2.5124995708465576, -2.8872392813311976, -1.5626323858844202, 2.5276544094085693]","[-2.5566347176209092e-05, 0.0, 0.00017896443023346364, 7.669904152862728e-05, 3.834952076431364e-05, 3.834952076431364e-05]","[0.02288818545639515, -2.572632074356079, -0.7577319741249084, -0.0022430422250181437, -0.02018737979233265, -0.0560760572552681]"
1584445726198834901,,479260,,1584445726,198458318,'',"[shoulder_pan_joint, shoulder_lift_joint, elbow_joint, wrist_1_joint, wrist_2_joint,","[1.5022155046463013, -1.190648380910055, 2.5125234127044678, -2.887179676686422, -1.5626562277423304, 2.5276782512664795]","[-2.5566347176209092e-05, 0.0001917476038215682, 0.00011504856229294091, 5.752428114647046e-05, 3.834952076431364e-05, 3.834952076431364e-05]","[0.01373291201889515, -2.613830804824829, -0.7577319741249084, -0.0022430422250181437, -0.01794433780014515, -0.0403747595846653]"
1584445726310795205,,479274,,1584445726,310434662,'',"[shoulder_pan_joint, shoulder_lift_joint, elbow_joint, wrist_1_joint, wrist_2_joint,","[1.502227544784546, -1.19066030183901, 2.5125114917755127, -2.8872035185443323, -1.5626204649554651, 2.5276663303375244]","[-1.2783173588104546e-05, 0.00015339808305725455, 7.669904152862728e-05, 3.834952076431364e-05, 1.917476038215682e-05, 1.917476038215682e-05]","[0.0457763709127903, -2.668762445449829, -0.7644574046134949, -0.006729126907885075, -0.01794433780014515, -0.0515899695456028]"
1584445726422792017,,479288,,1584445726,422425734,'',"[shoulder_pan_joint, shoulder_lift_joint, elbow_joint, wrist_1_joint, wrist_2_joint,","[1.5022634267807007, -1.1907079855548304, 2.512427568435669, -2.8874667326556605, -1.5626562277423304, 2.528611898422241]","[0.0024671524297446012, -0.0005752427969127893, -0.010354370810091496, -0.0012655341997742653, 1.917476038215682e-05, 0.03825364634394646]","[0.5126953721046448, -3.181457757949829, -2.0624656677246094, -0.1704712063074112, -0.01794433780014515, 0.2489776909351349]"
1584445726534798448,,479302,,1584445726,534461439,'',"[shoulder_pan_joint, shoulder_lift_joint, elbow_joint, wrist_1_joint, wrist_2_joint,","[1.5013399124145508, -1.1913073698626917, 2.51405930519104, -2.889789406453268, -1.5624645392047327, 2.5310781002044678]","[-0.015096927992999554, -0.016758739948272705, 0.030845798552036285, -0.03522403538227081, 5.752428114647046e-05, 0.0029529130551964045]","[-0.8285523056983948, -4.490662097930908, -0.9976056814193726, -0.4082336723804474, -0.01570129580795765, 0.1749572902917862]"
1584445726646708458,,479316,,1584445726,646430410,'',"[shoulder_pan_joint, shoulder_lift_joint, elbow_joint, wrist_1_joint, wrist_2_joint,","[1.5001763105392456, -1.1934779326068323, 2.5182464122772217, -2.8950699011432093, -1.5619609991656702, 2.5258946418762207]","[-0.001815210678614676, -0.016720391809940338, 0.03990906849503517, -0.048588842153549194, 0.0033747577108442783, -0.05158010497689247]","[-0.7919312119483948, -4.238892078399658, -0.9729457497596741, -0.1188812404870987, -0.0650482252240181, -0.2960815727710724]"
1584445726758749834,,479330,,1584445726,758424116,'',"[shoulder_pan_joint, shoulder_lift_joint, elbow_joint, wrist_1_joint, wrist_2_joint,","[1.5032109022140503, -1.1946528593646448, 2.5213537216186523, -2.8991521040545862, -1.5617459456073206, 2.5213208198547363]","[0.041315216571092606, -0.006992395967245102, 0.021565213799476624, -0.021111411973834038, 0.0006135923322290182, -0.040957286953926086]","[0.6179810166358948, -4.238892078399658, -1.0379582643508911, -0.2467346489429474, -0.0448608435690403, -0.2489776909351349]"
1584445726870671606,,479344,,1584445726,870357190,'',"[shoulder_pan_joint, shoulder_lift_joint, elbow_joint, wrist_1_joint, wrist_2_joint,","[1.5075650215148926, -1.1955402533160608, 2.5242087841033936, -2.901630226765768, -1.5617697874652308, 2.5163161754608154]","[0.03129320964217186, -0.01282152347266674, 0.03038560412824154, -0.02690218947827816, 0.0001917476038215682, -0.04626869782805443]","[0.8514404892921448, -4.280090808868408, -1.0245074033737183, -0.2669220268726349, -0.0336456336081028, -0.2758941948413849]"
1584445726982737097,,479358,,1584445726,982408253,'',"[shoulder_pan_joint, shoulder_lift_joint, elbow_joint, wrist_1_joint, wrist_2_joint,","[1.5110673904418945, -1.197554890309469, 2.528719902038574, -2.905210796986715, -1.5615299383746546, 2.5113959312438965]","[0.035882368683815, -0.023866184055805206, 0.05362541228532791, -0.04159005358815193, 0.00276116537861526, -0.039749279618263245]","[0.7644653916358948, -4.206848621368408, -0.8787897229194641, -0.0717773512005806, -0.0628051832318306, -0.2691650688648224]"
1584445727094726295,,479372,,1584445727,94410946,'',"[shoulder_pan_joint, shoulder_lift_joint, elbow_joint, wrist_1_joint, wrist_2_joint,","[1.5154813528060913, -1.2007792631732386, 2.5349578857421875, -2.9102748076068323, -1.5607989470111292, 2.506187677383423]","[0.03827282041311264, -0.03087136335670948, 0.05204029753804207, -0.044197823852300644, 0.006653641816228628, -0.05704491212964058]","[0.8102417588233948, -4.119873523712158, -0.9236259460449219, 0.0471038855612278, -0.1682281643152237, -0.2198181450366974]"
1584445727206751540,,479386,,1584445727,206376701,'',"[shoulder_pan_joint, shoulder_lift_joint, elbow_joint, wrist_1_joint, wrist_2_joint,","[1.5189118385314941, -1.204280201588766, 2.5405843257904053, -2.9150880018817347, -1.560091797505514, 2.4982738494873047]","[0.025412948802113533, -0.028084632009267807, 0.05609256401658058, -0.04214612394571304, 0.006960438098758459, -0.07411044836044312]","[0.8285523056983948, -3.959656238555908, -0.8092936277389526, 0.0403747595846653, -0.2130890041589737, -0.3970184624195099]"
1584445727318749275,,479400,,1584445727,318379154,'',"[shoulder_pan_joint, shoulder_lift_joint, elbow_joint, wrist_1_joint, wrist_2_joint,","[1.5213947296142578, -1.2068946997271937, 2.546294689178467, -2.9203079382525843, -1.5592177549945276, 2.489773750305176]","[0.025412948802113533, -0.016477510333061218, 0.034156639128923416, -0.034035198390483856, 0.005886651575565338, -0.08137768507003784]","[0.6912232041358948, -3.918457508087158, -0.7151375412940979, 0.1166381984949112, -0.1973877102136612, -0.2332763969898224]"
1584445727430682198,,479414,,1584445727,430345369,'',"[shoulder_pan_joint, shoulder_lift_joint, elbow_joint, wrist_1_joint, wrist_2_joint,","[1.525088906288147, -1.2081297079669397, 2.5495457649230957, -2.9230974356280726, -1.5589178244220179, 2.4806149005889893]","[0.04260631650686264, -0.009459548629820347, 0.033658094704151154, -0.018925487995147705, 0.001418932224623859, -0.0736694261431694]","[0.8010864853858948, -3.900146961212158, -0.8048099875450134, 0.1435547024011612, -0.1547699123620987, -0.3342132866382599]"
1584445727542710209,,479428,,1584445727,542337363,'',"[shoulder_pan_joint, shoulder_lift_joint, elbow_joint, wrist_1_joint, wrist_2_joint,","[1.5304982662200928, -1.2103355566607874, 2.5556516647338867, -2.9266536871539515, -1.5586660544024866, 2.472079038619995]","[0.050404053181409836, -0.03145939111709595, 0.0762132778763771, -0.047323308885097504, 0.005273059010505676, -0.08398544788360596]","[0.5859375596046448, -3.959656238555908, -0.7375556826591492, 0.2018737941980362, -0.2175751030445099, -0.2624359428882599]"
1584445727654666225,,479442,,1584445727,654357178,'',"[shoulder_pan_joint, shoulder_lift_joint, elbow_joint, wrist_1_joint, wrist_2_joint,","[1.5364840030670166, -1.2142322699176233, 2.5633416175842285, -2.9318974653827112, -1.5581391493426722, 2.464021921157837]","[0.05615648254752159, -0.03515372797846794, 0.060336578637361526, -0.03886723890900612, 0.0026269422378391027, -0.05543423071503639]","[0.9017945528030396, -3.620911121368408, -0.5940797924995422, 0.0740203931927681, -0.2848663628101349, -0.2758941948413849]"
1584445727766647308,,479456,,1584445727,766323714,'',"[shoulder_pan_joint, shoulder_lift_joint, elbow_joint, wrist_1_joint, wrist_2_joint,","[1.5420016050338745, -1.2176249662982386, 2.5696516036987305, -2.9357174078570765, -1.558127228413717, 2.457329511642456]","[0.03549887239933014, -0.02123285084962845, 0.0466841496527195, -0.030104374513030052, 0.0003834952076431364, -0.07144515961408615]","[0.8514404892921448, -3.680420398712158, -0.49544012546539307, 0.01570129580795765, -0.2444916069507599, -0.2534637749195099]"
1584445727878704052,,479470,,1584445727,878380959,'',"[shoulder_pan_joint, shoulder_lift_joint, elbow_joint, wrist_1_joint, wrist_2_joint,","[1.5443044900894165, -1.218560520802633, 2.572338581085205, -2.937800709401266, -1.5581148306476038, 2.448949098587036]","[0.005049353465437889, -0.0008309062686748803, 0.006135923322290182, -0.007439807057380676, 0.00024927189224399626, -0.0768716111779213]","[1.0299683809280396, -3.405761957168579, -0.5582108497619629, 0.0403747595846653, -0.2557068169116974, -0.3028106987476349]"
1584445727990654538,,479484,,1584445727,990345421,'',"[shoulder_pan_joint, shoulder_lift_joint, elbow_joint, wrist_1_joint, wrist_2_joint,","[1.5429850816726685, -1.218548599873678, 2.572542428970337, -2.9378722349749964, -1.5578754583941858, 2.438389778137207]","[-0.02155243046581745, -0.00021731395099777728, 0.0007925567333586514, -0.0003451456723269075, 0.003758253064006567, -0.10676506161689758]","[-1.1123658418655396, -2.929687738418579, -0.8115354180335999, 0.2153320610523224, -0.3364563286304474, -0.3140259087085724]"
1584445728102706794,,479498,,1584445728,102365066,'',"[shoulder_pan_joint, shoulder_lift_joint, elbow_joint, wrist_1_joint, wrist_2_joint,","[1.5411739349365234, -1.218560520802633, 2.5725064277648926, -2.9378722349749964, -1.5571325461017054, 2.4269444942474365]","[-0.010009224526584148, -0.00010226538870483637, 0.00023009712458588183, -0.00015339808305725455, 0.006864564027637243, -0.10502016544342041]","[-1.1260987520217896, -2.902221918106079, -0.845162570476532, 0.2512207329273224, -0.3925323784351349, -0.2220611870288849]"
1584445728214581989,,479512,,1584445728,214286989,'',"[shoulder_pan_joint, shoulder_lift_joint, elbow_joint, wrist_1_joint, wrist_2_joint,","[1.5413297414779663, -1.218548599873678, 2.5722663402557373, -2.937788788472311, -1.5569170157061976, 2.415954351425171]","[0.017065536230802536, 7.669904152862728e-05, -0.004908738657832146, 0.000997087568975985, 0.0009587380336597562, -0.08394709974527359]","[0.6500244736671448, -2.824402093887329, -0.9460440278053284, 0.3072967827320099, -0.3431854546070099, -0.2624359428882599]"
1584445728326517838,,479526,,1584445728,326256621,'',"[shoulder_pan_joint, shoulder_lift_joint, elbow_joint, wrist_1_joint, wrist_2_joint,","[1.5429611206054688, -1.218224827443258, 2.570143222808838, -2.936004940663473, -1.5571325461017054, 2.408268690109253]","[0.006864564027637243, 0.006391586735844612, -0.02364887110888958, 0.023028887808322906, -0.0015339808305725455, -0.030430344864726067]","[0.5630493760108948, -2.357483148574829, -1.004331111907959, 0.4037475883960724, -0.3229980766773224, -0.2265472710132599]"
1584445728438647999,,479540,,1584445728,438353239,'',"[shoulder_pan_joint, shoulder_lift_joint, elbow_joint, wrist_1_joint, wrist_2_joint,","[1.5428892374038696, -1.2181647459613245, 2.5693395137786865, -2.936004940663473, -1.5572403112994593, 2.407574415206909]","[-0.0003579288604669273, -0.00199417513795197, -0.0030040456913411617, 0.01014344859868288, 0.0027228158432990313, 0.001035437104292214]","[-0.1235962063074112, -3.186035394668579, -1.2464466094970703, -0.3342132866382599, -0.0717773512005806, -0.01794433780014515]"
1584445728550606831,,479554,,1584445728,550306901,'',"[shoulder_pan_joint, shoulder_lift_joint, elbow_joint, wrist_1_joint, wrist_2_joint,","[1.5429011583328247, -1.2181647459613245, 2.569171905517578, -2.9360769430743616, -1.5572527090655726, 2.40755033493042]","[-0.00024288029817398638, -0.0002812298189383, -0.000472977408207953, 0.0006711166352033615, 0.0004793690168298781, 0.00023009712458588183]","[-0.1144409328699112, -3.254699945449829, -1.004331111907959, 0.1323394924402237, -0.0650482252240181, -0.01345825381577015]"
1584445728662633108,,479568,,1584445728,662337146,'',"[shoulder_pan_joint, shoulder_lift_joint, elbow_joint, wrist_1_joint, wrist_2_joint,","[1.5428892374038696, -1.2181528250323694, 2.5691239833831787, -2.935897175465719, -1.557204548512594, 2.407562255859375]","[-0.00012783173588104546, -0.00011504856229294091, -0.0002812298189383, 0.005963350646197796, 0.0001917476038215682, 0.00013422331539914012]","[-0.1144409328699112, -3.240967035293579, -0.7263466119766235, 0.2534637749195099, -0.0650482252240181, -0.006729126907885075]"
1584445728774567394,,479582,,1584445728,774288504,'',"[shoulder_pan_joint, shoulder_lift_joint, elbow_joint, wrist_1_joint, wrist_2_joint,","[1.5429011583328247, -1.2181409041034144, 2.569063901901245, -2.9355619589435022, -1.5572164694415491, 2.40755033493042]","[-7.669904152862728e-05, -7.669904152862728e-05, -0.0, 0.0010162623366340995, 0.00011504856229294091, 9.58738019107841e-05]","[-0.1510620266199112, -3.254699945449829, -0.3429970145225525, 0.2287903130054474, -0.1054229810833931, -0.006729126907885075]"
1584445728886547585,,479596,,1584445728,886273133,'',"[shoulder_pan_joint, shoulder_lift_joint, elbow_joint, wrist_1_joint, wrist_2_joint,","[1.5429131984710693, -1.2181647459613245, 2.569040060043335, -2.935549561177389, -1.5572403112994593, 2.4075143337249756]","[-5.1132694352418184e-05, -5.1132694352418184e-05, 0.0006263754912652075, 0.00023009712458588183, 7.669904152862728e-05, 5.752428114647046e-05]","[-0.1281738430261612, -3.245544672012329, 0.11881595849990845, 0.2400055229663849, -0.1996307522058487, -0.004486084450036287]"
1584445728998516836,,479610,,1584445728,998250009,'',"[shoulder_pan_joint, shoulder_lift_joint, elbow_joint, wrist_1_joint, wrist_2_joint,","[1.5429131984710693, -1.2181409041034144, 2.5693395137786865, -2.935537640248434, -1.5572403112994593, 2.407538414001465]","[-3.834952076431364e-05, -3.834952076431364e-05, 0.0026077674701809883, 0.00013422331539914012, -0.0003834952076431364, 5.752428114647046e-05]","[-0.1602173000574112, -3.277588129043579, 0.4550875425338745, 0.2377624809741974, -0.2444916069507599, -0.008972168900072575]"
1584445729110515943,,479624,,1584445729,110232995,'',"[shoulder_pan_joint, shoulder_lift_joint, elbow_joint, wrist_1_joint, wrist_2_joint,","[1.5428892374038696, -1.2181771437274378, 2.56939959526062, -2.935525719319479, -1.5573003927813929, 2.4075262546539307]","[-3.834952076431364e-05, -3.834952076431364e-05, -0.0, 7.669904152862728e-05, -0.0005944175645709038, 3.834952076431364e-05]","[-0.1373291164636612, -3.250122308731079, 0.30936986207962036, 0.2377624809741974, -0.2848663628101349, -0.01345825381577015]"
1584445729222519879,,479638,,1584445729,222231801,'',"[shoulder_pan_joint, shoulder_lift_joint, elbow_joint, wrist_1_joint, wrist_2_joint,","[1.5428892374038696, -1.2181885878192347, 2.569387674331665, -2.935537640248434, -1.5572403112994593, 2.40755033493042]","[-2.5566347176209092e-05, -2.5566347176209092e-05, -0.0, 5.752428114647046e-05, -0.0001917476038215682, 3.834952076431364e-05]","[-0.1419067531824112, -3.245544672012329, 0.2981607913970947, 0.2400055229663849, -0.2669220268726349, -0.006729126907885075]"
1584445729334527982,,479652,,1584445729,334240536,'',"[shoulder_pan_joint, shoulder_lift_joint, elbow_joint, wrist_1_joint, wrist_2_joint,","[1.5429011583328247, -1.2181528250323694, 2.569411516189575, -2.9355738798724573, -1.557324234639303, 2.407538414001465]","[-2.5566347176209092e-05, -2.5566347176209092e-05, -0.0, 5.752428114647046e-05, -0.00011504856229294091, 1.917476038215682e-05]","[-0.1556396633386612, -3.291321039199829, 0.30264443159103394, 0.2332763969898224, -0.2848663628101349, -0.01345825381577015]"
1584445729446614462,,479666,,1584445729,446282513,'',"[shoulder_pan_joint, shoulder_lift_joint, elbow_joint, wrist_1_joint, wrist_2_joint,","[1.5429011583328247, -1.2181528250323694, 2.569387674331665, -2.9355619589435022, -1.5573003927813929, 2.40755033493042]","[-2.5566347176209092e-05, -1.2783173588104546e-05, -0.0, 3.834952076431364e-05, -7.669904152862728e-05, 1.917476038215682e-05]","[-0.1327514797449112, -3.245544672012329, 0.30040261149406433, 0.2377624809741974, -0.2803802788257599, -0.006729126907885075]"
1584445729558548157,,479680,,1584445729,558233219,'',"[shoulder_pan_joint, shoulder_lift_joint, elbow_joint, wrist_1_joint, wrist_2_joint,","[1.5429011583328247, -1.2181771437274378, 2.5694234371185303, -2.935537640248434, -1.5572646299945276, 2.4075143337249756]","[-1.2783173588104546e-05, -1.2783173588104546e-05, -0.0, 3.834952076431364e-05, -5.752428114647046e-05, 1.917476038215682e-05]","[-0.1510620266199112, -3.254699945449829, 0.2981607913970947, 0.2355194389820099, -0.2579498589038849, -0.004486084450036287]"
1584445729670523199,,479694,,1584445729,670197651,'',"[shoulder_pan_joint, shoulder_lift_joint, elbow_joint, wrist_1_joint, wrist_2_joint,","[1.5429131984710693, -1.2181528250323694, 2.569411516189575, -2.935525719319479, -1.5572765509234827, 2.40755033493042]","[-1.2783173588104546e-05, -1.2783173588104546e-05, -0.0, 1.917476038215682e-05, -3.834952076431364e-05, 1.917476038215682e-05]","[-0.1281738430261612, -3.259277582168579, 0.2891935706138611, 0.2287903130054474, -0.2826233208179474, -0.0022430422250181437]"
1584445729782506386,,479708,,1584445729,782207177,'',"[shoulder_pan_joint, shoulder_lift_joint, elbow_joint, wrist_1_joint, wrist_2_joint,","[1.542877197265625, -1.218224827443258, 2.56939959526062, -2.9355738798724573, -1.5572765509234827, 2.407538414001465]","[-1.2783173588104546e-05, -1.2783173588104546e-05, -0.0, 1.917476038215682e-05, -3.834952076431364e-05, 1.917476038215682e-05]","[-0.1327514797449112, -3.254699945449829, 0.30488622188568115, 0.2400055229663849, -0.3095398247241974, -0.004486084450036287]"
1584445729894514639,,479722,,1584445729,894221973,'',"[shoulder_pan_joint, shoulder_lift_joint, elbow_joint, wrist_1_joint, wrist_2_joint,","[1.542925238609314, -1.2181771437274378, 2.5694234371185303, -2.935525719319479, -1.5572646299945276, 2.4075262546539307]","[-1.2783173588104546e-05, -1.2783173588104546e-05, -0.0, 1.917476038215682e-05, -3.834952076431364e-05, 1.917476038215682e-05]","[-0.1373291164636612, -3.250122308731079, 0.3160952925682068, 0.2355194389820099, -0.2915954887866974, -0.008972168900072575]"
1584445730006494720,,479736,,1584445730,6197987,'',"[shoulder_pan_joint, shoulder_lift_joint, elbow_joint, wrist_1_joint, wrist_2_joint,","[1.5429131984710693, -1.2181771437274378, 2.569387674331665, -2.935537640248434, -1.5572646299945276, 2.407538414001465]","[-1.2783173588104546e-05, -1.2783173588104546e-05, -0.0, 1.917476038215682e-05, -1.917476038215682e-05, 1.917476038215682e-05]","[-0.1190185695886612, -3.263855218887329, 0.30040261149406433, 0.2355194389820099, -0.2758941948413849, -0.0022430422250181437]"
1584445730118543169,,479750,,1584445730,118221048,'',"[shoulder_pan_joint, shoulder_lift_joint, elbow_joint, wrist_1_joint, wrist_2_joint,","[1.542925238609314, -1.2181647459613245, 2.569411516189575, -2.9355137983905237, -1.5572884718524378, 2.4075262546539307]","[-1.2783173588104546e-05, -1.2783173588104546e-05, -0.0, 1.917476038215682e-05, -1.917476038215682e-05, 1.917476038215682e-05]","[-0.1052856519818306, -3.259277582168579, 0.2847099304199219, 0.2355194389820099, -0.3072967827320099, 0.004486084450036287]"
1584445730230513182,,479764,,1584445730,230182425,'',"[shoulder_pan_joint, shoulder_lift_joint, elbow_joint, wrist_1_joint, wrist_2_joint,","[1.542925238609314, -1.2181885878192347, 2.5694234371185303, -2.9355619589435022, -1.5573003927813929, 2.4075024127960205]","[-1.2783173588104546e-05, -1.2783173588104546e-05, -0.0, 1.917476038215682e-05, -1.917476038215682e-05, 1.917476038215682e-05]","[-0.1098632961511612, -3.277588129043579, 0.2959190011024475, 0.2332763969898224, -0.2646789848804474, 0.01570129580795765]"
1584445730342516316,,479778,,1584445730,342227066,'',"[shoulder_pan_joint, shoulder_lift_joint, elbow_joint, wrist_1_joint, wrist_2_joint,","[1.5429011583328247, -1.2181885878192347, 2.5694234371185303, -2.9355738798724573, -1.5572884718524378, 2.407538414001465]","[-1.2783173588104546e-05, -1.2783173588104546e-05, -0.0, 1.917476038215682e-05, -1.917476038215682e-05, 0.0]","[-0.1647949367761612, -3.263855218887329, 0.2936771810054779, 0.2377624809741974, -0.2512207329273224, 0.0336456336081028]"
1584445730454468465,,479792,,1584445730,454175378,'',"[shoulder_pan_joint, shoulder_lift_joint, elbow_joint, wrist_1_joint, wrist_2_joint,","[1.542925238609314, -1.2181647459613245, 2.569411516189575, -2.9355137983905237, -1.5572646299945276, 2.407538414001465]","[0.0, 0.0, -0.0, 1.917476038215682e-05, -1.917476038215682e-05, 0.0]","[-0.1373291164636612, -3.268432855606079, 0.30040261149406433, 0.2355194389820099, -0.2893524467945099, 0.0336456336081028]"
1584445730566551168,,479806,,1584445730,566250046,'',"[shoulder_pan_joint, shoulder_lift_joint, elbow_joint, wrist_1_joint, wrist_2_joint,","[1.5429131984710693, -1.2181528250323694, 2.569411516189575, -2.935537640248434, -1.5572646299945276, 2.4075262546539307]","[0.0, 0.0, -0.0, 1.917476038215682e-05, -1.917476038215682e-05, 0.0]","[-0.1510620266199112, -3.236389398574829, 0.2981607913970947, 0.2377624809741974, -0.2826233208179474, 0.0314025916159153]"
1584445730678482588,,479820,,1584445730,678187969,'',"[shoulder_pan_joint, shoulder_lift_joint, elbow_joint, wrist_1_joint, wrist_2_joint,","[1.5429011583328247, -1.2181647459613245, 2.5694355964660645, -2.9355137983905237, -1.5572765509234827, 2.407538414001465]","[0.0, 0.0, -0.0, 0.0, -1.917476038215682e-05, 0.0]","[-0.1602173000574112, -3.254699945449829, 0.2959190011024475, 0.2355194389820099, -0.2938385307788849, 0.0403747595846653]"
1584445730790494769,,479834,,1584445730,790199107,'',"[shoulder_pan_joint, shoulder_lift_joint, elbow_joint, wrist_1_joint, wrist_2_joint,","[1.5428892374038696, -1.2181647459613245, 2.5694234371185303, -2.935537640248434, -1.5572646299945276, 2.4075143337249756]","[0.0, 0.0, -0.0, 0.0, -1.917476038215682e-05, 0.0]","[-0.1831054836511612, -3.204345941543579, 0.3250625431537628, 0.2377624809741974, -0.2938385307788849, 0.0291595496237278]"
1584445730902485931,,479848,,1584445730,902177125,'',"[shoulder_pan_joint, shoulder_lift_joint, elbow_joint, wrist_1_joint, wrist_2_joint,","[1.5429011583328247, -1.2181647459613245, 2.5694234371185303, -2.935549561177389, -1.5572884718524378, 2.4075143337249756]","[0.0, 0.0, -0.0, 0.0, -1.917476038215682e-05, 0.0]","[-0.1144409328699112, -3.254699945449829, 0.2936771810054779, 0.2377624809741974, -0.2489776909351349, 0.0336456336081028]"
1584445731014518059,,479862,,1584445731,14172795,'',"[shoulder_pan_joint, shoulder_lift_joint, elbow_joint, wrist_1_joint, wrist_2_joint,","[1.5429011583328247, -1.218200985585348, 2.569411516189575, -2.935525719319479, -1.5572646299945276, 2.4075262546539307]","[0.0, 0.0, -0.0, 0.0, 0.0, 0.0]","[-0.0823974683880806, -3.245544672012329, 0.2959190011024475, 0.2377624809741974, -0.2803802788257599, 0.0358886756002903]"
1584445731126488593,,479876,,1584445731,126162214,'',"[shoulder_pan_joint, shoulder_lift_joint, elbow_joint, wrist_1_joint, wrist_2_joint,","[1.542925238609314, -1.2181647459613245, 2.5694355964660645, -2.9354899565326136, -1.557312313710348, 2.4075024127960205]","[0.0, 0.0, -0.0, 0.0, 0.0, 0.0]","[-0.1373291164636612, -3.222656488418579, 0.2914353609085083, 0.2310333549976349, -0.2758941948413849, 0.0336456336081028]"
1584445731238467592,,479890,,1584445731,238135141,'',"[shoulder_pan_joint, shoulder_lift_joint, elbow_joint, wrist_1_joint, wrist_2_joint,","[1.5429131984710693, -1.2181647459613245, 2.5694355964660645, -2.935525719319479, -1.5572646299945276, 2.4075262546539307]","[0.0, 0.0, -0.0, 0.0, 0.0, 0.0]","[-0.1281738430261612, -3.240967035293579, 0.30936986207962036, 0.2400055229663849, -0.2669220268726349, 0.0358886756002903]"
1584445731350543392,,479904,,1584445731,350203397,'',"[shoulder_pan_joint, shoulder_lift_joint, elbow_joint, wrist_1_joint, wrist_2_joint,","[1.5429131984710693, -1.2181289831744593, 2.5694355964660645, -2.935525719319479, -1.5572884718524378, 2.407538414001465]","[0.0, 0.0, -0.0, 0.0, 0.0, 0.0]","[-0.1052856519818306, -3.227234125137329, 0.2981607913970947, 0.2377624809741974, -0.2758941948413849, 0.0381317175924778]"
1584445731462516510,,479918,,1584445731,462174412,'',"[shoulder_pan_joint, shoulder_lift_joint, elbow_joint, wrist_1_joint, wrist_2_joint,","[1.542925238609314, -1.2181885878192347, 2.569411516189575, -2.935525719319479, -1.5572884718524378, 2.4075262546539307]","[0.0, 0.0, -0.0, 0.0, 0.0, 0.0]","[-0.1556396633386612, -3.268432855606079, 0.30936986207962036, 0.2355194389820099, -0.2691650688648224, 0.0426178015768528]"
1584445731574542086,,479932,,1584445731,574219725,'',"[shoulder_pan_joint, shoulder_lift_joint, elbow_joint, wrist_1_joint, wrist_2_joint,","[1.5429131984710693, -1.2181647459613245, 2.5694475173950195, -2.9355018774615687, -1.5572765509234827, 2.40755033493042]","[0.0, 0.0, -0.0, 0.0, 0.0, 0.0]","[-0.1281738430261612, -3.245544672012329, 0.30264443159103394, 0.2377624809741974, -0.2803802788257599, 0.0403747595846653]"
1584445731686475931,,479946,,1584445731,686161795,'',"[shoulder_pan_joint, shoulder_lift_joint, elbow_joint, wrist_1_joint, wrist_2_joint,","[1.5429011583328247, -1.2181771437274378, 2.5694475173950195, -2.9355137983905237, -1.5572646299945276, 2.40755033493042]","[0.0, 0.0, -0.0, 0.0, 0.0, 0.0]","[-0.1327514797449112, -3.227234125137329, 0.2891935706138611, 0.2332763969898224, -0.2624359428882599, 0.0358886756002903]"
1584445731798481439,,479960,,1584445731,798157575,'',"[shoulder_pan_joint, shoulder_lift_joint, elbow_joint, wrist_1_joint, wrist_2_joint,","[1.542937159538269, -1.2181528250323694, 2.5695316791534424, -2.935525719319479, -1.5572765509234827, 2.4075262546539307]","[0.0, 0.0, 0.0007286408799700439, 0.0, 0.0, 0.0]","[-0.1052856519818306, -3.227234125137329, 0.2869517505168915, 0.2355194389820099, -0.2826233208179474, 0.0426178015768528]"
1584445731910436945,,479974,,1584445731,910121536,'',"[shoulder_pan_joint, shoulder_lift_joint, elbow_joint, wrist_1_joint, wrist_2_joint,","[1.542997121810913, -1.2181289831744593, 2.569495439529419, -2.9358251730548304, -1.5572164694415491, 2.4075982570648193]","[0.004883172456175089, 6.391586794052273e-05, -0.02442864514887333, -0.003240534570068121, 0.0030871364288032055, 0.01679708994925022]","[0.5081177353858948, -2.590942621231079, -1.8024157285690308, 0.0, -0.0695343092083931, 0.2086029201745987]"
1584445732022403170,,479988,,1584445732,22100726,'',"[shoulder_pan_joint, shoulder_lift_joint, elbow_joint, wrist_1_joint, wrist_2_joint,","[1.5430210828781128, -1.2175653616534632, 2.566556692123413, -2.93545371690859, -1.5574443976031702, 2.4095253944396973]","[-0.0038093857001513243, 0.0017896442441269755, -0.003579288488253951, 0.0008245147182606161, -0.0001917476038215682, 0.007938350550830364]","[-0.4302978813648224, -2.723694086074829, -1.9593424797058105, 0.0336456336081028, -0.0269165076315403, 0.3140259087085724]"
1584445732134421162,,480002,,1584445732,134108178,'',"[shoulder_pan_joint, shoulder_lift_joint, elbow_joint, wrist_1_joint, wrist_2_joint,","[1.5426491498947144, -1.218560520802633, 2.5704309940338135, -2.938998047505514, -1.557192627583639, 2.4071428775787354]","[-0.002377670258283615, -0.017257284373044968, 0.05577298626303673, -0.06013204902410507, 0.002032524673268199, -0.044255346059799194]","[-0.8514404892921448, -4.083252429962158, -1.0245074033737183, -0.1839294582605362, -0.0269165076315403, -0.2893524467945099]"
1584445732246463119,,480016,,1584445732,246143032,'',"[shoulder_pan_joint, shoulder_lift_joint, elbow_joint, wrist_1_joint, wrist_2_joint,","[1.5438127517700195, -1.220659081135885, 2.576117515563965, -2.945702854787008, -1.5565694014178675, 2.4025936126708984]","[0.022728482261300087, -0.017282851040363312, 0.048230912536382675, -0.05192524939775467, 0.0054456316865980625, -0.03190680220723152]","[0.6729126572608948, -3.927612781524658, -0.957253098487854, -0.1300964504480362, -0.0650482252240181, -0.2848663628101349]"
1584445732358478536,,480030,,1584445732,358179268,'',"[shoulder_pan_joint, shoulder_lift_joint, elbow_joint, wrist_1_joint, wrist_2_joint,","[1.5466313362121582, -1.2231171766864222, 2.5830750465393066, -2.952024284993307, -1.5561140219317835, 2.3988826274871826]","[0.0334535650908947, -0.030181072652339935, 0.06919531524181366, -0.06114831194281578, 0.006040049251168966, -0.032999761402606964]","[0.5767822861671448, -3.900146961212158, -1.053650975227356, 0.011215210892260075, -0.1121521145105362, -0.2198181450366974]"
1584445732470428020,,480044,,1584445732,470094688,'',"[shoulder_pan_joint, shoulder_lift_joint, elbow_joint, wrist_1_joint, wrist_2_joint,","[1.5513452291488647, -1.22668964067568, 2.5916519165039062, -2.958957020436422, -1.5557306448565882, 2.3940579891204834]","[0.047821853309869766, -0.03650874271988869, 0.09403302520513535, -0.06599952280521393, 0.0019750003702938557, -0.05831044539809227]","[0.8560181260108948, -3.936768054962158, -0.9594948887825012, 0.01794433780014515, -0.1076660305261612, -0.2444916069507599]"
1584445732582421897,,480058,,1584445732,582099906,'',"[shoulder_pan_joint, shoulder_lift_joint, elbow_joint, wrist_1_joint, wrist_2_joint,","[1.556143045425415, -1.2311385313617151, 2.6021599769592285, -2.966787640248434, -1.555478874837057, 2.386838674545288]","[0.03618916496634483, -0.03286553919315338, 0.09151473641395569, -0.06640219688415527, 0.0019558256026357412, -0.06755267828702927]","[0.8102417588233948, -3.662109851837158, -0.7958427667617798, -0.0381317175924778, -0.1368255764245987, -0.2803802788257599]"
1584445732694399944,,480072,,1584445732,694081470,'',"[shoulder_pan_joint, shoulder_lift_joint, elbow_joint, wrist_1_joint, wrist_2_joint,","[1.5591896772384644, -1.23413592973818, 2.609729528427124, -2.9732053915606897, -1.5553115049945276, 2.3779079914093018]","[0.020056799054145813, -0.01848446950316429, 0.02684466354548931, -0.03202185034751892, 0.0007094661123119295, -0.09334273636341095]","[0.7736206650733948, -3.382873773574829, -0.6972030997276306, 0.1054229810833931, -0.1323394924402237, -0.2512207329273224]"
1584445732806426763,,480086,,1584445732,806112687,'',"[shoulder_pan_joint, shoulder_lift_joint, elbow_joint, wrist_1_joint, wrist_2_joint,","[1.5607247352600098, -1.2346633116351526, 2.610400915145874, -2.9742348829852503, -1.555383030568258, 2.367157220840454]","[0.009638512507081032, 0.00015339808305725455, -0.0, -0.0006519418675452471, 0.0002109223569277674, -0.10003472119569778]","[0.7278442978858948, -2.989197015762329, -1.0760691165924072, 0.2287903130054474, -0.1435547024011612, -0.2422485649585724]"
1584445732918553017,,480100,,1584445732,918132572,'',"[shoulder_pan_joint, shoulder_lift_joint, elbow_joint, wrist_1_joint, wrist_2_joint,","[1.560904860496521, -1.2346513907061976, 2.610496759414673, -2.974222962056295, -1.5553949514972132, 2.3554370403289795]","[-0.0007669904152862728, 0.00015339808305725455, 0.0003451456723269075, 0.00015339808305725455, 0.00011504856229294091, -0.09846239537000656]","[-0.3067016899585724, -2.934265375137329, -1.1141798496246338, 0.2153320610523224, -0.1368255764245987, -0.3207550346851349]"
1584445733030449472,,480114,,1584445733,30111291,'',"[shoulder_pan_joint, shoulder_lift_joint, elbow_joint, wrist_1_joint, wrist_2_joint,","[1.5608689785003662, -1.2346633116351526, 2.6104607582092285, -2.9741390387164515, -1.5553472677813929, 2.344542980194092]","[-0.00026844663079828024, 8.948221511673182e-05, 0.0003067961661145091, 0.00015339808305725455, 7.669904152862728e-05, -0.09391797333955765]","[-0.1739502102136612, -2.957153558731079, -1.0783108472824097, 0.2086029201745987, -0.1323394924402237, -0.2669220268726349]"
1584445733142518860,,480128,,1584445733,142123011,'',"[shoulder_pan_joint, shoulder_lift_joint, elbow_joint, wrist_1_joint, wrist_2_joint,","[1.560892939567566, -1.2346394697772425, 2.6104369163513184, -2.9741390387164515, -1.5553472677813929, 2.334510564804077]","[-0.00011504856229294091, 6.391586794052273e-05, 0.00015339808305725455, 0.00015339808305725455, 5.752428114647046e-05, -0.08966118097305298]","[-0.2151489406824112, -2.989197015762329, -1.0603764057159424, 0.2041168361902237, -0.1413116604089737, -0.2310333549976349]"
1584445733254450511,,480142,,1584445733,254136344,'',"[shoulder_pan_joint, shoulder_lift_joint, elbow_joint, wrist_1_joint, wrist_2_joint,","[1.5608689785003662, -1.2346156279193323, 2.6102330684661865, -2.9740193525897425, -1.555371109639303, 2.3266451358795166]","[-7.669904152862728e-05, 5.1132694352418184e-05, -0.0038349521346390247, 0.0012271846644580364, 5.752428114647046e-05, -0.027400732040405273]","[-0.2014160305261612, -2.893066644668579, -1.0940035581588745, 0.2310333549976349, -0.1323394924402237, -0.2377624809741974]"
1584445733366410925,,480156,,1584445733,366132045,'',"[shoulder_pan_joint, shoulder_lift_joint, elbow_joint, wrist_1_joint, wrist_2_joint,","[1.5608689785003662, -1.2346156279193323, 2.6088056564331055, -2.974222962056295, -1.5554550329791468, 2.326106548309326]","[-5.1132694352418184e-05, 0.0, -0.017257284373044968, -0.021705828607082367, 0.0, 0.0007478156476281583]","[-0.0961303785443306, -3.140259027481079, -0.7442811131477356, -0.1435547024011612, -0.0314025916159153, -0.0448608435690403]"
1584445733478306008,,480170,,1584445733,478055981,'',"[shoulder_pan_joint, shoulder_lift_joint, elbow_joint, wrist_1_joint, wrist_2_joint,","[1.5608689785003662, -1.2346394697772425, 2.608853578567505, -2.9742587248431605, -1.555502716694967, 2.3261306285858154]","[-3.834952076431364e-05, 0.0, 0.019046928733587265, 0.0010162623366340995, 0.0, 0.0002109223569277674]","[-0.0869751051068306, -3.144836664199829, 0.020176295191049576, 0.0560760572552681, -0.0269165076315403, -0.0493469275534153]"
1584445733590329009,,480184,,1584445733,590088410,'',"[shoulder_pan_joint, shoulder_lift_joint, elbow_joint, wrist_1_joint, wrist_2_joint,","[1.5608689785003662, -1.2346156279193323, 2.6089253425598145, -2.974102799092428, -1.555490795766012, 2.326082706451416]","[-3.834952076431364e-05, 0.0, 0.005023787263780832, 0.005330583546310663, 0.0, 0.00011504856229294091]","[-0.0961303785443306, -3.153991937637329, 0.17934484779834747, 0.1839294582605362, -0.02243042178452015, -0.0426178015768528]"
1584445733702308219,,480198,,1584445733,702079492,'',"[shoulder_pan_joint, shoulder_lift_joint, elbow_joint, wrist_1_joint, wrist_2_joint,","[1.5608808994293213, -1.2346633116351526, 2.6091291904449463, -2.9738038221942347, -1.5554669539081019, 2.326106548309326]","[-2.5566347176209092e-05, 0.0, 0.004921521991491318, 0.0009779128013178706, 0.0, 7.669904152862728e-05]","[-0.1052856519818306, -3.135681390762329, 0.5380345582962036, 0.2153320610523224, -0.02243042178452015, -0.0471038855612278]"
1584445733814298890,,480212,,1584445733,814051638,'',"[shoulder_pan_joint, shoulder_lift_joint, elbow_joint, wrist_1_joint, wrist_2_joint,","[1.560892939567566, -1.2346513907061976, 2.609309196472168, -2.9738157431231897, -1.5554669539081019, 2.326094627380371]","[-2.5566347176209092e-05, 0.0, 0.0004474110610317439, 0.00023009712458588183, 0.0, 5.752428114647046e-05]","[-0.0869751051068306, -3.131103754043579, 0.430427610874176, 0.1973877102136612, -0.0314025916159153, -0.0426178015768528]"
1584445733926287787,,480226,,1584445733,926065352,'',"[shoulder_pan_joint, shoulder_lift_joint, elbow_joint, wrist_1_joint, wrist_2_joint,","[1.5608808994293213, -1.2346394697772425, 2.609285354614258, -2.9737919012652796, -1.5554307142840784, 2.326106548309326]","[-1.2783173588104546e-05, 0.0, 0.0001917476038215682, 0.00013422331539914012, 0.0, 5.752428114647046e-05]","[-0.1052856519818306, -3.153991937637329, 0.43491125106811523, 0.2243042290210724, -0.0291595496237278, -0.0403747595846653]"
1584445734038217534,,480240,,1584445734,38012762,'',"[shoulder_pan_joint, shoulder_lift_joint, elbow_joint, wrist_1_joint, wrist_2_joint,","[1.5608808994293213, -1.2346752325641077, 2.6093451976776123, -2.9737680594073694, -1.5554669539081019, 2.326070785522461]","[-1.2783173588104546e-05, 0.0, 0.00011504856229294091, 7.669904152862728e-05, 0.0, 3.834952076431364e-05]","[-0.0732421949505806, -3.163147211074829, 0.4237021803855896, 0.2108459621667862, -0.02243042178452015, -0.0493469275534153]"
1584445734150266474,,480254,,1584445734,150041975,'',"[shoulder_pan_joint, shoulder_lift_joint, elbow_joint, wrist_1_joint, wrist_2_joint,","[1.5608569383621216, -1.2346275488482874, 2.6093451976776123, -2.973755661641256, -1.5554431120501917, 2.326070785522461]","[-1.2783173588104546e-05, 0.0, 6.391586794052273e-05, 5.752428114647046e-05, 0.0, 3.834952076431364e-05]","[-0.0595092847943306, -3.153991937637329, 0.4237021803855896, 0.2220611870288849, -0.02467346377670765, -0.0493469275534153]"
1584445734262279557,,480268,,1584445734,262054387,'',"[shoulder_pan_joint, shoulder_lift_joint, elbow_joint, wrist_1_joint, wrist_2_joint,","[1.5608808994293213, -1.2346513907061976, 2.609321355819702, -2.973755661641256, -1.5554431120501917, 2.326094627380371]","[-1.2783173588104546e-05, 0.0, 6.391586794052273e-05, 5.752428114647046e-05, 0.0, 1.917476038215682e-05]","[-0.0732421949505806, -3.135681390762329, 0.3923168480396271, 0.2108459621667862, -0.0269165076315403, -0.0381317175924778]"
1584445734374214324,,480282,,1584445734,374009021,'',"[shoulder_pan_joint, shoulder_lift_joint, elbow_joint, wrist_1_joint, wrist_2_joint,","[1.5608689785003662, -1.2346871534930628, 2.609321355819702, -2.973755661641256, -1.5554431120501917, 2.3261306285858154]","[-1.2783173588104546e-05, 0.0, 6.391586794052273e-05, 3.834952076431364e-05, 0.0, 1.917476038215682e-05]","[-0.0732421949505806, -3.144836664199829, 0.43939486145973206, 0.2108459621667862, -0.0336456336081028, -0.0471038855612278]"
1584445734486264986,,480296,,1584445734,486049945,'',"[shoulder_pan_joint, shoulder_lift_joint, elbow_joint, wrist_1_joint, wrist_2_joint,","[1.5608689785003662, -1.2346513907061976, 2.609321355819702, -2.9737919012652796, -1.5554307142840784, 2.3261306285858154]","[-1.2783173588104546e-05, 0.0, 6.391586794052273e-05, 3.834952076431364e-05, 0.0, 1.917476038215682e-05]","[-0.1098632961511612, -3.131103754043579, 0.4573293626308441, 0.2041168361902237, -0.02243042178452015, -0.0493469275534153]"
1584445734598220983,,480310,,1584445734,598027943,'',"[shoulder_pan_joint, shoulder_lift_joint, elbow_joint, wrist_1_joint, wrist_2_joint,","[1.5608569383621216, -1.2346513907061976, 2.6093332767486572, -2.973755661641256, -1.5554431120501917, 2.326106548309326]","[-1.2783173588104546e-05, 0.0, 6.391586794052273e-05, 3.834952076431364e-05, 0.0, 1.917476038215682e-05]","[-0.0961303785443306, -3.153991937637329, 0.4550875425338745, 0.2220611870288849, -0.0314025916159153, -0.0403747595846653]"
1584445734710202166,,480324,,1584445734,710030666,'',"[shoulder_pan_joint, shoulder_lift_joint, elbow_joint, wrist_1_joint, wrist_2_joint,","[1.5608689785003662, -1.234603230153219, 2.609321355819702, -2.9737799803363245, -1.5554307142840784, 2.326106548309326]","[-1.2783173588104546e-05, 0.0, 6.391586794052273e-05, 3.834952076431364e-05, 0.0, 1.917476038215682e-05]","[-0.0961303785443306, -3.149414300918579, 0.46181297302246094, 0.2108459621667862, -0.0358886756002903, -0.0426178015768528]"
1584445734822149466,,480338,,1584445734,821987223,'',"[shoulder_pan_joint, shoulder_lift_joint, elbow_joint, wrist_1_joint, wrist_2_joint,","[1.5608808994293213, -1.2346394697772425, 2.609309196472168, -2.9737680594073694, -1.5554068724261683, 2.326094627380371]","[-1.2783173588104546e-05, 0.0, 5.1132694352418184e-05, 3.834952076431364e-05, 0.0, 1.917476038215682e-05]","[-0.0961303785443306, -3.140259027481079, 0.43939486145973206, 0.2265472710132599, -0.0381317175924778, -0.0426178015768528]"
1584445734934150286,,480352,,1584445734,933985559,'',"[shoulder_pan_joint, shoulder_lift_joint, elbow_joint, wrist_1_joint, wrist_2_joint,","[1.5608808994293213, -1.2346633116351526, 2.609309196472168, -2.973719898854391, -1.5554550329791468, 2.326094627380371]","[0.0, 0.0, 3.834952076431364e-05, 3.834952076431364e-05, 0.0, 1.917476038215682e-05]","[-0.0503540076315403, -3.117370843887329, 0.44387850165367126, 0.2175751030445099, -0.0605621412396431, -0.0560760572552681]"
1584445735046211529,,480366,,1584445735,46053474,'',"[shoulder_pan_joint, shoulder_lift_joint, elbow_joint, wrist_1_joint, wrist_2_joint,","[1.5608689785003662, -1.2346394697772425, 2.6093332767486572, -2.973743740712301, -1.5554307142840784, 2.326082706451416]","[0.0, 0.0, 3.834952076431364e-05, 3.834952076431364e-05, 0.0, 1.917476038215682e-05]","[-0.0961303785443306, -3.149414300918579, 0.43939486145973206, 0.2175751030445099, -0.1233673244714737, -0.0358886756002903]"
1584445735158198342,,480380,,1584445735,158033785,'',"[shoulder_pan_joint, shoulder_lift_joint, elbow_joint, wrist_1_joint, wrist_2_joint,","[1.5608450174331665, -1.2346633116351526, 2.6093332767486572, -2.973755661641256, -1.5554187933551233, 2.326106548309326]","[0.0, 0.0, 2.5566347176209092e-05, 3.834952076431364e-05, 0.0, 1.917476038215682e-05]","[-0.0778198316693306, -3.131103754043579, 0.43491125106811523, 0.2063598781824112, -0.1076660305261612, -0.0403747595846653]"
1584445735270158056,,480394,,1584445735,269975144,'',"[shoulder_pan_joint, shoulder_lift_joint, elbow_joint, wrist_1_joint, wrist_2_joint,","[1.5608808994293213, -1.2346394697772425, 2.609309196472168, -2.9737680594073694, -1.5554550329791468, 2.326094627380371]","[0.0, 0.0, 2.5566347176209092e-05, 1.917476038215682e-05, 0.0, 0.0]","[-0.1007080152630806, -3.167724847793579, 0.4281858205795288, 0.2243042290210724, -0.1031799390912056, -0.0448608435690403]"
1584445735382168413,,480408,,1584445735,381972938,'',"[shoulder_pan_joint, shoulder_lift_joint, elbow_joint, wrist_1_joint, wrist_2_joint,","[1.5608569383621216, -1.2346394697772425, 2.6093332767486572, -2.973743740712301, -1.5554431120501917, 2.326094627380371]","[0.0, 0.0, 2.5566347176209092e-05, 1.917476038215682e-05, 0.0, 0.0]","[-0.0823974683880806, -3.140259027481079, 0.43266943097114563, 0.2175751030445099, -0.1076660305261612, -0.0426178015768528]"
1584445735494165095,,480422,,1584445735,493983877,'',"[shoulder_pan_joint, shoulder_lift_joint, elbow_joint, wrist_1_joint, wrist_2_joint,","[1.5608569383621216, -1.2346752325641077, 2.6093332767486572, -2.973731819783346, -1.5554187933551233, 2.326094627380371]","[0.0, 0.0, 2.5566347176209092e-05, 1.917476038215682e-05, 0.0, 0.0]","[-0.0869751051068306, -3.153991937637329, 0.4528457224369049, 0.2198181450366974, -0.1099090725183487, -0.0381317175924778]"
1584445735606155366,,480436,,1584445735,605978566,'',"[shoulder_pan_joint, shoulder_lift_joint, elbow_joint, wrist_1_joint, wrist_2_joint,","[1.5608808994293213, -1.2346394697772425, 2.609321355819702, -2.973731819783346, -1.5554550329791468, 2.326106548309326]","[0.0, 0.0, 2.5566347176209092e-05, 1.917476038215682e-05, 0.0, 0.0]","[-0.1144409328699112, -3.126526117324829, 0.4528457224369049, 0.2243042290210724, -0.1054229810833931, -0.0493469275534153]"
1584445735718172316,,480450,,1584445735,717981229,'',"[shoulder_pan_joint, shoulder_lift_joint, elbow_joint, wrist_1_joint, wrist_2_joint,","[1.5608450174331665, -1.2346394697772425, 2.6093571186065674, -2.973719898854391, -1.5554550329791468, 2.326094627380371]","[0.0, 0.0, 1.2783173588104546e-05, 1.917476038215682e-05, 0.0, 0.0]","[-0.0915527418255806, -3.135681390762329, 0.43939486145973206, 0.2243042290210724, -0.1099090725183487, -0.0471038855612278]"
1584445735830149441,,480464,,1584445735,829954878,'',"[shoulder_pan_joint, shoulder_lift_joint, elbow_joint, wrist_1_joint, wrist_2_joint,","[1.560892939567566, -1.2346513907061976, 2.609321355819702, -2.973755661641256, -1.5554431120501917, 2.326094627380371]","[0.0, 0.0, -0.0, 1.917476038215682e-05, 0.0, 0.0]","[-0.0961303785443306, -3.140259027481079, 0.4259440004825592, 0.2243042290210724, -0.1031799390912056, -0.0515899695456028]"
1584445735942199212,,480478,,1584445735,941953534,'',"[shoulder_pan_joint, shoulder_lift_joint, elbow_joint, wrist_1_joint, wrist_2_joint,","[1.5608689785003662, -1.2346275488482874, 2.609321355819702, -2.973743740712301, -1.5554307142840784, 2.326082706451416]","[0.0, 0.0, -0.0, 1.917476038215682e-05, 0.0, 0.0]","[-0.0686645582318306, -3.140259027481079, 0.43266943097114563, 0.2220611870288849, -0.1099090725183487, -0.0515899695456028]"
1584445736054148737,,480492,,1584445736,53950988,'',"[shoulder_pan_joint, shoulder_lift_joint, elbow_joint, wrist_1_joint, wrist_2_joint,","[1.5608569383621216, -1.2346513907061976, 2.6093451976776123, -2.973743740712301, -1.5554187933551233, 2.326082706451416]","[0.0, 0.0, -0.0, 1.917476038215682e-05, 0.0, 0.0]","[-0.0869751051068306, -3.149414300918579, 0.430427610874176, 0.2063598781824112, -0.1054229810833931, -0.0336456336081028]"
1584445736166140610,,480506,,1584445736,165966525,'',"[shoulder_pan_joint, shoulder_lift_joint, elbow_joint, wrist_1_joint, wrist_2_joint,","[1.5608689785003662, -1.2346752325641077, 2.6093571186065674, -2.9737680594073694, -1.5554187933551233, 2.326106548309326]","[0.0, 0.0, -0.0, 0.0, 0.0, 0.0]","[-0.1007080152630806, -3.153991937637329, 0.4259440004825592, 0.2153320610523224, -0.1143951565027237, -0.0448608435690403]"
