PorkPy/robot-pulling-data/good_move_ztwist80/joint_states_throttle.csv
rosbagTimestamp,header,seq,stamp,secs,nsecs,frame_id,name,wrist_3_joint],position,velocity,effort
1584452279724317943,,1298486,,1584452279,723929517,'',"[shoulder_pan_joint, shoulder_lift_joint, elbow_joint, wrist_1_joint, wrist_2_joint,","[1.4048302173614502, -1.1717646757708948, 2.4831063747406006, -2.8628152052508753, -1.5669940153705042, 2.720646381378174]","[0.0, 0.0, -0.0, 0.0, 0.0, 0.0]","[-0.7553101181983948, -4.257202625274658, -0.9079332947731018, -0.4463654160499573, -0.004486084450036287, 0.0897216871380806]"
1584452279836201100,,1298500,,1584452279,835885009,'',"[shoulder_pan_joint, shoulder_lift_joint, elbow_joint, wrist_1_joint, wrist_2_joint,","[1.4047942161560059, -1.1717522780047815, 2.4830703735351562, -2.8628271261798304, -1.5670059362994593, 2.7206225395202637]","[0.0, 0.0, -0.0, 0.0, 0.0, 0.0]","[-0.7049561142921448, -4.243469715118408, -0.9169005155563354, -0.4530945420265198, -0.0022430422250181437, 0.0919647291302681]"
1584452279948332000,,1298514,,1584452279,947903560,'',"[shoulder_pan_joint, shoulder_lift_joint, elbow_joint, wrist_1_joint, wrist_2_joint,","[1.4047702550888062, -1.1717284361468714, 2.4830822944641113, -2.8628152052508753, -1.5670059362994593, 2.720646381378174]","[0.0, 0.0, -0.0, 0.0, 0.0, 0.0]","[-0.7461548447608948, -4.248047351837158, -0.9124168753623962, -0.4508515000343323, -0.01570129580795765, 0.0852356031537056]"
1584452280060181405,,1298528,,1584452280,59826191,'',"[shoulder_pan_joint, shoulder_lift_joint, elbow_joint, wrist_1_joint, wrist_2_joint,","[1.4047942161560059, -1.1717646757708948, 2.4830822944641113, -2.8628152052508753, -1.5670059362994593, 2.7206225395202637]","[0.0, 0.0, -0.0, 0.0, 0.0, 0.0]","[-0.7324219346046448, -4.257202625274658, -0.8855151534080505, -0.4508515000343323, -0.01345825381577015, 0.0919647291302681]"
1584452280172216456,,1298542,,1584452280,171840464,'',"[shoulder_pan_joint, shoulder_lift_joint, elbow_joint, wrist_1_joint, wrist_2_joint,","[1.4047942161560059, -1.1717522780047815, 2.4830822944641113, -2.86280328432192, -1.5670059362994593, 2.7206108570098877]","[0.0, 0.0, -0.0, 0.0, 0.0, 0.0]","[-0.7049561142921448, -4.275513172149658, -0.9079332947731018, -0.4486084580421448, -0.011215210892260075, 0.0874786451458931]"
1584452280284219858,,1298556,,1584452280,283855077,'',"[shoulder_pan_joint, shoulder_lift_joint, elbow_joint, wrist_1_joint, wrist_2_joint,","[1.4047822952270508, -1.1718123594867151, 2.4830822944641113, -2.8628271261798304, -1.5669696966754358, 2.7206225395202637]","[0.0, 0.0, -0.0, 0.0, 0.0, 0.0]","[-0.7278442978858948, -4.257202625274658, -0.9079332947731018, -0.4486084580421448, -0.011215210892260075, 0.0964508131146431]"
1584452280396128544,,1298570,,1584452280,395786204,'',"[shoulder_pan_joint, shoulder_lift_joint, elbow_joint, wrist_1_joint, wrist_2_joint,","[1.404758334159851, -1.1717408339129847, 2.4830944538116455, -2.862863365803854, -1.5670297781573694, 2.7205989360809326]","[0.0, 0.0, -0.0, 0.0, 0.0, 0.0]","[-0.7232666611671448, -4.275513172149658, -0.9213841557502747, -0.4530945420265198, -0.011215210892260075, 0.0874786451458931]"
1584452280508323603,,1298584,,1584452280,507876057,'',"[shoulder_pan_joint, shoulder_lift_joint, elbow_joint, wrist_1_joint, wrist_2_joint,","[1.404758334159851, -1.1717646757708948, 2.4830703735351562, -2.8628152052508753, -1.5670178572284144, 2.720646381378174]","[0.0, 0.0, -0.0, 0.0, 0.0, 0.0]","[-0.7369995713233948, -4.252624988555908, -0.9124168753623962, -0.4486084580421448, -0.01345825381577015, 0.0919647291302681]"
1584452280620057001,,1298598,,1584452280,619810090,'',"[shoulder_pan_joint, shoulder_lift_joint, elbow_joint, wrist_1_joint, wrist_2_joint,","[1.4047702550888062, -1.171788517628805, 2.4830703735351562, -2.8628390471087855, -1.5670178572284144, 2.720646381378174]","[0.0, 0.0, -0.0, 0.0, 0.0, 0.0]","[-0.7461548447608948, -4.248047351837158, -0.9034496545791626, -0.4553375840187073, -0.011215210892260075, 0.0919647291302681]"
1584452280732129232,,1298612,,1584452280,731831295,'',"[shoulder_pan_joint, shoulder_lift_joint, elbow_joint, wrist_1_joint, wrist_2_joint,","[1.4048181772232056, -1.1717522780047815, 2.4830822944641113, -2.8628271261798304, -1.5670416990863245, 2.720658540725708]","[0.0, 0.0, -0.0, 0.0, 0.0, 0.0]","[-0.7415772080421448, -4.243469715118408, -0.9236259460449219, -0.4463654160499573, -0.006729126907885075, 0.0919647291302681]"
1584452280844116184,,1298626,,1584452280,843816153,'',"[shoulder_pan_joint, shoulder_lift_joint, elbow_joint, wrist_1_joint, wrist_2_joint,","[1.4047822952270508, -1.1717646757708948, 2.4830703735351562, -2.8628514448748987, -1.5670178572284144, 2.7205870151519775]","[0.0, 0.0, -0.0, 0.0, 0.0, 0.0]","[-0.7141113877296448, -4.270935535430908, -0.9146587252616882, -0.4486084580421448, -0.004486084450036287, 0.0919647291302681]"
1584452280956199865,,1298640,,1584452280,955834653,'',"[shoulder_pan_joint, shoulder_lift_joint, elbow_joint, wrist_1_joint, wrist_2_joint,","[1.4047942161560059, -1.17177659669985, 2.483046531677246, -2.8628271261798304, -1.5670297781573694, 2.720646381378174]","[0.0, 0.0, -0.0, 0.0, 0.0, 0.0]","[-0.7324219346046448, -4.266357898712158, -0.9079332947731018, -0.4530945420265198, 0.0, 0.0919647291302681]"
1584452281068089575,,1298654,,1584452281,67772593,'',"[shoulder_pan_joint, shoulder_lift_joint, elbow_joint, wrist_1_joint, wrist_2_joint,","[1.4047702550888062, -1.171788517628805, 2.4831182956695557, -2.8628152052508753, -1.5670059362994593, 2.7206108570098877]","[0.0, 0.0, -0.0, 0.0, 0.0, 0.0]","[-0.8010864853858948, -4.280090808868408, -0.9012078642845154, -0.4508515000343323, -0.004486084450036287, 0.1054229810833931]"
1584452281180200298,,1298668,,1584452281,179845144,'',"[shoulder_pan_joint, shoulder_lift_joint, elbow_joint, wrist_1_joint, wrist_2_joint,","[1.4047822952270508, -1.1717408339129847, 2.4830822944641113, -2.8628152052508753, -1.5669940153705042, 2.720658540725708]","[0.0, 0.0, -0.0, 0.0, 0.0, 0.0]","[-0.7415772080421448, -4.252624988555908, -0.9213841557502747, -0.4508515000343323, -0.008972168900072575, 0.0942077711224556]"
1584452281292324095,,1298682,,1584452281,291869676,'',"[shoulder_pan_joint, shoulder_lift_joint, elbow_joint, wrist_1_joint, wrist_2_joint,","[1.4047822952270508, -1.1717408339129847, 2.4830822944641113, -2.8628390471087855, -1.5670178572284144, 2.7206108570098877]","[0.0, 0.0, -0.0, 0.0, 0.0, 0.0]","[-0.7278442978858948, -4.289246082305908, -0.9124168753623962, -0.4575806260108948, -0.01345825381577015, 0.0874786451458931]"
1584452281404055929,,1298696,,1584452281,403710925,'',"[shoulder_pan_joint, shoulder_lift_joint, elbow_joint, wrist_1_joint, wrist_2_joint,","[1.4047702550888062, -1.1717646757708948, 2.4831063747406006, -2.8628271261798304, -1.5669940153705042, 2.720646381378174]","[0.0, 0.0, -0.0, 0.0, 0.0, 0.0]","[-0.7232666611671448, -4.229736804962158, -0.9169005155563354, -0.4508515000343323, -0.01345825381577015, 0.0919647291302681]"
1584452281516082415,,1298710,,1584452281,515727983,'',"[shoulder_pan_joint, shoulder_lift_joint, elbow_joint, wrist_1_joint, wrist_2_joint,","[1.4047702550888062, -1.1717646757708948, 2.4830703735351562, -2.8628152052508753, -1.5670178572284144, 2.7206344604492188]","[0.0, 0.0, -0.0, 0.0, 0.0, 0.0]","[-0.7736206650733948, -4.261780261993408, -0.9191423058509827, -0.4486084580421448, -0.01570129580795765, 0.0964508131146431]"
1584452281628182537,,1298724,,1584452281,627743838,'',"[shoulder_pan_joint, shoulder_lift_joint, elbow_joint, wrist_1_joint, wrist_2_joint,","[1.4047822952270508, -1.17180043855776, 2.4830944538116455, -2.8628152052508753, -1.5670178572284144, 2.720646381378174]","[0.0, 0.0, -0.0, 0.0, 0.0, 0.0]","[-0.7232666611671448, -4.229736804962158, -0.9079332947731018, -0.4463654160499573, -0.0022430422250181437, 0.0897216871380806]"
1584452281740067298,,1298738,,1584452281,739740077,'',"[shoulder_pan_joint, shoulder_lift_joint, elbow_joint, wrist_1_joint, wrist_2_joint,","[1.4047822952270508, -1.1717408339129847, 2.4831063747406006, -2.8628271261798304, -1.5670297781573694, 2.7206225395202637]","[0.0, 0.0, -0.0, 0.0, 0.0, 0.0]","[-0.7415772080421448, -4.234314441680908, -0.9169005155563354, -0.4575806260108948, -0.008972168900072575, 0.0829925611615181]"
1584452281852274141,,1298752,,1584452281,851835842,'',"[shoulder_pan_joint, shoulder_lift_joint, elbow_joint, wrist_1_joint, wrist_2_joint,","[1.4047822952270508, -1.1717408339129847, 2.4830944538116455, -2.8628390471087855, -1.5670178572284144, 2.7206225395202637]","[0.0, 0.0, -0.0, 0.0, 0.0, 0.0]","[-0.7461548447608948, -4.206848621368408, -0.9393185973167419, -0.4530945420265198, -0.008972168900072575, 0.0874786451458931]"
1584452281964170964,,1298766,,1584452281,963661151,'',"[shoulder_pan_joint, shoulder_lift_joint, elbow_joint, wrist_1_joint, wrist_2_joint,","[1.4048181772232056, -1.1717646757708948, 2.48313045501709, -2.8628390471087855, -1.5670297781573694, 2.7206225395202637]","[0.0, 0.0, -0.0, 0.0, 0.0, 0.0]","[-0.7598877549171448, -4.302978992462158, -0.9460440278053284, -0.4441223740577698, -0.011215210892260075, 0.0829925611615181]"
1584452282076008606,,1298780,,1584452282,75680103,'',"[shoulder_pan_joint, shoulder_lift_joint, elbow_joint, wrist_1_joint, wrist_2_joint,","[1.4047822952270508, -1.1717408339129847, 2.4831182956695557, -2.8628152052508753, -1.5670059362994593, 2.7206225395202637]","[0.0, 0.0, -0.0, 0.0, 0.0, 0.0]","[-0.7141113877296448, -4.252624988555908, -0.9505276679992676, -0.4530945420265198, -0.01570129580795765, 0.0874786451458931]"
1584452282187911220,,1298794,,1584452282,187667304,'',"[shoulder_pan_joint, shoulder_lift_joint, elbow_joint, wrist_1_joint, wrist_2_joint,","[1.4047942161560059, -1.1717522780047815, 2.4830944538116455, -2.8628390471087855, -1.5670297781573694, 2.7206108570098877]","[0.0, 0.0, -0.0, 0.0, 0.0, 0.0]","[-0.7324219346046448, -4.289246082305908, -0.9258677363395691, -0.4441223740577698, -0.011215210892260075, 0.0897216871380806]"
1584452282299982349,,1298808,,1584452282,299656580,'',"[shoulder_pan_joint, shoulder_lift_joint, elbow_joint, wrist_1_joint, wrist_2_joint,","[1.4047702550888062, -1.171788517628805, 2.483058452606201, -2.8628390471087855, -1.5670297781573694, 2.7206225395202637]","[0.0, 0.0, -0.0, 0.0, 0.0, 0.0]","[-0.7369995713233948, -4.257202625274658, -0.9393185973167419, -0.4463654160499573, -0.008972168900072575, 0.0919647291302681]"
1584452282412188610,,1298822,,1584452282,411677124,'',"[shoulder_pan_joint, shoulder_lift_joint, elbow_joint, wrist_1_joint, wrist_2_joint,","[1.4047942161560059, -1.1717646757708948, 2.4830944538116455, -2.8628271261798304, -1.5669940153705042, 2.7206225395202637]","[0.0, 0.0, -0.0, 0.0, 0.0, 0.0]","[-0.7278442978858948, -4.270935535430908, -0.9258677363395691, -0.4486084580421448, 0.0, 0.0942077711224556]"
1584452282524213743,,1298836,,1584452282,523722756,'',"[shoulder_pan_joint, shoulder_lift_joint, elbow_joint, wrist_1_joint, wrist_2_joint,","[1.4047822952270508, -1.1717646757708948, 2.4830944538116455, -2.8628271261798304, -1.5670178572284144, 2.7206108570098877]","[0.0, 0.0, -0.0, 0.0, 0.0, 0.0]","[-0.7278442978858948, -4.229736804962158, -0.9236259460449219, -0.4441223740577698, -0.004486084450036287, 0.0897216871380806]"
1584452282636134049,,1298850,,1584452282,635648853,'',"[shoulder_pan_joint, shoulder_lift_joint, elbow_joint, wrist_1_joint, wrist_2_joint,","[1.404758334159851, -1.17177659669985, 2.4830944538116455, -2.8628152052508753, -1.5670297781573694, 2.7206344604492188]","[0.0, 0.0, -0.0, 0.0, 0.0, 0.0]","[-0.7369995713233948, -4.270935535430908, -0.9213841557502747, -0.4575806260108948, -0.006729126907885075, 0.0964508131146431]"
1584452282747988534,,1298864,,1584452282,747653879,'',"[shoulder_pan_joint, shoulder_lift_joint, elbow_joint, wrist_1_joint, wrist_2_joint,","[1.4047822952270508, -1.1717646757708948, 2.4830822944641113, -2.8628271261798304, -1.5670178572284144, 2.7206344604492188]","[0.0, 0.0, -0.0, 0.0, 0.0, 0.0]","[-0.6866455674171448, -4.243469715118408, -0.9482858777046204, -0.4463654160499573, 0.0, 0.0852356031537056]"
1584452282859923157,,1298878,,1584452282,859611565,'',"[shoulder_pan_joint, shoulder_lift_joint, elbow_joint, wrist_1_joint, wrist_2_joint,","[1.4047822952270508, -1.1717408339129847, 2.4830822944641113, -2.8628152052508753, -1.5670416990863245, 2.7206108570098877]","[0.0, 0.0, -0.0, 0.0, 0.0, 0.0]","[-0.7232666611671448, -4.257202625274658, -0.9594948887825012, -0.4508515000343323, -0.004486084450036287, 0.0874786451458931]"
1584452282972041825,,1298892,,1584452282,971690679,'',"[shoulder_pan_joint, shoulder_lift_joint, elbow_joint, wrist_1_joint, wrist_2_joint,","[1.4047702550888062, -1.1717522780047815, 2.4830944538116455, -2.8628152052508753, -1.5670536200152796, 2.7206344604492188]","[0.0, 0.0, -0.0, 0.0, 0.0, 0.0]","[-0.7598877549171448, -4.248047351837158, -0.957253098487854, -0.4418793320655823, 0.006729126907885075, 0.1054229810833931]"
1584452283084085151,,1298906,,1584452283,83663574,'',"[shoulder_pan_joint, shoulder_lift_joint, elbow_joint, wrist_1_joint, wrist_2_joint,","[1.4047822952270508, -1.1717646757708948, 2.4830944538116455, -2.8628390471087855, -1.5670178572284144, 2.720658540725708]","[0.0, 0.0, -0.0, 0.0, 0.0, 0.0]","[-0.7324219346046448, -4.266357898712158, -0.9415604472160339, -0.4508515000343323, 0.011215210892260075, 0.0942077711224556]"
1584452283196016529,,1298920,,1584452283,195620419,'',"[shoulder_pan_joint, shoulder_lift_joint, elbow_joint, wrist_1_joint, wrist_2_joint,","[1.4047702550888062, -1.17180043855776, 2.4830703735351562, -2.8628271261798304, -1.5670178572284144, 2.7206225395202637]","[0.0, 0.0, -0.0, 0.0, 0.0004410194815136492, 0.0]","[-0.7415772080421448, -4.257202625274658, -0.9303513765335083, -0.4553375840187073, 0.01345825381577015, 0.1009368970990181]"
1584452283307958075,,1298934,,1584452283,307616678,'',"[shoulder_pan_joint, shoulder_lift_joint, elbow_joint, wrist_1_joint, wrist_2_joint,","[1.4047942161560059, -1.1717522780047815, 2.4830944538116455, -2.86280328432192, -1.5670297781573694, 2.720658540725708]","[0.0, 0.0, -0.0, 0.0, 0.00017257283616345376, 0.0]","[-0.7232666611671448, -4.238892078399658, -0.9236259460449219, -0.4508515000343323, 0.01345825381577015, 0.0829925611615181]"
1584452283419986454,,1298948,,1584452283,419696533,'',"[shoulder_pan_joint, shoulder_lift_joint, elbow_joint, wrist_1_joint, wrist_2_joint,","[1.4047942161560059, -1.1717522780047815, 2.4831063747406006, -2.8628390471087855, -1.5670178572284144, 2.720646381378174]","[0.0, 0.0, -0.0, 0.0, 0.00011504856229294091, 0.0]","[-0.7690430283546448, -4.293823719024658, -0.9236259460449219, -0.4486084580421448, 0.011215210892260075, 0.1009368970990181]"
1584452283531980068,,1298962,,1584452283,531599918,'',"[shoulder_pan_joint, shoulder_lift_joint, elbow_joint, wrist_1_joint, wrist_2_joint,","[1.4047702550888062, -1.17177659669985, 2.483058452606201, -2.8628152052508753, -1.5669940153705042, 2.7206225395202637]","[0.0, 0.0, -0.0, 0.0, 7.669904152862728e-05, 0.0]","[-0.7369995713233948, -4.280090808868408, -0.9527694582939148, -0.4441223740577698, 0.011215210892260075, 0.0986938551068306]"
1584452283643873805,,1298976,,1584452283,643619120,'',"[shoulder_pan_joint, shoulder_lift_joint, elbow_joint, wrist_1_joint, wrist_2_joint,","[1.4047822952270508, -1.171788517628805, 2.4830703735351562, -2.8628152052508753, -1.5670178572284144, 2.7206344604492188]","[0.0, 0.0, -0.0, 0.0, 5.752428114647046e-05, 0.0]","[-0.7369995713233948, -4.266357898712158, -0.9258677363395691, -0.4553375840187073, 0.01570129580795765, 0.0897216871380806]"
1584452283755979108,,1298990,,1584452283,755690539,'',"[shoulder_pan_joint, shoulder_lift_joint, elbow_joint, wrist_1_joint, wrist_2_joint,","[1.4047822952270508, -1.1717522780047815, 2.4830822944641113, -2.8628390471087855, -1.5669940153705042, 2.7206344604492188]","[0.0, 0.0, -0.0, 0.0, 3.834952076431364e-05, 0.0]","[-0.7369995713233948, -4.216003894805908, -0.9348350167274475, -0.4373932480812073, 0.01570129580795765, 0.0897216871380806]"
1584452283867865191,,1299004,,1584452283,867590167,'',"[shoulder_pan_joint, shoulder_lift_joint, elbow_joint, wrist_1_joint, wrist_2_joint,","[1.4047702550888062, -1.17180043855776, 2.4830703735351562, -2.8628514448748987, -1.566981617604391, 2.7206108570098877]","[0.0, 0.0, -0.0, 0.0, 3.834952076431364e-05, 0.0]","[-0.7553101181983948, -4.280090808868408, -0.9348350167274475, -0.4553375840187073, 0.01345825381577015, 0.0919647291302681]"
1584452283979788664,,1299018,,1584452283,979604881,'',"[shoulder_pan_joint, shoulder_lift_joint, elbow_joint, wrist_1_joint, wrist_2_joint,","[1.4047942161560059, -1.1717522780047815, 2.4830703735351562, -2.8628514448748987, -1.5670059362994593, 2.720646381378174]","[0.0, 0.0, -0.0, 0.0, 3.834952076431364e-05, 0.0]","[-0.7553101181983948, -4.293823719024658, -0.9438022375106812, -0.4441223740577698, 0.011215210892260075, 0.0919647291302681]"
1584452284091848451,,1299032,,1584452284,91616057,'',"[shoulder_pan_joint, shoulder_lift_joint, elbow_joint, wrist_1_joint, wrist_2_joint,","[1.4047702550888062, -1.171788517628805, 2.4830822944641113, -2.8628271261798304, -1.5669696966754358, 2.720646381378174]","[0.0, 0.0, -0.0, 0.0, 1.917476038215682e-05, 0.0]","[-0.7324219346046448, -4.238892078399658, -0.9303513765335083, -0.4418793320655823, 0.01794433780014515, 0.0964508131146431]"
1584452284203985223,,1299046,,1584452284,203669042,'',"[shoulder_pan_joint, shoulder_lift_joint, elbow_joint, wrist_1_joint, wrist_2_joint,","[1.4047702550888062, -1.1717646757708948, 2.4831182956695557, -2.8628271261798304, -1.5670059362994593, 2.720646381378174]","[0.0, 0.0, -0.0, 0.0, 1.917476038215682e-05, 0.0]","[-0.7415772080421448, -4.248047351837158, -0.9303513765335083, -0.4418793320655823, 0.01570129580795765, 0.0807495191693306]"
1584452284315976682,,1299060,,1584452284,315592445,'',"[shoulder_pan_joint, shoulder_lift_joint, elbow_joint, wrist_1_joint, wrist_2_joint,","[1.4048062562942505, -1.1717522780047815, 2.4830703735351562, -2.8628152052508753, -1.5670416990863245, 2.720658540725708]","[0.0, 0.0, -0.0, 0.0, 1.917476038215682e-05, 0.0]","[-0.7141113877296448, -4.243469715118408, -0.9393185973167419, -0.4486084580421448, 0.01794433780014515, 0.0852356031537056]"
1584452284427947824,,1299074,,1584452284,427667581,'',"[shoulder_pan_joint, shoulder_lift_joint, elbow_joint, wrist_1_joint, wrist_2_joint,","[1.4047822952270508, -1.1717646757708948, 2.4830822944641113, -2.86280328432192, -1.5670297781573694, 2.7206344604492188]","[0.0, 0.0, -0.0, 0.0, 1.917476038215682e-05, 0.0]","[-0.7598877549171448, -4.270935535430908, -0.9325931668281555, -0.4486084580421448, 0.01345825381577015, 0.0964508131146431]"
1584452284539857732,,1299088,,1584452284,539587487,'',"[shoulder_pan_joint, shoulder_lift_joint, elbow_joint, wrist_1_joint, wrist_2_joint,","[1.4047942161560059, -1.1717408339129847, 2.4830944538116455, -2.8628152052508753, -1.5670178572284144, 2.720646381378174]","[0.0, 0.0, -0.0, 0.0, 1.917476038215682e-05, 0.0]","[-0.7324219346046448, -4.225159168243408, -0.9460440278053284, -0.4486084580421448, 0.01794433780014515, 0.1076660305261612]"
1584452284651945021,,1299102,,1584452284,651597752,'',"[shoulder_pan_joint, shoulder_lift_joint, elbow_joint, wrist_1_joint, wrist_2_joint,","[1.4048062562942505, -1.17177659669985, 2.4830703735351562, -2.8628390471087855, -1.5670178572284144, 2.7206225395202637]","[0.0, 0.0, -0.0, 0.0, 1.917476038215682e-05, 0.0]","[-0.7369995713233948, -4.289246082305908, -0.9505276679992676, -0.4530945420265198, 0.01794433780014515, 0.0919647291302681]"
1584452284764008194,,1299116,,1584452284,763681784,'',"[shoulder_pan_joint, shoulder_lift_joint, elbow_joint, wrist_1_joint, wrist_2_joint,","[1.4047702550888062, -1.1717646757708948, 2.4830944538116455, -2.8628152052508753, -1.5669940153705042, 2.7205989360809326]","[0.0, 0.0, -0.0, 0.0, 1.917476038215682e-05, 0.0]","[-0.7507324814796448, -4.280090808868408, -0.9325931668281555, -0.4441223740577698, 0.011215210892260075, 0.0964508131146431]"
1584452284875861586,,1299130,,1584452284,875583086,'',"[shoulder_pan_joint, shoulder_lift_joint, elbow_joint, wrist_1_joint, wrist_2_joint,","[1.4047822952270508, -1.1717646757708948, 2.4830822944641113, -2.8628271261798304, -1.5670059362994593, 2.7206225395202637]","[0.0, 0.0, -0.0, 0.0, 1.917476038215682e-05, 0.0]","[-0.7461548447608948, -4.266357898712158, -0.9438022375106812, -0.4553375840187073, 0.01570129580795765, 0.0942077711224556]"
1584452284987839090,,1299144,,1584452284,987541033,'',"[shoulder_pan_joint, shoulder_lift_joint, elbow_joint, wrist_1_joint, wrist_2_joint,","[1.4047942161560059, -1.1717408339129847, 2.4830944538116455, -2.8628514448748987, -1.5670059362994593, 2.7205989360809326]","[0.0, 0.0, -0.0, 0.0, 0.0, 0.0]","[-0.7415772080421448, -4.252624988555908, -0.9527694582939148, -0.4530945420265198, 0.011215210892260075, 0.0942077711224556]"
1584452285099782891,,1299158,,1584452285,99530079,'',"[shoulder_pan_joint, shoulder_lift_joint, elbow_joint, wrist_1_joint, wrist_2_joint,","[1.4047822952270508, -1.1717646757708948, 2.4831063747406006, -2.86280328432192, -1.5669940153705042, 2.7206225395202637]","[0.0, 0.0, -0.0, 0.0, 0.0, 0.0]","[-0.7278442978858948, -4.284668445587158, -0.9460440278053284, -0.4418793320655823, 0.01794433780014515, 0.0942077711224556]"
1584452285211821729,,1299172,,1584452285,211528040,'',"[shoulder_pan_joint, shoulder_lift_joint, elbow_joint, wrist_1_joint, wrist_2_joint,","[1.4047942161560059, -1.1717408339129847, 2.4831063747406006, -2.862863365803854, -1.5670416990863245, 2.7206108570098877]","[0.0, 0.0, -0.0, 0.0, 0.0, 0.0]","[-0.7598877549171448, -4.280090808868408, -0.9438022375106812, -0.4553375840187073, 0.01345825381577015, 0.1099090725183487]"
1584452285323825712,,1299186,,1584452285,323526604,'',"[shoulder_pan_joint, shoulder_lift_joint, elbow_joint, wrist_1_joint, wrist_2_joint,","[1.4047942161560059, -1.1717522780047815, 2.4830703735351562, -2.8628390471087855, -1.5670059362994593, 2.720646381378174]","[0.0, 0.0, -0.0, 0.0, 0.0, 0.0]","[-0.7369995713233948, -4.257202625274658, -0.9393185973167419, -0.4418793320655823, 0.011215210892260075, 0.0964508131146431]"
1584452285435835035,,1299200,,1584452285,435585650,'',"[shoulder_pan_joint, shoulder_lift_joint, elbow_joint, wrist_1_joint, wrist_2_joint,","[1.4047822952270508, -1.171788517628805, 2.4830944538116455, -2.8628390471087855, -1.5670178572284144, 2.7206344604492188]","[0.0, 0.0, -0.0, 0.0, 0.0, 0.0]","[-0.7415772080421448, -4.211426258087158, -0.9415604472160339, -0.4486084580421448, 0.02243042178452015, 0.0807495191693306]"
1584452285547821747,,1299214,,1584452285,547505606,'',"[shoulder_pan_joint, shoulder_lift_joint, elbow_joint, wrist_1_joint, wrist_2_joint,","[1.4047702550888062, -1.1717646757708948, 2.4830822944641113, -2.8628152052508753, -1.5670178572284144, 2.7206225395202637]","[0.0, 0.0, -0.0, 0.0, 0.0, 0.0]","[-0.7369995713233948, -4.252624988555908, -0.957253098487854, -0.4463654160499573, 0.011215210892260075, 0.0897216871380806]"
1584452285659875933,,1299228,,1584452285,659587404,'',"[shoulder_pan_joint, shoulder_lift_joint, elbow_joint, wrist_1_joint, wrist_2_joint,","[1.4047822952270508, -1.1717284361468714, 2.4830944538116455, -2.8628390471087855, -1.5670059362994593, 2.7206225395202637]","[0.0, 0.0, -0.0, 0.0, 0.0, 0.0]","[-0.7461548447608948, -4.261780261993408, -0.9393185973167419, -0.4486084580421448, 0.01570129580795765, 0.1031799390912056]"
1584452285771748111,,1299242,,1584452285,771491010,'',"[shoulder_pan_joint, shoulder_lift_joint, elbow_joint, wrist_1_joint, wrist_2_joint,","[1.4047462940216064, -1.17177659669985, 2.4830944538116455, -2.8628271261798304, -1.5669940153705042, 2.7206108570098877]","[0.0, 0.0, -0.0, 0.0, 0.0, 0.0]","[-0.7598877549171448, -4.216003894805908, -0.9527694582939148, -0.4463654160499573, 0.02243042178452015, 0.0942077711224556]"
1584452285883795114,,1299256,,1584452285,883499682,'',"[shoulder_pan_joint, shoulder_lift_joint, elbow_joint, wrist_1_joint, wrist_2_joint,","[1.4047822952270508, -1.171788517628805, 2.4830944538116455, -2.8628271261798304, -1.5670059362994593, 2.7206225395202637]","[0.0, 0.0, -0.0, 0.0, 0.0, 0.0]","[-0.7507324814796448, -4.238892078399658, -0.9438022375106812, -0.4418793320655823, 0.01345825381577015, 0.0897216871380806]"
1584452285995921155,,1299270,,1584452285,995593063,'',"[shoulder_pan_joint, shoulder_lift_joint, elbow_joint, wrist_1_joint, wrist_2_joint,","[1.4047942161560059, -1.17177659669985, 2.4830822944641113, -2.8628390471087855, -1.5670416990863245, 2.7206344604492188]","[0.0, 0.0, -0.0, 0.0, 0.0, 0.0]","[-0.7186890244483948, -4.229736804962158, -0.9460440278053284, -0.4373932480812073, 0.02018737979233265, 0.0762634351849556]"
1584452286107752597,,1299284,,1584452286,107499193,'',"[shoulder_pan_joint, shoulder_lift_joint, elbow_joint, wrist_1_joint, wrist_2_joint,","[1.4047942161560059, -1.171788517628805, 2.4830944538116455, -2.8628152052508753, -1.5669940153705042, 2.720646381378174]","[0.0, 0.0, -0.0, 0.0, 0.0, 0.0]","[-0.7278442978858948, -4.225159168243408, -0.9370768070220947, -0.4463654160499573, 0.008972168900072575, 0.0852356031537056]"
1584452286219833864,,1299298,,1584452286,219489581,'',"[shoulder_pan_joint, shoulder_lift_joint, elbow_joint, wrist_1_joint, wrist_2_joint,","[1.4047822952270508, -1.1717646757708948, 2.4830822944641113, -2.8628271261798304, -1.5670178572284144, 2.7206344604492188]","[0.0, 0.0, -0.0, 0.0, 0.0, 0.0]","[-0.7278442978858948, -4.243469715118408, -0.9438022375106812, -0.4486084580421448, 0.008972168900072575, 0.0852356031537056]"
1584452286331849449,,1299312,,1584452286,331480149,'',"[shoulder_pan_joint, shoulder_lift_joint, elbow_joint, wrist_1_joint, wrist_2_joint,","[1.4051780700683594, -1.1716325918780726, 2.482590675354004, -2.8622525374041956, -1.5670297781573694, 2.720898151397705]","[0.01890631392598152, 0.00723527604714036, -0.023099195212125778, 0.023431556299328804, 0.0, 0.011485680937767029]","[0.7507324814796448, -2.911377191543579, -1.8450100421905518, -0.2265472710132599, 0.0448608435690403, 0.3050537407398224]"
1584452286443837442,,1299326,,1584452286,443556026,'',"[shoulder_pan_joint, shoulder_lift_joint, elbow_joint, wrist_1_joint, wrist_2_joint,","[1.406773567199707, -1.1713445822345179, 2.4815585613250732, -2.8610556761371058, -1.5670297781573694, 2.7192697525024414]","[0.006634467281401157, 0.0004985437844879925, 0.005177185405045748, -0.0032213598024100065, 0.0, -0.043066512793302536]","[0.8056641221046448, -3.767395496368408, -1.3562953472137451, -0.4306641221046448, 0.0538330152630806, -0.3566437065601349]"
1584452286555816489,,1299340,,1584452286,555529453,'',"[shoulder_pan_joint, shoulder_lift_joint, elbow_joint, wrist_1_joint, wrist_2_joint,","[1.4056458473205566, -1.1715729872332972, 2.482374668121338, -2.8621447722064417, -1.566981617604391, 2.7159411907196045]","[-0.020542560145258904, -0.0006263754912652075, -0.0027228158432990313, 0.002799514913931489, 0.0, -0.013000487349927425]","[-1.0025025606155396, -3.556824207305908, -1.3316354751586914, -0.4530945420265198, 0.0471038855612278, -0.3364563286304474]"
1584452286667844206,,1299354,,1584452286,667562640,'',"[shoulder_pan_joint, shoulder_lift_joint, elbow_joint, wrist_1_joint, wrist_2_joint,","[1.404266595840454, -1.1715367476092737, 2.4819064140319824, -2.8617857138263147, -1.5669940153705042, 2.7187788486480713]","[-0.007158576976507902, 0.0003962783666793257, 0.0007542072562500834, 0.0012655341997742653, 0.0, 0.05119660869240761]","[-0.9658814668655396, -3.488159418106079, -1.4863203763961792, -0.4037475883960724, 0.0426178015768528, 0.3207550346851349]"
1584452286779726262,,1299368,,1584452286,779468421,'',"[shoulder_pan_joint, shoulder_lift_joint, elbow_joint, wrist_1_joint, wrist_2_joint,","[1.404422402381897, -1.1715367476092737, 2.481978416442871, -2.8617857138263147, -1.5669940153705042, 2.7232930660247803]","[0.01082734763622284, 0.00014061490946915, -0.0, -0.0002109223569277674, 0.0, 0.030948063358664513]","[0.6546021103858948, -3.588867664337158, -1.3406027555465698, -0.4441223740577698, 0.0583190992474556, 0.3364563286304474]"
1584452286891741827,,1299382,,1584452286,891484306,'',"[shoulder_pan_joint, shoulder_lift_joint, elbow_joint, wrist_1_joint, wrist_2_joint,","[1.4062094688415527, -1.1715129057513636, 2.481966495513916, -2.8617737928973597, -1.5670178572284144, 2.7264180183410645]","[0.018279938027262688, 7.669904152862728e-05, -0.0, -0.00015339808305725455, 0.0, 0.02425607107579708]","[0.7919312119483948, -3.607178211212158, -1.419066071510315, -0.4037475883960724, 0.0807495191693306, 0.3162689507007599]"
1584452287003724540,,1299396,,1584452287,3445970,'',"[shoulder_pan_joint, shoulder_lift_joint, elbow_joint, wrist_1_joint, wrist_2_joint,","[1.4079008102416992, -1.1715367476092737, 2.481978416442871, -2.8617737928973597, -1.5670059362994593, 2.728645086288452]","[0.009370066225528717, 5.1132694352418184e-05, -0.0, -9.58738019107841e-05, 0.0, 0.014975488185882568]","[0.9246827363967896, -3.607178211212158, -1.3473281860351562, -0.4396362900733948, 0.0560760572552681, 0.2714081108570099]"
1584452287115736518,,1299410,,1584452287,115454622,'',"[shoulder_pan_joint, shoulder_lift_joint, elbow_joint, wrist_1_joint, wrist_2_joint,","[1.4063416719436646, -1.1715367476092737, 2.4820022583007812, -2.86179763475527, -1.5670059362994593, 2.7271366119384766]","[-0.03237977996468544, 3.834952076431364e-05, 0.00017896443023346364, 0.0, 0.0, -0.05384272709488869]","[-1.1169434785842896, -3.511047601699829, -1.4302750825881958, -0.4216919243335724, 0.0426178015768528, -0.2983246147632599]"
1584452287227679979,,1299424,,1584452287,227427317,'',"[shoulder_pan_joint, shoulder_lift_joint, elbow_joint, wrist_1_joint, wrist_2_joint,","[1.4033186435699463, -1.1715009848224085, 2.4818944931030273, -2.86179763475527, -1.5669458548175257, 2.721616506576538]","[-0.018919097259640694, 3.834952076431364e-05, -0.0005368932615965605, 0.0, 0.0, -0.04970097914338112]","[-1.0711671113967896, -3.465271234512329, -1.421307921409607, -0.4149627983570099, 0.0314025916159153, -0.3117828667163849]"
1584452287339717164,,1299438,,1584452287,339453130,'',"[shoulder_pan_joint, shoulder_lift_joint, elbow_joint, wrist_1_joint, wrist_2_joint,","[1.4022513628005981, -1.1715367476092737, 2.4818944931030273, -2.8617618719684046, -1.5669940153705042, 2.716970682144165]","[-0.00250550196506083, 2.5566347176209092e-05, -0.00023009712458588183, 0.0, 0.0, -0.032884713262319565]","[-0.6042481064796448, -3.552246570587158, -1.3921643495559692, -0.4216919243335724, 0.0493469275534153, -0.3117828667163849]"
1584452287451802028,,1299452,,1584452287,451542043,'',"[shoulder_pan_joint, shoulder_lift_joint, elbow_joint, wrist_1_joint, wrist_2_joint,","[1.4022753238677979, -1.1715367476092737, 2.481870412826538, -2.8617499510394495, -1.5669940153705042, 2.713845729827881]","[0.0003067961661145091, 2.5566347176209092e-05, -0.00023009712458588183, 0.0, 0.0, -0.020382769405841827]","[-0.02288818545639515, -3.593445301055908, -1.3675044775009155, -0.4261780083179474, 0.0336456336081028, -0.3454284965991974]"
1584452287563699041,,1299466,,1584452287,563421894,'',"[shoulder_pan_joint, shoulder_lift_joint, elbow_joint, wrist_1_joint, wrist_2_joint,","[1.4024550914764404, -1.1715129057513636, 2.4817147254943848, -2.861725632344381, -1.5670178572284144, 2.711857795715332]","[0.0033364081755280495, 2.5566347176209092e-05, -0.0022754049859941006, 0.0, 0.0, -0.019155586138367653]","[0.2700805962085724, -3.382873773574829, -1.5401238203048706, -0.3566437065601349, 0.0381317175924778, -0.2691650688648224]"
1584452287675605352,,1299480,,1584452287,675395551,'',"[shoulder_pan_joint, shoulder_lift_joint, elbow_joint, wrist_1_joint, wrist_2_joint,","[1.4025872945785522, -1.1715129057513636, 2.481606960296631, -2.86158258119692, -1.5670059362994593, 2.7095351219177246]","[0.0, 1.2783173588104546e-05, -0.00048576059634797275, 0.0005560680292546749, 0.0, -0.019634954631328583]","[0.1739502102136612, -3.543091297149658, -1.4437259435653687, -0.3947754204273224, 0.0403747595846653, -0.2781372368335724]"
1584452287787691649,,1299494,,1584452287,787425001,'',"[shoulder_pan_joint, shoulder_lift_joint, elbow_joint, wrist_1_joint, wrist_2_joint,","[1.4026951789855957, -1.1715129057513636, 2.4814987182617188, -2.861570183430807, -1.5670178572284144, 2.7067935466766357]","[0.0011377024929970503, 1.2783173588104546e-05, -0.000907605339307338, 0.0001917476038215682, 0.0, -0.03177257627248764]","[-0.01373291201889515, -3.593445301055908, -1.2935247421264648, -0.4643097519874573, 0.0403747595846653, -0.2691650688648224]"
1584452287899726550,,1299508,,1584452287,899454993,'',"[shoulder_pan_joint, shoulder_lift_joint, elbow_joint, wrist_1_joint, wrist_2_joint,","[1.4028270244598389, -1.1715129057513636, 2.481438636779785, -2.8615105787860315, -1.5670059362994593, 2.7029619216918945]","[0.008321845903992653, 1.2783173588104546e-05, -0.0024671524297446012, 0.00011504856229294091, 0.0, -0.02678713947534561]","[0.4440308213233948, -3.437805414199829, -1.5580583810806274, -0.3386993706226349, 0.0381317175924778, -0.3274841606616974]"
1584452288011588027,,1299522,,1584452288,11385128,'',"[shoulder_pan_joint, shoulder_lift_joint, elbow_joint, wrist_1_joint, wrist_2_joint,","[1.4050099849700928, -1.1715129057513636, 2.480886697769165, -2.861091438923971, -1.5670297781573694, 2.7008426189422607]","[0.02876214124262333, 1.2783173588104546e-05, -0.010725082829594612, 0.009702428244054317, 0.0, -0.014035924337804317]","[0.6866455674171448, -3.323364496231079, -1.6768742799758911, -0.3140259087085724, 0.0560760572552681, -0.3028106987476349]"
1584452288123659557,,1299536,,1584452288,123397838,'',"[shoulder_pan_joint, shoulder_lift_joint, elbow_joint, wrist_1_joint, wrist_2_joint,","[1.4093763828277588, -1.1702540556537073, 2.4771673679351807, -2.858744446431295, -1.5670536200152796, 2.704709768295288]","[0.043833501636981964, 0.020082365721464157, -0.05302460491657257, 0.027036411687731743, 0.0, 0.06051554158329964]","[0.7415772080421448, -2.787781000137329, -1.6365216970443726, -0.1727142482995987, 0.0538330152630806, 0.3588867485523224]"
1584452288235640808,,1299550,,1584452288,235382816,'',"[shoulder_pan_joint, shoulder_lift_joint, elbow_joint, wrist_1_joint, wrist_2_joint,","[1.4146898984909058, -1.1672442595111292, 2.4680612087249756, -2.854279343281881, -1.5670536200152796, 2.710876226425171]","[0.043897416442632675, 0.0329933725297451, -0.09791910648345947, 0.050525493919849396, 0.0, 0.040343694388866425]","[1.0574342012405396, -2.700805902481079, -1.8046574592590332, -0.1592559963464737, 0.0560760572552681, 0.3229980766773224]"
1584452288347583596,,1299564,,1584452288,347370338,'',"[shoulder_pan_joint, shoulder_lift_joint, elbow_joint, wrist_1_joint, wrist_2_joint,","[1.418660044670105, -1.1632159391986292, 2.4566152095794678, -2.847682778035299, -1.5670178572284144, 2.715054988861084]","[0.030181072652339935, 0.04104676842689514, -0.10990972816944122, 0.06128253415226936, 0.0, 0.041436657309532166]","[0.8560181260108948, -2.668762445449829, -1.8024157285690308, -0.0695343092083931, 0.0471038855612278, 0.2781372368335724]"
1584452288459903470,,1299578,,1584452288,459493975,'',"[shoulder_pan_joint, shoulder_lift_joint, elbow_joint, wrist_1_joint, wrist_2_joint,","[1.4219226837158203, -1.157593075429098, 2.444317102432251, -2.8407262007342737, -1.5670059362994593, 2.720323324203491]","[0.03033447079360485, 0.057025738060474396, -0.11152040213346481, 0.06647889316082001, 0.0, 0.05046796798706055]","[0.8239746689796448, -3.057861566543579, -1.9279570579528809, -0.2086029201745987, 0.02467346377670765, 0.3364563286304474]"
1584452288571742054,,1299592,,1584452288,571431243,'',"[shoulder_pan_joint, shoulder_lift_joint, elbow_joint, wrist_1_joint, wrist_2_joint,","[1.4260610342025757, -1.1524608770953577, 2.432978630065918, -2.8337705771075647, -1.5670536200152796, 2.7258551120758057]","[0.04655631631612778, 0.03416942432522774, -0.09582266956567764, 0.05775437876582146, 0.0, 0.04511821269989014]","[1.1215211153030396, -2.915954828262329, -1.9346824884414673, -0.1749572902917862, 0.0314025916159153, 0.3252411186695099]"
1584452288683705552,,1299606,,1584452288,683350549,'',"[shoulder_pan_joint, shoulder_lift_joint, elbow_joint, wrist_1_joint, wrist_2_joint,","[1.4316625595092773, -1.1487086454974573, 2.423596143722534, -2.8278682867633265, -1.5670178572284144, 2.7307045459747314]","[0.05397055670619011, 0.034501783549785614, -0.08417719602584839, 0.047687627375125885, 0.0, 0.054743941873311996]","[0.8422852158546448, -3.039551019668579, -2.080400228500366, -0.1816864162683487, 0.0695343092083931, 0.2758941948413849]"
1584452288795849165,,1299620,,1584452288,795406188,'',"[shoulder_pan_joint, shoulder_lift_joint, elbow_joint, wrist_1_joint, wrist_2_joint,","[1.438199520111084, -1.1444881598102015, 2.4142491817474365, -2.8225162664996546, -1.5670178572284144, 2.7377452850341797]","[0.06435049325227737, 0.039627838879823685, -0.07722315192222595, 0.04469636455178261, 0.0, 0.06208787485957146]","[1.1581422090530396, -3.314209222793579, -1.966067910194397, -0.1614990383386612, 0.0515899695456028, 0.3880462944507599]"
1584452288907946584,,1299634,,1584452288,907473009,'',"[shoulder_pan_joint, shoulder_lift_joint, elbow_joint, wrist_1_joint, wrist_2_joint,","[1.4455043077468872, -1.140651051198141, 2.404710054397583, -2.817188564931051, -1.5670297781573694, 2.7434446811676025]","[0.061960041522979736, 0.030666833743453026, -0.08755195885896683, 0.05065971612930298, 0.0, 0.04199272394180298]","[1.0299683809280396, -2.957153558731079, -1.9571006298065186, -0.0807495191693306, 0.0695343092083931, 0.3476715385913849]"
1584452289019799104,,1299648,,1584452289,19434563,'',"[shoulder_pan_joint, shoulder_lift_joint, elbow_joint, wrist_1_joint, wrist_2_joint,","[1.4521855115890503, -1.1366708914386194, 2.394163131713867, -2.811418358479635, -1.5670178572284144, 2.7482101917266846]","[0.06064337491989136, 0.04452379420399666, -0.10075697302818298, 0.057677678763866425, 0.0, 0.04621117189526558]","[0.9658814668655396, -2.998352289199829, -1.9750350713729858, -0.1570129543542862, 0.0471038855612278, 0.3431854546070099]"
1584452289131806063,,1299662,,1584452289,131435621,'',"[shoulder_pan_joint, shoulder_lift_joint, elbow_joint, wrist_1_joint, wrist_2_joint,","[1.458554744720459, -1.131251637135641, 2.3827638626098633, -2.804965321217672, -1.5669940153705042, 2.752868175506592]","[0.056603893637657166, 0.049675412476062775, -0.10881037265062332, 0.060630593448877335, 0.0, 0.03700728714466095]","[0.8605957627296448, -3.332519769668579, -2.022113084793091, -0.2198181450366974, 0.0560760572552681, 0.3880462944507599]"
1584452289243685222,,1299676,,1584452289,243360947,'',"[shoulder_pan_joint, shoulder_lift_joint, elbow_joint, wrist_1_joint, wrist_2_joint,","[1.4650079011917114, -1.1264079252826136, 2.3707287311553955, -2.797973934804098, -1.5670178572284144, 2.7565081119537354]","[0.06042606011033058, 0.03994741663336754, -0.11368076503276825, 0.06109078601002693, 0.0, 0.02901141159236431]","[0.8926392793655396, -3.149414300918579, -2.0490148067474365, -0.1323394924402237, 0.0515899695456028, 0.3297272026538849]"
1584452289355882777,,1299690,,1584452289,355503519,'',"[shoulder_pan_joint, shoulder_lift_joint, elbow_joint, wrist_1_joint, wrist_2_joint,","[1.4721088409423828, -1.121180836354391, 2.359173059463501, -2.7914722601519983, -1.5670297781573694, 2.7599446773529053]","[0.06533479690551758, 0.04851214215159416, -0.10220146924257278, 0.0522320456802845, 0.0, 0.033421605825424194]","[0.7965088486671448, -3.332519769668579, -2.1229946613311768, -0.1300964504480362, 0.0628051832318306, 0.2915954887866974]"
1584452289467879186,,1299704,,1584452289,467570009,'',"[shoulder_pan_joint, shoulder_lift_joint, elbow_joint, wrist_1_joint, wrist_2_joint,","[1.4801214933395386, -1.1164572874652308, 2.348877429962158, -2.7856906096087855, -1.5670297781573694, 2.7648420333862305]","[0.07227606326341629, 0.02972087822854519, -0.08732185512781143, 0.04906821250915527, 0.0, 0.04993107542395592]","[0.9063721895217896, -3.479004144668579, -2.286646842956543, -0.0740203931927681, 0.0807495191693306, 0.3185119926929474]"
1584452289579663269,,1299718,,1584452289,579395619,'',"[shoulder_pan_joint, shoulder_lift_joint, elbow_joint, wrist_1_joint, wrist_2_joint,","[1.4881336688995361, -1.1136754194842737, 2.339961528778076, -2.78064996400942, -1.5670297781573694, 2.7700746059417725]","[0.07784952968358994, 0.024147415533661842, -0.06497687101364136, 0.040957286953926086, 0.0, 0.03792767599225044]","[1.1444092988967896, -3.240967035293579, -2.2104251384735107, -0.1323394924402237, 0.0874786451458931, 0.3454284965991974]"
1584452289691793949,,1299732,,1584452289,691385255,'',"[shoulder_pan_joint, shoulder_lift_joint, elbow_joint, wrist_1_joint, wrist_2_joint,","[1.4973214864730835, -1.1108582655536097, 2.3330256938934326, -2.776675049458639, -1.5670297781573694, 2.773571014404297]","[0.08819111436605453, 0.027368774637579918, -0.05873868241906166, 0.033249035477638245, 0.0, 0.02935655787587166]","[0.7781983017921448, -3.305053949356079, -2.19921612739563, -0.1929016262292862, 0.0785064771771431, 0.3386993706226349]"
1584452289803619529,,1299746,,1584452289,803315972,'',"[shoulder_pan_joint, shoulder_lift_joint, elbow_joint, wrist_1_joint, wrist_2_joint,","[1.508116602897644, -1.1080401579486292, 2.328765630722046, -2.7737181822406214, -1.5670059362994593, 2.776804208755493]","[0.09494063258171082, 0.01477734837681055, -0.01606844924390316, 0.01635606959462166, 0.0, 0.03309563547372818]","[0.9658814668655396, -3.611755847930908, -2.2597451210021973, -0.2175751030445099, 0.1278534084558487, 0.2691650688648224]"
1584452289915861346,,1299760,,1584452289,915387230,'',"[shoulder_pan_joint, shoulder_lift_joint, elbow_joint, wrist_1_joint, wrist_2_joint,","[1.5187439918518066, -1.1078246275531214, 2.3283936977386475, -2.7732871214496058, -1.5670416990863245, 2.780600070953369]","[0.09426312148571014, -0.00012783173588104546, 0.0014444986591115594, -0.001035437104292214, 0.0, 0.029950976371765137]","[0.8422852158546448, -4.403687000274658, -1.7777557373046875, -0.4194488823413849, 0.1772003322839737, 0.3364563286304474]"
1584452290027593963,,1299774,,1584452290,27300254,'',"[shoulder_pan_joint, shoulder_lift_joint, elbow_joint, wrist_1_joint, wrist_2_joint,","[1.5298027992248535, -1.1078246275531214, 2.328453779220581, -2.773299042378561, -1.5670416990863245, 2.783904552459717]","[0.10451522469520569, -0.00012783173588104546, 0.00029401297797448933, -0.00023009712458588183, 0.0, 0.028014324605464935]","[0.7415772080421448, -4.440308094024658, -1.7822394371032715, -0.4261780083179474, 0.1749572902917862, 0.3858032524585724]"
1584452290139636938,,1299788,,1584452290,139321670,'',"[shoulder_pan_joint, shoulder_lift_joint, elbow_joint, wrist_1_joint, wrist_2_joint,","[1.5415098667144775, -1.1078127066241663, 2.3284900188446045, -2.7732632795916956, -1.5670416990863245, 2.786682605743408]","[0.09975988417863846, -8.948221511673182e-05, 0.0003195793251506984, -0.00013422331539914012, 0.00011504856229294091, 0.020075973123311996]","[0.9292603731155396, -4.554749011993408, -1.7306777238845825, -0.4239349663257599, 0.2041168361902237, 0.3319702446460724]"
1584452290251670447,,1299802,,1584452290,251295837,'',"[shoulder_pan_joint, shoulder_lift_joint, elbow_joint, wrist_1_joint, wrist_2_joint,","[1.5514650344848633, -1.1078246275531214, 2.328549861907959, -2.7732394377337855, -1.5670655409442347, 2.7887423038482666]","[0.08352525532245636, -6.391586794052273e-05, 0.0004218447138555348, -9.58738019107841e-05, 0.00011504856229294091, 0.013364807702600956]","[1.1352540254592896, -4.522705554962158, -1.8427683115005493, -0.4127197563648224, 0.1951446682214737, 0.3050537407398224]"
1584452290363621562,,1299816,,1584452290,363308357,'',"[shoulder_pan_joint, shoulder_lift_joint, elbow_joint, wrist_1_joint, wrist_2_joint,","[1.56007719039917, -1.1078484694110315, 2.3285977840423584, -2.7732275168048304, -1.5670655409442347, 2.7894725799560547]","[0.07407849282026291, -5.1132694352418184e-05, 0.0002812298189383, -5.752428114647046e-05, 9.58738019107841e-05, -0.014246846549212933]","[0.8743286728858948, -4.582214832305908, -1.8158665895462036, -0.4149627983570099, 0.2198181450366974, -0.0493469275534153]"
1584452290475661612,,1299830,,1584452290,475322288,'',"[shoulder_pan_joint, shoulder_lift_joint, elbow_joint, wrist_1_joint, wrist_2_joint,","[1.5682332515716553, -1.107884709035055, 2.328897476196289, -2.773167435322897, -1.5671137014972132, 2.784503698348999]","[0.06612735986709595, -3.834952076431364e-05, 0.006481069140136242, -5.752428114647046e-05, 7.669904152862728e-05, -0.05420704558491707]","[0.9338380098342896, -4.747009754180908, -1.7194687128067017, -0.5001984238624573, 0.2714081108570099, -0.2534637749195099]"
1584452290587705480,,1299844,,1584452290,587302928,'',"[shoulder_pan_joint, shoulder_lift_joint, elbow_joint, wrist_1_joint, wrist_2_joint,","[1.5748780965805054, -1.109023396168844, 2.331681489944458, -2.774604145680563, -1.5670655409442347, 2.7786002159118652]","[0.05530000850558281, -0.01889353059232235, 0.030948063358664513, -0.017832526937127113, 5.752428114647046e-05, -0.04705486074090004]","[1.0025025606155396, -5.154419422149658, -1.4392423629760742, -0.7491760849952698, 0.2781372368335724, -0.3297272026538849]"
1584452290699768674,,1299858,,1584452290,699369899,'',"[shoulder_pan_joint, shoulder_lift_joint, elbow_joint, wrist_1_joint, wrist_2_joint,","[1.5798077583312988, -1.110462490712301, 2.33339786529541, -2.7755377928363245, -1.567077938710348, 2.773966073989868]","[0.03195793554186821, -0.0015595471486449242, 0.0024288028944283724, 0.0016298546688631177, 3.834952076431364e-05, -0.04122573509812355]","[0.9017945528030396, -4.701233386993408, -1.692566990852356, -0.5316010117530823, 0.1704712063074112, -0.2601929008960724]"
1584452290811661329,,1299872,,1584452290,811296317,'',"[shoulder_pan_joint, shoulder_lift_joint, elbow_joint, wrist_1_joint, wrist_2_joint,","[1.5816911458969116, -1.1104500929461878, 2.333362102508545, -2.7752507368670862, -1.567077938710348, 2.76869797706604]","[0.0041800979524850845, 0.0001917476038215682, -0.0003707120195031166, 0.0006327670998871326, 1.917476038215682e-05, -0.0608990378677845]","[0.8697510361671448, -4.531860828399658, -1.8898463249206543, -0.4957123398780823, 0.1884155422449112, -0.2624359428882599]"
1584452290923853754,,1299886,,1584452290,923354331,'',"[shoulder_pan_joint, shoulder_lift_joint, elbow_joint, wrist_1_joint, wrist_2_joint,","[1.5805515050888062, -1.1104381720172327, 2.3333261013031006, -2.7752984205829065, -1.5670416990863245, 2.7611422538757324]","[-0.021105019375681877, 0.00011504856229294091, -0.00017896443023346364, 0.0002109223569277674, 1.917476038215682e-05, -0.05447549372911453]","[-0.8377075791358948, -4.408264636993408, -1.9436497688293457, -0.4441223740577698, 0.1704712063074112, -0.3521576225757599]"
1584452291035673924,,1299900,,1584452291,35322788,'',"[shoulder_pan_joint, shoulder_lift_joint, elbow_joint, wrist_1_joint, wrist_2_joint,","[1.579484224319458, -1.1104500929461878, 2.3332901000976562, -2.7752984205829065, -1.5670536200152796, 2.7584121227264404]","[0.0017129452899098396, 7.669904152862728e-05, -0.0004474110610317439, 0.00011504856229294091, 1.917476038215682e-05, -0.0016106799012050033]","[0.0274658240377903, -4.463196277618408, -1.8831208944320679, -0.4486084580421448, 0.1614990383386612, 0.0]"
1584452291147636500,,1299914,,1584452291,147269264,'',"[shoulder_pan_joint, shoulder_lift_joint, elbow_joint, wrist_1_joint, wrist_2_joint,","[1.579496145248413, -1.110462490712301, 2.3333139419555664, -2.7753103415118616, -1.567101780568258, 2.758484125137329]","[0.00021731395099777728, 5.1132694352418184e-05, -0.0002556634717620909, 7.669904152862728e-05, -0.00046019424917176366, 0.0003451456723269075]","[-0.009155274368822575, -4.431152820587158, -1.8539773225784302, -0.3925323784351349, 0.0493469275534153, 0.0381317175924778]"
1584452291259899086,,1299928,,1584452291,259377392,'',"[shoulder_pan_joint, shoulder_lift_joint, elbow_joint, wrist_1_joint, wrist_2_joint,","[1.579496145248413, -1.1104500929461878, 2.333253860473633, -2.77533466020693, -1.567077938710348, 2.7585079669952393]","[0.00010226538870483637, 3.834952076431364e-05, -0.00014061490946915, 5.752428114647046e-05, -0.00017257283616345376, 0.00015339808305725455]","[-0.0549316480755806, -4.426575183868408, -1.8517354726791382, -0.4441223740577698, 0.0560760572552681, 0.0403747595846653]"
1584452291371740355,,1299942,,1584452291,371329147,'',"[shoulder_pan_joint, shoulder_lift_joint, elbow_joint, wrist_1_joint, wrist_2_joint,","[1.579484224319458, -1.1104500929461878, 2.3333020210266113, -2.7752984205829065, -1.5671137014972132, 2.758496046066284]","[6.391586794052273e-05, 2.5566347176209092e-05, -8.948221511673182e-05, 5.752428114647046e-05, -0.00011504856229294091, 9.58738019107841e-05]","[-0.009155274368822575, -4.435730457305908, -1.8539773225784302, -0.4284210503101349, 0.0381317175924778, 0.0358886756002903]"
1584452291483781859,,1299956,,1584452291,483363808,'',"[shoulder_pan_joint, shoulder_lift_joint, elbow_joint, wrist_1_joint, wrist_2_joint,","[1.5794721841812134, -1.110462490712301, 2.3333020210266113, -2.7753103415118616, -1.5671256224261683, 2.758471965789795]","[5.1132694352418184e-05, 2.5566347176209092e-05, -7.669904152862728e-05, 3.834952076431364e-05, -7.669904152862728e-05, 7.669904152862728e-05]","[-0.0640869215130806, -4.426575183868408, -1.8494937419891357, -0.4104767143726349, 0.0605621412396431, 0.0336456336081028]"
1584452291595754984,,1299970,,1584452291,595282161,'',"[shoulder_pan_joint, shoulder_lift_joint, elbow_joint, wrist_1_joint, wrist_2_joint,","[1.579484224319458, -1.110462490712301, 2.3333020210266113, -2.7752864996539515, -1.567101780568258, 2.758471965789795]","[3.834952076431364e-05, 2.5566347176209092e-05, -5.1132694352418184e-05, 3.834952076431364e-05, -5.752428114647046e-05, 5.752428114647046e-05]","[-0.02288818545639515, -4.454041004180908, -1.8494937419891357, -0.4351502060890198, 0.0358886756002903, 0.0403747595846653]"
1584452291707683867,,1299984,,1584452291,707346698,'',"[shoulder_pan_joint, shoulder_lift_joint, elbow_joint, wrist_1_joint, wrist_2_joint,","[1.5795081853866577, -1.110473934804098, 2.333277702331543, -2.7753103415118616, -1.567101780568258, 2.758496046066284]","[2.5566347176209092e-05, 1.2783173588104546e-05, -5.1132694352418184e-05, 1.917476038215682e-05, -3.834952076431364e-05, 3.834952076431364e-05]","[-0.02288818545639515, -4.440308094024658, -1.8517354726791382, -0.4284210503101349, 0.0448608435690403, 0.0381317175924778]"
1584452291819636164,,1299998,,1584452291,819296509,'',"[shoulder_pan_joint, shoulder_lift_joint, elbow_joint, wrist_1_joint, wrist_2_joint,","[1.579484224319458, -1.1104500929461878, 2.333265781402588, -2.7752864996539515, -1.5670655409442347, 2.758496046066284]","[2.5566347176209092e-05, 1.2783173588104546e-05, -3.834952076431364e-05, 1.917476038215682e-05, -3.834952076431364e-05, 3.834952076431364e-05]","[0.01831054873764515, -4.426575183868408, -1.8539773225784302, -0.4059906303882599, 0.0314025916159153, 0.0381317175924778]"
1584452291931834390,,1300012,,1584452291,931283992,'',"[shoulder_pan_joint, shoulder_lift_joint, elbow_joint, wrist_1_joint, wrist_2_joint,","[1.579496145248413, -1.1104381720172327, 2.333277702331543, -2.7752984205829065, -1.567077938710348, 2.758484125137329]","[2.5566347176209092e-05, 1.2783173588104546e-05, -3.834952076431364e-05, 1.917476038215682e-05, -3.834952076431364e-05, 3.834952076431364e-05]","[-0.0640869215130806, -4.440308094024658, -1.8562191724777222, -0.4127197563648224, 0.0583190992474556, 0.0381317175924778]"
1584452292043611359,,1300026,,1584452292,43226600,'',"[shoulder_pan_joint, shoulder_lift_joint, elbow_joint, wrist_1_joint, wrist_2_joint,","[1.5795081853866577, -1.1104143301593226, 2.3333020210266113, -2.7753103415118616, -1.567101780568258, 2.7585079669952393]","[1.2783173588104546e-05, 1.2783173588104546e-05, -2.5566347176209092e-05, 1.917476038215682e-05, -1.917476038215682e-05, 1.917476038215682e-05]","[0.0274658240377903, -4.426575183868408, -1.8584609031677246, -0.4261780083179474, 0.0515899695456028, 0.0403747595846653]"
1584452292155564668,,1300040,,1584452292,155189698,'',"[shoulder_pan_joint, shoulder_lift_joint, elbow_joint, wrist_1_joint, wrist_2_joint,","[1.579484224319458, -1.1104381720172327, 2.3333020210266113, -2.775322739277975, -1.567101780568258, 2.758484125137329]","[1.2783173588104546e-05, 1.2783173588104546e-05, -2.5566347176209092e-05, 1.917476038215682e-05, -1.917476038215682e-05, 1.917476038215682e-05]","[0.004577637184411287, -4.435730457305908, -1.8539773225784302, -0.4239349663257599, 0.0448608435690403, 0.0381317175924778]"
1584452292267633833,,1300054,,1584452292,267274491,'',"[shoulder_pan_joint, shoulder_lift_joint, elbow_joint, wrist_1_joint, wrist_2_joint,","[1.5794721841812134, -1.1104500929461878, 2.3332901000976562, -2.7752864996539515, -1.567089859639303, 2.7585198879241943]","[1.2783173588104546e-05, 1.2783173588104546e-05, -2.5566347176209092e-05, 1.917476038215682e-05, -1.917476038215682e-05, 1.917476038215682e-05]","[-0.0778198316693306, -4.440308094024658, -1.8607027530670166, -0.3947754204273224, 0.0493469275534153, 0.0358886756002903]"
1584452292379530766,,1300068,,1584452292,379175513,'',"[shoulder_pan_joint, shoulder_lift_joint, elbow_joint, wrist_1_joint, wrist_2_joint,","[1.579484224319458, -1.1104500929461878, 2.3332901000976562, -2.77533466020693, -1.567077938710348, 2.7568917274475098]","[1.2783173588104546e-05, 1.2783173588104546e-05, -2.5566347176209092e-05, 1.917476038215682e-05, -1.917476038215682e-05, -0.05012282356619835]","[-0.02288818545639515, -4.435730457305908, -1.8472518920898438, -0.4261780083179474, 0.0426178015768528, -0.2601929008960724]"
1584452292491586927,,1300082,,1584452292,491235821,'',"[shoulder_pan_joint, shoulder_lift_joint, elbow_joint, wrist_1_joint, wrist_2_joint,","[1.579484224319458, -1.110462490712301, 2.333265781402588, -2.7753103415118616, -1.5671137014972132, 2.741002082824707]","[1.2783173588104546e-05, 1.2783173588104546e-05, -1.2783173588104546e-05, 1.917476038215682e-05, -1.917476038215682e-05, -0.20121993124485016]","[-0.0823974683880806, -4.444885730743408, -1.8562191724777222, -0.4082336723804474, 0.0448608435690403, -0.3880462944507599]"
1584452292603555454,,1300096,,1584452292,603211291,'',"[shoulder_pan_joint, shoulder_lift_joint, elbow_joint, wrist_1_joint, wrist_2_joint,","[1.579496145248413, -1.110473934804098, 2.333265781402588, -2.77533466020693, -1.5670655409442347, 2.7183597087860107]","[1.2783173588104546e-05, 1.2783173588104546e-05, -1.2783173588104546e-05, 1.917476038215682e-05, -1.917476038215682e-05, -0.19778765738010406]","[-0.0595092847943306, -4.431152820587158, -1.8517354726791382, -0.4015045464038849, 0.0493469275534153, -0.4553375840187073]"
1584452292715619740,,1300110,,1584452292,715263635,'',"[shoulder_pan_joint, shoulder_lift_joint, elbow_joint, wrist_1_joint, wrist_2_joint,","[1.5794721841812134, -1.1104262510882776, 2.333265781402588, -2.77533466020693, -1.567077938710348, 2.6960654258728027]","[1.2783173588104546e-05, 0.0, -1.2783173588104546e-05, 1.917476038215682e-05, -1.917476038215682e-05, -0.20169930160045624]","[-0.0503540076315403, -4.403687000274658, -1.8450100421905518, -0.4149627983570099, 0.0381317175924778, -0.3678589165210724]"
1584452292827501535,,1300124,,1584452292,827210311,'',"[shoulder_pan_joint, shoulder_lift_joint, elbow_joint, wrist_1_joint, wrist_2_joint,","[1.579496145248413, -1.1104381720172327, 2.3332417011260986, -2.77533466020693, -1.5670536200152796, 2.6736388206481934]","[1.2783173588104546e-05, 0.0, -1.2783173588104546e-05, 1.917476038215682e-05, -1.917476038215682e-05, -0.2007022202014923]","[-0.0686645582318306, -4.426575183868408, -1.820350170135498, -0.4149627983570099, 0.0493469275534153, -0.4216919243335724]"
1584452292939534352,,1300138,,1584452292,939197192,'',"[shoulder_pan_joint, shoulder_lift_joint, elbow_joint, wrist_1_joint, wrist_2_joint,","[1.579484224319458, -1.1104143301593226, 2.333277702331543, -2.775346581135885, -1.5670297781573694, 2.6511893272399902]","[1.2783173588104546e-05, 0.0, -1.2783173588104546e-05, 1.917476038215682e-05, 0.0, -0.1995709091424942]","[-0.0823974683880806, -4.426575183868408, -1.8472518920898438, -0.4216919243335724, 0.0358886756002903, -0.3902893364429474]"
1584452293051686421,,1300152,,1584452293,51331108,'',"[shoulder_pan_joint, shoulder_lift_joint, elbow_joint, wrist_1_joint, wrist_2_joint,","[1.579496145248413, -1.1104500929461878, 2.333253860473633, -2.77533466020693, -1.5669940153705042, 2.6288232803344727]","[0.0, 0.0, -1.2783173588104546e-05, 1.917476038215682e-05, 0.0, -0.20258134603500366]","[-0.0457763709127903, -4.431152820587158, -1.8450100421905518, -0.4172058403491974, 0.0426178015768528, -0.3521576225757599]"
1584452293163452511,,1300166,,1584452293,163169612,'',"[shoulder_pan_joint, shoulder_lift_joint, elbow_joint, wrist_1_joint, wrist_2_joint,","[1.579496145248413, -1.1104381720172327, 2.3332297801971436, -2.7753103415118616, -1.5670297781573694, 2.606409788131714]","[0.0, 0.0, -1.2783173588104546e-05, 1.917476038215682e-05, 0.0, -0.20158424973487854]","[-0.0411987341940403, -4.417419910430908, -1.836042881011963, -0.4037475883960724, 0.0448608435690403, -0.4441223740577698]"
1584452293275497190,,1300180,,1584452293,275176000,'',"[shoulder_pan_joint, shoulder_lift_joint, elbow_joint, wrist_1_joint, wrist_2_joint,","[1.579496145248413, -1.1104381720172327, 2.333277702331543, -2.775346581135885, -1.5669940153705042, 2.584044933319092]","[0.0, 0.0, -1.2783173588104546e-05, 1.917476038215682e-05, 0.0, -0.2008364349603653]","[-0.0640869215130806, -4.431152820587158, -1.8270756006240845, -0.3992615044116974, 0.008972168900072575, -0.3723450005054474]"
1584452293387556557,,1300194,,1584452293,387228093,'',"[shoulder_pan_joint, shoulder_lift_joint, elbow_joint, wrist_1_joint, wrist_2_joint,","[1.579484224319458, -1.1104381720172327, 2.3332056999206543, -2.77533466020693, -1.5670059362994593, 2.5615720748901367]","[0.0, 0.0, -1.2783173588104546e-05, 1.917476038215682e-05, 0.0, -0.19849711656570435]","[-0.0411987341940403, -4.431152820587158, -1.833801031112671, -0.4239349663257599, -0.0538330152630806, -0.4149627983570099]"
1584452293499489577,,1300208,,1584452293,499151045,'',"[shoulder_pan_joint, shoulder_lift_joint, elbow_joint, wrist_1_joint, wrist_2_joint,","[1.5795321464538574, -1.1104381720172327, 2.333253860473633, -2.7753103415118616, -1.5670416990863245, 2.5392074584960938]","[0.0, 0.0, -1.2783173588104546e-05, 1.917476038215682e-05, -0.0007861651829443872, -0.20012697577476501]","[-0.0732421949505806, -4.444885730743408, -1.8382846117019653, -0.4306641221046448, -0.0740203931927681, -0.3902893364429474]"
1584452293611456892,,1300222,,1584452293,611131103,'',"[shoulder_pan_joint, shoulder_lift_joint, elbow_joint, wrist_1_joint, wrist_2_joint,","[1.579484224319458, -1.1104500929461878, 2.3332297801971436, -2.7753103415118616, -1.5670416990863245, 2.516843557357788]","[0.0, 0.0, -1.2783173588104546e-05, 0.0, -0.0002109223569277674, -0.1980752795934677]","[-0.0595092847943306, -4.426575183868408, -1.8450100421905518, -0.4261780083179474, -0.0695343092083931, -0.4575806260108948]"
1584452293723464502,,1300236,,1584452293,723192383,'',"[shoulder_pan_joint, shoulder_lift_joint, elbow_joint, wrist_1_joint, wrist_2_joint,","[1.5795201063156128, -1.1104381720172327, 2.3332056999206543, -2.77533466020693, -1.5670536200152796, 2.4942872524261475]","[0.0, 0.0, -1.2783173588104546e-05, 0.0, -0.00011504856229294091, -0.2012774646282196]","[-0.0366210974752903, -4.426575183868408, -1.836042881011963, -0.4351502060890198, -0.0829925611615181, -0.3723450005054474]"
1584452293835374309,,1300250,,1584452293,835133590,'',"[shoulder_pan_joint, shoulder_lift_joint, elbow_joint, wrist_1_joint, wrist_2_joint,","[1.579496145248413, -1.1104500929461878, 2.3332297801971436, -2.775322739277975, -1.5670178572284144, 2.471827745437622]","[0.0, 0.0, -1.2783173588104546e-05, 0.0, -7.669904152862728e-05, -0.19909153878688812]","[-0.0320434607565403, -4.444885730743408, -1.836042881011963, -0.4037475883960724, -0.0852356031537056, -0.4015045464038849]"
1584452293947440468,,1300264,,1584452293,947147581,'',"[shoulder_pan_joint, shoulder_lift_joint, elbow_joint, wrist_1_joint, wrist_2_joint,","[1.579496145248413, -1.1104381720172327, 2.3332297801971436, -2.7753103415118616, -1.5670178572284144, 2.4495954513549805]","[0.0, 0.0, -1.2783173588104546e-05, 0.0, -5.752428114647046e-05, -0.19951337575912476]","[-0.0823974683880806, -4.440308094024658, -1.8382846117019653, -0.4149627983570099, -0.0785064771771431, -0.4777680039405823]"
1584452294059391984,,1300278,,1584452294,59123593,'',"[shoulder_pan_joint, shoulder_lift_joint, elbow_joint, wrist_1_joint, wrist_2_joint,","[1.579496145248413, -1.1104262510882776, 2.3332297801971436, -2.7752984205829065, -1.5670297781573694, 2.427100419998169]","[0.0, 0.0, -1.2783173588104546e-05, 0.0, -5.752428114647046e-05, -0.20194856822490692]","[-0.0411987341940403, -4.426575183868408, -1.8270756006240845, -0.4149627983570099, -0.0874786451458931, -0.3521576225757599]"
1584452294171503998,,1300292,,1584452294,171186866,'',"[shoulder_pan_joint, shoulder_lift_joint, elbow_joint, wrist_1_joint, wrist_2_joint,","[1.5795081853866577, -1.110462490712301, 2.3332297801971436, -2.775346581135885, -1.5670416990863245, 2.4047605991363525]","[0.0, 0.0, -1.2783173588104546e-05, 0.0, -3.834952076431364e-05, -0.19778765738010406]","[-0.01831054873764515, -4.440308094024658, -1.8472518920898438, -0.3925323784351349, -0.0964508131146431, -0.5181427597999573]"
1584452294283506960,,1300306,,1584452294,283160523,'',"[shoulder_pan_joint, shoulder_lift_joint, elbow_joint, wrist_1_joint, wrist_2_joint,","[1.5795081853866577, -1.1104381720172327, 2.3332056999206543, -2.7753103415118616, -1.5670297781573694, 2.382481098175049]","[0.0, 0.0, -1.2783173588104546e-05, 0.0, -3.834952076431364e-05, -0.2027539163827896]","[-0.0686645582318306, -4.435730457305908, -1.8248337507247925, -0.4329071640968323, -0.1211242824792862, -0.4127197563648224]"
1584452294395420033,,1300320,,1584452294,395133528,'',"[shoulder_pan_joint, shoulder_lift_joint, elbow_joint, wrist_1_joint, wrist_2_joint,","[1.5795201063156128, -1.110462490712301, 2.3332297801971436, -2.7753103415118616, -1.567089859639303, 2.360045909881592]","[0.0, 0.0, -1.2783173588104546e-05, 0.0, -3.834952076431364e-05, -0.19857381284236908]","[-0.0320434607565403, -4.444885730743408, -1.8270756006240845, -0.4037475883960724, -0.1054229810833931, -0.5787048935890198]"
1584452294507468149,,1300334,,1584452294,507129797,'',"[shoulder_pan_joint, shoulder_lift_joint, elbow_joint, wrist_1_joint, wrist_2_joint,","[1.5795201063156128, -1.1104381720172327, 2.3332297801971436, -2.775346581135885, -1.5670536200152796, 2.337587594985962]","[0.0, 0.0, -1.2783173588104546e-05, 0.0, -3.834952076431364e-05, -0.19951337575912476]","[-0.0274658240377903, -4.449463367462158, -1.8270756006240845, -0.4329071640968323, -0.1233673244714737, -0.4418793320655823]"
1584452294619512899,,1300348,,1584452294,619170740,'',"[shoulder_pan_joint, shoulder_lift_joint, elbow_joint, wrist_1_joint, wrist_2_joint,","[1.579484224319458, -1.110462490712301, 2.3332417011260986, -2.7753103415118616, -1.5670297781573694, 2.315152645111084]","[0.0, 0.0, -1.2783173588104546e-05, 0.0, -3.834952076431364e-05, -0.200951486825943]","[-0.0274658240377903, -4.431152820587158, -1.8427683115005493, -0.4194488823413849, -0.1166381984949112, -0.5046845078468323]"
1584452294731386318,,1300362,,1584452294,731087410,'',"[shoulder_pan_joint, shoulder_lift_joint, elbow_joint, wrist_1_joint, wrist_2_joint,","[1.5795081853866577, -1.1104381720172327, 2.333253860473633, -2.775322739277975, -1.5670297781573694, 2.292705774307251]","[0.0, 0.0, -1.2783173588104546e-05, 0.0, -3.834952076431364e-05, -0.2002420276403427]","[-0.0640869215130806, -4.440308094024658, -1.8113828897476196, -0.4441223740577698, -0.1143951565027237, -0.4216919243335724]"
1584452294843382737,,1300376,,1584452294,843083438,'',"[shoulder_pan_joint, shoulder_lift_joint, elbow_joint, wrist_1_joint, wrist_2_joint,","[1.5795201063156128, -1.1104500929461878, 2.3332297801971436, -2.775322739277975, -1.5670178572284144, 2.2703189849853516]","[0.0, 0.0, -1.2783173588104546e-05, 0.0, -3.834952076431364e-05, -0.2011815905570984]","[-0.0595092847943306, -4.412842273712158, -1.820350170135498, -0.4104767143726349, -0.1099090725183487, -0.4373932480812073]"
1584452294955338099,,1300390,,1584452294,955093432,'',"[shoulder_pan_joint, shoulder_lift_joint, elbow_joint, wrist_1_joint, wrist_2_joint,","[1.5795201063156128, -1.1104262510882776, 2.3332417011260986, -2.775370422993795, -1.5670416990863245, 2.2478010654449463]","[0.0, 0.0, -1.2783173588104546e-05, 0.0, -3.834952076431364e-05, -0.19874638319015503]","[-0.02288818545639515, -4.426575183868408, -1.8046574592590332, -0.4239349663257599, -0.1233673244714737, -0.5562744736671448]"
1584452295067408016,,1300404,,1584452295,67168679,'',"[shoulder_pan_joint, shoulder_lift_joint, elbow_joint, wrist_1_joint, wrist_2_joint,","[1.579496145248413, -1.1104381720172327, 2.3332417011260986, -2.77533466020693, -1.5670178572284144, 2.225510358810425]","[0.0, 0.0, -1.2783173588104546e-05, 0.0, -3.834952076431364e-05, -0.20290730893611908]","[-0.02288818545639515, -4.417419910430908, -1.820350170135498, -0.3992615044116974, -0.1345825344324112, -0.3947754204273224]"
1584452295179375841,,1300418,,1584452295,179170388,'',"[shoulder_pan_joint, shoulder_lift_joint, elbow_joint, wrist_1_joint, wrist_2_joint,","[1.5795081853866577, -1.110462490712301, 2.3332417011260986, -2.775346581135885, -1.5670536200152796, 2.20308780670166]","[0.0, 0.0, -1.2783173588104546e-05, 0.0, -3.834952076431364e-05, -0.1990148425102234]","[-0.0503540076315403, -4.408264636993408, -1.82259202003479, -0.4351502060890198, -0.1300964504480362, -0.5607605576515198]"
1584452295291428195,,1300432,,1584452295,291138013,'',"[shoulder_pan_joint, shoulder_lift_joint, elbow_joint, wrist_1_joint, wrist_2_joint,","[1.5795081853866577, -1.110462490712301, 2.333253860473633, -2.7753103415118616, -1.5670297781573694, 2.1806297302246094]","[0.0, 0.0, -1.2783173588104546e-05, 0.0, -1.917476038215682e-05, -0.19966678321361542]","[-0.0549316480755806, -4.412842273712158, -1.82259202003479, -0.4396362900733948, -0.1166381984949112, -0.4351502060890198]"
1584452295403471031,,1300446,,1584452295,403149180,'',"[shoulder_pan_joint, shoulder_lift_joint, elbow_joint, wrist_1_joint, wrist_2_joint,","[1.5795081853866577, -1.1104500929461878, 2.3332417011260986, -2.7752984205829065, -1.5670178572284144, 2.158231735229492]","[0.0, 0.0, -1.2783173588104546e-05, 0.0, -1.917476038215682e-05, -0.19840124249458313]","[-0.02288818545639515, -4.431152820587158, -1.833801031112671, -0.4172058403491974, -0.1390686184167862, -0.5136566758155823]"
1584452295515433497,,1300460,,1584452295,515117757,'',"[shoulder_pan_joint, shoulder_lift_joint, elbow_joint, wrist_1_joint, wrist_2_joint,","[1.579496145248413, -1.110462490712301, 2.3332417011260986, -2.7753103415118616, -1.5670297781573694, 2.1359410285949707]","[0.0, 0.0, -1.2783173588104546e-05, 0.0, -1.917476038215682e-05, -0.20148837566375732]","[-0.0503540076315403, -4.431152820587158, -1.82259202003479, -0.4149627983570099, -0.1278534084558487, -0.4732819199562073]"
1584452295627360325,,1300474,,1584452295,627102334,'',"[shoulder_pan_joint, shoulder_lift_joint, elbow_joint, wrist_1_joint, wrist_2_joint,","[1.5795321464538574, -1.1104381720172327, 2.333253860473633, -2.775322739277975, -1.5670297781573694, 2.113447427749634]","[0.0, 0.0, -1.2783173588104546e-05, 0.0, -1.917476038215682e-05, -0.1995709091424942]","[0.0, -4.435730457305908, -1.833801031112671, -0.4373932480812073, -0.1435547024011612, -0.4687958359718323]"
1584452295739421917,,1300488,,1584452295,739112749,'',"[shoulder_pan_joint, shoulder_lift_joint, elbow_joint, wrist_1_joint, wrist_2_joint,","[1.5795081853866577, -1.110462490712301, 2.3332417011260986, -2.7752984205829065, -1.5670416990863245, 2.0910727977752686]","[0.0, 0.0, -1.2783173588104546e-05, 0.0, -1.917476038215682e-05, -0.19976265728473663]","[-0.0640869215130806, -4.435730457305908, -1.8158665895462036, -0.4329071640968323, -0.1413116604089737, -0.4777680039405823]"
1584452295851376157,,1300502,,1584452295,851076497,'',"[shoulder_pan_joint, shoulder_lift_joint, elbow_joint, wrist_1_joint, wrist_2_joint,","[1.5795081853866577, -1.1104262510882776, 2.333253860473633, -2.7753103415118616, -1.5670416990863245, 2.068662643432617]","[0.0, 0.0, -1.2783173588104546e-05, 0.0, -1.917476038215682e-05, -0.20223619043827057]","[-0.0457763709127903, -4.431152820587158, -1.8270756006240845, -0.4172058403491974, -0.1435547024011612, -0.4037475883960724]"
1584452295963298047,,1300516,,1584452295,963044734,'',"[shoulder_pan_joint, shoulder_lift_joint, elbow_joint, wrist_1_joint, wrist_2_joint,","[1.5795201063156128, -1.1104381720172327, 2.333253860473633, -2.7753103415118616, -1.5670416990863245, 2.0463244915008545]","[0.0, 0.0, -1.2783173588104546e-05, 0.0, -1.917476038215682e-05, -0.19951337575912476]","[-0.0274658240377903, -4.421997547149658, -1.8293174505233765, -0.4239349663257599, -0.1368255764245987, -0.5136566758155823]"
1584452296075439617,,1300530,,1584452296,75120581,'',"[shoulder_pan_joint, shoulder_lift_joint, elbow_joint, wrist_1_joint, wrist_2_joint,","[1.5795201063156128, -1.1104500929461878, 2.3332417011260986, -2.7752984205829065, -1.5670536200152796, 2.023926258087158]","[0.0, 0.0, -1.2783173588104546e-05, 0.0, -1.917476038215682e-05, -0.20018449425697327]","[-0.0595092847943306, -4.454041004180908, -1.831559181213379, -0.4194488823413849, -0.1525268703699112, -0.4194488823413849]"
1584452296187428672,,1300544,,1584452296,187118132,'',"[shoulder_pan_joint, shoulder_lift_joint, elbow_joint, wrist_1_joint, wrist_2_joint,","[1.5795321464538574, -1.1104024092303675, 2.333277702331543, -2.7752984205829065, -1.5670297781573694, 2.0014798641204834]","[0.0, 0.0, -0.0, 0.0, 0.0, -0.1992449313402176]","[-0.0411987341940403, -4.426575183868408, -1.836042881011963, -0.4037475883960724, -0.1413116604089737, -0.4620667099952698]"
1584452296299473752,,1300558,,1584452296,299168973,'',"[shoulder_pan_joint, shoulder_lift_joint, elbow_joint, wrist_1_joint, wrist_2_joint,","[1.5794721841812134, -1.1104381720172327, 2.333265781402588, -2.7752984205829065, -1.5670416990863245, 1.9790337085723877]","[0.0, 0.0, -0.0, 0.0, 0.0, -0.20006944239139557]","[-0.0411987341940403, -4.417419910430908, -1.8405264616012573, -0.4373932480812073, -0.1368255764245987, -0.4104767143726349]"
1584452296411386455,,1300572,,1584452296,411115309,'',"[shoulder_pan_joint, shoulder_lift_joint, elbow_joint, wrist_1_joint, wrist_2_joint,","[1.5795201063156128, -1.1104262510882776, 2.3332417011260986, -2.7753103415118616, -1.5670178572284144, 1.9566951990127563]","[0.0, 0.0, -0.0, 0.0, 0.0, -0.19755755364894867]","[-0.01831054873764515, -4.417419910430908, -1.8293174505233765, -0.4059906303882599, -0.1390686184167862, -0.5316010117530823]"
1584452296523372815,,1300586,,1584452296,523109323,'',"[shoulder_pan_joint, shoulder_lift_joint, elbow_joint, wrist_1_joint, wrist_2_joint,","[1.579496145248413, -1.1104143301593226, 2.333253860473633, -2.775322739277975, -1.5670297781573694, 1.934236764907837]","[0.0, 0.0, -0.0, 0.0, 0.0, -0.2010473608970642]","[-0.0640869215130806, -4.449463367462158, -1.8136247396469116, -0.4104767143726349, -0.1368255764245987, -0.4216919243335724]"
1584452296635343246,,1300600,,1584452296,635082058,'',"[shoulder_pan_joint, shoulder_lift_joint, elbow_joint, wrist_1_joint, wrist_2_joint,","[1.5795321464538574, -1.1104381720172327, 2.333253860473633, -2.7753103415118616, -1.5670059362994593, 1.9118502140045166]","[0.0, 0.0, -0.0, 0.0, 0.0, -0.19966678321361542]","[-0.0503540076315403, -4.440308094024658, -1.8270756006240845, -0.4261780083179474, -0.1480407863855362, -0.4643097519874573]"
1584452296747323475,,1300614,,1584452296,747068579,'',"[shoulder_pan_joint, shoulder_lift_joint, elbow_joint, wrist_1_joint, wrist_2_joint,","[1.5795321464538574, -1.1104381720172327, 2.3332297801971436, -2.77533466020693, -1.5670536200152796, 1.889511227607727]","[0.0, 0.0, -0.0, 0.0, 0.0, -0.20110487937927246]","[-0.0274658240377903, -4.421997547149658, -1.8382846117019653, -0.4306641221046448, -0.1457977443933487, -0.5069275498390198]"
1584452296859273808,,1300628,,1584452296,859021757,'',"[shoulder_pan_joint, shoulder_lift_joint, elbow_joint, wrist_1_joint, wrist_2_joint,","[1.579496145248413, -1.1104381720172327, 2.333265781402588, -2.775346581135885, -1.5670536200152796, 1.8670403957366943]","[0.0, 0.0, -0.0, 0.0, 0.0, -0.2017376571893692]","[-0.1052856519818306, -4.435730457305908, -1.8472518920898438, -0.4037475883960724, -0.1637420803308487, -0.3835602104663849]"
1584452296971344816,,1300642,,1584452296,971053633,'',"[shoulder_pan_joint, shoulder_lift_joint, elbow_joint, wrist_1_joint, wrist_2_joint,","[1.5795081853866577, -1.110473934804098, 2.333277702331543, -2.775346581135885, -1.5670059362994593, 1.8447610139846802]","[0.0, 0.0, -0.0, 0.0, 0.0, -0.19884225726127625]","[-0.0869751051068306, -4.440308094024658, -1.831559181213379, -0.3992615044116974, -0.2063598781824112, -0.5809479355812073]"
1584452297083422757,,1300656,,1584452297,83161630,'',"[shoulder_pan_joint, shoulder_lift_joint, elbow_joint, wrist_1_joint, wrist_2_joint,","[1.5795081853866577, -1.1104381720172327, 2.3332417011260986, -2.7752864996539515, -1.5670416990863245, 1.8223025798797607]","[0.0, 0.0, -0.0, 0.0, 0.0, -0.2026580423116684]","[-0.0869751051068306, -4.417419910430908, -1.8024157285690308, -0.4396362900733948, -0.1839294582605362, -0.4530945420265198]"
1584452297195352713,,1300670,,1584452297,195032655,'',"[shoulder_pan_joint, shoulder_lift_joint, elbow_joint, wrist_1_joint, wrist_2_joint,","[1.579496145248413, -1.1104500929461878, 2.3332901000976562, -2.7752984205829065, -1.567077938710348, 1.7999032735824585]","[0.0, 0.0, -0.0, 0.0, 0.0, -0.19796022772789001]","[-0.01373291201889515, -4.412842273712158, -1.8517354726791382, -0.4104767143726349, -0.1749572902917862, -0.5338440537452698]"
1584452297307615609,,1300684,,1584452297,307177731,'',"[shoulder_pan_joint, shoulder_lift_joint, elbow_joint, wrist_1_joint, wrist_2_joint,","[1.5795201063156128, -1.1104024092303675, 2.333253860473633, -2.775322739277975, -1.5670655409442347, 1.7775520086288452]","[0.0, 0.0, -0.0, 0.0, 0.0, -0.19985853135585785]","[-0.0503540076315403, -4.408264636993408, -1.820350170135498, -0.4104767143726349, -0.1704712063074112, -0.4844971299171448]"
1584452297419420150,,1300698,,1584452297,419084123,'',"[shoulder_pan_joint, shoulder_lift_joint, elbow_joint, wrist_1_joint, wrist_2_joint,","[1.5795321464538574, -1.1104143301593226, 2.333253860473633, -2.77533466020693, -1.5670536200152796, 1.7550684213638306]","[0.0, 0.0, -0.0, 0.0, 0.0, -0.2007022202014923]","[-0.02288818545639515, -4.440308094024658, -1.8382846117019653, -0.4149627983570099, -0.1839294582605362, -0.5091705918312073]"
1584452297531319297,,1300712,,1584452297,531044083,'',"[shoulder_pan_joint, shoulder_lift_joint, elbow_joint, wrist_1_joint, wrist_2_joint,","[1.5795201063156128, -1.1104143301593226, 2.333253860473633, -2.7752745787249964, -1.5670655409442347, 1.732668399810791]","[0.0, 0.0, -0.0, 0.0, 0.0, -0.2004912942647934]","[-0.0595092847943306, -4.431152820587158, -1.831559181213379, -0.4015045464038849, -0.1861725002527237, -0.4979553818702698]"
1584452297643414621,,1300726,,1584452297,643073374,'',"[shoulder_pan_joint, shoulder_lift_joint, elbow_joint, wrist_1_joint, wrist_2_joint,","[1.5795081853866577, -1.1104143301593226, 2.333277702331543, -2.7753103415118616, -1.5670536200152796, 1.7108792066574097]","[0.0, 0.0, -0.0, 0.0, 0.0, -0.15861362218856812]","[-0.0640869215130806, -4.435730457305908, -1.8405264616012573, -0.4037475883960724, -0.1884155422449112, -0.4486084580421448]"
1584452297755293771,,1300740,,1584452297,755007547,'',"[shoulder_pan_joint, shoulder_lift_joint, elbow_joint, wrist_1_joint, wrist_2_joint,","[1.5795081853866577, -1.1104381720172327, 2.333253860473633, -2.7753103415118616, -1.5670297781573694, 1.7029175758361816]","[0.0, 0.0, -0.0, 0.0, 0.0, -0.002281796419993043]","[-0.0732421949505806, -4.431152820587158, -1.8293174505233765, -0.4059906303882599, -0.1839294582605362, -0.0785064771771431]"
1584452297867316339,,1300754,,1584452297,867010658,'',"[shoulder_pan_joint, shoulder_lift_joint, elbow_joint, wrist_1_joint, wrist_2_joint,","[1.5795201063156128, -1.1104262510882776, 2.333265781402588, -2.7752984205829065, -1.5670536200152796, 1.7030373811721802]","[0.0, 0.0, -0.0, 0.0, 0.0, 0.0014572817599400878]","[-0.01373291201889515, -4.467773914337158, -1.8248337507247925, -0.4261780083179474, -0.1839294582605362, -0.0291595496237278]"
1584452297979393269,,1300768,,1584452297,979018208,'',"[shoulder_pan_joint, shoulder_lift_joint, elbow_joint, wrist_1_joint, wrist_2_joint,","[1.5795201063156128, -1.1104262510882776, 2.3332417011260986, -2.7752984205829065, -1.5670655409442347, 1.7031928300857544]","[0.0, 0.0, -0.0, 0.0, 0.0, 0.0008820389630272985]","[-0.0961303785443306, -4.440308094024658, -1.8270756006240845, -0.4239349663257599, -0.1861725002527237, -0.02018737979233265]"
1584452298091298347,,1300782,,1584452298,91011752,'',"[shoulder_pan_joint, shoulder_lift_joint, elbow_joint, wrist_1_joint, wrist_2_joint,","[1.579927921295166, -1.1103785673724573, 2.333085536956787, -2.7751787344561976, -1.567077938710348, 1.703779697418213]","[0.022639000788331032, 0.00250550196506083, -0.016528643667697906, 0.003930825740098953, 0.0, 0.024754615500569344]","[0.8880616426467896, -4.046631336212158, -2.4256389141082764, -0.2915954887866974, -0.1682281643152237, 0.0628051832318306]"
1584452298203317999,,1300796,,1584452298,202947618,'',"[shoulder_pan_joint, shoulder_lift_joint, elbow_joint, wrist_1_joint, wrist_2_joint,","[1.5874607563018799, -1.1089871565448206, 2.329737901687622, -2.773191754017965, -1.5670536200152796, 1.7111308574676514]","[0.08675939589738846, 0.01637524552643299, -0.041021205484867096, 0.022472819313406944, -1.917476038215682e-05, 0.08216384798288345]","[1.2176514863967896, -3.245544672012329, -2.6722381114959717, -0.1143951565027237, -0.0291595496237278, 0.4082336723804474]"
1584452298315335699,,1300810,,1584452298,315041900,'',"[shoulder_pan_joint, shoulder_lift_joint, elbow_joint, wrist_1_joint, wrist_2_joint,","[1.5970680713653564, -1.1071532408343714, 2.325045585632324, -2.770665470753805, -1.566981617604391, 1.7206246852874756]","[0.08321846276521683, 0.016336895525455475, -0.04146861657500267, 0.023738352581858635, 0.0009779128013178706, 0.08406215161085129]","[0.9658814668655396, -3.392029047012329, -2.571356773376465, -0.0874786451458931, 0.0583190992474556, 0.2669220268726349]"
1584452298427484973,,1300824,,1584452298,427024423,'',"[shoulder_pan_joint, shoulder_lift_joint, elbow_joint, wrist_1_joint, wrist_2_joint,","[1.6063636541366577, -1.1053908506976526, 2.320521593093872, -2.768019501362936, -1.566861931477682, 1.7299869060516357]","[0.0810069739818573, 0.01642637886106968, -0.03924434259533882, 0.024390295147895813, 0.0014956312952563167, 0.08684249222278595]","[1.2908936738967896, -3.222656488418579, -2.4928932189941406, -0.0762634351849556, 0.1480407863855362, 0.3678589165210724]"
1584452298539511008,,1300838,,1584452298,539014721,'',"[shoulder_pan_joint, shoulder_lift_joint, elbow_joint, wrist_1_joint, wrist_2_joint,","[1.6155511140823364, -1.1035321394549769, 2.315985679626465, -2.76538592973818, -1.5667303244220179, 1.7394447326660156]","[0.08318010717630386, 0.01642637886106968, -0.04199272394180298, 0.023795876652002335, 0.0020133499056100845, 0.08515510708093643]","[1.1718751192092896, -3.089905023574829, -2.4951350688934326, -0.1009368970990181, 0.1502838283777237, 0.3207550346851349]"
1584452298651386891,,1300852,,1584452298,650990321,'',"[shoulder_pan_joint, shoulder_lift_joint, elbow_joint, wrist_1_joint, wrist_2_joint,","[1.6249066591262817, -1.1015904585467737, 2.311161518096924, -2.762739960347311, -1.5665624777423304, 1.7486752271652222]","[0.08237476646900177, 0.01829272136092186, -0.04183932766318321, 0.02323981001973152, 0.0011888351291418076, 0.08287331461906433]","[1.3229371309280396, -3.089905023574829, -2.443573474884033, -0.0829925611615181, 0.2018737941980362, 0.3162689507007599]"
1584452298763230044,,1300866,,1584452298,762934833,'',"[shoulder_pan_joint, shoulder_lift_joint, elbow_joint, wrist_1_joint, wrist_2_joint,","[1.633698582649231, -1.0996001402484339, 2.306697368621826, -2.760249916707174, -1.5663946310626429, 1.7572828531265259]","[0.030475085601210594, 0.008360195904970169, -0.014726215973496437, 0.008858739398419857, 0.0032597093377262354, 0.03142743185162544]","[-0.3067016899585724, -3.634644031524658, -2.2395687103271484, -0.0897216871380806, 0.1009368970990181, 0.3611297905445099]"
1584452298875472594,,1300880,,1584452298,875155331,'',"[shoulder_pan_joint, shoulder_lift_joint, elbow_joint, wrist_1_joint, wrist_2_joint,","[1.6335548162460327, -1.099623982106344, 2.3067333698272705, -2.760333840047018, -1.5663464705096644, 1.7573907375335693]","[-0.0022754049859941006, 7.669904152862728e-05, -0.0, -0.0003834952076431364, 0.000862864195369184, -0.00036432043998502195]","[-0.2380371391773224, -4.055786609649658, -1.963826060295105, -0.3476715385913849, 0.1435547024011612, -0.02467346377670765]"
1584452298987392069,,1300894,,1584452298,986988655,'',"[shoulder_pan_joint, shoulder_lift_joint, elbow_joint, wrist_1_joint, wrist_2_joint,","[1.6335667371749878, -1.0996359030352991, 2.30678129196167, -2.760333840047018, -1.566298786793844, 1.7573667764663696]","[-0.0005241101025603712, 0.0, -0.0, -0.00017257283616345376, 0.0, -0.00024927189224399626]","[-0.4898071885108948, -4.028320789337158, -2.01090407371521, -0.3252411186695099, 0.1929016262292862, -0.0762634351849556]"
1584452299099278983,,1300908,,1584452299,98965288,'',"[shoulder_pan_joint, shoulder_lift_joint, elbow_joint, wrist_1_joint, wrist_2_joint,","[1.633542776107788, -1.0996359030352991, 2.30678129196167, -2.760333840047018, -1.566286865864889, 1.7572828531265259]","[-3.834952076431364e-05, 0.0, -0.0, -9.58738019107841e-05, 0.0, -0.0005944175645709038]","[-0.6912232041358948, -4.010010242462158, -2.019871234893799, -0.2646789848804474, 0.1682281643152237, -0.0717773512005806]"
1584452299211236339,,1300922,,1584452299,210986182,'',"[shoulder_pan_joint, shoulder_lift_joint, elbow_joint, wrist_1_joint, wrist_2_joint,","[1.6335188150405884, -1.099623982106344, 2.306793689727783, -2.7602976004229944, -1.566286865864889, 1.7572709321975708]","[-0.0003707120195031166, 0.0, -0.0, -7.669904152862728e-05, 0.00013422331539914012, -0.0001917476038215682]","[-0.5722046494483948, -4.019165515899658, -2.017629384994507, -0.1861725002527237, 0.1592559963464737, -0.0695343092083931]"
1584452299323443011,,1300936,,1584452299,323057972,'',"[shoulder_pan_joint, shoulder_lift_joint, elbow_joint, wrist_1_joint, wrist_2_joint,","[1.6335307359695435, -1.0996478239642542, 2.3068056106567383, -2.760237995778219, -1.5662630240069788, 1.7570315599441528]","[-0.00012783173588104546, 0.0, -0.0, 0.0018024274613708258, 0.00013422331539914012, -0.014438594691455364]","[-0.5905151963233948, -3.991699695587158, -2.0400476455688477, -0.1727142482995987, 0.1637420803308487, -0.1637420803308487]"
1584452299435264293,,1300950,,1584452299,434925771,'',"[shoulder_pan_joint, shoulder_lift_joint, elbow_joint, wrist_1_joint, wrist_2_joint,","[1.6335307359695435, -1.099612061177389, 2.306793689727783, -2.7601898352252405, -1.5662630240069788, 1.748998761177063]","[-7.669904152862728e-05, 0.0, -0.0, 0.000517718552146107, 0.00011504856229294091, -0.1566961407661438]","[-0.5996704697608948, -3.987122058868408, -2.10506010055542, -0.1772003322839737, 0.1323394924402237, -0.3992615044116974]"
1584452299547255112,,1300964,,1584452299,546914476,'',"[shoulder_pan_joint, shoulder_lift_joint, elbow_joint, wrist_1_joint, wrist_2_joint,","[1.6335307359695435, -1.099612061177389, 2.30678129196167, -2.7601898352252405, -1.5662153402911585, 1.7268500328063965]","[-5.1132694352418184e-05, 0.0, -0.0, 0.0001917476038215682, 7.669904152862728e-05, -0.20248547196388245]","[-0.5905151963233948, -4.019165515899658, -2.201457977294922, -0.1682281643152237, 0.1682281643152237, -0.3925323784351349]"
1584452299659230431,,1300978,,1584452299,658914221,'',"[shoulder_pan_joint, shoulder_lift_joint, elbow_joint, wrist_1_joint, wrist_2_joint,","[1.6335067749023438, -1.0996478239642542, 2.3068296909332275, -2.76014215150942, -1.5662630240069788, 1.7044380903244019]","[-3.834952076431364e-05, 0.0, -0.0, 0.00015339808305725455, 5.752428114647046e-05, -0.20039542019367218]","[-0.5447388291358948, -4.042053699493408, -2.291130304336548, -0.1749572902917862, 0.1704712063074112, -0.5742188096046448]"
1584452299771113780,,1300992,,1584452299,770864344,'',"[shoulder_pan_joint, shoulder_lift_joint, elbow_joint, wrist_1_joint, wrist_2_joint,","[1.6335188150405884, -1.099612061177389, 2.30678129196167, -2.760106388722555, -1.566286865864889, 1.6818463802337646]","[-3.834952076431364e-05, 0.0, -0.0, 0.0001917476038215682, 3.834952076431364e-05, -0.20206362009048462]","[-0.5722046494483948, -4.010010242462158, -2.38752818107605, -0.1614990383386612, 0.1121521145105362, -0.4059906303882599]"
1584452299883306976,,1301006,,1584452299,882926385,'',"[shoulder_pan_joint, shoulder_lift_joint, elbow_joint, wrist_1_joint, wrist_2_joint,","[1.6334948539733887, -1.099623982106344, 2.3067452907562256, -2.760130230580465, -1.5662391821490687, 1.6595298051834106]","[-2.5566347176209092e-05, 0.0, -0.0, 0.0001917476038215682, 1.917476038215682e-05, -0.19863134622573853]","[-0.6134033799171448, -4.032898426055908, -2.365110158920288, -0.1502838283777237, 0.1323394924402237, -0.5001984238624573]"
1584452299995215481,,1301020,,1584452299,994903057,'',"[shoulder_pan_joint, shoulder_lift_joint, elbow_joint, wrist_1_joint, wrist_2_joint,","[1.6335188150405884, -1.0996359030352991, 2.30678129196167, -2.760106388722555, -1.5662272612201136, 1.6370571851730347]","[-2.5566347176209092e-05, 0.0, -0.0, 0.00015339808305725455, 1.917476038215682e-05, -0.19997356832027435]","[-0.5676270127296448, -4.046631336212158, -2.358384609222412, -0.1839294582605362, 0.1547699123620987, -0.4396362900733948]"
1584452300107435487,,1301034,,1584452300,107065065,'',"[shoulder_pan_joint, shoulder_lift_joint, elbow_joint, wrist_1_joint, wrist_2_joint,","[1.6335067749023438, -1.099612061177389, 2.3067452907562256, -2.760106388722555, -1.5662511030780237, 1.614572525024414]","[-2.5566347176209092e-05, 0.0, -0.0, 9.58738019107841e-05, 1.917476038215682e-05, -0.1972891092300415]","[-0.5630493760108948, -4.046631336212158, -2.3539011478424072, -0.2332763969898224, 0.1390686184167862, -0.5473023056983948]"
1584452300219228717,,1301048,,1584452300,218926553,'',"[shoulder_pan_joint, shoulder_lift_joint, elbow_joint, wrist_1_joint, wrist_2_joint,","[1.6335188150405884, -1.0996478239642542, 2.3067452907562256, -2.760106388722555, -1.5662272612201136, 1.5922672748565674]","[-1.2783173588104546e-05, 0.0, -0.0, 7.669904152862728e-05, 0.0, -0.1995709091424942]","[-0.5722046494483948, -4.042053699493408, -2.371835470199585, -0.2871094048023224, 0.1749572902917862, -0.4620667099952698]"
1584452300331295367,,1301062,,1584452300,330945794,'',"[shoulder_pan_joint, shoulder_lift_joint, elbow_joint, wrist_1_joint, wrist_2_joint,","[1.6335067749023438, -1.099623982106344, 2.30678129196167, -2.760130230580465, -1.5662034193622034, 1.5698298215866089]","[-1.2783173588104546e-05, 0.0, -0.0, 3.834952076431364e-05, 0.0, -0.19997356832027435]","[-0.5767822861671448, -4.110718250274658, -2.3494174480438232, -0.3386993706226349, 0.1413116604089737, -0.4553375840187073]"
1584452300443253956,,1301076,,1584452300,442880288,'',"[shoulder_pan_joint, shoulder_lift_joint, elbow_joint, wrist_1_joint, wrist_2_joint,","[1.6335307359695435, -1.099623982106344, 2.30678129196167, -2.760106388722555, -1.5661910215960901, 1.54753577709198]","[-1.2783173588104546e-05, 0.0, -3.834952076431364e-05, 3.834952076431364e-05, 0.0, -0.19976265728473663]","[-0.5859375596046448, -4.096985340118408, -2.4032208919525146, -0.4373932480812073, 0.1457977443933487, -0.5652466416358948]"
1584452300555227382,,1301090,,1584452300,554900481,'',"[shoulder_pan_joint, shoulder_lift_joint, elbow_joint, wrist_1_joint, wrist_2_joint,","[1.6335188150405884, -1.099612061177389, 2.3067574501037598, -2.76014215150942, -1.5662034193622034, 1.5250616073608398]","[-1.2783173588104546e-05, 0.0, -3.834952076431364e-05, -0.00017257283616345376, 0.0, -0.20121993124485016]","[-0.6134033799171448, -4.005432605743408, -2.3539011478424072, -0.5405731797218323, 0.1614990383386612, -0.3835602104663849]"
1584452300667216718,,1301104,,1584452300,666889697,'',"[shoulder_pan_joint, shoulder_lift_joint, elbow_joint, wrist_1_joint, wrist_2_joint,","[1.6335067749023438, -1.0996359030352991, 2.30678129196167, -2.76011830965151, -1.566179100667135, 1.5026832818984985]","[-1.2783173588104546e-05, 0.0, -3.834952076431364e-05, -0.00017257283616345376, 0.0, -0.19905318319797516]","[-0.5905151963233948, -4.051208972930908, -2.362868309020996, -0.4665527939796448, 0.1031799390912056, -0.5607605576515198]"
1584452300779412139,,1301118,,1584452300,778995761,'',"[shoulder_pan_joint, shoulder_lift_joint, elbow_joint, wrist_1_joint, wrist_2_joint,","[1.6335067749023438, -1.0996359030352991, 2.3067574501037598, -2.7601540724383753, -1.5662272612201136, 1.4802451133728027]","[-1.2783173588104546e-05, 0.0, -3.834952076431364e-05, -0.00011504856229294091, 0.0, -0.20248547196388245]","[-0.5813599228858948, -4.023743152618408, -2.36735200881958, -0.5091705918312073, 0.0269165076315403, -0.4373932480812073]"
1584452300891193296,,1301132,,1584452300,890877275,'',"[shoulder_pan_joint, shoulder_lift_joint, elbow_joint, wrist_1_joint, wrist_2_joint,","[1.6334948539733887, -1.0995882193194788, 2.306769371032715, -2.7601540724383753, -1.5662272612201136, 1.4599493741989136]","[-1.2783173588104546e-05, 0.0, -3.834952076431364e-05, -7.669904152862728e-05, 0.0, -0.1204366683959961]","[-0.6042481064796448, -4.010010242462158, -2.36735200881958, -0.5203858017921448, -0.0358886756002903, -0.5069275498390198]"
1584452301003381103,,1301146,,1584452301,2945339,'',"[shoulder_pan_joint, shoulder_lift_joint, elbow_joint, wrist_1_joint, wrist_2_joint,","[1.6335307359695435, -1.0996359030352991, 2.3067452907562256, -2.7601540724383753, -1.5662034193622034, 1.4553391933441162]","[-1.2783173588104546e-05, 0.0, -3.834952076431364e-05, -5.752428114647046e-05, 0.0, 0.00155315559823066]","[-0.5584717392921448, -4.060364246368408, -2.378561019897461, -0.5181427597999573, -0.02018737979233265, -0.0942077711224556]"
1584452301115180333,,1301160,,1584452301,114813237,'',"[shoulder_pan_joint, shoulder_lift_joint, elbow_joint, wrist_1_joint, wrist_2_joint,","[1.6334948539733887, -1.099612061177389, 2.3067574501037598, -2.7601540724383753, -1.5662272612201136, 1.455435037612915]","[0.0, 0.0, -3.834952076431364e-05, -3.834952076431364e-05, 0.0, 0.001418932224623859]","[-0.5630493760108948, -4.028320789337158, -2.36735200881958, -0.5091705918312073, -0.02243042178452015, 0.004486084450036287]"
1584452301227287880,,1301174,,1584452301,226932927,'',"[shoulder_pan_joint, shoulder_lift_joint, elbow_joint, wrist_1_joint, wrist_2_joint,","[1.6335188150405884, -1.0995882193194788, 2.306769371032715, -2.76014215150942, -1.5662034193622034, 1.4556388854980469]","[0.0, 0.0, -3.834952076431364e-05, -3.834952076431364e-05, 0.0, 0.000690291344653815]","[-0.5722046494483948, -3.996277332305908, -2.371835470199585, -0.5046845078468323, -0.0269165076315403, -0.008972168900072575]"
1584452301339125242,,1301188,,1584452301,338822917,'',"[shoulder_pan_joint, shoulder_lift_joint, elbow_joint, wrist_1_joint, wrist_2_joint,","[1.6335188150405884, -1.0996478239642542, 2.3067333698272705, -2.7602017561541956, -1.5662034193622034, 1.4556388854980469]","[0.0, 0.0, -3.834952076431364e-05, -3.834952076431364e-05, 0.0, 0.0002109223569277674]","[-0.6408692002296448, -4.010010242462158, -2.4278807640075684, -0.5046845078468323, -0.02018737979233265, 0.0022430422250181437]"
1584452301451261572,,1301202,,1584452301,450873758,'',"[shoulder_pan_joint, shoulder_lift_joint, elbow_joint, wrist_1_joint, wrist_2_joint,","[1.6359894275665283, -1.099504295979635, 2.3061459064483643, -2.760010544453756, -1.5662391821490687, 1.4583210945129395]","[0.06819823384284973, 0.004550809971988201, -0.01679708994925022, 0.006864564027637243, 0.0, 0.06690073758363724]","[1.5243531465530396, -3.602600574493408, -2.652061939239502, -0.1727142482995987, 0.0829925611615181, 0.3117828667163849]"
1584452301563204812,,1301216,,1584452301,562863114,'',"[shoulder_pan_joint, shoulder_lift_joint, elbow_joint, wrist_1_joint, wrist_2_joint,","[1.645153284072876, -1.0988810698138636, 2.3043575286865234, -2.758920971547262, -1.5662153402911585, 1.4674687385559082]","[0.08342298865318298, 0.005841910373419523, -0.017308417707681656, 0.011715778149664402, 0.0, 0.08703424036502838]","[1.2451173067092896, -3.295898675918579, -2.6184346675872803, -0.1413116604089737, 0.1884155422449112, 0.3947754204273224]"
1584452301675163561,,1301230,,1584452301,674821011,'',"[shoulder_pan_joint, shoulder_lift_joint, elbow_joint, wrist_1_joint, wrist_2_joint,","[1.6545324325561523, -1.0981972853290003, 2.302389621734619, -2.7577598730670374, -1.5660951773272913, 1.476796269416809]","[0.08287331461906433, 0.006417152937501669, -0.018228804692626, 0.01137063279747963, 0.0014956312952563167, 0.08237476646900177]","[0.9567261934280396, -3.433227777481079, -2.459266185760498, -0.0672912672162056, 0.1996307522058487, 0.3050537407398224]"
1584452301787274584,,1301244,,1584452301,786841244,'',"[shoulder_pan_joint, shoulder_lift_joint, elbow_joint, wrist_1_joint, wrist_2_joint,","[1.6639479398727417, -1.0974419752704065, 2.3003735542297363, -2.756514851246969, -1.565927807484762, 1.4861476421356201]","[0.08205518871545792, 0.007823302410542965, -0.02063204161822796, 0.010584468021988869, 0.0011696603614836931, 0.08241312205791473]","[1.2222291231155396, -3.373718500137329, -2.569114923477173, -0.0852356031537056, 0.3185119926929474, 0.1996307522058487]"
1584452301899236749,,1301258,,1584452301,898832514,'',"[shoulder_pan_joint, shoulder_lift_joint, elbow_joint, wrist_1_joint, wrist_2_joint,","[1.6731116771697998, -1.0966985861407679, 2.298332929611206, -2.7552574316607874, -1.5657718817340296, 1.4953557252883911]","[0.08301392942667007, 0.006864564027637243, -0.017858093604445457, 0.011351457796990871, 0.0011696603614836931, 0.08262404054403305]","[1.2680054903030396, -3.355407953262329, -2.5287623405456543, -0.0785064771771431, 0.3028106987476349, 0.3207550346851349]"
1584452302011116660,,1301272,,1584452302,10765895,'',"[shoulder_pan_joint, shoulder_lift_joint, elbow_joint, wrist_1_joint, wrist_2_joint,","[1.6800801753997803, -1.0961111227618616, 2.2967851161956787, -2.754479710255758, -1.5655201117144983, 1.5022042989730835]","[-0.008360195904970169, -0.0003067961661145091, 0.0005880259559489787, -0.0041609229519963264, 0.0007286408799700439, -0.0054456316865980625]","[-0.4211426079273224, -3.955078601837158, -1.9055389165878296, -0.3140259087085724, 0.2198181450366974, -0.0381317175924778]"
1584452302123272077,,1301286,,1584452302,122914218,'',"[shoulder_pan_joint, shoulder_lift_joint, elbow_joint, wrist_1_joint, wrist_2_joint,","[1.6799602508544922, -1.0960992018329065, 2.2967729568481445, -2.754467789326803, -1.5655320326434534, 1.502156376838684]","[0.00021731395099777728, -0.00020453077740967274, 0.0003962783666793257, -0.0003451456723269075, 0.0002109223569277674, -0.0004793690168298781]","[-0.2059936672449112, -3.932190418243408, -1.9032971858978271, -0.3274841606616974, 0.2265472710132599, -0.0874786451458931]"
1584452302235182535,,1301300,,1584452302,234858229,'',"[shoulder_pan_joint, shoulder_lift_joint, elbow_joint, wrist_1_joint, wrist_2_joint,","[1.6799123287200928, -1.0960872809039515, 2.29671311378479, -2.754479710255758, -1.5654962698565882, 1.502156376838684]","[-0.00017896443023346364, -0.00010226538870483637, 0.00017896443023346364, -0.00015339808305725455, 0.0, -0.0003067961661145091]","[-0.2014160305261612, -4.010010242462158, -1.9010553359985352, -0.3342132866382599, 0.2512207329273224, -0.1031799390912056]"
1584452302347115476,,1301314,,1584452302,346827478,'',"[shoulder_pan_joint, shoulder_lift_joint, elbow_joint, wrist_1_joint, wrist_2_joint,","[1.6799362897872925, -1.0961230436908167, 2.2967610359191895, -2.7544196287738245, -1.5655201117144983, 1.5021203756332397]","[-0.00012783173588104546, -6.391586794052273e-05, 0.00011504856229294091, -9.58738019107841e-05, 0.0, -0.00024927189224399626]","[-0.2059936672449112, -3.950500965118408, -1.9189897775650024, -0.3319702446460724, 0.2646789848804474, -0.0919647291302681]"
1584452302459136561,,1301328,,1584452302,458794171,'',"[shoulder_pan_joint, shoulder_lift_joint, elbow_joint, wrist_1_joint, wrist_2_joint,","[1.6799243688583374, -1.0960992018329065, 2.2967491149902344, -2.754467789326803, -1.5654962698565882, 1.5021203756332397]","[-7.669904152862728e-05, -5.1132694352418184e-05, 7.669904152862728e-05, -7.669904152862728e-05, 0.0, -0.00023009712458588183]","[-0.1647949367761612, -3.918457508087158, -1.9234734773635864, -0.3319702446460724, 0.2310333549976349, -0.1031799390912056]"
1584452302571325289,,1301342,,1584452302,570832809,'',"[shoulder_pan_joint, shoulder_lift_joint, elbow_joint, wrist_1_joint, wrist_2_joint,","[1.6798760890960693, -1.0960992018329065, 2.29671311378479, -2.754455868397848, -1.565472427998678, 1.5020604133605957]","[-5.1132694352418184e-05, -3.834952076431364e-05, 6.391586794052273e-05, -5.752428114647046e-05, 0.0, -0.010066749528050423]","[-0.1785278469324112, -3.955078601837158, -1.912264347076416, -0.3319702446460724, 0.2377624809741974, -0.1413116604089737]"
1584452302683153183,,1301356,,1584452302,682813960,'',"[shoulder_pan_joint, shoulder_lift_joint, elbow_joint, wrist_1_joint, wrist_2_joint,","[1.6799123287200928, -1.0960992018329065, 2.29671311378479, -2.754432026539938, -1.5654962698565882, 1.4970794916152954]","[-3.834952076431364e-05, -2.5566347176209092e-05, 5.1132694352418184e-05, -3.834952076431364e-05, 0.0, -0.11984225362539291]","[-0.2014160305261612, -3.959656238555908, -1.8988134860992432, -0.3431854546070099, 0.2579498589038849, -0.3723450005054474]"
1584452302795293882,,1301370,,1584452302,794919082,'',"[shoulder_pan_joint, shoulder_lift_joint, elbow_joint, wrist_1_joint, wrist_2_joint,","[1.6799362897872925, -1.0961111227618616, 2.2967729568481445, -2.754455868397848, -1.5655320326434534, 1.4765329360961914]","[-3.834952076431364e-05, -2.5566347176209092e-05, 3.834952076431364e-05, -3.834952076431364e-05, 0.0, -0.20164178311824799]","[-0.1556396633386612, -3.923035144805908, -1.912264347076416, -0.3319702446460724, 0.2467346489429474, -0.4441223740577698]"
