PorkPy/robot-pulling-data/deg30_stops/joint_states_throttle.csv
rosbagTimestamp,header,seq,stamp,secs,nsecs,frame_id,name,wrist_3_joint],position,velocity,effort
1584443427933919860,,191964,,1584443427,933651469,'',"[shoulder_pan_joint, shoulder_lift_joint, elbow_joint, wrist_1_joint, wrist_2_joint,","[1.4048302173614502, -1.171788517628805, 2.483058452606201, -2.862767521535055, -1.5669458548175257, 2.7207303047180176]","[0.0, 0.0, -0.0, 0.0, 0.0, 0.0]","[-0.3662109673023224, -2.664184808731079, -1.3114591836929321, -0.4261780083179474, 0.0, 0.006729126907885075]"
1584443428046023171,,191978,,1584443428,45665975,'',"[shoulder_pan_joint, shoulder_lift_joint, elbow_joint, wrist_1_joint, wrist_2_joint,","[1.4047942161560059, -1.1718123594867151, 2.4831063747406006, -2.86280328432192, -1.5669339338885706, 2.7207422256469727]","[0.0, 0.0, -0.0, 0.0, 0.0, 0.0]","[-0.3250122368335724, -2.664184808731079, -1.2912828922271729, -0.4172058403491974, -0.0022430422250181437, 0.004486084450036287]"
1584443428157964690,,191992,,1584443428,157642870,'',"[shoulder_pan_joint, shoulder_lift_joint, elbow_joint, wrist_1_joint, wrist_2_joint,","[1.4047942161560059, -1.1718123594867151, 2.4830944538116455, -2.8628152052508753, -1.5669339338885706, 2.7207064628601074]","[0.0, 0.0, -0.0, 0.0, 0.0, 0.0]","[-0.3204346001148224, -2.641296625137329, -1.3047337532043457, -0.4239349663257599, 0.0022430422250181437, -0.0022430422250181437]"
1584443428270018229,,192006,,1584443428,269736814,'',"[shoulder_pan_joint, shoulder_lift_joint, elbow_joint, wrist_1_joint, wrist_2_joint,","[1.4048062562942505, -1.1718247572528284, 2.483058452606201, -2.862767521535055, -1.5669577757464808, 2.7207303047180176]","[0.0, 0.0, -0.0, 0.0, 0.0, 0.0]","[-0.3250122368335724, -2.677917718887329, -1.2912828922271729, -0.4194488823413849, 0.006729126907885075, 0.0]"
1584443428382001476,,192020,,1584443428,381698400,'',"[shoulder_pan_joint, shoulder_lift_joint, elbow_joint, wrist_1_joint, wrist_2_joint,","[1.4048062562942505, -1.171788517628805, 2.4830703735351562, -2.862791363392965, -1.5669339338885706, 2.7207422256469727]","[0.0, 0.0, -0.0, 0.0, 0.0, 0.0]","[-0.3387451469898224, -2.645874261856079, -1.2980083227157593, -0.4194488823413849, 0.006729126907885075, -0.0022430422250181437]"
1584443428493930041,,192034,,1584443428,493633858,'',"[shoulder_pan_joint, shoulder_lift_joint, elbow_joint, wrist_1_joint, wrist_2_joint,","[1.4047942161560059, -1.1718123594867151, 2.4830822944641113, -2.862767521535055, -1.5669100920306605, 2.7207064628601074]","[0.0, 0.0, -0.0, 0.0, 0.0, 0.0]","[-0.3433227837085724, -2.655029535293579, -1.3024919033050537, -0.4172058403491974, 0.004486084450036287, 0.0022430422250181437]"
1584443428605912316,,192048,,1584443428,605619931,'',"[shoulder_pan_joint, shoulder_lift_joint, elbow_joint, wrist_1_joint, wrist_2_joint,","[1.4047942161560059, -1.171788517628805, 2.4830822944641113, -2.862767521535055, -1.5669696966754358, 2.7207064628601074]","[0.0, 0.0, -0.0, 0.0, 0.0, 0.0]","[-0.3158569633960724, -2.645874261856079, -1.2867993116378784, -0.4194488823413849, 0.0022430422250181437, -0.0022430422250181437]"
1584443428717952980,,192062,,1584443428,717650456,'',"[shoulder_pan_joint, shoulder_lift_joint, elbow_joint, wrist_1_joint, wrist_2_joint,","[1.4048302173614502, -1.1717522780047815, 2.483058452606201, -2.862767521535055, -1.5669458548175257, 2.7206943035125732]","[0.0, 0.0, -0.0, 0.0, 0.0, 0.0]","[-0.3067016899585724, -2.622986078262329, -1.3002501726150513, -0.4149627983570099, -0.0022430422250181437, 0.0]"
1584443428829972756,,192076,,1584443428,829652709,'',"[shoulder_pan_joint, shoulder_lift_joint, elbow_joint, wrist_1_joint, wrist_2_joint,","[1.4048181772232056, -1.1717646757708948, 2.483058452606201, -2.862767521535055, -1.5669220129596155, 2.7207422256469727]","[0.0, 0.0, -0.0, 0.0, 0.0, 0.0]","[-0.3204346001148224, -2.655029535293579, -1.3002501726150513, -0.4261780083179474, 0.004486084450036287, 0.0022430422250181437]"
1584443428941928952,,192090,,1584443428,941616399,'',"[shoulder_pan_joint, shoulder_lift_joint, elbow_joint, wrist_1_joint, wrist_2_joint,","[1.4047942161560059, -1.17180043855776, 2.4830944538116455, -2.862791363392965, -1.5669577757464808, 2.7207422256469727]","[0.0, 0.0, -0.0, 0.0, 0.0, 0.0]","[-0.2975464165210724, -2.650451898574829, -1.3092173337936401, -0.4239349663257599, 0.006729126907885075, 0.0]"
1584443429053948237,,192104,,1584443429,53627238,'',"[shoulder_pan_joint, shoulder_lift_joint, elbow_joint, wrist_1_joint, wrist_2_joint,","[1.4048181772232056, -1.171788517628805, 2.4830944538116455, -2.8627432028399866, -1.5669458548175257, 2.7207303047180176]","[0.0, 0.0, -0.0, 0.0, 0.0, 0.0]","[-0.3204346001148224, -2.627563714981079, -1.3047337532043457, -0.4284210503101349, 0.006729126907885075, -0.006729126907885075]"
1584443429166003468,,192118,,1584443429,165691176,'',"[shoulder_pan_joint, shoulder_lift_joint, elbow_joint, wrist_1_joint, wrist_2_joint,","[1.4048302173614502, -1.17180043855776, 2.4830822944641113, -2.8627432028399866, -1.5669577757464808, 2.720754384994507]","[0.0, 0.0, -0.0, 0.0, 0.0, 0.0]","[-0.3204346001148224, -2.655029535293579, -1.3069756031036377, -0.4172058403491974, 0.0, 0.006729126907885075]"
1584443429277986816,,192132,,1584443429,277681637,'',"[shoulder_pan_joint, shoulder_lift_joint, elbow_joint, wrist_1_joint, wrist_2_joint,","[1.4048421382904053, -1.17177659669985, 2.4830944538116455, -2.86277944246401, -1.5669577757464808, 2.720754384994507]","[0.0, 0.0, -0.0, 0.0, 0.0, 0.0]","[-0.3845215141773224, -2.673340082168579, -1.2935247421264648, -0.4216919243335724, 0.0022430422250181437, 0.0]"
1584443429389941029,,192146,,1584443429,389661898,'',"[shoulder_pan_joint, shoulder_lift_joint, elbow_joint, wrist_1_joint, wrist_2_joint,","[1.4048181772232056, -1.17180043855776, 2.4830822944641113, -2.86277944246401, -1.5669696966754358, 2.7207303047180176]","[0.0, 0.0, -0.0, 0.0, 0.0, 0.0]","[-0.3295898735523224, -2.714538812637329, -1.3137010335922241, -0.4172058403491974, -0.004486084450036287, 0.0]"
1584443429501823869,,192160,,1584443429,501594601,'',"[shoulder_pan_joint, shoulder_lift_joint, elbow_joint, wrist_1_joint, wrist_2_joint,","[1.4048062562942505, -1.1718123594867151, 2.4830822944641113, -2.862767521535055, -1.5669458548175257, 2.7207183837890625]","[0.0, 0.0, -0.0, 0.0, 0.0, 0.0]","[-0.3433227837085724, -2.664184808731079, -1.2845574617385864, -0.4172058403491974, 0.0022430422250181437, -0.006729126907885075]"
1584443429613971633,,192174,,1584443429,613623824,'',"[shoulder_pan_joint, shoulder_lift_joint, elbow_joint, wrist_1_joint, wrist_2_joint,","[1.4048302173614502, -1.171788517628805, 2.4830944538116455, -2.8627551237689417, -1.5669696966754358, 2.7207303047180176]","[0.0, 0.0, -0.0, 0.0, 0.0, 0.0]","[-0.3295898735523224, -2.668762445449829, -1.2980083227157593, -0.4216919243335724, 0.006729126907885075, 0.004486084450036287]"
1584443429725963817,,192188,,1584443429,725598956,'',"[shoulder_pan_joint, shoulder_lift_joint, elbow_joint, wrist_1_joint, wrist_2_joint,","[1.4048181772232056, -1.1717646757708948, 2.4830822944641113, -2.862791363392965, -1.5669339338885706, 2.7207422256469727]","[0.0, 0.0, -0.0, 0.0, 0.0, 0.0]","[-0.3433227837085724, -2.664184808731079, -1.2935247421264648, -0.4239349663257599, 0.004486084450036287, 0.0]"
1584443429838045508,,192202,,1584443429,837626586,'',"[shoulder_pan_joint, shoulder_lift_joint, elbow_joint, wrist_1_joint, wrist_2_joint,","[1.4047942161560059, -1.1718123594867151, 2.4830703735351562, -2.8627551237689417, -1.5669339338885706, 2.7207064628601074]","[0.0, 0.0, -0.0, 0.0, 0.0, 0.0]","[-0.3387451469898224, -2.682495355606079, -1.2845574617385864, -0.3970184624195099, 0.0, 0.004486084450036287]"
1584443429949935090,,192216,,1584443429,949549360,'',"[shoulder_pan_joint, shoulder_lift_joint, elbow_joint, wrist_1_joint, wrist_2_joint,","[1.4048062562942505, -1.1718123594867151, 2.483046531677246, -2.862767521535055, -1.5669458548175257, 2.7207422256469727]","[0.0, 0.0, -0.0, 0.0, 0.0, 0.0]","[-0.3067016899585724, -2.655029535293579, -1.3024919033050537, -0.4082336723804474, 0.0022430422250181437, 0.0022430422250181437]"
1584443430062001783,,192230,,1584443430,61583462,'',"[shoulder_pan_joint, shoulder_lift_joint, elbow_joint, wrist_1_joint, wrist_2_joint,","[1.4048302173614502, -1.1718247572528284, 2.4830703735351562, -2.862791363392965, -1.5669220129596155, 2.7207183837890625]","[0.0, 0.0, -0.0, 0.0, 0.0, 0.0]","[-0.3479004204273224, -2.655029535293579, -1.2957664728164673, -0.4149627983570099, 0.008972168900072575, -0.0022430422250181437]"
1584443430173938643,,192244,,1584443430,173616953,'',"[shoulder_pan_joint, shoulder_lift_joint, elbow_joint, wrist_1_joint, wrist_2_joint,","[1.4048181772232056, -1.171788517628805, 2.483034372329712, -2.862791363392965, -1.5669339338885706, 2.7207064628601074]","[0.0, 0.0, -0.0, 0.0, 0.0, 0.0]","[-0.3295898735523224, -2.673340082168579, -1.3069756031036377, -0.4261780083179474, 0.0022430422250181437, 0.0]"
1584443430286037356,,192258,,1584443430,285665843,'',"[shoulder_pan_joint, shoulder_lift_joint, elbow_joint, wrist_1_joint, wrist_2_joint,","[1.4048421382904053, -1.171788517628805, 2.483058452606201, -2.86280328432192, -1.5669458548175257, 2.7207183837890625]","[0.0, 0.0, -0.0, 0.0, 0.0, 0.0]","[-0.3387451469898224, -2.687072992324829, -1.3024919033050537, -0.4284210503101349, 0.006729126907885075, -0.0022430422250181437]"
1584443430397825759,,192272,,1584443430,397561717,'',"[shoulder_pan_joint, shoulder_lift_joint, elbow_joint, wrist_1_joint, wrist_2_joint,","[1.4048302173614502, -1.171788517628805, 2.483058452606201, -2.86277944246401, -1.5669339338885706, 2.7207183837890625]","[0.0, 0.0, -0.0, 0.0, 0.0, 0.0]","[-0.3158569633960724, -2.673340082168579, -1.3002501726150513, -0.4194488823413849, 0.006729126907885075, -0.0022430422250181437]"
1584443430509900608,,192286,,1584443430,509572255,'',"[shoulder_pan_joint, shoulder_lift_joint, elbow_joint, wrist_1_joint, wrist_2_joint,","[1.4048062562942505, -1.1718247572528284, 2.483058452606201, -2.86280328432192, -1.5669577757464808, 2.7207064628601074]","[0.0, 0.0, -0.0, 0.0, 0.0, 0.0]","[-0.3479004204273224, -2.627563714981079, -1.2935247421264648, -0.4216919243335724, 0.004486084450036287, 0.0022430422250181437]"
1584443430621868837,,192300,,1584443430,621572484,'',"[shoulder_pan_joint, shoulder_lift_joint, elbow_joint, wrist_1_joint, wrist_2_joint,","[1.4048062562942505, -1.17177659669985, 2.483058452606201, -2.86277944246401, -1.5669339338885706, 2.7207303047180176]","[0.0, 0.0, -0.0, 0.0, 0.0, 0.0]","[-0.3433227837085724, -2.668762445449829, -1.3114591836929321, -0.4127197563648224, 0.01345825381577015, -0.0022430422250181437]"
1584443430733770271,,192314,,1584443430,733509555,'',"[shoulder_pan_joint, shoulder_lift_joint, elbow_joint, wrist_1_joint, wrist_2_joint,","[1.4048181772232056, -1.17180043855776, 2.483046531677246, -2.8627432028399866, -1.5669696966754358, 2.7207422256469727]","[0.0, 0.0, -0.0, 0.0, 0.0, 0.0]","[-0.3570556938648224, -2.705383539199829, -1.2980083227157593, -0.4261780083179474, 0.004486084450036287, 0.0]"
1584443430845802831,,192328,,1584443430,845525022,'',"[shoulder_pan_joint, shoulder_lift_joint, elbow_joint, wrist_1_joint, wrist_2_joint,","[1.4048421382904053, -1.171788517628805, 2.483058452606201, -2.862767521535055, -1.5669458548175257, 2.7207183837890625]","[0.0, 0.0, -0.0, 0.0, 0.0, 0.0]","[-0.3295898735523224, -2.641296625137329, -1.2980083227157593, -0.4216919243335724, -0.004486084450036287, -0.0022430422250181437]"
1584443430957854986,,192342,,1584443430,957539869,'',"[shoulder_pan_joint, shoulder_lift_joint, elbow_joint, wrist_1_joint, wrist_2_joint,","[1.4048302173614502, -1.171788517628805, 2.483058452606201, -2.86280328432192, -1.5669458548175257, 2.7207422256469727]","[0.0, 0.0, -0.0, 0.0, 0.0, 0.0]","[-0.3570556938648224, -2.645874261856079, -1.2957664728164673, -0.4239349663257599, 0.0, 0.006729126907885075]"
1584443431069811343,,192356,,1584443431,69546098,'',"[shoulder_pan_joint, shoulder_lift_joint, elbow_joint, wrist_1_joint, wrist_2_joint,","[1.4048062562942505, -1.1718123594867151, 2.483058452606201, -2.862791363392965, -1.5669458548175257, 2.7207303047180176]","[0.0, 0.0, -0.0, 0.0, 0.0, 0.0]","[-0.3433227837085724, -2.664184808731079, -1.3047337532043457, -0.4172058403491974, 0.0, 0.006729126907885075]"
1584443431181905528,,192370,,1584443431,181489542,'',"[shoulder_pan_joint, shoulder_lift_joint, elbow_joint, wrist_1_joint, wrist_2_joint,","[1.4049021005630493, -1.1718247572528284, 2.483058452606201, -2.86280328432192, -1.5669696966754358, 2.7207183837890625]","[0.0011760519118979573, 0.0, -0.0, 0.0, 0.0, -0.025349033996462822]","[-0.3707886040210724, -3.707886219024658, -1.2845574617385864, -0.4486084580421448, 0.004486084450036287, -0.2265472710132599]"
1584443431293910104,,192384,,1584443431,293608592,'',"[shoulder_pan_joint, shoulder_lift_joint, elbow_joint, wrist_1_joint, wrist_2_joint,","[1.4038946628570557, -1.1718247572528284, 2.483046531677246, -2.8628152052508753, -1.5669220129596155, 2.7191858291625977]","[-0.005573463626205921, 0.0, -0.0, 0.0, 0.0, 0.024332771077752113]","[-0.7003784775733948, -3.552246570587158, -1.4347587823867798, -0.3925323784351349, 0.004486084450036287, 0.1727142482995987]"
1584443431405961699,,192398,,1584443431,405623067,'',"[shoulder_pan_joint, shoulder_lift_joint, elbow_joint, wrist_1_joint, wrist_2_joint,","[1.4052979946136475, -1.1718843618976038, 2.482842445373535, -2.8627312819110315, -1.5669339338885706, 2.7221434116363525]","[0.01284708920866251, 0.0, -0.0007925567333586514, 0.0, 0.0, 0.007382282521575689]","[0.8239746689796448, -3.543091297149658, -1.4392423629760742, -0.3588867485523224, 0.02018737979233265, 0.2960815727710724]"
1584443431517875637,,192412,,1584443431,517575487,'',"[shoulder_pan_joint, shoulder_lift_joint, elbow_joint, wrist_1_joint, wrist_2_joint,","[1.405693769454956, -1.1718485991107386, 2.482830286026001, -2.8627432028399866, -1.5669577757464808, 2.719437599182129]","[-0.0016106799012050033, 0.0, -0.00023009712458588183, 0.0, 0.0, -0.020785439759492874]","[-0.1556396633386612, -3.584290027618408, -1.3944061994552612, -0.3902893364429474, 0.011215210892260075, -0.3768310844898224]"
1584443431629891455,,192426,,1584443431,629528518,'',"[shoulder_pan_joint, shoulder_lift_joint, elbow_joint, wrist_1_joint, wrist_2_joint,","[1.4056698083877563, -1.1718362013446253, 2.482818365097046, -2.86280328432192, -1.5669339338885706, 2.7208142280578613]","[-0.0019174760673195124, 0.0, -0.0, 0.0, 0.0, 0.031005587428808212]","[-0.0823974683880806, -3.634644031524658, -1.2980083227157593, -0.4284210503101349, 0.008972168900072575, 0.3252411186695099]"
1584443431741839667,,192440,,1584443431,741496617,'',"[shoulder_pan_joint, shoulder_lift_joint, elbow_joint, wrist_1_joint, wrist_2_joint,","[1.4056698083877563, -1.1718247572528284, 2.482830286026001, -2.86277944246401, -1.5669696966754358, 2.7221672534942627]","[-0.0003067961661145091, 0.0, -0.0, 0.0, 0.0, -0.029222333803772926]","[-0.4257202446460724, -3.616333484649658, -1.3361190557479858, -0.4082336723804474, 0.0022430422250181437, -0.1345825344324112]"
1584443431853805261,,192454,,1584443431,853471548,'',"[shoulder_pan_joint, shoulder_lift_joint, elbow_joint, wrist_1_joint, wrist_2_joint,","[1.405621886253357, -1.1718485991107386, 2.4827945232391357, -2.862791363392965, -1.5669220129596155, 2.7191619873046875]","[-0.00026844663079828024, 0.0, -0.0, 0.0, 0.0, -0.014687865972518921]","[-0.0869751051068306, -3.579712390899658, -1.3630207777023315, -0.3970184624195099, 0.008972168900072575, -0.3319702446460724]"
1584443431965795371,,192468,,1584443431,965526149,'',"[shoulder_pan_joint, shoulder_lift_joint, elbow_joint, wrist_1_joint, wrist_2_joint,","[1.406017780303955, -1.1718485991107386, 2.482818365097046, -2.8627551237689417, -1.5669458548175257, 2.721113443374634]","[0.0021731394808739424, 0.0, -8.948221511673182e-05, 0.0, 0.0, 0.032827191054821014]","[0.4623413681983948, -3.657532215118408, -1.327151894569397, -0.4082336723804474, 0.006729126907885075, 0.3521576225757599]"
1584443432077804386,,192482,,1584443432,77462037,'',"[shoulder_pan_joint, shoulder_lift_joint, elbow_joint, wrist_1_joint, wrist_2_joint,","[1.4050099849700928, -1.1718605200396937, 2.4827823638916016, -2.86277944246401, -1.5669577757464808, 2.7212212085723877]","[-0.018740132451057434, 0.0, -8.948221511673182e-05, 0.0, 0.0, -0.04490728676319122]","[-1.0070801973342896, -3.497314691543579, -1.3540536165237427, -0.4104767143726349, 0.0022430422250181437, -0.3185119926929474]"
1584443432189783636,,192496,,1584443432,189474840,'',"[shoulder_pan_joint, shoulder_lift_joint, elbow_joint, wrist_1_joint, wrist_2_joint,","[1.4037145376205444, -1.1718362013446253, 2.482830286026001, -2.86277944246401, -1.5669100920306605, 2.7177488803863525]","[-0.0035537222865968943, 0.0, -8.948221511673182e-05, 0.0, 0.0, -0.01589587703347206]","[-0.6271362900733948, -3.533936023712158, -1.421307921409607, -0.3880462944507599, 0.004486084450036287, -0.3723450005054474]"
1584443432301854957,,192510,,1584443432,301474588,'',"[shoulder_pan_joint, shoulder_lift_joint, elbow_joint, wrist_1_joint, wrist_2_joint,","[1.4059215784072876, -1.1718485991107386, 2.482734441757202, -2.86277944246401, -1.5669339338885706, 2.720682382583618]","[0.026640133932232857, 0.0, -0.0005624596378766, 0.0, 0.0, 0.036681316792964935]","[0.8880616426467896, -3.501892328262329, -1.4728695154190063, -0.3431854546070099, 0.01570129580795765, 0.3274841606616974]"
1584443432413832003,,192524,,1584443432,413469567,'',"[shoulder_pan_joint, shoulder_lift_joint, elbow_joint, wrist_1_joint, wrist_2_joint,","[1.4087764024734497, -1.1718362013446253, 2.4827945232391357, -2.862767521535055, -1.566981617604391, 2.722322702407837]","[0.023444339632987976, 0.0, -0.00020453077740967274, 0.0, 0.0, -0.03136990964412689]","[0.6958008408546448, -3.662109851837158, -1.3495699167251587, -0.3925323784351349, 0.02243042178452015, -0.1211242824792862]"
1584443432525637268,,192538,,1584443432,525404333,'',"[shoulder_pan_joint, shoulder_lift_joint, elbow_joint, wrist_1_joint, wrist_2_joint,","[1.4126267433166504, -1.1718247572528284, 2.482722520828247, -2.8627551237689417, -1.5669577757464808, 2.71887469291687]","[0.04863997548818588, 0.0, -0.0, 0.0, 0.0, -0.01679708994925022]","[0.9704591035842896, -3.620911121368408, -1.4437259435653687, -0.3454284965991974, 0.0426178015768528, -0.3252411186695099]"
1584443432637800351,,192552,,1584443432,637489822,'',"[shoulder_pan_joint, shoulder_lift_joint, elbow_joint, wrist_1_joint, wrist_2_joint,","[1.4187322854995728, -1.1718485991107386, 2.4827463626861572, -2.862767521535055, -1.5670297781573694, 2.718491554260254]","[0.05680842325091362, 0.0, -0.0, 0.0, 0.0, 0.032232772558927536]","[0.8468628525733948, -3.652954578399658, -1.4751113653182983, -0.3342132866382599, 0.0672912672162056, 0.2332763969898224]"
1584443432749774962,,192566,,1584443432,749479741,'',"[shoulder_pan_joint, shoulder_lift_joint, elbow_joint, wrist_1_joint, wrist_2_joint,","[1.4249693155288696, -1.1718724409686487, 2.4827585220336914, -2.862791363392965, -1.5670059362994593, 2.72196364402771]","[0.06275259703397751, 0.0, -0.0, 0.0, 0.0, 0.022223547101020813]","[0.8926392793655396, -3.730774402618408, -1.4145824909210205, -0.3499145805835724, 0.0695343092083931, 0.3723450005054474]"
1584443432861659745,,192580,,1584443432,861386726,'',"[shoulder_pan_joint, shoulder_lift_joint, elbow_joint, wrist_1_joint, wrist_2_joint,","[1.4323463439941406, -1.1718605200396937, 2.482710599899292, -2.862767521535055, -1.5670297781573694, 2.721592426300049]","[0.06456781178712845, 0.0, -0.0, 0.0, 0.0, -0.039921849966049194]","[1.0070801973342896, -3.790283679962158, -1.4840785264968872, -0.3185119926929474, 0.0964508131146431, -0.2534637749195099]"
1584443432973688788,,192594,,1584443432,973395781,'',"[shoulder_pan_joint, shoulder_lift_joint, elbow_joint, wrist_1_joint, wrist_2_joint,","[1.44021475315094, -1.1718605200396937, 2.4826865196228027, -2.86277944246401, -1.567077938710348, 2.718024253845215]","[0.07350324839353561, 0.0, -6.391586794052273e-05, 0.0, 0.0, -0.02371917851269245]","[0.8010864853858948, -3.868103504180908, -1.3473281860351562, -0.3499145805835724, 0.0986938551068306, -0.3207550346851349]"
1584443433085739751,,192608,,1584443433,85417540,'',"[shoulder_pan_joint, shoulder_lift_joint, elbow_joint, wrist_1_joint, wrist_2_joint,","[1.4479273557662964, -1.1718485991107386, 2.4826745986938477, -2.862767521535055, -1.5670536200152796, 2.716144561767578]","[0.06179386004805565, -1.2783173588104546e-05, -6.391586794052273e-05, 0.0, 0.0, -0.015301458537578583]","[0.9155274629592896, -3.785706043243408, -1.5199475288391113, -0.2915954887866974, 0.1054229810833931, -0.3095398247241974]"
1584443433197794161,,192622,,1584443433,197481618,'',"[shoulder_pan_joint, shoulder_lift_joint, elbow_joint, wrist_1_joint, wrist_2_joint,","[1.45468008518219, -1.1718724409686487, 2.4826505184173584, -2.8627551237689417, -1.5670655409442347, 2.7148277759552]","[0.05614369735121727, -1.2783173588104546e-05, -0.0, 0.0, 0.0, -0.011907526291906834]","[0.9979249238967896, -3.804016590118408, -1.5087385177612305, -0.2960815727710724, 0.1143951565027237, -0.3117828667163849]"
1584443433309722115,,192636,,1584443433,309408360,'',"[shoulder_pan_joint, shoulder_lift_joint, elbow_joint, wrist_1_joint, wrist_2_joint,","[1.4599460363388062, -1.1718485991107386, 2.4826745986938477, -2.862767521535055, -1.567089859639303, 2.715881109237671]","[0.043782368302345276, -1.2783173588104546e-05, -0.0, 0.0, 0.0, 0.0367196649312973]","[1.0025025606155396, -3.785706043243408, -1.4908039569854736, -0.2960815727710724, 0.1278534084558487, 0.3072967827320099]"
1584443433421714119,,192650,,1584443433,421378954,'',"[shoulder_pan_joint, shoulder_lift_joint, elbow_joint, wrist_1_joint, wrist_2_joint,","[1.4649115800857544, -1.1718605200396937, 2.482722520828247, -2.8627551237689417, -1.5671494642840784, 2.7184555530548096]","[0.04098285362124443, -1.2783173588104546e-05, -0.0, 0.0, 0.0, 0.0029529130551964045]","[0.9521485567092896, -3.936768054962158, -1.3316354751586914, -0.3611297905445099, 0.1435547024011612, 0.2400055229663849]"
1584443433533737952,,192664,,1584443433,533369424,'',"[shoulder_pan_joint, shoulder_lift_joint, elbow_joint, wrist_1_joint, wrist_2_joint,","[1.468534231185913, -1.1718485991107386, 2.4826865196228027, -2.8627312819110315, -1.5671375433551233, 2.714959144592285]","[0.023904534056782722, -1.2783173588104546e-05, -0.0, 0.0, 0.0, -0.03461044281721115]","[0.9155274629592896, -3.758240222930908, -1.513222098350525, -0.3028106987476349, 0.1166381984949112, -0.3185119926929474]"
1584443433645733051,,192678,,1584443433,645375494,'',"[shoulder_pan_joint, shoulder_lift_joint, elbow_joint, wrist_1_joint, wrist_2_joint,","[1.4700456857681274, -1.1718724409686487, 2.482710599899292, -2.8627312819110315, -1.5671613852130335, 2.7115347385406494]","[-0.0003451456723269075, -1.2783173588104546e-05, -0.0, 0.0, -0.00011504856229294091, -0.04020947217941284]","[0.1052856519818306, -3.822327136993408, -1.3338773250579834, -0.3723450005054474, 0.1054229810833931, -0.2758941948413849]"
1584443433757718332,,192692,,1584443433,757400309,'',"[shoulder_pan_joint, shoulder_lift_joint, elbow_joint, wrist_1_joint, wrist_2_joint,","[1.467646598815918, -1.1718605200396937, 2.4826385974884033, -2.8627551237689417, -1.5671375433551233, 2.705632209777832]","[-0.02647395245730877, -1.2783173588104546e-05, -0.0, 0.0, -0.00011504856229294091, -0.05965267866849899]","[-1.0620118379592896, -3.703308582305908, -1.4908039569854736, -0.3364563286304474, 0.0897216871380806, -0.3229980766773224]"
1584443433869794603,,192706,,1584443433,869393725,'',"[shoulder_pan_joint, shoulder_lift_joint, elbow_joint, wrist_1_joint, wrist_2_joint,","[1.4654756784439087, -1.1718247572528284, 2.482482433319092, -2.86280328432192, -1.5671137014972132, 2.7004594802856445]","[-0.008424111641943455, -1.2783173588104546e-05, -0.003540938952937722, 0.0, -9.58738019107841e-05, -0.03275049105286598]","[-1.0253907442092896, -3.611755847930908, -1.5266729593276978, -0.2803802788257599, 0.0829925611615181, -0.3409424126148224]"
1584443433981612351,,192720,,1584443433,981338039,'',"[shoulder_pan_joint, shoulder_lift_joint, elbow_joint, wrist_1_joint, wrist_2_joint,","[1.4663991928100586, -1.1718362013446253, 2.4816906452178955, -2.862551991139547, -1.5671375433551233, 2.6996567249298096]","[0.025170069187879562, -1.2783173588104546e-05, -0.009306150488555431, 0.004793690051883459, 0.0, 0.04256796836853027]","[0.8834840059280396, -3.259277582168579, -1.9346824884414673, -0.1166381984949112, 0.0964508131146431, 0.2220611870288849]"
1584443434093743895,,192734,,1584443434,93390666,'',"[shoulder_pan_joint, shoulder_lift_joint, elbow_joint, wrist_1_joint, wrist_2_joint,","[1.4689301252365112, -1.1718724409686487, 2.4815948009490967, -2.8624799887286585, -1.5671256224261683, 2.7048180103302]","[0.018970228731632233, 0.0, 0.001035437104292214, 0.0003451456723269075, 0.0, 0.04068884253501892]","[0.9246827363967896, -3.836060047149658, -1.358537197113037, -0.3835602104663849, 0.1121521145105362, 0.3745880424976349]"
1584443434205846345,,192748,,1584443434,205442191,'',"[shoulder_pan_joint, shoulder_lift_joint, elbow_joint, wrist_1_joint, wrist_2_joint,","[1.4695656299591064, -1.1718605200396937, 2.4817986488342285, -2.8626001516925257, -1.5671375433551233, 2.706146717071533]","[-0.025898709893226624, 0.0, 0.005931392312049866, -0.01390170119702816, 0.0, -0.0567956380546093]","[-0.7324219346046448, -4.064941883087158, -1.0469255447387695, -0.4059906303882599, 0.0897216871380806, -0.2018737941980362]"
1584443434317704177,,192762,,1584443434,317355787,'',"[shoulder_pan_joint, shoulder_lift_joint, elbow_joint, wrist_1_joint, wrist_2_joint,","[1.4658355712890625, -1.1719325224505823, 2.4817028045654297, -2.862767521535055, -1.567077938710348, 2.699716806411743]","[-0.03135712444782257, -0.0003067961661145091, -0.002582201035693288, -0.0003834952076431364, 0.0, -0.04615364968776703]","[-1.0299683809280396, -3.533936023712158, -1.546849250793457, -0.2624359428882599, 0.0650482252240181, -0.3386993706226349]"
1584443434429670043,,192776,,1584443434,429330199,'',"[shoulder_pan_joint, shoulder_lift_joint, elbow_joint, wrist_1_joint, wrist_2_joint,","[1.4634963274002075, -1.171920124684469, 2.481642723083496, -2.86277944246401, -1.5670536200152796, 2.695777654647827]","[-0.012719257734715939, -0.00012783173588104546, -0.0004474110610317439, -0.00017257283616345376, 0.0, -0.03286553919315338]","[-0.9246827363967896, -3.675842761993408, -1.37198805809021, -0.3364563286304474, 0.0695343092083931, -0.3162689507007599]"
1584443434541685580,,192790,,1584443434,541348982,'',"[shoulder_pan_joint, shoulder_lift_joint, elbow_joint, wrist_1_joint, wrist_2_joint,","[1.4633046388626099, -1.1719086805926722, 2.4815824031829834, -2.8627551237689417, -1.5670655409442347, 2.6933112144470215]","[0.021015537902712822, -7.669904152862728e-05, -0.00020453077740967274, -9.58738019107841e-05, 0.0, -0.0033747577108442783]","[0.8102417588233948, -3.602600574493408, -1.5603001117706299, -0.2534637749195099, 0.0986938551068306, -0.1749572902917862]"
1584443434653601582,,192804,,1584443434,653313294,'',"[shoulder_pan_joint, shoulder_lift_joint, elbow_joint, wrist_1_joint, wrist_2_joint,","[1.4666748046875, -1.1719682852374476, 2.4815948009490967, -2.862767521535055, -1.5671494642840784, 2.695610284805298]","[0.034501783549785614, -5.1132694352418184e-05, -0.0004474110610317439, 1.917476038215682e-05, 0.0, 0.02473544143140316]","[0.8102417588233948, -3.735352039337158, -1.5177057981491089, -0.2781372368335724, 0.1076660305261612, 0.3499145805835724]"
1584443434765715272,,192818,,1584443434,765358857,'',"[shoulder_pan_joint, shoulder_lift_joint, elbow_joint, wrist_1_joint, wrist_2_joint,","[1.4703936576843262, -1.171920124684469, 2.4815948009490967, -2.862671677266256, -1.567209545766012, 2.6980884075164795]","[0.02804628200829029, -3.834952076431364e-05, -0.0001917476038215682, 0.0003067961661145091, 0.0, 0.018196847289800644]","[0.8605957627296448, -3.831482410430908, -1.3854389190673828, -0.3319702446460724, 0.1233673244714737, 0.2758941948413849]"
1584443434877678803,,192832,,1584443434,877376198,'',"[shoulder_pan_joint, shoulder_lift_joint, elbow_joint, wrist_1_joint, wrist_2_joint,","[1.4741721153259277, -1.171920124684469, 2.481606960296631, -2.862551991139547, -1.5672815481769007, 2.7012856006622314]","[0.04205664247274399, -3.834952076431364e-05, -0.00011504856229294091, 0.0006711166352033615, -0.0002109223569277674, 0.03913568705320358]","[0.8514404892921448, -3.781128406524658, -1.4908039569854736, -0.3072967827320099, 0.1704712063074112, 0.3476715385913849]"
1584443434989650207,,192846,,1584443434,989343485,'',"[shoulder_pan_joint, shoulder_lift_joint, elbow_joint, wrist_1_joint, wrist_2_joint,","[1.4793537855148315, -1.1718962828265589, 2.4815948009490967, -2.862432305012838, -1.5675447622882288, 2.704805850982666]","[0.04394854977726936, -2.5566347176209092e-05, -8.948221511673182e-05, 0.0073439329862594604, -0.002320145955309272, 0.02630777098238468]","[0.8743286728858948, -3.767395496368408, -1.5311566591262817, -0.3185119926929474, 0.1816864162683487, 0.3611297905445099]"
1584443435101672007,,192860,,1584443435,101364593,'',"[shoulder_pan_joint, shoulder_lift_joint, elbow_joint, wrist_1_joint, wrist_2_joint,","[1.483299970626831, -1.1719086805926722, 2.4815948009490967, -2.862312618886129, -1.5679286162005823, 2.7060866355895996]","[0.025412948802113533, -2.5566347176209092e-05, -6.391586794052273e-05, 0.0005944175645709038, -0.0034322820138186216, -0.03712233528494835]","[0.7186890244483948, -3.913879871368408, -1.3652626276016235, -0.3835602104663849, 0.1704712063074112, -0.1009368970990181]"
1584443435213670462,,192874,,1584443435,213345786,'',"[shoulder_pan_joint, shoulder_lift_joint, elbow_joint, wrist_1_joint, wrist_2_joint,","[1.4860345125198364, -1.1719086805926722, 2.481630802154541, -2.86219293275942, -1.568239990864889, 2.7006986141204834]","[0.02718980982899666, -2.5566347176209092e-05, -5.1132694352418184e-05, 0.0005560680292546749, -0.0027228158432990313, -0.05127330869436264]","[0.8377075791358948, -3.845215320587158, -1.4728695154190063, -0.3588867485523224, 0.1973877102136612, -0.3342132866382599]"
1584443435325559804,,192888,,1584443435,325285723,'',"[shoulder_pan_joint, shoulder_lift_joint, elbow_joint, wrist_1_joint, wrist_2_joint,","[1.4889492988586426, -1.171920124684469, 2.4817867279052734, -2.8621090094195765, -1.5683119932757776, 2.6958255767822266]","[0.01890631392598152, -1.2783173588104546e-05, 0.00458915950730443, 0.0004985437844879925, -0.000690291344653815, -0.04826287180185318]","[1.0116578340530396, -3.886414051055908, -1.4437259435653687, -0.4015045464038849, 0.2018737941980362, -0.2893524467945099]"
1584443435437699363,,192902,,1584443435,437356774,'',"[shoulder_pan_joint, shoulder_lift_joint, elbow_joint, wrist_1_joint, wrist_2_joint,","[1.4895130395889282, -1.171920124684469, 2.4820144176483154, -2.86216909090151, -1.5683239142047327, 2.6897668838500977]","[-0.006417152937501669, -1.2783173588104546e-05, 0.0006775081856176257, 0.0003067961661145091, -0.00023009712458588183, -0.06227962300181389]","[-0.4852295517921448, -3.836060047149658, -1.3876807689666748, -0.4015045464038849, 0.1345825344324112, -0.3521576225757599]"
1584443435549666841,,192916,,1584443435,549338579,'',"[shoulder_pan_joint, shoulder_lift_joint, elbow_joint, wrist_1_joint, wrist_2_joint,","[1.4878337383270264, -1.1718962828265589, 2.481966495513916, -2.86219293275942, -1.5682161490069788, 2.6837682723999023]","[-0.019289808347821236, -1.2783173588104546e-05, 0.00021731395099777728, 0.00015339808305725455, -0.00013422331539914012, -0.0458468534052372]","[-0.9246827363967896, -3.749084949493408, -1.4459677934646606, -0.3813171684741974, 0.1480407863855362, -0.3835602104663849]"
1584443435661565871,,192930,,1584443435,661279807,'',"[shoulder_pan_joint, shoulder_lift_joint, elbow_joint, wrist_1_joint, wrist_2_joint,","[1.4857828617095947, -1.1719325224505823, 2.4819304943084717, -2.8622048536883753, -1.5682042280780237, 2.679816961288452]","[-0.018867963925004005, -1.2783173588104546e-05, 0.00014061490946915, 9.58738019107841e-05, -9.58738019107841e-05, -0.03576092794537544]","[-1.0391236543655396, -3.726196765899658, -1.46614408493042, -0.3431854546070099, 0.1614990383386612, -0.3050537407398224]"
1584443435773629257,,192944,,1584443435,773306816,'',"[shoulder_pan_joint, shoulder_lift_joint, elbow_joint, wrist_1_joint, wrist_2_joint,","[1.4833358526229858, -1.1719325224505823, 2.4818825721740723, -2.8622525374041956, -1.56812030473818, 2.67561411857605]","[-0.02629498764872551, -1.2783173588104546e-05, 0.00014061490946915, 7.669904152862728e-05, 1.917476038215682e-05, -0.04316238686442375]","[-1.0528565645217896, -3.680420398712158, -1.5266729593276978, -0.3521576225757599, 0.1256103664636612, -0.2601929008960724]"
1584443435885571538,,192958,,1584443435,885281317,'',"[shoulder_pan_joint, shoulder_lift_joint, elbow_joint, wrist_1_joint, wrist_2_joint,","[1.479677677154541, -1.1719802061664026, 2.4816906452178955, -2.8623364607440394, -1.568000618611471, 2.6705257892608643]","[-0.0376720130443573, -1.2783173588104546e-05, -0.003195793367922306, -7.669904152862728e-05, 0.00024927189224399626, -0.03984514996409416]","[-0.9979249238967896, -3.483581781387329, -1.6589398384094238, -0.2781372368335724, 0.0964508131146431, -0.3274841606616974]"
1584443435997567769,,192972,,1584443435,997268982,'',"[shoulder_pan_joint, shoulder_lift_joint, elbow_joint, wrist_1_joint, wrist_2_joint,","[1.4753715991973877, -1.1719444433795374, 2.4808268547058105, -2.8623245398150843, -1.568000618611471, 2.6665148735046387]","[-0.040049683302640915, 0.0, -0.0015339808305725455, 0.0004985437844879925, 0.00023009712458588183, -0.03495558723807335]","[-0.9109498262405396, -3.506469964981079, -1.5782346725463867, -0.3050537407398224, 0.0964508131146431, -0.3386993706226349]"
1584443436109701317,,192986,,1584443436,109325917,'',"[shoulder_pan_joint, shoulder_lift_joint, elbow_joint, wrist_1_joint, wrist_2_joint,","[1.4704176187515259, -1.1719682852374476, 2.48089861869812, -2.862288777028219, -1.5678327719317835, 2.6628990173339844]","[-0.04832039400935173, 0.0, 0.0002556634717620909, -0.00032597093377262354, 0.0006327670998871326, -0.02695971354842186]","[-0.9338380098342896, -3.620911121368408, -1.4123406410217285, -0.3701019585132599, 0.0986938551068306, -0.2960815727710724]"
1584443436221653877,,193000,,1584443436,221258169,'',"[shoulder_pan_joint, shoulder_lift_joint, elbow_joint, wrist_1_joint, wrist_2_joint,","[1.4644558429718018, -1.1719444433795374, 2.4809226989746094, -2.862300697957174, -1.5678327719317835, 2.6591873168945312]","[-0.05092816427350044, 0.0, 0.00026844663079828024, -0.00015339808305725455, 0.00024927189224399626, -0.0392315611243248]","[-0.8285523056983948, -3.607178211212158, -1.3338773250579834, -0.4127197563648224, 0.0717773512005806, -0.3297272026538849]"
1584443436333595978,,193014,,1584443436,333227340,'',"[shoulder_pan_joint, shoulder_lift_joint, elbow_joint, wrist_1_joint, wrist_2_joint,","[1.4594542980194092, -1.1719325224505823, 2.4809226989746094, -2.862312618886129, -1.5678089300738733, 2.655343770980835]","[-0.040036898106336594, 0.0, 0.0001917476038215682, -9.58738019107841e-05, 0.00013422331539914012, -0.02557913027703762]","[-1.0757447481155396, -3.598022937774658, -1.3966479301452637, -0.3947754204273224, 0.0740203931927681, -0.3005676567554474]"
1584443436445501139,,193028,,1584443436,445244951,'',"[shoulder_pan_joint, shoulder_lift_joint, elbow_joint, wrist_1_joint, wrist_2_joint,","[1.4551602602005005, -1.1719444433795374, 2.4809226989746094, -2.862312618886129, -1.567784611378805, 2.6527817249298096]","[-0.03760809823870659, 0.0, 0.00011504856229294091, -7.669904152862728e-05, 9.58738019107841e-05, -0.018446119502186775]","[-0.9933472871780396, -3.588867664337158, -1.416824221611023, -0.3880462944507599, 0.0605621412396431, -0.3342132866382599]"
1584443436557645066,,193042,,1584443436,557277380,'',"[shoulder_pan_joint, shoulder_lift_joint, elbow_joint, wrist_1_joint, wrist_2_joint,","[1.4519693851470947, -1.1719563643084925, 2.4809465408325195, -2.862300697957174, -1.567784611378805, 2.652470350265503]","[-0.017602430656552315, 0.0, 8.948221511673182e-05, -5.752428114647046e-05, 7.669904152862728e-05, 0.03863714262843132]","[-0.9109498262405396, -3.556824207305908, -1.4594186544418335, -0.3588867485523224, 0.0605621412396431, 0.1659851223230362]"
1584443436669558924,,193056,,1584443436,669246050,'',"[shoulder_pan_joint, shoulder_lift_joint, elbow_joint, wrist_1_joint, wrist_2_joint,","[1.4506499767303467, -1.1719563643084925, 2.4809584617614746, -2.862300697957174, -1.56777269044985, 2.656636953353882]","[-0.00857750978320837, 0.0, 6.391586794052273e-05, -3.834952076431364e-05, 7.669904152862728e-05, 0.029625004157423973]","[-1.0116578340530396, -3.620911121368408, -1.4302750825881958, -0.3858032524585724, 0.0583190992474556, 0.3095398247241974]"
1584443436781577106,,193070,,1584443436,781259894,'',"[shoulder_pan_joint, shoulder_lift_joint, elbow_joint, wrist_1_joint, wrist_2_joint,","[1.4508421421051025, -1.1719563643084925, 2.4809346199035645, -2.862300697957174, -1.56779653230776, 2.6602766513824463]","[0.0068389978259801865, 0.0, 5.1132694352418184e-05, -3.834952076431364e-05, 7.669904152862728e-05, 0.029701704159379005]","[0.6729126572608948, -3.684998035430908, -1.374229907989502, -0.3835602104663849, 0.0605621412396431, 0.3656158745288849]"
1584443436893549122,,193084,,1584443436,893239705,'',"[shoulder_pan_joint, shoulder_lift_joint, elbow_joint, wrist_1_joint, wrist_2_joint,","[1.4508181810379028, -1.1719325224505823, 2.480982542037964, -2.862288777028219, -1.5677488485919397, 2.6624200344085693]","[-0.0003834952076431364, 0.0, 5.1132694352418184e-05, -3.834952076431364e-05, 7.669904152862728e-05, 0.017065536230802536]","[-0.1373291164636612, -3.666687488555908, -1.4100987911224365, -0.3790741264820099, 0.0538330152630806, 0.3028106987476349]"
1584443437005408408,,193098,,1584443437,5188859,'',"[shoulder_pan_joint, shoulder_lift_joint, elbow_joint, wrist_1_joint, wrist_2_joint,","[1.450830101966858, -1.1719563643084925, 2.4810187816619873, -2.862300697957174, -1.5678208510028284, 2.6642637252807617]","[-0.0006135923322290182, 0.0, 0.000907605339307338, -1.917476038215682e-05, 5.752428114647046e-05, 0.018005099147558212]","[0.3021240532398224, -3.533936023712158, -1.4975295066833496, -0.3521576225757599, 0.0695343092083931, 0.3050537407398224]"
1584443437117633036,,193112,,1584443437,117293783,'',"[shoulder_pan_joint, shoulder_lift_joint, elbow_joint, wrist_1_joint, wrist_2_joint,","[1.4508661031723022, -1.1719444433795374, 2.4810547828674316, -2.862432305012838, -1.567784611378805, 2.666119337081909]","[-0.0019174760673195124, 0.0, -0.0, 0.0, 5.752428114647046e-05, 0.011888351291418076]","[-0.5767822861671448, -3.808594226837158, -1.194885015487671, -0.4598236680030823, 0.0740203931927681, 0.2557068169116974]"
1584443437229585084,,193126,,1584443437,229248136,'',"[shoulder_pan_joint, shoulder_lift_joint, elbow_joint, wrist_1_joint, wrist_2_joint,","[1.450890064239502, -1.1719921270953577, 2.4811148643493652, -2.8624561468707483, -1.5678327719317835, 2.668358564376831]","[0.0003323625132907182, 0.0, 0.00046019424917176366, -0.00032597093377262354, 3.834952076431364e-05, 0.02834029495716095]","[0.0549316480755806, -3.643799304962158, -1.4145824909210205, -0.3925323784351349, 0.0695343092083931, 0.2646789848804474]"
1584443437341563723,,193140,,1584443437,341220944,'',"[shoulder_pan_joint, shoulder_lift_joint, elbow_joint, wrist_1_joint, wrist_2_joint,","[1.450890064239502, -1.1719325224505823, 2.481102705001831, -2.8624680677997034, -1.5678208510028284, 2.6718788146972656]","[0.00014061490946915, 0.0, -0.0, -0.00015339808305725455, 3.834952076431364e-05, 0.03160000592470169]","[0.1510620266199112, -3.602600574493408, -1.452693223953247, -0.3566437065601349, 0.0628051832318306, 0.2893524467945099]"
1584443437453516022,,193154,,1584443437,453193771,'',"[shoulder_pan_joint, shoulder_lift_joint, elbow_joint, wrist_1_joint, wrist_2_joint,","[1.451117753982544, -1.1719444433795374, 2.4811148643493652, -2.8624442259417933, -1.5678208510028284, 2.675386905670166]","[0.0009203884983435273, 0.0, -0.0007925567333586514, 0.0, 3.834952076431364e-05, 0.025310683995485306]","[0.0595092847943306, -3.698730945587158, -1.324910044670105, -0.4037475883960724, 0.0785064771771431, 0.3386993706226349]"
1584443437565565093,,193168,,1584443437,565227383,'',"[shoulder_pan_joint, shoulder_lift_joint, elbow_joint, wrist_1_joint, wrist_2_joint,","[1.4510098695755005, -1.1719444433795374, 2.4811267852783203, -2.8624561468707483, -1.5678327719317835, 2.6774823665618896]","[-0.007478156592696905, 0.0, 0.0003451456723269075, 0.0, 1.917476038215682e-05, 0.006807039957493544]","[-0.8377075791358948, -3.808594226837158, -1.2464466094970703, -0.4463654160499573, 0.0717773512005806, 0.2736511528491974]"
1584443437677473831,,193182,,1584443437,677203356,'',"[shoulder_pan_joint, shoulder_lift_joint, elbow_joint, wrist_1_joint, wrist_2_joint,","[1.4515016078948975, -1.1719325224505823, 2.4811267852783203, -2.862420384083883, -1.5678804556476038, 2.6794698238372803]","[0.010252105072140694, 0.0, -0.0005241101025603712, -0.0003451456723269075, 1.917476038215682e-05, 0.016566993668675423]","[0.6591797471046448, -3.620911121368408, -1.4571768045425415, -0.3521576225757599, 0.0650482252240181, 0.2848663628101349]"
1584443437789473759,,193196,,1584443437,789210298,'',"[shoulder_pan_joint, shoulder_lift_joint, elbow_joint, wrist_1_joint, wrist_2_joint,","[1.4535408020019531, -1.1719682852374476, 2.4811148643493652, -2.862432305012838, -1.5679047743426722, 2.681469678878784]","[0.027240943163633347, 0.0, -0.00021731395099777728, -0.00015339808305725455, 1.917476038215682e-05, 0.0196157805621624]","[0.7369995713233948, -3.620911121368408, -1.5221893787384033, -0.3185119926929474, 0.1099090725183487, 0.3185119926929474]"
1584443437901494015,,193210,,1584443437,901205757,'',"[shoulder_pan_joint, shoulder_lift_joint, elbow_joint, wrist_1_joint, wrist_2_joint,","[1.4573432207107544, -1.1719444433795374, 2.4811148643493652, -2.862420384083883, -1.5679166952716272, 2.684175491333008]","[0.04279806464910507, 0.0, -0.00012783173588104546, -9.58738019107841e-05, 1.917476038215682e-05, 0.03422694653272629]","[0.8514404892921448, -3.657532215118408, -1.5311566591262817, -0.3140259087085724, 0.1121521145105362, 0.3185119926929474]"
1584443438013544308,,193224,,1584443438,13253395,'',"[shoulder_pan_joint, shoulder_lift_joint, elbow_joint, wrist_1_joint, wrist_2_joint,","[1.463172435760498, -1.1719325224505823, 2.4811387062072754, -2.8623960653888147, -1.5679405371295374, 2.6880428791046143]","[0.0675974190235138, 0.0, -0.0, -7.669904152862728e-05, 1.917476038215682e-05, 0.03395850211381912]","[0.9155274629592896, -3.804016590118408, -1.504254937171936, -0.3207550346851349, 0.1166381984949112, 0.3588867485523224]"
1584443438125456051,,193238,,1584443438,125178123,'',"[shoulder_pan_joint, shoulder_lift_joint, elbow_joint, wrist_1_joint, wrist_2_joint,","[1.4715572595596313, -1.1719325224505823, 2.4811387062072754, -2.8623603026019495, -1.568012539540426, 2.691239833831787]","[0.07507558166980743, 0.0, -0.0, 5.752428114647046e-05, 0.0, 0.020056799054145813]","[0.6820679306983948, -3.913879871368408, -1.419066071510315, -0.3409424126148224, 0.1794433742761612, 0.3678589165210724]"
1584443438237486106,,193252,,1584443438,237161861,'',"[shoulder_pan_joint, shoulder_lift_joint, elbow_joint, wrist_1_joint, wrist_2_joint,","[1.48039710521698, -1.1719563643084925, 2.481402635574341, -2.8623245398150843, -1.56812030473818, 2.6924610137939453]","[0.07125341147184372, 0.0, 0.006672816351056099, 5.752428114647046e-05, -0.0005560680292546749, -0.020785439759492874]","[0.8377075791358948, -4.083252429962158, -1.3495699167251587, -0.4104767143726349, 0.1704712063074112, -0.0717773512005806]"
1584443438349455187,,193266,,1584443438,349143495,'',"[shoulder_pan_joint, shoulder_lift_joint, elbow_joint, wrist_1_joint, wrist_2_joint,","[1.4870060682296753, -1.1726039091693323, 2.4829862117767334, -2.862623993550436, -1.5682643095599573, 2.6873602867126465]","[0.05597751587629318, -0.0041800979524850845, 0.009727994911372662, -0.0018024274613708258, -0.0006711166352033615, -0.051963601261377335]","[0.9109498262405396, -4.449463367462158, -0.9662203192710876, -0.5787048935890198, 0.2153320610523224, -0.2893524467945099]"
1584443438461565751,,193280,,1584443438,461203105,'',"[shoulder_pan_joint, shoulder_lift_joint, elbow_joint, wrist_1_joint, wrist_2_joint,","[1.492655873298645, -1.1726039091693323, 2.4831063747406006, -2.862264935170309, -1.568455998097555, 2.681325912475586]","[0.040893372148275375, -0.00021731395099777728, 0.0003707120195031166, 0.0016490294365212321, -0.0018216022290289402, -0.0567956380546093]","[0.8697510361671448, -4.014587879180908, -1.513222098350525, -0.3678589165210724, 0.2153320610523224, -0.2579498589038849]"
1584443438573468007,,193294,,1584443438,573152008,'',"[shoulder_pan_joint, shoulder_lift_joint, elbow_joint, wrist_1_joint, wrist_2_joint,","[1.495894193649292, -1.1726158300982874, 2.483142375946045, -2.861976925526754, -1.5686591307269495, 2.6736745834350586]","[0.016745956614613533, -0.00010226538870483637, -0.0, 0.0035473306197673082, -0.0016873788554221392, -0.08036141842603683]","[0.8605957627296448, -3.964233875274658, -1.5535746812820435, -0.3925323784351349, 0.2601929008960724, -0.3252411186695099]"
1584443438685476060,,193308,,1584443438,685165361,'',"[shoulder_pan_joint, shoulder_lift_joint, elbow_joint, wrist_1_joint, wrist_2_joint,","[1.4975255727767944, -1.1725676695453089, 2.483142375946045, -2.861666504536764, -1.5687311331378382, 2.666191339492798]","[0.015135277062654495, -6.391586794052273e-05, -0.0, 0.0013038837350904942, -0.0005752427969127893, -0.05367015302181244]","[0.9338380098342896, -3.909302234649658, -1.551332950592041, -0.3544006645679474, 0.2400055229663849, -0.3117828667163849]"
1584443438797479245,,193322,,1584443438,797170609,'',"[shoulder_pan_joint, shoulder_lift_joint, elbow_joint, wrist_1_joint, wrist_2_joint,","[1.4990487098693848, -1.1725676695453089, 2.483154296875, -2.861426655446188, -1.5687668959247034, 2.6599655151367188]","[0.013166668824851513, -5.1132694352418184e-05, -0.0, 0.00199417513795197, -0.0003067961661145091, -0.062375493347644806]","[0.8148193955421448, -3.927612781524658, -1.551332950592041, -0.3499145805835724, 0.2444916069507599, -0.2624359428882599]"
1584443438909498860,,193336,,1584443438,909180476,'',"[shoulder_pan_joint, shoulder_lift_joint, elbow_joint, wrist_1_joint, wrist_2_joint,","[1.5002002716064453, -1.1725919882403772, 2.4832262992858887, -2.8612712065326136, -1.5688031355487269, 2.6528055667877197]","[0.0013294500531628728, -3.834952076431364e-05, 0.00010226538870483637, 0.000690291344653815, -0.0002109223569277674, -0.06647889316082001]","[0.3067016899585724, -4.000854969024658, -1.454935073852539, -0.3925323784351349, 0.2377624809741974, -0.3521576225757599]"
1584443439021534525,,193350,,1584443439,21219037,'',"[shoulder_pan_joint, shoulder_lift_joint, elbow_joint, wrist_1_joint, wrist_2_joint,","[1.4981012344360352, -1.1725800673114222, 2.4832022190093994, -2.861318890248434, -1.5687311331378382, 2.644747257232666]","[-0.02238333597779274, -2.5566347176209092e-05, 0.00043462790199555457, 0.0002109223569277674, -0.00011504856229294091, -0.0733242854475975]","[-1.0894776582717896, -3.881836414337158, -1.5647838115692139, -0.3476715385913849, 0.2108459621667862, -0.2646789848804474]"
1584443439133406945,,193364,,1584443439,133145317,'',"[shoulder_pan_joint, shoulder_lift_joint, elbow_joint, wrist_1_joint, wrist_2_joint,","[1.4958343505859375, -1.1726039091693323, 2.4831063747406006, -2.861318890248434, -1.5686834494220179, 2.637707471847534]","[-0.018676215782761574, -2.5566347176209092e-05, -0.00029401297797448933, 0.00011504856229294091, -5.752428114647046e-05, -0.045578405261039734]","[-0.9567261934280396, -3.822327136993408, -1.5782346725463867, -0.3274841606616974, 0.1996307522058487, -0.3701019585132599]"
1584443439245487364,,193378,,1584443439,245150526,'',"[shoulder_pan_joint, shoulder_lift_joint, elbow_joint, wrist_1_joint, wrist_2_joint,","[1.4935554265975952, -1.1726039091693323, 2.483058452606201, -2.861354653035299, -1.5686114470111292, 2.633612632751465]","[-0.020555343478918076, -2.5566347176209092e-05, -0.0004985437844879925, 7.669904152862728e-05, -5.752428114647046e-05, -0.03472549095749855]","[-1.0986329317092896, -3.785706043243408, -1.6118618249893188, -0.3207550346851349, 0.1951446682214737, -0.2848663628101349]"
1584443439357482002,,193392,,1584443439,357126068,'',"[shoulder_pan_joint, shoulder_lift_joint, elbow_joint, wrist_1_joint, wrist_2_joint,","[1.4920679330825806, -1.1726277510272425, 2.4827945232391357, -2.861366573964254, -1.5685871283160608, 2.6302602291107178]","[-0.0033875410445034504, -1.2783173588104546e-05, -0.0015851134667173028, 7.669904152862728e-05, 0.00013422331539914012, -0.02895388752222061]","[-0.7553101181983948, -3.662109851837158, -1.7172268629074097, -0.2624359428882599, 0.1884155422449112, -0.2467346489429474]"
1584443439469482362,,193406,,1584443439,469166362,'',"[shoulder_pan_joint, shoulder_lift_joint, elbow_joint, wrist_1_joint, wrist_2_joint,","[1.492895483970642, -1.1726158300982874, 2.4827945232391357, -2.8613904158221644, -1.5685995260821741, 2.626692056655884]","[0.01661812514066696, -1.2783173588104546e-05, -0.0003707120195031166, 7.669904152862728e-05, 0.00013422331539914012, -0.03292306512594223]","[0.7461548447608948, -3.854370594024658, -1.593927264213562, -0.2938385307788849, 0.1973877102136612, -0.2848663628101349]"
1584443439581453376,,193420,,1584443439,581133699,'',"[shoulder_pan_joint, shoulder_lift_joint, elbow_joint, wrist_1_joint, wrist_2_joint,","[1.4941190481185913, -1.1725676695453089, 2.482806444168091, -2.861330811177389, -1.5686233679400843, 2.6228127479553223]","[0.0020836573094129562, -1.2783173588104546e-05, -0.0001661812566453591, 7.669904152862728e-05, 0.00013422331539914012, -0.04314320906996727]","[0.6500244736671448, -3.913879871368408, -1.4751113653182983, -0.3409424126148224, 0.2108459621667862, -0.3656158745288849]"
1584443439693489452,,193434,,1584443439,693122968,'',"[shoulder_pan_joint, shoulder_lift_joint, elbow_joint, wrist_1_joint, wrist_2_joint,","[1.4920918941497803, -1.1725919882403772, 2.482806444168091, -2.8613784948932093, -1.5685513655291956, 2.6172573566436768]","[-0.027215376496315002, -1.2783173588104546e-05, 3.834952076431364e-05, 5.752428114647046e-05, 9.58738019107841e-05, -0.05422622337937355]","[-1.0482789278030396, -3.845215320587158, -1.4863203763961792, -0.3499145805835724, 0.1704712063074112, -0.2938385307788849]"
1584443439805433365,,193448,,1584443439,805099202,'',"[shoulder_pan_joint, shoulder_lift_joint, elbow_joint, wrist_1_joint, wrist_2_joint,","[1.4893572330474854, -1.1726158300982874, 2.4826865196228027, -2.861474339162008, -1.5683720747577112, 2.61083984375]","[-0.018216021358966827, -1.2783173588104546e-05, -5.1132694352418184e-05, 3.834952076431364e-05, 0.0011313108261674643, -0.05731336027383804]","[-0.9246827363967896, -3.817749500274658, -1.5289148092269897, -0.3431854546070099, 0.1435547024011612, -0.3813171684741974]"
1584443439917514555,,193462,,1584443439,917142081,'',"[shoulder_pan_joint, shoulder_lift_joint, elbow_joint, wrist_1_joint, wrist_2_joint,","[1.487857699394226, -1.1726515928851526, 2.482590675354004, -2.861474339162008, -1.5683000723468226, 2.605679512023926]","[-0.010469418950378895, -1.2783173588104546e-05, -0.0006647250265814364, 3.834952076431364e-05, 0.00046019424917176366, -0.035300735384225845]","[-0.9109498262405396, -3.822327136993408, -1.502013087272644, -0.3252411186695099, 0.1435547024011612, -0.3925323784351349]"
1584443440029444523,,193476,,1584443440,29128894,'',"[shoulder_pan_joint, shoulder_lift_joint, elbow_joint, wrist_1_joint, wrist_2_joint,","[1.487510085105896, -1.1726039091693323, 2.4823625087738037, -2.861474339162008, -1.5682643095599573, 2.6026625633239746]","[0.002646117005497217, -1.2783173588104546e-05, -0.004397411830723286, -3.834952076431364e-05, 0.00028762139845639467, -0.02538738213479519]","[0.1831054836511612, -3.598022937774658, -1.737403154373169, -0.2086029201745987, 0.1413116604089737, -0.2758941948413849]"
1584443440141456353,,193490,,1584443440,141092104,'',"[shoulder_pan_joint, shoulder_lift_joint, elbow_joint, wrist_1_joint, wrist_2_joint,","[1.4875820875167847, -1.1725919882403772, 2.4823145866394043, -2.861450497304098, -1.5683119932757776, 2.599226474761963]","[0.0, -1.2783173588104546e-05, -0.0005496764788404107, -3.834952076431364e-05, 0.00013422331539914012, -0.03857961669564247]","[-0.1419067531824112, -3.836060047149658, -1.5244312286376953, -0.3117828667163849, 0.1525268703699112, -0.2803802788257599]"
1584443440253514991,,193504,,1584443440,253149810,'',"[shoulder_pan_joint, shoulder_lift_joint, elbow_joint, wrist_1_joint, wrist_2_joint,","[1.4875340461730957, -1.1726039091693323, 2.4822542667388916, -2.861474339162008, -1.5683000723468226, 2.593742847442627]","[0.00048576059634797275, -1.2783173588104546e-05, -0.0007414240390062332, 0.0, 9.58738019107841e-05, -0.0437951534986496]","[0.2883911430835724, -3.790283679962158, -1.5894436836242676, -0.2893524467945099, 0.1480407863855362, -0.2983246147632599]"
1584443440365497747,,193518,,1584443440,365159947,'',"[shoulder_pan_joint, shoulder_lift_joint, elbow_joint, wrist_1_joint, wrist_2_joint,","[1.4875940084457397, -1.1726158300982874, 2.4823145866394043, -2.861474339162008, -1.5682762304889124, 2.5891573429107666]","[0.0007669904152862728, 0.0, -0.0, 0.0, 7.669904152862728e-05, -0.02949078194797039]","[-0.01373291201889515, -3.890991687774658, -1.3966479301452637, -0.3678589165210724, 0.1570129543542862, -0.2938385307788849]"
1584443440477325635,,193532,,1584443440,477071942,'',"[shoulder_pan_joint, shoulder_lift_joint, elbow_joint, wrist_1_joint, wrist_2_joint,","[1.4875460863113403, -1.1726396719561976, 2.4823145866394043, -2.861450497304098, -1.5682881514178675, 2.5861399173736572]","[0.0018535602139309049, 0.0, -0.0, 0.0, 5.752428114647046e-05, -0.021399032324552536]","[0.1419067531824112, -3.771973133087158, -1.5558165311813354, -0.3050537407398224, 0.1390686184167862, -0.2871094048023224]"
1584443440589357583,,193546,,1584443440,589075597,'',"[shoulder_pan_joint, shoulder_lift_joint, elbow_joint, wrist_1_joint, wrist_2_joint,","[1.4875460863113403, -1.1726277510272425, 2.482278823852539, -2.8614867369281214, -1.5682762304889124, 2.5839011669158936]","[0.00017896443023346364, 0.0, -0.0, 0.0, 3.834952076431364e-05, -0.024888839572668076]","[-0.4348755180835724, -3.927612781524658, -1.405615210533142, -0.3678589165210724, 0.1659851223230362, -0.2781372368335724]"
1584443440701420068,,193560,,1584443440,701071778,'',"[shoulder_pan_joint, shoulder_lift_joint, elbow_joint, wrist_1_joint, wrist_2_joint,","[1.4876179695129395, -1.1726039091693323, 2.482290744781494, -2.861450497304098, -1.5682881514178675, 2.581207275390625]","[0.00021731395099777728, 0.0, -0.0, 0.0, 3.834952076431364e-05, -0.02214684896171093]","[0.1968383938074112, -3.726196765899658, -1.6499725580215454, -0.2669220268726349, 0.1390686184167862, -0.3297272026538849]"
1584443440813417491,,193574,,1584443440,813065415,'',"[shoulder_pan_joint, shoulder_lift_joint, elbow_joint, wrist_1_joint, wrist_2_joint,","[1.4876060485839844, -1.1726277510272425, 2.482290744781494, -2.861474339162008, -1.5683000723468226, 2.579267740249634]","[-0.0003579288604669273, 0.0, -0.0, 0.0, 3.834952076431364e-05, -0.01532063353806734]","[-0.4714966416358948, -3.936768054962158, -1.3406027555465698, -0.3925323784351349, 0.1614990383386612, -0.3162689507007599]"
1584443440925460380,,193588,,1584443440,925112972,'',"[shoulder_pan_joint, shoulder_lift_joint, elbow_joint, wrist_1_joint, wrist_2_joint,","[1.487725853919983, -1.1726515928851526, 2.482290744781494, -2.861438576375143, -1.5682762304889124, 2.580620527267456]","[0.0005113269435241818, 0.0, -0.0, 0.0, 1.917476038215682e-05, 0.027343207970261574]","[0.0457763709127903, -3.845215320587158, -1.5289148092269897, -0.3185119926929474, 0.1390686184167862, 0.3252411186695099]"
1584443441037399585,,193602,,1584443441,37055503,'',"[shoulder_pan_joint, shoulder_lift_joint, elbow_joint, wrist_1_joint, wrist_2_joint,","[1.4876539707183838, -1.1726277510272425, 2.482290744781494, -2.861462418233053, -1.5682762304889124, 2.5820934772491455]","[-0.00020453077740967274, 0.0, -0.0, 0.0, 1.917476038215682e-05, -0.029337383806705475]","[-0.9017945528030396, -3.991699695587158, -1.3428444862365723, -0.3858032524585724, 0.1390686184167862, -0.0852356031537056]"
1584443441149330455,,193616,,1584443441,149020947,'',"[shoulder_pan_joint, shoulder_lift_joint, elbow_joint, wrist_1_joint, wrist_2_joint,","[1.4870179891586304, -1.1726515928851526, 2.482266664505005, -2.861438576375143, -1.5682643095599573, 2.577950954437256]","[0.008040616288781166, 0.0, -0.0005241101025603712, 0.0, 1.917476038215682e-05, -0.016566993668675423]","[0.4486084580421448, -3.698730945587158, -1.6656652688980103, -0.2579498589038849, 0.1390686184167862, -0.3117828667163849]"
1584443441261385916,,193630,,1584443441,261039851,'',"[shoulder_pan_joint, shoulder_lift_joint, elbow_joint, wrist_1_joint, wrist_2_joint,","[1.4887696504592896, -1.1726396719561976, 2.4823145866394043, -2.861438576375143, -1.5683358351336878, 2.579087972640991]","[0.01104466151446104, 0.0, -0.00029401297797448933, 0.0, 1.917476038215682e-05, 0.02811019867658615]","[1.0070801973342896, -3.904724597930908, -1.4280333518981934, -0.3499145805835724, 0.1457977443933487, 0.2893524467945099]"
1584443441373468780,,193644,,1584443441,373086276,'',"[shoulder_pan_joint, shoulder_lift_joint, elbow_joint, wrist_1_joint, wrist_2_joint,","[1.488121747970581, -1.1726158300982874, 2.482302665710449, -2.861462418233053, -1.5682881514178675, 2.580022096633911]","[-0.02485048957169056, 0.0, 3.834952076431364e-05, 0.0, 1.917476038215682e-05, -0.040056075900793076]","[-0.9155274629592896, -3.909302234649658, -1.3338773250579834, -0.3992615044116974, 0.1480407863855362, -0.2444916069507599]"
1584443441485375083,,193658,,1584443441,485030791,'',"[shoulder_pan_joint, shoulder_lift_joint, elbow_joint, wrist_1_joint, wrist_2_joint,","[1.4855068922042847, -1.1726396719561976, 2.4822304248809814, -2.861474339162008, -1.5681923071490687, 2.5759634971618652]","[-0.019839486107230186, 0.0, -0.00010226538870483637, 0.0, 0.0007286408799700439, -0.023393208160996437]","[-1.0253907442092896, -3.739929676055908, -1.5356402397155762, -0.3185119926929474, 0.1345825344324112, -0.3409424126148224]"
1584443441597298709,,193672,,1584443441,597085060,'',"[shoulder_pan_joint, shoulder_lift_joint, elbow_joint, wrist_1_joint, wrist_2_joint,","[1.4833239316940308, -1.1726754347430628, 2.482086658477783, -2.8614986578570765, -1.568108383809225, 2.5752687454223633]","[-0.016771523281931877, 0.0, -0.0046658581122756, 0.0, 0.0005368932615965605, 0.04448544234037399]","[-0.9979249238967896, -3.657532215118408, -1.6522144079208374, -0.2512207329273224, 0.1256103664636612, 0.1906585842370987]"
1584443441709339624,,193686,,1584443441,709032330,'',"[shoulder_pan_joint, shoulder_lift_joint, elbow_joint, wrist_1_joint, wrist_2_joint,","[1.4809850454330444, -1.1726515928851526, 2.481738567352295, -2.8614986578570765, -1.5680726210223597, 2.5805728435516357]","[-0.027828969061374664, 0.0, -0.0007925567333586514, 0.0, 0.0003067961661145091, 0.0409381128847599]","[-1.1032105684280396, -3.703308582305908, -1.5087385177612305, -0.3229980766773224, 0.1323394924402237, 0.3454284965991974]"
1584443441821403922,,193700,,1584443441,821098051,'',"[shoulder_pan_joint, shoulder_lift_joint, elbow_joint, wrist_1_joint, wrist_2_joint,","[1.477590560913086, -1.1726396719561976, 2.48172664642334, -2.8615224997149866, -1.5680363813983362, 2.583817720413208]","[-0.030487868934869766, 0.0, -0.0002556634717620909, 0.0, 0.00015339808305725455, 0.01848446950316429]","[-0.9841920137405396, -3.721619129180908, -1.4952876567840576, -0.3364563286304474, 0.1188812404870987, 0.3274841606616974]"
1584443441933368805,,193714,,1584443441,933076119,'',"[shoulder_pan_joint, shoulder_lift_joint, elbow_joint, wrist_1_joint, wrist_2_joint,","[1.474100112915039, -1.1726396719561976, 2.481738567352295, -2.8614986578570765, -1.5680483023272913, 2.5831472873687744]","[-0.03393932431936264, 0.0, -0.00021731395099777728, 0.0, 9.58738019107841e-05, -0.05012282356619835]","[-1.1352540254592896, -3.703308582305908, -1.5109803676605225, -0.3297272026538849, 0.1076660305261612, -0.2624359428882599]"
1584443442045275018,,193728,,1584443442,44987111,'',"[shoulder_pan_joint, shoulder_lift_joint, elbow_joint, wrist_1_joint, wrist_2_joint,","[1.4706577062606812, -1.1726039091693323, 2.481762647628784, -2.8614867369281214, -1.5680845419513147, 2.5782501697540283]","[-0.027534956112504005, 0.0, -0.00012783173588104546, 0.0, 7.669904152862728e-05, -0.02858956716954708]","[-1.0070801973342896, -3.675842761993408, -1.515463948249817, -0.3274841606616974, 0.1054229810833931, -0.3229980766773224]"
1584443442157284174,,193742,,1584443442,156993903,'',"[shoulder_pan_joint, shoulder_lift_joint, elbow_joint, wrist_1_joint, wrist_2_joint,","[1.4675264358520508, -1.1726158300982874, 2.481738567352295, -2.8614986578570765, -1.5680602232562464, 2.5754964351654053]","[-0.022881880402565002, 0.0, -8.948221511673182e-05, -5.752428114647046e-05, 5.752428114647046e-05, -0.014304371550679207]","[-1.1535645723342896, -3.675842761993408, -1.513222098350525, -0.3185119926929474, 0.1076660305261612, -0.3072967827320099]"
1584443442269378909,,193756,,1584443442,269059223,'',"[shoulder_pan_joint, shoulder_lift_joint, elbow_joint, wrist_1_joint, wrist_2_joint,","[1.465955376625061, -1.1726039091693323, 2.481738567352295, -2.8614986578570765, -1.5680602232562464, 2.5775439739227295]","[-0.0021731394808739424, 0.0, -6.391586794052273e-05, -5.752428114647046e-05, 3.834952076431364e-05, 0.05685316398739815]","[-0.5630493760108948, -3.694153308868408, -1.5177057981491089, -0.3207550346851349, 0.1121521145105362, 0.3364563286304474]"
1584443442381291054,,193770,,1584443442,380970436,'',"[shoulder_pan_joint, shoulder_lift_joint, elbow_joint, wrist_1_joint, wrist_2_joint,","[1.4685221910476685, -1.1726158300982874, 2.481750726699829, -2.861462418233053, -1.568108383809225, 2.5843563079833984]","[0.03777427598834038, 0.0, -5.1132694352418184e-05, -5.752428114647046e-05, 3.834952076431364e-05, 0.054667241871356964]","[0.6912232041358948, -3.817749500274658, -1.551332950592041, -0.3005676567554474, 0.1368255764245987, 0.3656158745288849]"
1584443442493336847,,193784,,1584443442,492999658,'',"[shoulder_pan_joint, shoulder_lift_joint, elbow_joint, wrist_1_joint, wrist_2_joint,","[1.473656415939331, -1.1726158300982874, 2.481762647628784, -2.861426655446188, -1.568132225667135, 2.5894925594329834]","[0.05544062331318855, 0.0, -5.1132694352418184e-05, -5.752428114647046e-05, 3.834952076431364e-05, 0.04256796836853027]","[0.7278442978858948, -3.826904773712158, -1.5423656702041626, -0.2848663628101349, 0.1682281643152237, 0.3140259087085724]"
1584443442605228704,,193798,,1584443442,604940397,'',"[shoulder_pan_joint, shoulder_lift_joint, elbow_joint, wrist_1_joint, wrist_2_joint,","[1.480468988418579, -1.1726277510272425, 2.4818224906921387, -2.8614147345172327, -1.5682161490069788, 2.5943892002105713]","[0.05844466760754585, 0.0, -3.834952076431364e-05, -5.752428114647046e-05, 1.917476038215682e-05, 0.04182015359401703]","[0.8789063692092896, -3.881836414337158, -1.5333983898162842, -0.2803802788257599, 0.1727142482995987, 0.3386993706226349]"
1584443442717331364,,193812,,1584443442,717011207,'',"[shoulder_pan_joint, shoulder_lift_joint, elbow_joint, wrist_1_joint, wrist_2_joint,","[1.4862985610961914, -1.1726039091693323, 2.481846570968628, -2.861366573964254, -1.5683000723468226, 2.598184823989868]","[0.05104321241378784, 0.0, 3.834952076431364e-05, 5.752428114647046e-05, -0.00028762139845639467, 0.018446119502186775]","[0.8972169160842896, -3.959656238555908, -1.4370005130767822, -0.3274841606616974, 0.2018737941980362, 0.3544006645679474]"
1584443442829299874,,193826,,1584443442,828981390,'',"[shoulder_pan_joint, shoulder_lift_joint, elbow_joint, wrist_1_joint, wrist_2_joint,","[1.491960048675537, -1.1726396719561976, 2.482302665710449, -2.861366573964254, -1.5684078375445765, 2.5983762741088867]","[0.04163479432463646, 0.0, 0.0136652123183012, 0.0002109223569277674, -0.0007478156476281583, -0.042932286858558655]","[0.8331299424171448, -4.499817371368408, -1.08951997756958, -0.5719757676124573, 0.2220611870288849, -0.1839294582605362]"
1584443442941299562,,193840,,1584443442,940983682,'',"[shoulder_pan_joint, shoulder_lift_joint, elbow_joint, wrist_1_joint, wrist_2_joint,","[1.4958702325820923, -1.1726515928851526, 2.4829742908477783, -2.861462418233053, -1.56846791902651, 2.5926055908203125]","[0.027765052393078804, -0.0002812298189383, -0.00024288029817398638, 0.00013422331539914012, -0.00024927189224399626, -0.051733504980802536]","[0.8926392793655396, -4.014587879180908, -1.513222098350525, -0.3431854546070099, 0.2198181450366974, -0.2915954887866974]"
1584443443053218629,,193854,,1584443443,52945970,'',"[shoulder_pan_joint, shoulder_lift_joint, elbow_joint, wrist_1_joint, wrist_2_joint,","[1.4990966320037842, -1.1725919882403772, 2.4829742908477783, -2.861115280781881, -1.5685513655291956, 2.5872654914855957]","[0.03230307996273041, -0.00011504856229294091, -0.00024288029817398638, 0.0019174760673195124, -0.0009203884983435273, -0.0432199090719223]","[0.8102417588233948, -3.991699695587158, -1.5692673921585083, -0.3274841606616974, 0.1973877102136612, -0.2736511528491974]"
1584443443165304568,,193868,,1584443443,164985973,'',"[shoulder_pan_joint, shoulder_lift_joint, elbow_joint, wrist_1_joint, wrist_2_joint,","[1.5029948949813843, -1.1726158300982874, 2.483034372329712, -2.8607681433307093, -1.5686472097979944, 2.582033634185791]","[0.0314338244497776, -7.669904152862728e-05, -0.0001661812566453591, 0.0041609229519963264, -0.0005368932615965605, -0.05368932709097862]","[0.8651733994483948, -3.936768054962158, -1.6275544166564941, -0.3723450005054474, 0.2579498589038849, -0.2826233208179474]"
1584443443277355211,,193882,,1584443443,277036035,'',"[shoulder_pan_joint, shoulder_lift_joint, elbow_joint, wrist_1_joint, wrist_2_joint,","[1.505873680114746, -1.1726039091693323, 2.483058452606201, -2.8605406920062464, -1.5687912146197718, 2.5767056941986084]","[0.01780696026980877, -5.1132694352418184e-05, -0.0001661812566453591, 0.002416019793599844, -0.0005752427969127893, -0.04258714243769646]","[0.9887696504592896, -3.950500965118408, -1.5872018337249756, -0.3902893364429474, 0.2400055229663849, -0.3521576225757599]"
1584443443389282303,,193896,,1584443443,388959691,'',"[shoulder_pan_joint, shoulder_lift_joint, elbow_joint, wrist_1_joint, wrist_2_joint,","[1.5065455436706543, -1.1726396719561976, 2.483034372329712, -2.860493008290426, -1.5687792936908167, 2.5726230144500732]","[-0.01233576238155365, -3.834952076431364e-05, -0.00012783173588104546, 0.0003451456723269075, -0.00023009712458588183, -0.03834952041506767]","[-0.5035400986671448, -4.032898426055908, -1.421307921409607, -0.4486084580421448, 0.2220611870288849, -0.3117828667163849]"
1584443443501240664,,193910,,1584443443,500920146,'',"[shoulder_pan_joint, shoulder_lift_joint, elbow_joint, wrist_1_joint, wrist_2_joint,","[1.5039547681808472, -1.1726277510272425, 2.4829742908477783, -2.860528294240133, -1.568719212208883, 2.567821741104126]","[-0.02364887110888958, -3.834952076431364e-05, 7.669904152862728e-05, 0.00015339808305725455, -0.00013422331539914012, -0.04517573490738869]","[-1.0299683809280396, -3.854370594024658, -1.6051363945007324, -0.3970184624195099, 0.2287903130054474, -0.2781372368335724]"
1584443443613238528,,193924,,1584443443,612937497,'',"[shoulder_pan_joint, shoulder_lift_joint, elbow_joint, wrist_1_joint, wrist_2_joint,","[1.5019155740737915, -1.1726396719561976, 2.482830286026001, -2.8605883757220667, -1.5686352888690394, 2.5620152950286865]","[-0.010443853214383125, -2.5566347176209092e-05, -0.0018024274613708258, 0.00015339808305725455, -9.58738019107841e-05, -0.04569345340132713]","[-0.9613038301467896, -3.794861316680908, -1.645488977432251, -0.3409424126148224, 0.2332763969898224, -0.3095398247241974]"
1584443443725332993,,193938,,1584443443,724969485,'',"[shoulder_pan_joint, shoulder_lift_joint, elbow_joint, wrist_1_joint, wrist_2_joint,","[1.5012197494506836, -1.172663990651266, 2.482806444168091, -2.860600296651022, -1.5686352888690394, 2.5573699474334717]","[-0.0012144014472141862, -2.5566347176209092e-05, -0.0003451456723269075, 0.00011504856229294091, -9.58738019107841e-05, -0.03647039458155632]","[-0.5493164658546448, -3.890991687774658, -1.546849250793457, -0.3858032524585724, 0.1906585842370987, -0.3072967827320099]"
1584443443837388074,,193952,,1584443443,837023154,'',"[shoulder_pan_joint, shoulder_lift_joint, elbow_joint, wrist_1_joint, wrist_2_joint,","[1.5013638734817505, -1.1726515928851526, 2.4827585220336914, -2.8605645338641565, -1.5686591307269495, 2.5528202056884766]","[0.003579288488253951, -1.2783173588104546e-05, -0.00017896443023346364, 7.669904152862728e-05, -9.58738019107841e-05, -0.04601942375302315]","[0.0457763709127903, -3.868103504180908, -1.5827182531356812, -0.3701019585132599, 0.2198181450366974, -0.2893524467945099]"
1584443443949207466,,193966,,1584443443,948925890,'',"[shoulder_pan_joint, shoulder_lift_joint, elbow_joint, wrist_1_joint, wrist_2_joint,","[1.5013275146484375, -1.1726158300982874, 2.4827823638916016, -2.86062461534609, -1.5686114470111292, 2.546881914138794]","[0.0005113269435241818, -1.2783173588104546e-05, -0.0, 5.752428114647046e-05, -7.669904152862728e-05, -0.04989272728562355]","[-0.4852295517921448, -3.977966785430908, -1.452693223953247, -0.4216919243335724, 0.2018737941980362, -0.3409424126148224]"
1584443444061235727,,193980,,1584443444,60917213,'',"[shoulder_pan_joint, shoulder_lift_joint, elbow_joint, wrist_1_joint, wrist_2_joint,","[1.5013399124145508, -1.1726754347430628, 2.4827945232391357, -2.8605764547931116, -1.5686114470111292, 2.541614055633545]","[0.0017512948252260685, -1.2783173588104546e-05, -0.0, 5.752428114647046e-05, -5.752428114647046e-05, -0.03999854996800423]","[0.4211426079273224, -3.790283679962158, -1.7015341520309448, -0.3364563286304474, 0.2108459621667862, -0.3005676567554474]"
1584443444173287131,,193994,,1584443444,172949862,'',"[shoulder_pan_joint, shoulder_lift_joint, elbow_joint, wrist_1_joint, wrist_2_joint,","[1.5011717081069946, -1.1726396719561976, 2.4827704429626465, -2.8606484572040003, -1.5685871283160608, 2.5362863540649414]","[-0.0003579288604669273, -1.2783173588104546e-05, -0.0, 3.834952076431364e-05, 5.752428114647046e-05, -0.05347840487957001]","[-0.0869751051068306, -3.913879871368408, -1.5289148092269897, -0.3925323784351349, 0.2265472710132599, -0.2646789848804474]"
1584443444285211399,,194008,,1584443444,284910788,'',"[shoulder_pan_joint, shoulder_lift_joint, elbow_joint, wrist_1_joint, wrist_2_joint,","[1.5010998249053955, -1.172663990651266, 2.4827945232391357, -2.860636536275045, -1.5685632864581507, 2.53022837638855]","[-0.004793690051883459, -1.2783173588104546e-05, -0.0, 3.834952076431364e-05, 5.752428114647046e-05, -0.04874224215745926]","[-0.4852295517921448, -3.987122058868408, -1.4302750825881958, -0.4396362900733948, 0.2130890041589737, -0.3521576225757599]"
1584443444397183675,,194022,,1584443444,396880289,'',"[shoulder_pan_joint, shoulder_lift_joint, elbow_joint, wrist_1_joint, wrist_2_joint,","[1.5011237859725952, -1.1726396719561976, 2.482722520828247, -2.86062461534609, -1.5685871283160608, 2.5265049934387207]","[0.002940129954367876, -1.2783173588104546e-05, -0.00026844663079828024, 1.917476038215682e-05, 5.752428114647046e-05, -0.02028689719736576]","[0.1647949367761612, -3.804016590118408, -1.645488977432251, -0.3386993706226349, 0.1973877102136612, -0.3095398247241974]"
1584443444509183152,,194036,,1584443444,508880638,'',"[shoulder_pan_joint, shoulder_lift_joint, elbow_joint, wrist_1_joint, wrist_2_joint,","[1.501039981842041, -1.1726754347430628, 2.482722520828247, -2.860636536275045, -1.5685871283160608, 2.5240745544433594]","[-0.0018279937794432044, -1.2783173588104546e-05, -0.0003707120195031166, 1.917476038215682e-05, 5.752428114647046e-05, -0.020075973123311996]","[-0.1007080152630806, -3.840637683868408, -1.5692673921585083, -0.3723450005054474, 0.2086029201745987, -0.3005676567554474]"
1584443444621212616,,194050,,1584443444,620918487,'',"[shoulder_pan_joint, shoulder_lift_joint, elbow_joint, wrist_1_joint, wrist_2_joint,","[1.5010279417037964, -1.1726396719561976, 2.4827463626861572, -2.8605883757220667, -1.5685752073871058, 2.5221827030181885]","[-0.0003579288604669273, -1.2783173588104546e-05, -0.0, 1.917476038215682e-05, 5.752428114647046e-05, -0.018216021358966827]","[-0.1098632961511612, -3.996277332305908, -1.4145824909210205, -0.4306641221046448, 0.1794433742761612, -0.2848663628101349]"
1584443444733167660,,194064,,1584443444,732861769,'',"[shoulder_pan_joint, shoulder_lift_joint, elbow_joint, wrist_1_joint, wrist_2_joint,","[1.5009920597076416, -1.1726396719561976, 2.4827463626861572, -2.86062461534609, -1.5685394446002405, 2.519584894180298]","[-0.00026844663079828024, -1.2783173588104546e-05, -0.0, 1.917476038215682e-05, 3.834952076431364e-05, -0.02979757823050022]","[-0.3158569633960724, -3.918457508087158, -1.4930458068847656, -0.4015045464038849, 0.2086029201745987, -0.3207550346851349]"
1584443444845147882,,194078,,1584443444,844848744,'',"[shoulder_pan_joint, shoulder_lift_joint, elbow_joint, wrist_1_joint, wrist_2_joint,","[1.5010039806365967, -1.1726754347430628, 2.482734441757202, -2.860600296651022, -1.5685632864581507, 2.5168910026550293]","[0.0012783173006027937, 0.0, -0.0, 1.917476038215682e-05, 3.834952076431364e-05, -0.02136068232357502]","[0.0549316480755806, -3.858948230743408, -1.593927264213562, -0.3588867485523224, 0.1906585842370987, -0.3319702446460724]"
1584443444957184719,,194092,,1584443444,956888436,'',"[shoulder_pan_joint, shoulder_lift_joint, elbow_joint, wrist_1_joint, wrist_2_joint,","[1.5009081363677979, -1.172663990651266, 2.482698440551758, -2.860636536275045, -1.5685632864581507, 2.5145204067230225]","[-0.0016234630020335317, 0.0, -0.0, 1.917476038215682e-05, 3.834952076431364e-05, -0.0197308287024498]","[0.1419067531824112, -3.868103504180908, -1.5580583810806274, -0.3790741264820099, 0.2063598781824112, -0.3095398247241974]"
1584443445069290765,,194106,,1584443445,68904705,'',"[shoulder_pan_joint, shoulder_lift_joint, elbow_joint, wrist_1_joint, wrist_2_joint,","[1.5009920597076416, -1.1726396719561976, 2.4826865196228027, -2.8605883757220667, -1.5685513655291956, 2.512892484664917]","[0.00012783173588104546, 0.0, -0.0, 1.917476038215682e-05, 1.917476038215682e-05, -0.013000487349927425]","[-0.1647949367761612, -3.918457508087158, -1.5087385177612305, -0.4037475883960724, 0.2063598781824112, -0.3252411186695099]"
1584443445181057789,,194120,,1584443445,180816970,'',"[shoulder_pan_joint, shoulder_lift_joint, elbow_joint, wrist_1_joint, wrist_2_joint,","[1.5012316703796387, -1.1726515928851526, 2.4823267459869385, -2.8604090849505823, -1.5685995260821741, 2.5145084857940674]","[0.005317800212651491, 0.0, -0.007299192249774933, 0.0051963599398732185, 1.917476038215682e-05, 0.050698067992925644]","[0.7369995713233948, -3.616333484649658, -1.8158665895462036, -0.2871094048023224, 0.1996307522058487, 0.3229980766773224]"
1584443445293182420,,194134,,1584443445,292868264,'',"[shoulder_pan_joint, shoulder_lift_joint, elbow_joint, wrist_1_joint, wrist_2_joint,","[1.5013155937194824, -1.1725438276873987, 2.480982542037964, -2.8597148100482386, -1.5686114470111292, 2.5191538333892822]","[-0.0005113269435241818, 0.0016490294365212321, -0.020184630528092384, 0.013441506773233414, 1.917476038215682e-05, 0.0329614132642746]","[-0.004577637184411287, -3.163147211074829, -1.9817605018615723, -0.2422485649585724, 0.2130890041589737, 0.3095398247241974]"
1584443445405125021,,194148,,1584443445,404823769,'',"[shoulder_pan_joint, shoulder_lift_joint, elbow_joint, wrist_1_joint, wrist_2_joint,","[1.5013275146484375, -1.1718362013446253, 2.4774796962738037, -2.857427422200338, -1.5685995260821741, 2.521775722503662]","[-0.00015339808305725455, 0.010047574527561665, -0.0461089052259922, 0.023565780371427536, 1.917476038215682e-05, 0.015224759466946125]","[-0.0549316480755806, -2.522278070449829, -1.7329195737838745, -0.2489776909351349, 0.2153320610523224, 0.3409424126148224]"
1584443445517147682,,194162,,1584443445,516852371,'',"[shoulder_pan_joint, shoulder_lift_joint, elbow_joint, wrist_1_joint, wrist_2_joint,","[1.5013878345489502, -1.1697381178485315, 2.4686009883880615, -2.8536561171161097, -1.5685275236712855, 2.523320198059082]","[0.00415453128516674, 0.033977676182985306, -0.11374467611312866, 0.05144588276743889, 1.917476038215682e-05, 0.016336895525455475]","[0.6088257431983948, -2.357483148574829, -1.7912065982818604, -0.0785064771771431, 0.1704712063074112, 0.3633728325366974]"
1584443445629153471,,194176,,1584443445,628837672,'',"[shoulder_pan_joint, shoulder_lift_joint, elbow_joint, wrist_1_joint, wrist_2_joint,","[1.5027072429656982, -1.164438549672262, 2.45338773727417, -2.8459699789630335, -1.5683601538287562, 2.5252597332000732]","[0.024096282199025154, 0.054788682609796524, -0.1542034149169922, 0.08536603301763535, 0.0004793690168298781, 0.024601217359304428]","[0.6134033799171448, -2.275085687637329, -1.8943299055099487, 0.0493469275534153, 0.1435547024011612, 0.3499145805835724]"
1584443445741159772,,194190,,1584443445,740799750,'',"[shoulder_pan_joint, shoulder_lift_joint, elbow_joint, wrist_1_joint, wrist_2_joint,","[1.5065455436706543, -1.1566575209247034, 2.4355103969573975, -2.835578266774313, -1.5683119932757776, 2.528827667236328]","[0.04130243510007858, 0.07856538146734238, -0.15389662981033325, 0.09186627715826035, 0.00032597093377262354, 0.04603859782218933]","[0.8056641221046448, -2.920532464981079, -2.0467729568481445, -0.1099090725183487, 0.1547699123620987, 0.3028106987476349]"
1584443445853283220,,194204,,1584443445,852867054,'',"[shoulder_pan_joint, shoulder_lift_joint, elbow_joint, wrist_1_joint, wrist_2_joint,","[1.5115351676940918, -1.1497514883624476, 2.42075252532959, -2.826359573994772, -1.5682762304889124, 2.534550428390503]","[0.05338253080844879, 0.05031457170844078, -0.1152658760547638, 0.06900995969772339, 0.0001917476038215682, 0.054130349308252335]","[0.7369995713233948, -2.902221918106079, -2.024354934692383, -0.1345825344324112, 0.1659851223230362, 0.3319702446460724]"
1584443445965204712,,194218,,1584443445,964860950,'',"[shoulder_pan_joint, shoulder_lift_joint, elbow_joint, wrist_1_joint, wrist_2_joint,","[1.5181320905685425, -1.1448596159564417, 2.410301446914673, -2.8200257460223597, -1.5682762304889124, 2.540297031402588]","[0.060144830495119095, 0.035959068685770035, -0.08407492935657501, 0.04554005712270737, 0.0001917476038215682, 0.04809029772877693]","[0.7003784775733948, -3.012085199356079, -2.0378057956695557, -0.1054229810833931, 0.1390686184167862, 0.3229980766773224]"
1584443446077179704,,194232,,1584443446,76834480,'',"[shoulder_pan_joint, shoulder_lift_joint, elbow_joint, wrist_1_joint, wrist_2_joint,","[1.5250409841537476, -1.1415026823626917, 2.4022982120513916, -2.815368954335348, -1.568239990864889, 2.546881914138794]","[0.07000065594911575, 0.021820876747369766, -0.055504538118839264, 0.0348980650305748, 0.00011504856229294091, 0.07269151508808136]","[0.9109498262405396, -3.126526117324829, -2.107301950454712, -0.1345825344324112, 0.1772003322839737, 0.3409424126148224]"
1584443446189107678,,194246,,1584443446,188812106,'',"[shoulder_pan_joint, shoulder_lift_joint, elbow_joint, wrist_1_joint, wrist_2_joint,","[1.5327775478363037, -1.140075985585348, 2.3973305225372314, -2.812017265950338, -1.5682643095599573, 2.5539815425872803]","[0.06322557479143143, 0.006519418675452471, -0.03062848374247551, 0.019347332417964935, 7.669904152862728e-05, 0.04716990888118744]","[0.8239746689796448, -2.870178461074829, -2.185765266418457, -0.1547699123620987, 0.1570129543542862, 0.4216919243335724]"
1584443446301182927,,194260,,1584443446,300832052,'',"[shoulder_pan_joint, shoulder_lift_joint, elbow_joint, wrist_1_joint, wrist_2_joint,","[1.5393269062042236, -1.1398957411395472, 2.396202802658081, -2.811071221028463, -1.5683358351336878, 2.5579326152801514]","[0.051605671644210815, -0.001163268811069429, 0.00681343162432313, -0.0031830102670937777, 5.752428114647046e-05, 0.022913837805390358]","[0.9567261934280396, -4.092407703399658, -1.5625419616699219, -0.5473023056983948, 0.1884155422449112, 0.3005676567554474]"
1584443446413067640,,194274,,1584443446,412766989,'',"[shoulder_pan_joint, shoulder_lift_joint, elbow_joint, wrist_1_joint, wrist_2_joint,","[1.5435007810592651, -1.1406872908221644, 2.3977625370025635, -2.812232319508688, -1.5682762304889124, 2.5607221126556396]","[0.02165469527244568, -0.007286408916115761, 0.011607121676206589, -0.010105098597705364, 5.752428114647046e-05, 0.028436169028282166]","[0.8972169160842896, -4.499817371368408, -1.2845574617385864, -0.7177734971046448, 0.1861725002527237, 0.2848663628101349]"
1584443446525118053,,194288,,1584443446,524810279,'',"[shoulder_pan_joint, shoulder_lift_joint, elbow_joint, wrist_1_joint, wrist_2_joint,","[1.5441004037857056, -1.1408193747149866, 2.3980984687805176, -2.8124716917621058, -1.5682881514178675, 2.5636916160583496]","[-0.017615213990211487, -0.0003195793251506984, 0.0005624596378766, -0.0004026699753012508, 3.834952076431364e-05, 0.016624517738819122]","[-0.8285523056983948, -4.032898426055908, -1.468385934829712, -0.5921631455421448, 0.1884155422449112, 0.2758941948413849]"
1584443446637070883,,194302,,1584443446,636776834,'',"[shoulder_pan_joint, shoulder_lift_joint, elbow_joint, wrist_1_joint, wrist_2_joint,","[1.5409698486328125, -1.1407955328570765, 2.3979547023773193, -2.8125436941729944, -1.5682161490069788, 2.565906524658203]","[-0.03369644656777382, -0.00012783173588104546, -0.0007414240390062332, -0.00017257283616345376, 3.834952076431364e-05, 0.022530343383550644]","[-0.9933472871780396, -3.804016590118408, -1.6185872554779053, -0.5316010117530823, 0.1637420803308487, 0.3095398247241974]"
1584443446749233194,,194316,,1584443446,748894272,'',"[shoulder_pan_joint, shoulder_lift_joint, elbow_joint, wrist_1_joint, wrist_2_joint,","[1.5374195575714111, -1.1408074537860315, 2.3976306915283203, -2.812603775654928, -1.5680602232562464, 2.5681090354919434]","[-0.030884146690368652, -7.669904152862728e-05, -0.002901780419051647, -0.00015339808305725455, 0.0009203884983435273, 0.014093448407948017]","[-0.9246827363967896, -3.698730945587158, -1.7015341520309448, -0.4710388779640198, 0.1278534084558487, 0.2826233208179474]"
1584443446861045843,,194330,,1584443446,860783894,'',"[shoulder_pan_joint, shoulder_lift_joint, elbow_joint, wrist_1_joint, wrist_2_joint,","[1.53384530544281, -1.1407836119281214, 2.3968505859375, -2.8125317732440394, -1.568012539540426, 2.5702645778656006]","[-0.033658094704151154, 0.0003834952076431364, -0.014253238216042519, 0.0021667478140443563, 0.0004793690168298781, 0.02419854700565338]","[-1.0849000215530396, -3.126526117324829, -1.9683096408843994, -0.2287903130054474, 0.1143951565027237, 0.3140259087085724]"
1584443446973269189,,194344,,1584443446,972833806,'',"[shoulder_pan_joint, shoulder_lift_joint, elbow_joint, wrist_1_joint, wrist_2_joint,","[1.529407024383545, -1.140651051198141, 2.3959386348724365, -2.8123162428485315, -1.5680483023272913, 2.5728743076324463]","[-0.0452396497130394, 0.00043462790199555457, -0.0018791265320032835, -0.0015915051335468888, 0.00017257283616345376, 0.022396119311451912]","[-1.0162354707717896, -3.579712390899658, -1.5378820896148682, -0.4194488823413849, 0.1233673244714737, 0.2736511528491974]"
1584443447085144133,,194358,,1584443447,84767621,'',"[shoulder_pan_joint, shoulder_lift_joint, elbow_joint, wrist_1_joint, wrist_2_joint,","[1.5250529050827026, -1.1406753698932093, 2.3960111141204834, -2.8124359289752405, -1.5680244604693812, 2.576059341430664]","[-0.03303172066807747, 0.00017896443023346364, 0.0003451456723269075, -0.0004985437844879925, 0.00011504856229294091, 0.03388180211186409]","[-1.1169434785842896, -3.662109851837158, -1.4325169324874878, -0.4800110459327698, 0.1054229810833931, 0.2512207329273224]"
1584443447197147418,,194372,,1584443447,196773120,'',"[shoulder_pan_joint, shoulder_lift_joint, elbow_joint, wrist_1_joint, wrist_2_joint,","[1.5219104290008545, -1.1406391302691858, 2.3960111141204834, -2.8124597708331507, -1.568000618611471, 2.5805370807647705]","[-0.024594826623797417, 8.948221511673182e-05, 0.0001661812566453591, -0.0001917476038215682, 7.669904152862728e-05, 0.039020638912916183]","[-1.0757447481155396, -3.630066394805908, -1.4706276655197144, -0.4710388779640198, 0.1300964504480362, 0.3319702446460724]"
1584443447309087935,,194386,,1584443447,308744855,'',"[shoulder_pan_joint, shoulder_lift_joint, elbow_joint, wrist_1_joint, wrist_2_joint,","[1.5192477703094482, -1.140651051198141, 2.3960230350494385, -2.8124597708331507, -1.5680244604693812, 2.5841050148010254]","[-0.026972496882081032, 6.391586794052273e-05, 0.00010226538870483637, -0.00011504856229294091, 5.752428114647046e-05, 0.024812139570713043]","[-0.9613038301467896, -3.643799304962158, -1.450451374053955, -0.4822540879249573, 0.1054229810833931, 0.3185119926929474]"
1584443447421205723,,194400,,1584443447,420819743,'',"[shoulder_pan_joint, shoulder_lift_joint, elbow_joint, wrist_1_joint, wrist_2_joint,","[1.5163928270339966, -1.140651051198141, 2.3960111141204834, -2.8124359289752405, -1.5680363813983362, 2.5865230560302734]","[-0.021590780466794968, 5.1132694352418184e-05, 7.669904152862728e-05, -7.669904152862728e-05, 3.834952076431364e-05, 0.01714223623275757]","[-0.9338380098342896, -3.652954578399658, -1.4728695154190063, -0.4665527939796448, 0.0986938551068306, 0.2960815727710724]"
1584443447533074046,,194414,,1584443447,532776401,'',"[shoulder_pan_joint, shoulder_lift_joint, elbow_joint, wrist_1_joint, wrist_2_joint,","[1.5147016048431396, -1.1406753698932093, 2.3960111141204834, -2.8124478499041956, -1.5680244604693812, 2.58825945854187]","[-0.0073631079867482185, 3.834952076431364e-05, 6.391586794052273e-05, -5.752428114647046e-05, 3.834952076431364e-05, 0.015934225171804428]","[-1.0162354707717896, -3.570557117462158, -1.5109803676605225, -0.4553375840187073, 0.1076660305261612, 0.2915954887866974]"
1584443447645164373,,194428,,1584443447,644825010,'',"[shoulder_pan_joint, shoulder_lift_joint, elbow_joint, wrist_1_joint, wrist_2_joint,","[1.5151933431625366, -1.1406872908221644, 2.3960468769073486, -2.8124240080462855, -1.5680244604693812, 2.590893268585205]","[0.014713432639837265, 2.5566347176209092e-05, 5.1132694352418184e-05, -3.834952076431364e-05, 3.834952076431364e-05, 0.03436116874217987]","[0.8102417588233948, -3.666687488555908, -1.4930458068847656, -0.4508515000343323, 0.1256103664636612, 0.2915954887866974]"
1584443447757182536,,194442,,1584443447,756823075,'',"[shoulder_pan_joint, shoulder_lift_joint, elbow_joint, wrist_1_joint, wrist_2_joint,","[1.516692876815796, -1.140651051198141, 2.3960468769073486, -2.8124120871173304, -1.5680726210223597, 2.594784736633301]","[0.010725082829594612, 2.5566347176209092e-05, 5.1132694352418184e-05, -3.834952076431364e-05, 1.917476038215682e-05, 0.031504131853580475]","[0.9292603731155396, -3.726196765899658, -1.4840785264968872, -0.4575806260108948, 0.1390686184167862, 0.2938385307788849]"
1584443447869183335,,194456,,1584443447,868814096,'',"[shoulder_pan_joint, shoulder_lift_joint, elbow_joint, wrist_1_joint, wrist_2_joint,","[1.5176762342453003, -1.1406634489642542, 2.396082878112793, -2.8124240080462855, -1.5680602232562464, 2.5981369018554688]","[0.00510048633441329, 2.5566347176209092e-05, 5.1132694352418184e-05, -3.834952076431364e-05, 1.917476038215682e-05, 0.026384470984339714]","[0.6454468369483948, -3.730774402618408, -1.4773530960083008, -0.4575806260108948, 0.1121521145105362, 0.3431854546070099]"
1584443447981106360,,194470,,1584443447,980810318,'',"[shoulder_pan_joint, shoulder_lift_joint, elbow_joint, wrist_1_joint, wrist_2_joint,","[1.5176522731781006, -1.1406753698932093, 2.396070957183838, -2.8124478499041956, -1.5680483023272913, 2.6008667945861816]","[-0.0004474110610317439, 1.2783173588104546e-05, 5.1132694352418184e-05, -1.917476038215682e-05, 1.917476038215682e-05, 0.024927187711000443]","[-0.0732421949505806, -3.634644031524658, -1.5199475288391113, -0.4553375840187073, 0.1099090725183487, 0.3140259087085724]"
1584443448093114273,,194484,,1584443448,92735066,'',"[shoulder_pan_joint, shoulder_lift_joint, elbow_joint, wrist_1_joint, wrist_2_joint,","[1.5176762342453003, -1.1406753698932093, 2.396059036254883, -2.8124359289752405, -1.5680363813983362, 2.6038477420806885]","[-0.00014061490946915, 1.2783173588104546e-05, 5.1132694352418184e-05, -1.917476038215682e-05, 1.917476038215682e-05, 0.027726704254746437]","[-0.0411987341940403, -3.703308582305908, -1.499771237373352, -0.4620667099952698, 0.1099090725183487, 0.2938385307788849]"
1584443448205171489,,194498,,1584443448,204766583,'',"[shoulder_pan_joint, shoulder_lift_joint, elbow_joint, wrist_1_joint, wrist_2_joint,","[1.5176403522491455, -1.1406634489642542, 2.396070957183838, -2.812375847493307, -1.5680363813983362, 2.6077632904052734]","[0.0, 1.2783173588104546e-05, 5.1132694352418184e-05, -1.917476038215682e-05, 1.917476038215682e-05, 0.04252961650490761]","[-0.009155274368822575, -3.630066394805908, -1.468385934829712, -0.4732819199562073, 0.1188812404870987, 0.2871094048023224]"
1584443448317151620,,194512,,1584443448,316768375,'',"[shoulder_pan_joint, shoulder_lift_joint, elbow_joint, wrist_1_joint, wrist_2_joint,","[1.5176522731781006, -1.1406634489642542, 2.396059036254883, -2.8124478499041956, -1.5680483023272913, 2.6127917766571045]","[0.0, 1.2783173588104546e-05, 5.1132694352418184e-05, -1.917476038215682e-05, 1.917476038215682e-05, 0.04346918314695358]","[0.004577637184411287, -3.684998035430908, -1.5087385177612305, -0.4665527939796448, 0.1390686184167862, 0.3342132866382599]"
1584443448429086347,,194526,,1584443448,428733348,'',"[shoulder_pan_joint, shoulder_lift_joint, elbow_joint, wrist_1_joint, wrist_2_joint,","[1.5176403522491455, -1.1406634489642542, 2.396070957183838, -2.8124120871173304, -1.5680726210223597, 2.617281436920166]","[0.0, 1.2783173588104546e-05, 5.1132694352418184e-05, -1.917476038215682e-05, 1.917476038215682e-05, 0.03593350201845169]","[0.0686645582318306, -3.616333484649658, -1.5244312286376953, -0.4441223740577698, 0.1143951565027237, 0.3028106987476349]"
1584443448541245402,,194540,,1584443448,540780725,'',"[shoulder_pan_joint, shoulder_lift_joint, elbow_joint, wrist_1_joint, wrist_2_joint,","[1.5176522731781006, -1.140651051198141, 2.3961188793182373, -2.8124240080462855, -1.5680483023272913, 2.6208014488220215]","[0.0, 1.2783173588104546e-05, 3.834952076431364e-05, -1.917476038215682e-05, 1.917476038215682e-05, 0.03050704300403595]","[0.1098632961511612, -3.671265125274658, -1.5423656702041626, -0.4486084580421448, 0.1054229810833931, 0.2646789848804474]"
1584443448653056819,,194554,,1584443448,652683873,'',"[shoulder_pan_joint, shoulder_lift_joint, elbow_joint, wrist_1_joint, wrist_2_joint,","[1.517688274383545, -1.1406634489642542, 2.396094799041748, -2.812399689351217, -1.5680726210223597, 2.6249442100524902]","[2.5566347176209092e-05, 1.2783173588104546e-05, 3.834952076431364e-05, -1.917476038215682e-05, 0.0, 0.0390014611184597]","[0.01831054873764515, -3.634644031524658, -1.5087385177612305, -0.4530945420265198, 0.1143951565027237, 0.3072967827320099]"
1584443448765180868,,194568,,1584443448,764752639,'',"[shoulder_pan_joint, shoulder_lift_joint, elbow_joint, wrist_1_joint, wrist_2_joint,","[1.517748236656189, -1.1406391302691858, 2.3961069583892822, -2.812399689351217, -1.5680845419513147, 2.6290266513824463]","[0.0004090615548193455, 1.2783173588104546e-05, -0.0, -1.917476038215682e-05, 0.0, 0.03374757990241051]","[0.1373291164636612, -3.662109851837158, -1.504254937171936, -0.4665527939796448, 0.1099090725183487, 0.3611297905445099]"
1584443448877071372,,194582,,1584443448,876694048,'',"[shoulder_pan_joint, shoulder_lift_joint, elbow_joint, wrist_1_joint, wrist_2_joint,","[1.517748236656189, -1.1406634489642542, 2.3961308002471924, -2.812399689351217, -1.56812030473818, 2.632187843322754]","[0.0001661812566453591, 1.2783173588104546e-05, -0.0, 0.0, 0.0, 0.024658741429448128]","[-0.1007080152630806, -3.703308582305908, -1.4571768045425415, -0.4822540879249573, 0.1233673244714737, 0.3364563286304474]"
1584443448989104322,,194596,,1584443448,988735374,'',"[shoulder_pan_joint, shoulder_lift_joint, elbow_joint, wrist_1_joint, wrist_2_joint,","[1.5177961587905884, -1.1406753698932093, 2.396082878112793, -2.812399689351217, -1.5680845419513147, 2.634690046310425]","[0.0005880259559489787, 0.0, -0.0, 0.0, 0.0, 0.021763352677226067]","[0.3112793266773224, -3.643799304962158, -1.5446075201034546, -0.4463654160499573, 0.1233673244714737, 0.3162689507007599]"
1584443449101103589,,194610,,1584443449,100693704,'',"[shoulder_pan_joint, shoulder_lift_joint, elbow_joint, wrist_1_joint, wrist_2_joint,","[1.5180960893630981, -1.1406753698932093, 2.3961069583892822, -2.8124359289752405, -1.568132225667135, 2.637456178665161]","[0.0028250813484191895, 0.0, -0.0, 0.0, 0.0, 0.0329614132642746]","[0.3021240532398224, -3.675842761993408, -1.499771237373352, -0.4530945420265198, 0.1300964504480362, 0.2893524467945099]"
1584443449213036643,,194624,,1584443449,212687842,'',"[shoulder_pan_joint, shoulder_lift_joint, elbow_joint, wrist_1_joint, wrist_2_joint,","[1.5199072360992432, -1.140651051198141, 2.3961069583892822, -2.812387768422262, -1.568132225667135, 2.641957998275757]","[0.032584309577941895, 0.0, -0.0, 0.0, 0.0, 0.04325826093554497]","[0.8193970322608948, -3.776550769805908, -1.502013087272644, -0.4486084580421448, 0.1637420803308487, 0.3072967827320099]"
1584443449325159340,,194638,,1584443449,324776516,'',"[shoulder_pan_joint, shoulder_lift_joint, elbow_joint, wrist_1_joint, wrist_2_joint,","[1.5255566835403442, -1.1406391302691858, 2.3961308002471924, -2.812352005635397, -1.5681684652911585, 2.646376132965088]","[0.07117670774459839, 0.0, -0.0, 0.0, 0.0, 0.03719903528690338]","[1.0894776582717896, -3.790283679962158, -1.5759928226470947, -0.4216919243335724, 0.1637420803308487, 0.3723450005054474]"
1584443449437083828,,194652,,1584443449,436715761,'',"[shoulder_pan_joint, shoulder_lift_joint, elbow_joint, wrist_1_joint, wrist_2_joint,","[1.5343729257583618, -1.140651051198141, 2.3963584899902344, -2.8122924009906214, -1.5682523886310022, 2.649895668029785]","[0.08197849243879318, 0.0, 0.00276116537861526, 0.0, 0.0, 0.028263596817851067]","[0.7781983017921448, -3.987122058868408, -1.5356402397155762, -0.4463654160499573, 0.1951446682214737, 0.3319702446460724]"
1584443449549214099,,194666,,1584443449,548804505,'',"[shoulder_pan_joint, shoulder_lift_joint, elbow_joint, wrist_1_joint, wrist_2_joint,","[1.5438247919082642, -1.1407836119281214, 2.397475004196167, -2.812387768422262, -1.5683000723468226, 2.6529011726379395]","[0.07692913711071014, -0.005573463626205921, 0.021373465657234192, -0.003892476437613368, 0.0, 0.03027694672346115]","[1.0162354707717896, -4.760742664337158, -1.2643811702728271, -0.8209534287452698, 0.2153320610523224, 0.2983246147632599]"
1584443449661112398,,194680,,1584443449,660759750,'',"[shoulder_pan_joint, shoulder_lift_joint, elbow_joint, wrist_1_joint, wrist_2_joint,","[1.55198073387146, -1.1413229147540491, 2.399526596069336, -2.8127830664264124, -1.568348232899801, 2.6560261249542236]","[0.07540793716907501, -0.0013166668359190226, 0.011172493919730186, -0.0008436894277110696, -9.58738019107841e-05, 0.022434469312429428]","[0.9567261934280396, -4.801941394805908, -1.1567742824554443, -0.7805786728858948, 0.2198181450366974, 0.3207550346851349]"
1584443449773030714,,194694,,1584443449,772645936,'',"[shoulder_pan_joint, shoulder_lift_joint, elbow_joint, wrist_1_joint, wrist_2_joint,","[1.5597652196884155, -1.141310993825094, 2.3999228477478027, -2.8121965567218226, -1.5685871283160608, 2.6584689617156982]","[0.06527088582515717, 6.391586794052273e-05, 0.000472977408207953, 0.0087245162576437, -0.001342233270406723, 0.019692478701472282]","[1.0162354707717896, -4.206848621368408, -1.6835997104644775, -0.6101074814796448, 0.2871094048023224, 0.3252411186695099]"
1584443449885025543,,194708,,1584443449,884683535,'',"[shoulder_pan_joint, shoulder_lift_joint, elbow_joint, wrist_1_joint, wrist_2_joint,","[1.5668779611587524, -1.1412985960589808, 2.4003186225891113, -2.811549965535299, -1.5687792936908167, 2.6594624519348145]","[0.049982208758592606, 6.391586794052273e-05, 0.009561813436448574, 0.002205097349360585, -0.0070946612395346165, -0.030411168932914734]","[0.9658814668655396, -4.476929187774658, -1.5446075201034546, -0.6931000351905823, 0.3678589165210724, -0.0964508131146431]"
1584443449996952104,,194722,,1584443449,996638760,'',"[shoulder_pan_joint, shoulder_lift_joint, elbow_joint, wrist_1_joint, wrist_2_joint,","[1.5703803300857544, -1.1417186895953577, 2.4031381607055664, -2.8126395384417933, -1.568707291279928, 2.6537153720855713]","[0.01613236404955387, -0.008257930167019367, 0.02588592655956745, -0.009587380103766918, -0.0003834952076431364, -0.057677678763866425]","[0.9384156465530396, -5.200195789337158, -1.0715854167938232, -0.975723385810852, 0.3297272026538849, -0.3229980766773224]"
1584443450108958315,,194736,,1584443450,108626215,'',"[shoulder_pan_joint, shoulder_lift_joint, elbow_joint, wrist_1_joint, wrist_2_joint,","[1.5722273588180542, -1.1418984572040003, 2.4037022590637207, -2.812627617512838, -1.568707291279928, 2.6483635902404785]","[0.017832526937127113, 0.0013550163712352514, -0.008053399622440338, 0.015838351100683212, -0.00017257283616345376, -0.04182015359401703]","[0.9201050996780396, -3.767395496368408, -2.0333220958709717, -0.5091705918312073, 0.2781372368335724, -0.2736511528491974]"
1584443450220948274,,194750,,1584443450,220632334,'',"[shoulder_pan_joint, shoulder_lift_joint, elbow_joint, wrist_1_joint, wrist_2_joint,","[1.5743144750595093, -1.1418145338641565, 2.403522491455078, -2.8120644728290003, -1.5687668959247034, 2.643550157546997]","[0.020389162003993988, 0.0003067961661145091, 0.00017896443023346364, 0.0008436894277110696, 0.0, -0.05071724206209183]","[0.8331299424171448, -4.074097156524658, -1.82259202003479, -0.5495453476905823, 0.3162689507007599, -0.3229980766773224]"
1584443450333041977,,194764,,1584443450,332698356,'',"[shoulder_pan_joint, shoulder_lift_joint, elbow_joint, wrist_1_joint, wrist_2_joint,","[1.5764734745025635, -1.1418145338641565, 2.403630256652832, -2.8120291868792933, -1.5687912146197718, 2.6384856700897217]","[0.017410682514309883, 0.00012783173588104546, 0.0014956312952563167, 0.00024927189224399626, 0.0, -0.040899764746427536]","[0.9933472871780396, -4.183960437774658, -1.7912065982818604, -0.5787048935890198, 0.2871094048023224, -0.3588867485523224]"
