PorkPy/robot-pulling-data/ztwist50/joint_states_throttle.csv
rosbagTimestamp,header,seq,stamp,secs,nsecs,frame_id,name,wrist_3_joint],position,velocity,effort
1584451143870293246,,1156498,,1584451143,869881477,'',"[shoulder_pan_joint, shoulder_lift_joint, elbow_joint, wrist_1_joint, wrist_2_joint,","[1.4047702550888062, -1.1717646757708948, 2.4830703735351562, -2.8628390471087855, -1.5669940153705042, 2.7206108570098877]","[0.0, 0.0, -0.0, 0.0, 0.0, 0.0]","[-0.6912232041358948, -4.248047351837158, -0.9662203192710876, -0.5966492295265198, 0.01345825381577015, 0.1031799390912056]"
1584451143982237459,,1156512,,1584451143,981872738,'',"[shoulder_pan_joint, shoulder_lift_joint, elbow_joint, wrist_1_joint, wrist_2_joint,","[1.4048062562942505, -1.17180043855776, 2.4830822944641113, -2.8628514448748987, -1.5670059362994593, 2.720646381378174]","[0.0, 0.0, -0.0, 0.0, 0.0, 0.0]","[-0.7141113877296448, -4.307556629180908, -0.9482858777046204, -0.5876770615577698, 0.01570129580795765, 0.1121521145105362]"
1584451144094232496,,1156526,,1584451144,93939078,'',"[shoulder_pan_joint, shoulder_lift_joint, elbow_joint, wrist_1_joint, wrist_2_joint,","[1.4047942161560059, -1.171788517628805, 2.4831063747406006, -2.862863365803854, -1.5670059362994593, 2.7206108570098877]","[0.0, 0.0, -0.0, 0.0, 0.0, 0.0]","[-0.7095337510108948, -4.344177722930908, -0.9505276679992676, -0.5854340195655823, 0.006729126907885075, 0.1166381984949112]"
1584451144206270333,,1156540,,1584451144,205935077,'',"[shoulder_pan_joint, shoulder_lift_joint, elbow_joint, wrist_1_joint, wrist_2_joint,","[1.4047702550888062, -1.171788517628805, 2.4830822944641113, -2.8628390471087855, -1.5670178572284144, 2.7206108570098877]","[0.0, 0.0, -0.0, 0.0, 0.0, 0.0]","[-0.7049561142921448, -4.321289539337158, -0.957253098487854, -0.5876770615577698, 0.01570129580795765, 0.1099090725183487]"
1584451144318141940,,1156554,,1584451144,317869791,'',"[shoulder_pan_joint, shoulder_lift_joint, elbow_joint, wrist_1_joint, wrist_2_joint,","[1.4047822952270508, -1.171788517628805, 2.4830944538116455, -2.8628514448748987, -1.5670297781573694, 2.7206108570098877]","[0.0, 0.0, -0.0, 0.0, 0.0, 0.0]","[-0.7232666611671448, -4.275513172149658, -0.9617367386817932, -0.5944061875343323, 0.01794433780014515, 0.1054229810833931]"
1584451144430213901,,1156568,,1584451144,429935391,'',"[shoulder_pan_joint, shoulder_lift_joint, elbow_joint, wrist_1_joint, wrist_2_joint,","[1.4047702550888062, -1.17180043855776, 2.4831063747406006, -2.8628152052508753, -1.5670059362994593, 2.7206344604492188]","[0.0, 0.0, -0.0, 0.0, 0.0, 0.0]","[-0.7186890244483948, -4.280090808868408, -0.9460440278053284, -0.5831909775733948, 0.02018737979233265, 0.1099090725183487]"
1584451144542260335,,1156582,,1584451144,541929306,'',"[shoulder_pan_joint, shoulder_lift_joint, elbow_joint, wrist_1_joint, wrist_2_joint,","[1.4047702550888062, -1.1717522780047815, 2.4830944538116455, -2.8628390471087855, -1.5670416990863245, 2.7206344604492188]","[0.0, 0.0, -0.0, 0.0, 0.0, 0.0]","[-0.6866455674171448, -4.266357898712158, -0.9527694582939148, -0.5944061875343323, 0.01794433780014515, 0.0986938551068306]"
1584451144654178959,,1156596,,1584451144,653896872,'',"[shoulder_pan_joint, shoulder_lift_joint, elbow_joint, wrist_1_joint, wrist_2_joint,","[1.404758334159851, -1.17177659669985, 2.4830822944641113, -2.8628152052508753, -1.5669940153705042, 2.7206344604492188]","[0.0, 0.0, -0.0, 0.0, 0.0, 0.0]","[-0.6912232041358948, -4.275513172149658, -0.9527694582939148, -0.5854340195655823, 0.004486084450036287, 0.0874786451458931]"
1584451144766156363,,1156610,,1584451144,765867644,'',"[shoulder_pan_joint, shoulder_lift_joint, elbow_joint, wrist_1_joint, wrist_2_joint,","[1.4047702550888062, -1.1717646757708948, 2.4830822944641113, -2.862875286732809, -1.5670059362994593, 2.720658540725708]","[0.0, 0.0, -0.0, 0.0, 0.0, 0.0]","[-0.7186890244483948, -4.284668445587158, -0.9639785289764404, -0.5944061875343323, 0.008972168900072575, 0.1009368970990181]"
1584451144878117928,,1156624,,1584451144,877841372,'',"[shoulder_pan_joint, shoulder_lift_joint, elbow_joint, wrist_1_joint, wrist_2_joint,","[1.4047702550888062, -1.1717646757708948, 2.4830822944641113, -2.8628514448748987, -1.5670416990863245, 2.7206225395202637]","[0.0, 0.0, -0.0, 0.0, 0.0, 0.0]","[-0.7186890244483948, -4.325867176055908, -0.9729457497596741, -0.5944061875343323, 0.01794433780014515, 0.0964508131146431]"
1584451144990199266,,1156638,,1584451144,989917671,'',"[shoulder_pan_joint, shoulder_lift_joint, elbow_joint, wrist_1_joint, wrist_2_joint,","[1.4047822952270508, -1.171788517628805, 2.4830944538116455, -2.862863365803854, -1.5670059362994593, 2.720658540725708]","[0.0, 0.0, -0.0, 0.0, 0.0, 0.0]","[-0.7095337510108948, -4.312134265899658, -0.9550113081932068, -0.5966492295265198, 0.011215210892260075, 0.1054229810833931]"
1584451145102197550,,1156652,,1584451145,101865269,'',"[shoulder_pan_joint, shoulder_lift_joint, elbow_joint, wrist_1_joint, wrist_2_joint,","[1.4047822952270508, -1.17180043855776, 2.4830703735351562, -2.8628514448748987, -1.5669940153705042, 2.7206344604492188]","[0.0, 0.0, -0.0, 0.0, 0.0, 0.0]","[-0.7186890244483948, -4.302978992462158, -0.9639785289764404, -0.5966492295265198, 0.01794433780014515, 0.0942077711224556]"
1584451145214190834,,1156666,,1584451145,213866498,'',"[shoulder_pan_joint, shoulder_lift_joint, elbow_joint, wrist_1_joint, wrist_2_joint,","[1.4047822952270508, -1.17180043855776, 2.4830822944641113, -2.8628514448748987, -1.5669940153705042, 2.720658540725708]","[0.0, 0.0, -0.0, 0.0, 0.0, 0.0]","[-0.6958008408546448, -4.348755359649658, -0.9594948887825012, -0.5921631455421448, 0.01570129580795765, 0.1054229810833931]"
1584451145326122052,,1156680,,1584451145,325835827,'',"[shoulder_pan_joint, shoulder_lift_joint, elbow_joint, wrist_1_joint, wrist_2_joint,","[1.4047942161560059, -1.1717646757708948, 2.4831063747406006, -2.8628390471087855, -1.5670059362994593, 2.720646381378174]","[0.0, 0.0, -0.0, 0.0, 0.0, 0.0]","[-0.7278442978858948, -4.266357898712158, -0.9662203192710876, -0.5876770615577698, 0.02018737979233265, 0.1054229810833931]"
1584451145438190457,,1156694,,1584451145,437894915,'',"[shoulder_pan_joint, shoulder_lift_joint, elbow_joint, wrist_1_joint, wrist_2_joint,","[1.4047702550888062, -1.171788517628805, 2.483058452606201, -2.8628514448748987, -1.5670059362994593, 2.720646381378174]","[0.0, 0.0, -0.0, 0.0, 0.0, 0.0]","[-0.7278442978858948, -4.261780261993408, -0.9460440278053284, -0.5809479355812073, 0.02018737979233265, 0.1009368970990181]"
1584451145550144467,,1156708,,1584451145,549802007,'',"[shoulder_pan_joint, shoulder_lift_joint, elbow_joint, wrist_1_joint, wrist_2_joint,","[1.4047702550888062, -1.1717646757708948, 2.4830822944641113, -2.8628390471087855, -1.5670416990863245, 2.7206344604492188]","[0.0, 0.0, -0.0, 0.0, 0.0, 0.0]","[-0.7003784775733948, -4.284668445587158, -0.957253098487854, -0.6056213974952698, 0.011215210892260075, 0.1054229810833931]"
1584451145662131159,,1156722,,1584451145,661806803,'',"[shoulder_pan_joint, shoulder_lift_joint, elbow_joint, wrist_1_joint, wrist_2_joint,","[1.4048062562942505, -1.171788517628805, 2.4830703735351562, -2.8628514448748987, -1.5670178572284144, 2.7206225395202637]","[0.0, 0.0, -0.0, 0.0, 0.0, 0.0]","[-0.7003784775733948, -4.302978992462158, -0.957253098487854, -0.5944061875343323, 0.02243042178452015, 0.0986938551068306]"
1584451145774191458,,1156736,,1584451145,773833400,'',"[shoulder_pan_joint, shoulder_lift_joint, elbow_joint, wrist_1_joint, wrist_2_joint,","[1.4047702550888062, -1.17180043855776, 2.4830703735351562, -2.8628152052508753, -1.5670059362994593, 2.7206225395202637]","[0.0, 0.0, -0.0, 0.0, 0.0, 0.0]","[-0.7141113877296448, -4.266357898712158, -0.9527694582939148, -0.5854340195655823, 0.01345825381577015, 0.1009368970990181]"
1584451145886164564,,1156750,,1584451145,885820882,'',"[shoulder_pan_joint, shoulder_lift_joint, elbow_joint, wrist_1_joint, wrist_2_joint,","[1.4047942161560059, -1.1717646757708948, 2.4830944538116455, -2.8628271261798304, -1.5670297781573694, 2.7206225395202637]","[0.0, 0.0, -0.0, 0.0, 0.0, 0.0]","[-0.6958008408546448, -4.270935535430908, -0.9550113081932068, -0.5787048935890198, 0.01570129580795765, 0.1076660305261612]"
1584451145998116261,,1156764,,1584451145,997808135,'',"[shoulder_pan_joint, shoulder_lift_joint, elbow_joint, wrist_1_joint, wrist_2_joint,","[1.4047702550888062, -1.1717165152179163, 2.4831063747406006, -2.8628514448748987, -1.5670059362994593, 2.7206225395202637]","[0.0, 0.0, -0.0, 0.0, 0.0, 0.0]","[-0.7141113877296448, -4.376221179962158, -0.9594948887825012, -0.5899201035499573, 0.004486084450036287, 0.0964508131146431]"
1584451146110119283,,1156778,,1584451146,109817098,'',"[shoulder_pan_joint, shoulder_lift_joint, elbow_joint, wrist_1_joint, wrist_2_joint,","[1.404758334159851, -1.17177659669985, 2.4830822944641113, -2.8628390471087855, -1.5670059362994593, 2.7206225395202637]","[0.0, 0.0, -0.0, 0.0, 0.0, 0.0]","[-0.7278442978858948, -4.362488269805908, -0.9684621691703796, -0.5854340195655823, 0.006729126907885075, 0.1009368970990181]"
1584451146222093952,,1156792,,1584451146,221768564,'',"[shoulder_pan_joint, shoulder_lift_joint, elbow_joint, wrist_1_joint, wrist_2_joint,","[1.4047702550888062, -1.171788517628805, 2.4830703735351562, -2.862875286732809, -1.5670178572284144, 2.7206108570098877]","[0.0, 0.0, -0.0, 0.0, 0.0, 0.0]","[-0.7369995713233948, -4.284668445587158, -0.9594948887825012, -0.5966492295265198, 0.01570129580795765, 0.0986938551068306]"
1584451146334180320,,1156806,,1584451146,333832210,'',"[shoulder_pan_joint, shoulder_lift_joint, elbow_joint, wrist_1_joint, wrist_2_joint,","[1.4047702550888062, -1.1717646757708948, 2.4831063747406006, -2.8628514448748987, -1.5670178572284144, 2.7206344604492188]","[0.0, 0.0, -0.0, 0.0, 0.0, 0.0]","[-0.7141113877296448, -4.270935535430908, -0.9617367386817932, -0.5831909775733948, 0.011215210892260075, 0.1188812404870987]"
1584451146446056675,,1156820,,1584451146,445756335,'',"[shoulder_pan_joint, shoulder_lift_joint, elbow_joint, wrist_1_joint, wrist_2_joint,","[1.4047462940216064, -1.1717522780047815, 2.4830822944641113, -2.8628514448748987, -1.5670178572284144, 2.7206225395202637]","[0.0, 0.0, -0.0, 0.0, 0.0, 0.0]","[-0.7324219346046448, -4.270935535430908, -0.9684621691703796, -0.5921631455421448, 0.01570129580795765, 0.1233673244714737]"
1584451146558077892,,1156834,,1584451146,557770618,'',"[shoulder_pan_joint, shoulder_lift_joint, elbow_joint, wrist_1_joint, wrist_2_joint,","[1.4047702550888062, -1.17180043855776, 2.4830703735351562, -2.8628390471087855, -1.5670178572284144, 2.720658540725708]","[0.0, 0.0, -0.0, 0.0, 0.0, 0.0]","[-0.6912232041358948, -4.257202625274658, -0.9550113081932068, -0.5809479355812073, 0.01794433780014515, 0.0919647291302681]"
1584451146670151606,,1156848,,1584451146,669849051,'',"[shoulder_pan_joint, shoulder_lift_joint, elbow_joint, wrist_1_joint, wrist_2_joint,","[1.4047942161560059, -1.1717408339129847, 2.4830944538116455, -2.8628514448748987, -1.5669940153705042, 2.720646381378174]","[0.0, 0.0, -0.0, 0.0, 0.0, 0.0]","[-0.7324219346046448, -4.289246082305908, -0.9707039594650269, -0.5899201035499573, 0.01345825381577015, 0.0897216871380806]"
1584451146782058148,,1156862,,1584451146,781749912,'',"[shoulder_pan_joint, shoulder_lift_joint, elbow_joint, wrist_1_joint, wrist_2_joint,","[1.4047702550888062, -1.17180043855776, 2.4830703735351562, -2.862863365803854, -1.5670416990863245, 2.720658540725708]","[0.0, 0.0, -0.0, 0.0, 0.0, 0.0]","[-0.7186890244483948, -4.339600086212158, -0.9594948887825012, -0.5876770615577698, 0.008972168900072575, 0.1031799390912056]"
1584451146894153874,,1156876,,1584451146,893797929,'',"[shoulder_pan_joint, shoulder_lift_joint, elbow_joint, wrist_1_joint, wrist_2_joint,","[1.4047822952270508, -1.17180043855776, 2.4830822944641113, -2.8628514448748987, -1.566981617604391, 2.720646381378174]","[0.0, 0.0, -0.0, 0.0, 0.0, 0.0]","[-0.7324219346046448, -4.316711902618408, -0.9505276679992676, -0.5854340195655823, 0.01570129580795765, 0.0964508131146431]"
1584451147006067159,,1156890,,1584451147,5781896,'',"[shoulder_pan_joint, shoulder_lift_joint, elbow_joint, wrist_1_joint, wrist_2_joint,","[1.4047822952270508, -1.17177659669985, 2.4830703735351562, -2.862875286732809, -1.5669940153705042, 2.720646381378174]","[0.0, 0.0, -0.0, 0.0, 0.0, 0.0]","[-0.6912232041358948, -4.302978992462158, -0.9639785289764404, -0.5876770615577698, 0.01345825381577015, 0.1076660305261612]"
1584451147118037219,,1156904,,1584451147,117742268,'',"[shoulder_pan_joint, shoulder_lift_joint, elbow_joint, wrist_1_joint, wrist_2_joint,","[1.404758334159851, -1.17177659669985, 2.4830703735351562, -2.8628390471087855, -1.5669940153705042, 2.7206344604492188]","[0.0, 0.0, -0.0, 0.0, 0.0, 0.0]","[-0.7141113877296448, -4.270935535430908, -0.9684621691703796, -0.5944061875343323, 0.01345825381577015, 0.1031799390912056]"
1584451147230058896,,1156918,,1584451147,229737626,'',"[shoulder_pan_joint, shoulder_lift_joint, elbow_joint, wrist_1_joint, wrist_2_joint,","[1.4047702550888062, -1.17180043855776, 2.483058452606201, -2.8628514448748987, -1.5670178572284144, 2.7206225395202637]","[0.0, 0.0, -0.0, 0.0, 0.0, 0.0]","[-0.7324219346046448, -4.220581531524658, -0.9527694582939148, -0.5921631455421448, 0.008972168900072575, 0.0964508131146431]"
1584451147342135806,,1156932,,1584451147,341780292,'',"[shoulder_pan_joint, shoulder_lift_joint, elbow_joint, wrist_1_joint, wrist_2_joint,","[1.4047822952270508, -1.1717522780047815, 2.4830822944641113, -2.8628271261798304, -1.5669940153705042, 2.7206225395202637]","[0.0, 0.0, -0.0, 0.0, 0.0, 0.0]","[-0.7049561142921448, -4.321289539337158, -0.9325931668281555, -0.5876770615577698, 0.0, 0.0852356031537056]"
1584451147454010919,,1156946,,1584451147,453743490,'',"[shoulder_pan_joint, shoulder_lift_joint, elbow_joint, wrist_1_joint, wrist_2_joint,","[1.4047942161560059, -1.17180043855776, 2.483058452606201, -2.8628271261798304, -1.5670178572284144, 2.7206344604492188]","[0.0, 0.0, -0.0, 0.0, 0.0, 0.0]","[-0.7232666611671448, -4.275513172149658, -0.9774293899536133, -0.5921631455421448, 0.008972168900072575, 0.0807495191693306]"
1584451147566026806,,1156960,,1584451147,565725423,'',"[shoulder_pan_joint, shoulder_lift_joint, elbow_joint, wrist_1_joint, wrist_2_joint,","[1.4047702550888062, -1.171788517628805, 2.4830822944641113, -2.8628390471087855, -1.5670059362994593, 2.7206225395202637]","[0.0, 0.0, -0.0, 0.0, 0.0, 0.0]","[-0.7232666611671448, -4.307556629180908, -0.9594948887825012, -0.5764618515968323, 0.01345825381577015, 0.1054229810833931]"
1584451147677965828,,1156974,,1584451147,677731891,'',"[shoulder_pan_joint, shoulder_lift_joint, elbow_joint, wrist_1_joint, wrist_2_joint,","[1.4047702550888062, -1.1717165152179163, 2.4830703735351562, -2.8628271261798304, -1.5670178572284144, 2.7206344604492188]","[0.0, 0.0, -0.0, 0.0, 0.0, 0.0]","[-0.7095337510108948, -4.367065906524658, -0.9729457497596741, -0.5854340195655823, 0.006729126907885075, 0.0874786451458931]"
1584451147790024014,,1156988,,1584451147,789740875,'',"[shoulder_pan_joint, shoulder_lift_joint, elbow_joint, wrist_1_joint, wrist_2_joint,","[1.4047702550888062, -1.1717408339129847, 2.4830944538116455, -2.86280328432192, -1.5670059362994593, 2.7206344604492188]","[0.0, 0.0, -0.0, 0.0, 0.0, 0.0]","[-0.7232666611671448, -4.270935535430908, -0.9505276679992676, -0.5876770615577698, 0.02018737979233265, 0.1076660305261612]"
1584451147901954811,,1157002,,1584451147,901699064,'',"[shoulder_pan_joint, shoulder_lift_joint, elbow_joint, wrist_1_joint, wrist_2_joint,","[1.4047702550888062, -1.171788517628805, 2.4830822944641113, -2.8628514448748987, -1.5670297781573694, 2.7206344604492188]","[0.0, 0.0, -0.0, 0.0, 0.0, 0.0]","[-0.7049561142921448, -4.248047351837158, -0.9639785289764404, -0.5899201035499573, 0.004486084450036287, 0.0874786451458931]"
1584451148013995994,,1157016,,1584451148,13709118,'',"[shoulder_pan_joint, shoulder_lift_joint, elbow_joint, wrist_1_joint, wrist_2_joint,","[1.4047822952270508, -1.1717646757708948, 2.483046531677246, -2.862863365803854, -1.5670178572284144, 2.7206225395202637]","[0.0, 0.0, -0.0, 0.0, 0.0, 0.0]","[-0.7186890244483948, -4.307556629180908, -0.9639785289764404, -0.5944061875343323, 0.01345825381577015, 0.1054229810833931]"
1584451148126008304,,1157030,,1584451148,125688697,'',"[shoulder_pan_joint, shoulder_lift_joint, elbow_joint, wrist_1_joint, wrist_2_joint,","[1.4047702550888062, -1.171788517628805, 2.4830944538116455, -2.8628514448748987, -1.5670297781573694, 2.720646381378174]","[0.0, 0.0, -0.0, 0.0, 0.0, 0.0]","[-0.7186890244483948, -4.325867176055908, -0.9617367386817932, -0.5899201035499573, 0.01794433780014515, 0.0942077711224556]"
1584451148237971532,,1157044,,1584451148,237702108,'',"[shoulder_pan_joint, shoulder_lift_joint, elbow_joint, wrist_1_joint, wrist_2_joint,","[1.4047702550888062, -1.17180043855776, 2.4830944538116455, -2.8628514448748987, -1.5670178572284144, 2.7206225395202637]","[0.0, 0.0, -0.0, 0.0, 0.0, 0.0]","[-0.7049561142921448, -4.261780261993408, -0.9662203192710876, -0.5876770615577698, 0.01570129580795765, 0.0964508131146431]"
1584451148350033955,,1157058,,1584451148,349726250,'',"[shoulder_pan_joint, shoulder_lift_joint, elbow_joint, wrist_1_joint, wrist_2_joint,","[1.4047822952270508, -1.1717646757708948, 2.4830703735351562, -2.8628514448748987, -1.5670178572284144, 2.7206344604492188]","[0.0, 0.0, -0.0, 0.0, 0.0, 0.0]","[-0.6866455674171448, -4.302978992462158, -0.9617367386817932, -0.5809479355812073, 0.02467346377670765, 0.1278534084558487]"
1584451148462036957,,1157072,,1584451148,461687825,'',"[shoulder_pan_joint, shoulder_lift_joint, elbow_joint, wrist_1_joint, wrist_2_joint,","[1.4047702550888062, -1.171788517628805, 2.4830822944641113, -2.8628390471087855, -1.5669940153705042, 2.7206344604492188]","[0.0, 0.0, -0.0, 0.0, 0.0, 0.0]","[-0.7232666611671448, -4.293823719024658, -0.9751875996589661, -0.5921631455421448, 0.008972168900072575, 0.0919647291302681]"
1584451148573944611,,1157086,,1584451148,573674697,'',"[shoulder_pan_joint, shoulder_lift_joint, elbow_joint, wrist_1_joint, wrist_2_joint,","[1.4047942161560059, -1.1717522780047815, 2.4830703735351562, -2.8628152052508753, -1.5670297781573694, 2.720658540725708]","[0.0, 0.0, -0.0, 0.0, 0.0, 0.0]","[-0.7095337510108948, -4.321289539337158, -0.9482858777046204, -0.5876770615577698, 0.011215210892260075, 0.0897216871380806]"
1584451148685956139,,1157100,,1584451148,685677739,'',"[shoulder_pan_joint, shoulder_lift_joint, elbow_joint, wrist_1_joint, wrist_2_joint,","[1.4047822952270508, -1.1717646757708948, 2.483058452606201, -2.862863365803854, -1.5670297781573694, 2.7206344604492188]","[0.0, 0.0, -0.0, 0.0, 0.0, 0.0]","[-0.7049561142921448, -4.270935535430908, -0.9527694582939148, -0.5966492295265198, 0.004486084450036287, 0.0717773512005806]"
1584451148797965794,,1157114,,1584451148,797666395,'',"[shoulder_pan_joint, shoulder_lift_joint, elbow_joint, wrist_1_joint, wrist_2_joint,","[1.4048062562942505, -1.1717646757708948, 2.483058452606201, -2.862863365803854, -1.5670178572284144, 2.7206344604492188]","[0.0, 0.0, -0.0, 0.0, 0.0, 0.0]","[-0.7141113877296448, -4.335022449493408, -0.9550113081932068, -0.5921631455421448, 0.01570129580795765, 0.1054229810833931]"
1584451148909955862,,1157128,,1584451148,909647746,'',"[shoulder_pan_joint, shoulder_lift_joint, elbow_joint, wrist_1_joint, wrist_2_joint,","[1.4047942161560059, -1.1717646757708948, 2.4831063747406006, -2.8628271261798304, -1.5669940153705042, 2.720646381378174]","[0.0, 0.0, -0.0, 0.0, 0.0, 0.0]","[-0.7415772080421448, -4.321289539337158, -0.9460440278053284, -0.5876770615577698, 0.011215210892260075, 0.0897216871380806]"
1584451149022026651,,1157142,,1584451149,21669003,'',"[shoulder_pan_joint, shoulder_lift_joint, elbow_joint, wrist_1_joint, wrist_2_joint,","[1.4047822952270508, -1.17180043855776, 2.483058452606201, -2.8628152052508753, -1.5670297781573694, 2.720646381378174]","[0.0, 0.0, -0.0, 0.0, 0.0, 0.0]","[-0.7278442978858948, -4.257202625274658, -0.9617367386817932, -0.5831909775733948, 0.0269165076315403, 0.0897216871380806]"
1584451149133967247,,1157156,,1584451149,133646889,'',"[shoulder_pan_joint, shoulder_lift_joint, elbow_joint, wrist_1_joint, wrist_2_joint,","[1.4047822952270508, -1.17177659669985, 2.4830822944641113, -2.8628390471087855, -1.5669940153705042, 2.7206344604492188]","[0.0, 0.0, -0.0, 0.0, 0.0, 0.0]","[-0.7049561142921448, -4.284668445587158, -0.9617367386817932, -0.5787048935890198, 0.01345825381577015, 0.1009368970990181]"
1584451149245987361,,1157170,,1584451149,245656022,'',"[shoulder_pan_joint, shoulder_lift_joint, elbow_joint, wrist_1_joint, wrist_2_joint,","[1.4047942161560059, -1.1718123594867151, 2.4830703735351562, -2.8628390471087855, -1.5669940153705042, 2.7206225395202637]","[0.0, 0.0, -0.0, 0.0, 0.0, 0.0]","[-0.7186890244483948, -4.270935535430908, -0.9662203192710876, -0.5921631455421448, 0.008972168900072575, 0.1054229810833931]"
1584451149357990824,,1157184,,1584451149,357648244,'',"[shoulder_pan_joint, shoulder_lift_joint, elbow_joint, wrist_1_joint, wrist_2_joint,","[1.4047702550888062, -1.1717646757708948, 2.4830944538116455, -2.8628390471087855, -1.5670178572284144, 2.7206225395202637]","[0.0, 0.0, -0.0, 0.0, 0.0, 0.0]","[-0.7095337510108948, -4.312134265899658, -0.9662203192710876, -0.5944061875343323, 0.008972168900072575, 0.0986938551068306]"
1584451149470005848,,1157198,,1584451149,469637851,'',"[shoulder_pan_joint, shoulder_lift_joint, elbow_joint, wrist_1_joint, wrist_2_joint,","[1.4047702550888062, -1.17180043855776, 2.4830822944641113, -2.8628390471087855, -1.5669940153705042, 2.7206225395202637]","[0.0, 0.0, -0.0, 0.0, 0.0, 0.0]","[-0.7141113877296448, -4.339600086212158, -0.957253098487854, -0.5944061875343323, 0.008972168900072575, 0.1076660305261612]"
1584451149582049927,,1157212,,1584451149,581630354,'',"[shoulder_pan_joint, shoulder_lift_joint, elbow_joint, wrist_1_joint, wrist_2_joint,","[1.406245470046997, -1.171248737965719, 2.4813547134399414, -2.8612354437457483, -1.5670178572284144, 2.7206943035125732]","[0.01213123183697462, 0.003975566942244768, -0.012565859593451023, 0.013805827125906944, 0.0, -0.03693058714270592]","[0.8056641221046448, -2.911377191543579, -2.006420373916626, -0.1076660305261612, 0.0560760572552681, -0.1816864162683487]"
1584451149693986966,,1157226,,1584451149,693629549,'',"[shoulder_pan_joint, shoulder_lift_joint, elbow_joint, wrist_1_joint, wrist_2_joint,","[1.4062933921813965, -1.1714404265033167, 2.4820022583007812, -2.8619053999530237, -1.5669940153705042, 2.717066526412964]","[-0.017743045464158058, -0.004077832214534283, 0.014087056741118431, -0.016758739948272705, 0.0, -0.023661654442548752]","[-0.9979249238967896, -4.243469715118408, -1.004331111907959, -0.6415100693702698, 0.0560760572552681, -0.3588867485523224]"
1584451149805984859,,1157240,,1584451149,805616461,'',"[shoulder_pan_joint, shoulder_lift_joint, elbow_joint, wrist_1_joint, wrist_2_joint,","[1.4045542478561401, -1.171464745198385, 2.481858491897583, -2.861941639577047, -1.5670297781573694, 2.717329740524292]","[-0.006634467281401157, 0.001815210678614676, -0.011811652220785618, 0.010047574527561665, 0.0, 0.051848553121089935]","[-0.9201050996780396, -3.126526117324829, -1.867428183555603, -0.2848663628101349, 0.0448608435690403, 0.2624359428882599]"
1584451149918065226,,1157254,,1584451149,917646894,'',"[shoulder_pan_joint, shoulder_lift_joint, elbow_joint, wrist_1_joint, wrist_2_joint,","[1.4045542478561401, -1.17145282426943, 2.4815948009490967, -2.8617857138263147, -1.5670416990863245, 2.72245454788208]","[0.0003579288604669273, 0.00023009712458588183, 0.011146927252411842, -0.01395922526717186, 0.0, 0.029835926368832588]","[-0.3433227837085724, -3.991699695587158, -1.055892825126648, -0.4912262558937073, 0.0515899695456028, 0.3768310844898224]"
1584451150029972940,,1157268,,1584451150,29607928,'',"[shoulder_pan_joint, shoulder_lift_joint, elbow_joint, wrist_1_joint, wrist_2_joint,","[1.4049620628356934, -1.17145282426943, 2.4819424152374268, -2.8619893232928675, -1.5670178572284144, 2.7251486778259277]","[0.012105665169656277, -0.00017896443023346364, -0.005087703000754118, 0.005483981221914291, 0.0, 0.025828402489423752]","[0.7873535752296448, -3.382873773574829, -1.6723906993865967, -0.3207550346851349, 0.0471038855612278, 0.3454284965991974]"
1584451150142043678,,1157282,,1584451150,141620097,'',"[shoulder_pan_joint, shoulder_lift_joint, elbow_joint, wrist_1_joint, wrist_2_joint,","[1.406773567199707, -1.17145282426943, 2.4817745685577393, -2.8619053999530237, -1.5670536200152796, 2.728022813796997]","[0.014023141004145145, 0.0003323625132907182, -0.0006263754912652075, 0.0004410194815136492, 0.0, 0.023450732231140137]","[0.9292603731155396, -3.570557117462158, -1.46614408493042, -0.3701019585132599, 0.0583190992474556, 0.3028106987476349]"
1584451150254030581,,1157296,,1584451150,253663054,'',"[shoulder_pan_joint, shoulder_lift_joint, elbow_joint, wrist_1_joint, wrist_2_joint,","[1.407157063484192, -1.1714766661273401, 2.4818825721740723, -2.8618934790240687, -1.5670178572284144, 2.730297565460205]","[-0.02111780270934105, 0.00012783173588104546, 0.002032524673268199, -3.834952076431364e-05, 0.0, 0.013978400267660618]","[-0.7919312119483948, -3.749084949493408, -1.2329957485198975, -0.5091705918312073, 0.0560760572552681, 0.2355194389820099]"
1584451150365941410,,1157310,,1584451150,365610823,'',"[shoulder_pan_joint, shoulder_lift_joint, elbow_joint, wrist_1_joint, wrist_2_joint,","[1.4045661687850952, -1.171464745198385, 2.4817986488342285, -2.8618815580951136, -1.5670178572284144, 2.7327880859375]","[-0.01889353059232235, 7.669904152862728e-05, -0.00010226538870483637, -3.834952076431364e-05, 0.0, 0.030430344864726067]","[-0.9704591035842896, -3.598022937774658, -1.4280333518981934, -0.4216919243335724, 0.0493469275534153, 0.2983246147632599]"
1584451150477919887,,1157324,,1584451150,477593918,'',"[shoulder_pan_joint, shoulder_lift_joint, elbow_joint, wrist_1_joint, wrist_2_joint,","[1.4030909538269043, -1.17145282426943, 2.4818224906921387, -2.8618815580951136, -1.5669940153705042, 2.736224889755249]","[-0.0062637547962367535, 5.1132694352418184e-05, -0.00010226538870483637, -3.834952076431364e-05, 0.0, 0.03188762813806534]","[-0.9384156465530396, -3.515625476837158, -1.4235496520996094, -0.4261780083179474, 0.0493469275534153, 0.3095398247241974]"
1584451150589943658,,1157338,,1584451150,589611247,'',"[shoulder_pan_joint, shoulder_lift_joint, elbow_joint, wrist_1_joint, wrist_2_joint,","[1.4036905765533447, -1.1714766661273401, 2.4818105697631836, -2.8618934790240687, -1.5670178572284144, 2.739565134048462]","[0.018919097259640694, 3.834952076431364e-05, -0.00010226538870483637, -3.834952076431364e-05, 0.0, 0.029816752299666405]","[0.7461548447608948, -3.547668933868408, -1.4773530960083008, -0.4059906303882599, 0.0628051832318306, 0.3229980766773224]"
1584451150701990472,,1157352,,1584451150,701609390,'',"[shoulder_pan_joint, shoulder_lift_joint, elbow_joint, wrist_1_joint, wrist_2_joint,","[1.4058376550674438, -1.1714766661273401, 2.4818105697631836, -2.8618934790240687, -1.5670297781573694, 2.74267840385437]","[0.01817767322063446, 3.834952076431364e-05, -0.00010226538870483637, -3.834952076431364e-05, 0.0, 0.024716265499591827]","[0.8148193955421448, -3.602600574493408, -1.468385934829712, -0.3858032524585724, 0.0515899695456028, 0.3566437065601349]"
1584451150813904247,,1157366,,1584451150,813588518,'',"[shoulder_pan_joint, shoulder_lift_joint, elbow_joint, wrist_1_joint, wrist_2_joint,","[1.4076731204986572, -1.171464745198385, 2.481834650039673, -2.8618815580951136, -1.5670297781573694, 2.74518084526062]","[0.011530422605574131, 2.5566347176209092e-05, -0.00010226538870483637, -3.834952076431364e-05, 0.0, 0.020114323124289513]","[1.0574342012405396, -3.689575672149658, -1.40337336063385, -0.4172058403491974, 0.0583190992474556, 0.2534637749195099]"
1584451150925910155,,1157380,,1584451150,925577995,'',"[shoulder_pan_joint, shoulder_lift_joint, elbow_joint, wrist_1_joint, wrist_2_joint,","[1.407277226448059, -1.17145282426943, 2.4818944931030273, -2.8618815580951136, -1.5670297781573694, 2.7470128536224365]","[-0.023124760016798973, 2.5566347176209092e-05, -0.00010226538870483637, 0.0, 0.0, 0.01062281709164381]","[-0.7644653916358948, -3.698730945587158, -1.3024919033050537, -0.4777680039405823, 0.0515899695456028, 0.2467346489429474]"
1584451151037913478,,1157394,,1584451151,37565538,'',"[shoulder_pan_joint, shoulder_lift_joint, elbow_joint, wrist_1_joint, wrist_2_joint,","[1.4045062065124512, -1.171464745198385, 2.4818105697631836, -2.861917797719137, -1.5670178572284144, 2.748713254928589]","[-0.02262621745467186, 2.5566347176209092e-05, 7.669904152862728e-05, 0.0, 0.0, 0.01804344914853573]","[-0.9246827363967896, -3.469848871231079, -1.405615210533142, -0.4284210503101349, 0.0560760572552681, 0.3072967827320099]"
1584451151149929865,,1157408,,1584451151,149588478,'',"[shoulder_pan_joint, shoulder_lift_joint, elbow_joint, wrist_1_joint, wrist_2_joint,","[1.4023113250732422, -1.1714285055743616, 2.481762647628784, -2.8618934790240687, -1.5669940153705042, 2.7503774166107178]","[-0.016260197386145592, 1.2783173588104546e-05, 7.669904152862728e-05, 0.0, 0.0, 0.012252671644091606]","[-0.7553101181983948, -3.552246570587158, -1.3406027555465698, -0.4553375840187073, 0.0471038855612278, 0.2848663628101349]"
1584451151261967091,,1157422,,1584451151,261625172,'',"[shoulder_pan_joint, shoulder_lift_joint, elbow_joint, wrist_1_joint, wrist_2_joint,","[1.4004162549972534, -1.17145282426943, 2.4817028045654297, -2.8618577162372034, -1.5670536200152796, 2.748617649078369]","[-0.013780261389911175, 1.2783173588104546e-05, -0.003847735235467553, 0.0, 0.0, -0.03999854996800423]","[-1.1352540254592896, -3.479004144668579, -1.463902235031128, -0.3925323784351349, 0.0471038855612278, -0.3095398247241974]"
1584451151373957540,,1157436,,1584451151,373582479,'',"[shoulder_pan_joint, shoulder_lift_joint, elbow_joint, wrist_1_joint, wrist_2_joint,","[1.4012196063995361, -1.1708415190326136, 2.4794349670410156, -2.860241238270895, -1.5670416990863245, 2.7472641468048096]","[0.03471909835934639, 0.014930746518075466, -0.03232864663004875, 0.02124563418328762, 0.0, 0.045405831187963486]","[1.0986329317092896, -2.828979730606079, -1.8427683115005493, -0.1659851223230362, 0.0605621412396431, 0.1772003322839737]"
1584451151485876135,,1157450,,1584451151,485542371,'',"[shoulder_pan_joint, shoulder_lift_joint, elbow_joint, wrist_1_joint, wrist_2_joint,","[1.4057897329330444, -1.169030491505758, 2.473808526992798, -2.857666794453756, -1.5670655409442347, 2.7526049613952637]","[0.04971376061439514, 0.022472819313406944, -0.08114758878946304, 0.03380510210990906, 0.0, 0.04438956826925278]","[0.6912232041358948, -2.668762445449829, -1.8763954639434814, -0.1009368970990181, 0.0471038855612278, 0.3431854546070099]"
1584451151597937205,,1157464,,1584451151,597593823,'',"[shoulder_pan_joint, shoulder_lift_joint, elbow_joint, wrist_1_joint, wrist_2_joint,","[1.4124828577041626, -1.1653860251056116, 2.4618942737579346, -2.851764504109518, -1.5670416990863245, 2.757406234741211]","[0.06782751530408859, 0.040292561054229736, -0.12459759414196014, 0.0678594782948494, 0.0, 0.03978762775659561]","[0.9887696504592896, -2.513122797012329, -1.867428183555603, -0.1076660305261612, 0.0538330152630806, 0.3364563286304474]"
1584451151709978599,,1157478,,1584451151,709592247,'',"[shoulder_pan_joint, shoulder_lift_joint, elbow_joint, wrist_1_joint, wrist_2_joint,","[1.420255422592163, -1.1597150007831019, 2.447868585586548, -2.843766991292135, -1.567089859639303, 2.761549472808838]","[0.0734393298625946, 0.05914774537086487, -0.1191391795873642, 0.0717327818274498, 0.0, 0.04442792013287544]","[1.0162354707717896, -2.897644281387329, -2.0602238178253174, -0.1188812404870987, 0.0515899695456028, 0.2781372368335724]"
1584451151821931979,,1157492,,1584451151,821546288,'',"[shoulder_pan_joint, shoulder_lift_joint, elbow_joint, wrist_1_joint, wrist_2_joint,","[1.4299472570419312, -1.1539595762835901, 2.436998128890991, -2.8367155233966272, -1.5670536200152796, 2.7675719261169434]","[0.09986215084791183, 0.03377314284443855, -0.07420632243156433, 0.05110073462128639, 0.0, 0.0564504936337471]","[0.7278442978858948, -3.282165765762329, -2.205941677093506, -0.1749572902917862, 0.1009368970990181, 0.3140259087085724]"
1584451151933874047,,1157506,,1584451151,933539472,'',"[shoulder_pan_joint, shoulder_lift_joint, elbow_joint, wrist_1_joint, wrist_2_joint,","[1.4420138597488403, -1.1515982786761683, 2.429943323135376, -2.831902805958883, -1.567077938710348, 2.7733078002929688]","[0.11251749098300934, 0.013793043792247772, -0.04465162381529808, 0.031925976276397705, 0.0, 0.041609231382608414]","[0.7690430283546448, -2.879333734512329, -2.019871234893799, -0.0650482252240181, 0.1076660305261612, 0.3476715385913849]"
1584451152045840801,,1157520,,1584451152,45530462,'',"[shoulder_pan_joint, shoulder_lift_joint, elbow_joint, wrist_1_joint, wrist_2_joint,","[1.4545482397079468, -1.1505549589740198, 2.426487684249878, -2.829280678425924, -1.5670655409442347, 2.778193235397339]","[0.11196781694889069, 0.006941263098269701, -0.031740620732307434, 0.01852281764149666, 0.0, 0.04701651260256767]","[1.0620118379592896, -3.062439203262329, -1.9189897775650024, -0.1188812404870987, 0.1659851223230362, 0.2915954887866974]"
1584451152157904106,,1157534,,1584451152,157576264,'',"[shoulder_pan_joint, shoulder_lift_joint, elbow_joint, wrist_1_joint, wrist_2_joint,","[1.4672387838363647, -1.1490920225726526, 2.421088457107544, -2.826850716267721, -1.567089859639303, 2.7835214138031006]","[0.11825713515281677, 0.01955825462937355, -0.06312330812215805, 0.029375731945037842, 0.0, 0.042395394295454025]","[0.7690430283546448, -2.787781000137329, -1.8763954639434814, -0.0874786451458931, 0.1772003322839737, 0.3095398247241974]"
1584451152269850763,,1157548,,1584451152,269529834,'',"[shoulder_pan_joint, shoulder_lift_joint, elbow_joint, wrist_1_joint, wrist_2_joint,","[1.480888843536377, -1.146562401448385, 2.414957046508789, -2.8234384695636194, -1.567101780568258, 2.788059711456299]","[0.11949710547924042, 0.021041102707386017, -0.03817055746912956, 0.021015537902712822, 0.0, 0.034514568746089935]","[0.8148193955421448, -2.856445550918579, -1.9907277822494507, -0.0964508131146431, 0.1547699123620987, 0.3364563286304474]"
1584451152381809513,,1157562,,1584451152,381497019,'',"[shoulder_pan_joint, shoulder_lift_joint, elbow_joint, wrist_1_joint, wrist_2_joint,","[1.493867039680481, -1.1453035513507288, 2.41214919090271, -2.8216541449176233, -1.5671375433551233, 2.7916998863220215]","[0.11488237977027893, 0.0015595471486449242, -0.009280583821237087, 0.006423544604331255, 0.0, 0.032769665122032166]","[0.8697510361671448, -3.424072504043579, -2.2530195713043213, -0.1682281643152237, 0.1772003322839737, 0.2758941948413849]"
1584451152493784512,,1157576,,1584451152,493510881,'',"[shoulder_pan_joint, shoulder_lift_joint, elbow_joint, wrist_1_joint, wrist_2_joint,","[1.506797194480896, -1.1456869284259241, 2.4136011600494385, -2.8224805037127894, -1.5671613852130335, 2.795938730239868]","[0.10953901708126068, -0.010814565233886242, 0.030117155984044075, -0.02136068232357502, 0.0, 0.03953835740685463]","[1.0940552949905396, -4.595947742462158, -1.2621393203735352, -0.6437531113624573, 0.1951446682214737, 0.3297272026538849]"
1584451152605736920,,1157590,,1584451152,605505057,'',"[shoulder_pan_joint, shoulder_lift_joint, elbow_joint, wrist_1_joint, wrist_2_joint,","[1.5182998180389404, -1.1470783392535608, 2.417296886444092, -2.8246119658099573, -1.567197624837057, 2.7997946739196777]","[0.09554143995046616, -0.015633821487426758, 0.030551785603165627, -0.018254371359944344, 0.0, 0.02600097469985485]","[0.8880616426467896, -4.774475574493408, -1.0917617082595825, -0.7222595810890198, 0.2220611870288849, 0.3858032524585724]"
1584451152717742828,,1157604,,1584451152,717495246,'',"[shoulder_pan_joint, shoulder_lift_joint, elbow_joint, wrist_1_joint, wrist_2_joint,","[1.5286391973495483, -1.148552719746725, 2.4196484088897705, -2.82542592683901, -1.5672577063189905, 2.801530599594116]","[0.08734742552042007, -0.008347412571310997, 0.01275760680437088, -0.0011696603614836931, 0.0, 0.003719903528690338]","[0.9613038301467896, -4.591370105743408, -1.0648599863052368, -0.7671204209327698, 0.3409424126148224, 0.1951446682214737]"
1584451152829790794,,1157618,,1584451152,829506974,'',"[shoulder_pan_joint, shoulder_lift_joint, elbow_joint, wrist_1_joint, wrist_2_joint,","[1.5374795198440552, -1.1486485640155237, 2.4202003479003906, -2.8248751799212855, -1.5676763693438929, 2.796525716781616]","[0.07139402627944946, -0.0003834952076431364, -0.0, 0.006231796927750111, -0.0038733016699552536, -0.06095656380057335]","[1.2542725801467896, -4.069519519805908, -1.549091100692749, -0.5293579697608948, 0.3364563286304474, -0.3140259087085724]"
1584451152941861683,,1157632,,1584451152,941510517,'',"[shoulder_pan_joint, shoulder_lift_joint, elbow_joint, wrist_1_joint, wrist_2_joint,","[1.544256567955017, -1.1486366430865687, 2.4204041957855225, -2.8241446653949183, -1.5682762304889124, 2.7896764278411865]","[0.047502271831035614, -0.00015339808305725455, 0.00415453128516674, 0.0031638354994356632, -0.005177185405045748, -0.059077437967061996]","[1.0894776582717896, -4.078674793243408, -1.6499725580215454, -0.5473023056983948, 0.2758941948413849, -0.2512207329273224]"
1584451153053822847,,1157646,,1584451153,53480428,'',"[shoulder_pan_joint, shoulder_lift_joint, elbow_joint, wrist_1_joint, wrist_2_joint,","[1.5486944913864136, -1.1491759459124964, 2.4227800369262695, -2.825031105672018, -1.5683601538287562, 2.7814383506774902]","[0.036495961248874664, -0.014675083570182323, 0.03092249669134617, -0.014515293762087822, -0.0005560680292546749, -0.0832568109035492]","[0.8926392793655396, -4.866028308868408, -1.3383609056472778, -0.863571286201477, 0.2624359428882599, -0.3499145805835724]"
1584451153166160374,,1157660,,1584451153,165795703,'',"[shoulder_pan_joint, shoulder_lift_joint, elbow_joint, wrist_1_joint, wrist_2_joint,","[1.5530484914779663, -1.151130501423971, 2.4255757331848145, -2.8266471068011683, -1.568348232899801, 2.7729246616363525]","[0.03976845368742943, -0.017743045464158058, 0.020350812003016472, -0.010373544879257679, -0.0001917476038215682, -0.07307501137256622]","[0.9109498262405396, -4.660034656524658, -1.2060940265655518, -0.8321686387062073, 0.2624359428882599, -0.2938385307788849]"
1584451153277828320,,1157674,,1584451153,277490119,'',"[shoulder_pan_joint, shoulder_lift_joint, elbow_joint, wrist_1_joint, wrist_2_joint,","[1.5575222969055176, -1.1530125776873987, 2.4281911849975586, -2.827843968068258, -1.568348232899801, 2.764458417892456]","[0.04169871285557747, -0.017858093604445457, 0.027151459828019142, -0.014611166901886463, -0.00011504856229294091, -0.07085073739290237]","[0.8743286728858948, -4.664612293243408, -1.1545324325561523, -0.8142243027687073, 0.2579498589038849, -0.3274841606616974]"
1584451153389939855,,1157688,,1584451153,389526493,'',"[shoulder_pan_joint, shoulder_lift_joint, elbow_joint, wrist_1_joint, wrist_2_joint,","[1.5628597736358643, -1.1549432913409632, 2.4317307472229004, -2.83008319536318, -1.5683601538287562, 2.757154941558838]","[0.05804838985204697, -0.014854047447443008, 0.02913285233080387, -0.01877208985388279, -7.669904152862728e-05, -0.06036214530467987]","[1.2680054903030396, -4.582214832305908, -1.147807002067566, -0.7132874131202698, 0.2646789848804474, -0.2557068169116974]"
1584451153502033797,,1157702,,1584451153,501562667,'',"[shoulder_pan_joint, shoulder_lift_joint, elbow_joint, wrist_1_joint, wrist_2_joint,","[1.5696245431900024, -1.1559980551349085, 2.4342987537384033, -2.831782642995016, -1.5683959166156214, 2.748857021331787]","[0.05799725651741028, -0.0034258905798196793, 0.01679708994925022, -0.00797670055180788, -5.752428114647046e-05, -0.07476238906383514]","[0.9887696504592896, -4.600525379180908, -1.194885015487671, -0.7805786728858948, 0.2893524467945099, -0.3252411186695099]"
1584451153613828891,,1157716,,1584451153,613483576,'',"[shoulder_pan_joint, shoulder_lift_joint, elbow_joint, wrist_1_joint, wrist_2_joint,","[1.575921893119812, -1.1561654249774378, 2.436446189880371, -2.8325489203082483, -1.5684078375445765, 2.7408225536346436]","[0.054622501134872437, -0.004141748417168856, 0.023853402584791183, -0.00914636068046093, 0.0, -0.07468569278717041]","[1.1398316621780396, -4.820251941680908, -1.2531720399856567, -0.8007660508155823, 0.3095398247241974, -0.2557068169116974]"
1584451153725887687,,1157730,,1584451153,725486628,'',"[shoulder_pan_joint, shoulder_lift_joint, elbow_joint, wrist_1_joint, wrist_2_joint,","[1.5810672044754028, -1.157053295766012, 2.4398417472839355, -2.834536377583639, -1.5683839956866663, 2.730776071548462]","[0.04362897202372551, -0.011773303151130676, 0.0376720130443573, -0.021916750818490982, 0.0, -0.08843399584293365]","[0.8789063692092896, -4.893494129180908, -1.1657414436340332, -0.7917938828468323, 0.2871094048023224, -0.3252411186695099]"
1584451153837902602,,1157744,,1584451153,837518194,'',"[shoulder_pan_joint, shoulder_lift_joint, elbow_joint, wrist_1_joint, wrist_2_joint,","[1.5860332250595093, -1.1586359182940882, 2.4443535804748535, -2.8376615683185022, -1.5683358351336878, 2.720766305923462]","[0.04869110882282257, -0.018075406551361084, 0.03590793535113335, -0.028915539383888245, 0.0, -0.0980788990855217]","[0.7965088486671448, -4.728699207305908, -1.197126865386963, -0.7379608750343323, 0.2938385307788849, -0.2871094048023224]"
1584451153949923458,,1157758,,1584451153,949549078,'',"[shoulder_pan_joint, shoulder_lift_joint, elbow_joint, wrist_1_joint, wrist_2_joint,","[1.5919466018676758, -1.1602662245379847, 2.4469447135925293, -2.8394692579852503, -1.5684078375445765, 2.710864305496216]","[0.051848553121089935, -0.005893042776733637, 0.012591426260769367, -0.0032213598024100065, 0.0, -0.0814352035522461]","[0.7369995713233948, -4.605103015899658, -1.1904014348983765, -0.7648773789405823, 0.2983246147632599, -0.2960815727710724]"
1584451154061862280,,1157772,,1584451154,61478483,'',"[shoulder_pan_joint, shoulder_lift_joint, elbow_joint, wrist_1_joint, wrist_2_joint,","[1.5973080396652222, -1.160302464162008, 2.448540449142456, -2.8394930998431605, -1.5685275236712855, 2.70147705078125]","[0.04393576830625534, -0.000690291344653815, 0.017436249181628227, -0.0025310683995485306, -0.000517718552146107, -0.08321846276521683]","[0.9063721895217896, -4.916382312774658, -1.3966479301452637, -0.8478699326515198, 0.3185119926929474, -0.3162689507007599]"
1584451154174080604,,1157786,,1584451154,173562196,'',"[shoulder_pan_joint, shoulder_lift_joint, elbow_joint, wrist_1_joint, wrist_2_joint,","[1.6019736528396606, -1.1609376112567347, 2.450772285461426, -2.8401992956744593, -1.5685871283160608, 2.691455602645874]","[0.034028809517621994, -0.012028966099023819, 0.028480909764766693, -0.0109487883746624, -0.0004985437844879925, -0.1041189506649971]","[0.8102417588233948, -4.925537586212158, -1.2980083227157593, -0.9196473360061646, 0.3454284965991974, -0.2444916069507599]"
1584451154286080300,,1157800,,1584451154,285537897,'',"[shoulder_pan_joint, shoulder_lift_joint, elbow_joint, wrist_1_joint, wrist_2_joint,","[1.6054521799087524, -1.1627123991595667, 2.4548277854919434, -2.8423665205584925, -1.5685036818133753, 2.6795177459716797]","[0.028263596817851067, -0.01949433982372284, 0.04453657567501068, -0.02858956716954708, -0.00023009712458588183, -0.1057104542851448]","[0.7141113877296448, -4.930115222930908, -1.2576557397842407, -0.7828217148780823, 0.3813171684741974, -0.2803802788257599]"
1584451154397880553,,1157814,,1584451154,397462332,'',"[shoulder_pan_joint, shoulder_lift_joint, elbow_joint, wrist_1_joint, wrist_2_joint,","[1.6080669164657593, -1.1655176321612757, 2.458594799041748, -2.8453834692584437, -1.5684798399554651, 2.6664912700653076]","[0.019762786105275154, -0.023380424827337265, 0.01649029366672039, -0.015531555749475956, 3.834952076431364e-05, -0.11646749079227448]","[0.7736206650733948, -4.444885730743408, -1.1679832935333252, -0.6841278672218323, 0.3745880424976349, -0.2960815727710724]"
1584451154509980677,,1157828,,1584451154,509529164,'',"[shoulder_pan_joint, shoulder_lift_joint, elbow_joint, wrist_1_joint, wrist_2_joint,","[1.6100338697433472, -1.1662610212909144, 2.459014654159546, -2.8456948439227503, -1.5685275236712855, 2.6529011726379395]","[0.014087056741118431, -0.0003834952076431364, 0.0005496764788404107, 0.000997087568975985, 3.834952076431364e-05, -0.12551797926425934]","[0.9292603731155396, -4.092407703399658, -1.5670255422592163, -0.4665527939796448, 0.3297272026538849, -0.3880462944507599]"
1584451154621940729,,1157842,,1584451154,621544188,'',"[shoulder_pan_joint, shoulder_lift_joint, elbow_joint, wrist_1_joint, wrist_2_joint,","[1.6112453937530518, -1.1662734190570276, 2.4590511322021484, -2.845586601887838, -1.5685156027423304, 2.6398262977600098]","[0.00484482292085886, -0.00014061490946915, -0.0, 0.0004985437844879925, -1.917476038215682e-05, -0.11773303151130676]","[0.7781983017921448, -4.000854969024658, -1.596169114112854, -0.4463654160499573, 0.3476715385913849, -0.3207550346851349]"
1584451154733988435,,1157856,,1584451154,733546730,'',"[shoulder_pan_joint, shoulder_lift_joint, elbow_joint, wrist_1_joint, wrist_2_joint,","[1.611173152923584, -1.166321102772848, 2.4590389728546143, -2.845562760029928, -1.5685156027423304, 2.6262848377227783]","[-0.0010865697404369712, -7.669904152862728e-05, -0.0, 0.0003067961661145091, -1.917476038215682e-05, -0.1262466162443161]","[-0.009155274368822575, -3.973389148712158, -1.6992924213409424, -0.4037475883960724, 0.3386993706226349, -0.3454284965991974]"
1584451154845764684,,1157870,,1584451154,845459253,'',"[shoulder_pan_joint, shoulder_lift_joint, elbow_joint, wrist_1_joint, wrist_2_joint,","[1.6111371517181396, -1.1662734190570276, 2.459014654159546, -2.845538918172018, -1.568491284047262, 2.6128036975860596]","[-0.004295146092772484, -5.1132694352418184e-05, -3.834952076431364e-05, 0.0004026699753012508, -1.917476038215682e-05, -0.13054177165031433]","[-0.6729126572608948, -4.023743152618408, -1.4930458068847656, -0.4957123398780823, 0.3185119926929474, -0.3028106987476349]"
1584451154957820865,,1157884,,1584451154,957431638,'',"[shoulder_pan_joint, shoulder_lift_joint, elbow_joint, wrist_1_joint, wrist_2_joint,","[1.6110413074493408, -1.1662734190570276, 2.458894968032837, -2.8455150763141077, -1.5685036818133753, 2.6014652252197266]","[-0.00023009712458588183, -3.834952076431364e-05, -0.00046019424917176366, 0.00023009712458588183, -1.917476038215682e-05, -0.04412112385034561]","[-0.1327514797449112, -3.895569324493408, -1.6230708360671997, -0.4306641221046448, 0.3364563286304474, -0.2153320610523224]"
1584451155070021426,,1157898,,1584451155,69515111,'',"[shoulder_pan_joint, shoulder_lift_joint, elbow_joint, wrist_1_joint, wrist_2_joint,","[1.6110413074493408, -1.1662848631488245, 2.4588589668273926, -2.8454793135272425, -1.5687668959247034, 2.6003518104553223]","[-0.00011504856229294091, -3.834952076431364e-05, -0.0, 0.0033747577108442783, -0.006155097857117653, 0.0013230585027486086]","[-0.02288818545639515, -3.991699695587158, -1.6028945446014404, -0.3566437065601349, 0.0829925611615181, 0.004486084450036287]"
1584451155181830516,,1157912,,1584451155,181439937,'',"[shoulder_pan_joint, shoulder_lift_joint, elbow_joint, wrist_1_joint, wrist_2_joint,","[1.6110292673110962, -1.1662734190570276, 2.4588470458984375, -2.8454554716693323, -1.5687912146197718, 2.6003878116607666]","[-6.391586794052273e-05, -3.834952076431364e-05, -0.0004218447138555348, 0.00036432043998502195, -0.0003834952076431364, 0.00024927189224399626]","[0.0411987341940403, -3.936768054962158, -1.5804764032363892, -0.3544006645679474, 0.1547699123620987, 0.02018737979233265]"
1584451155293897297,,1157926,,1584451155,293483004,'',"[shoulder_pan_joint, shoulder_lift_joint, elbow_joint, wrist_1_joint, wrist_2_joint,","[1.6110413074493408, -1.1662491003619593, 2.4588589668273926, -2.845431629811422, -1.568815056477682, 2.6003756523132324]","[-5.1132694352418184e-05, -3.834952076431364e-05, -0.00020453077740967274, 0.00017257283616345376, -0.00013422331539914012, 0.00013422331539914012]","[0.02288818545639515, -3.996277332305908, -1.598410964012146, -0.3566437065601349, 0.2758941948413849, 0.02467346377670765]"
1584451155405884240,,1157940,,1584451155,405468654,'',"[shoulder_pan_joint, shoulder_lift_joint, elbow_joint, wrist_1_joint, wrist_2_joint,","[1.6110413074493408, -1.1663091818438929, 2.4588589668273926, -2.8454554716693323, -1.568707291279928, 2.6003637313842773]","[-3.834952076431364e-05, -3.834952076431364e-05, -0.00012783173588104546, 0.00017257283616345376, 0.005062136799097061, 9.58738019107841e-05]","[0.004577637184411287, -3.959656238555908, -1.5715092420578003, -0.3858032524585724, 0.4172058403491974, 0.01570129580795765]"
1584451155517782316,,1157954,,1584451155,517433244,'',"[shoulder_pan_joint, shoulder_lift_joint, elbow_joint, wrist_1_joint, wrist_2_joint,","[1.6110413074493408, -1.1662848631488245, 2.4588470458984375, -2.845407311116354, -1.5686114470111292, 2.6003756523132324]","[-2.5566347176209092e-05, -3.834952076431364e-05, -8.948221511673182e-05, 0.00013422331539914012, 0.000862864195369184, 5.752428114647046e-05]","[0.01831054873764515, -3.936768054962158, -1.5715092420578003, -0.4306641221046448, 0.5607605576515198, 0.01345825381577015]"
1584451155630023122,,1157968,,1584451155,629515374,'',"[shoulder_pan_joint, shoulder_lift_joint, elbow_joint, wrist_1_joint, wrist_2_joint,","[1.6110173463821411, -1.1662848631488245, 2.458834648132324, -2.8454435507403772, -1.5685275236712855, 2.6003756523132324]","[-2.5566347176209092e-05, -2.5566347176209092e-05, -6.391586794052273e-05, 9.58738019107841e-05, 0.0, 5.752428114647046e-05]","[-0.0274658240377903, -4.019165515899658, -1.5670255422592163, -0.5091705918312073, 0.4957123398780823, 0.0269165076315403]"
1584451155741931368,,1157982,,1584451155,741505663,'',"[shoulder_pan_joint, shoulder_lift_joint, elbow_joint, wrist_1_joint, wrist_2_joint,","[1.6110292673110962, -1.1662734190570276, 2.4588470458984375, -2.845419232045309, -1.5685275236712855, 2.6003878116607666]","[-2.5566347176209092e-05, -2.5566347176209092e-05, -5.1132694352418184e-05, -1.917476038215682e-05, 0.0, 3.834952076431364e-05]","[0.0274658240377903, -4.000854969024658, -1.593927264213562, -0.5719757676124573, 0.5428162217140198, 0.01345825381577015]"
1584451155853970707,,1157996,,1584451155,853506500,'',"[shoulder_pan_joint, shoulder_lift_joint, elbow_joint, wrist_1_joint, wrist_2_joint,","[1.611053228378296, -1.1662972609149378, 2.4588470458984375, -2.8454907576190394, -1.5685275236712855, 2.6003637313842773]","[-1.2783173588104546e-05, -1.2783173588104546e-05, -5.1132694352418184e-05, -1.917476038215682e-05, 0.0, 3.834952076431364e-05]","[0.004577637184411287, -3.987122058868408, -1.5737509727478027, -0.6661835312843323, 0.4553375840187073, 0.02018737979233265]"
1584451155965776652,,1158010,,1584451155,965410828,'',"[shoulder_pan_joint, shoulder_lift_joint, elbow_joint, wrist_1_joint, wrist_2_joint,","[1.6110413074493408, -1.166321102772848, 2.458906888961792, -2.8454793135272425, -1.5685036818133753, 2.600339889526367]","[-1.2783173588104546e-05, -1.2783173588104546e-05, -3.834952076431364e-05, -0.00015339808305725455, 0.0, 3.834952076431364e-05]","[-0.01373291201889515, -4.014587879180908, -1.5737509727478027, -0.6818848252296448, 0.4575806260108948, 0.01794433780014515]"
1584451156077953198,,1158024,,1584451156,77556597,'',"[shoulder_pan_joint, shoulder_lift_joint, elbow_joint, wrist_1_joint, wrist_2_joint,","[1.611053228378296, -1.1662972609149378, 2.4588470458984375, -2.8454793135272425, -1.568491284047262, 2.6003637313842773]","[-1.2783173588104546e-05, -1.2783173588104546e-05, -3.834952076431364e-05, -0.00015339808305725455, 0.0, 1.917476038215682e-05]","[-0.0274658240377903, -3.991699695587158, -1.5580583810806274, -0.6796417832374573, 0.4710388779640198, 0.02243042178452015]"
1584451156189715230,,1158038,,1584451156,189403698,'',"[shoulder_pan_joint, shoulder_lift_joint, elbow_joint, wrist_1_joint, wrist_2_joint,","[1.6110173463821411, -1.1662610212909144, 2.4588470458984375, -2.8455031553851526, -1.5684798399554651, 2.6003756523132324]","[-1.2783173588104546e-05, -1.2783173588104546e-05, -2.5566347176209092e-05, -0.00011504856229294091, 0.0, 1.917476038215682e-05]","[-0.004577637184411287, -4.083252429962158, -1.5782346725463867, -0.6773987412452698, 0.4822540879249573, 0.02018737979233265]"
1584451156301767554,,1158052,,1584451156,301413122,'',"[shoulder_pan_joint, shoulder_lift_joint, elbow_joint, wrist_1_joint, wrist_2_joint,","[1.6110413074493408, -1.1662972609149378, 2.4588470458984375, -2.8454554716693323, -1.5685156027423304, 2.6003756523132324]","[-1.2783173588104546e-05, -1.2783173588104546e-05, -2.5566347176209092e-05, -7.669904152862728e-05, 0.0, 1.917476038215682e-05]","[0.01373291201889515, -3.973389148712158, -1.5827182531356812, -0.6796417832374573, 0.4710388779640198, 0.0269165076315403]"
1584451156413748996,,1158066,,1584451156,413399543,'',"[shoulder_pan_joint, shoulder_lift_joint, elbow_joint, wrist_1_joint, wrist_2_joint,","[1.6110292673110962, -1.1662972609149378, 2.4588470458984375, -2.8454907576190394, -1.5684798399554651, 2.6003637313842773]","[-1.2783173588104546e-05, -1.2783173588104546e-05, -2.5566347176209092e-05, -5.752428114647046e-05, 0.0, 1.917476038215682e-05]","[-0.0411987341940403, -4.083252429962158, -1.5647838115692139, -0.6863709092140198, 0.4844971299171448, 0.01345825381577015]"
1584451156525786663,,1158080,,1584451156,525499096,'',"[shoulder_pan_joint, shoulder_lift_joint, elbow_joint, wrist_1_joint, wrist_2_joint,","[1.6110292673110962, -1.1662734190570276, 2.4588828086853027, -2.8454793135272425, -1.5685275236712855, 2.6003756523132324]","[-1.2783173588104546e-05, -1.2783173588104546e-05, -2.5566347176209092e-05, -5.752428114647046e-05, 0.0, 1.917476038215682e-05]","[-0.0320434607565403, -4.023743152618408, -1.551332950592041, -0.6773987412452698, 0.4575806260108948, 0.01570129580795765]"
1584451156637639204,,1158094,,1584451156,637365814,'',"[shoulder_pan_joint, shoulder_lift_joint, elbow_joint, wrist_1_joint, wrist_2_joint,","[1.6110413074493408, -1.1663091818438929, 2.458834648132324, -2.8454673925982874, -1.568491284047262, 2.6003878116607666]","[-1.2783173588104546e-05, -1.2783173588104546e-05, -1.2783173588104546e-05, -3.834952076431364e-05, 0.0, 1.917476038215682e-05]","[-0.0274658240377903, -4.005432605743408, -1.551332950592041, -0.6818848252296448, 0.5136566758155823, 0.02018737979233265]"
1584451156749645643,,1158108,,1584451156,749342567,'',"[shoulder_pan_joint, shoulder_lift_joint, elbow_joint, wrist_1_joint, wrist_2_joint,","[1.6110292673110962, -1.1662972609149378, 2.4588708877563477, -2.8454554716693323, -1.568491284047262, 2.6003756523132324]","[-1.2783173588104546e-05, -1.2783173588104546e-05, -1.2783173588104546e-05, -3.834952076431364e-05, 0.0, 1.917476038215682e-05]","[0.009155274368822575, -3.895569324493408, -1.5580583810806274, -0.6818848252296448, 0.5091705918312073, 0.02018737979233265]"
1584451156861679423,,1158122,,1584451156,861356800,'',"[shoulder_pan_joint, shoulder_lift_joint, elbow_joint, wrist_1_joint, wrist_2_joint,","[1.6110053062438965, -1.166321102772848, 2.4588589668273926, -2.8454907576190394, -1.56846791902651, 2.6003518104553223]","[0.0, 0.0, -1.2783173588104546e-05, -1.917476038215682e-05, 0.0, 1.917476038215682e-05]","[-0.02288818545639515, -4.064941883087158, -1.5692673921585083, -0.6773987412452698, 0.4844971299171448, -0.0538330152630806]"
1584451156973643132,,1158136,,1584451156,973370442,'',"[shoulder_pan_joint, shoulder_lift_joint, elbow_joint, wrist_1_joint, wrist_2_joint,","[1.6110413074493408, -1.1662848631488245, 2.4588589668273926, -2.8454907576190394, -1.5684798399554651, 2.5961973667144775]","[0.0, 0.0, -1.2783173588104546e-05, -1.917476038215682e-05, 0.0, -0.10300680994987488]","[-0.009155274368822575, -3.813171863555908, -1.5356402397155762, -0.6796417832374573, 0.4957123398780823, -0.3028106987476349]"
1584451157085859472,,1158150,,1584451157,85506993,'',"[shoulder_pan_joint, shoulder_lift_joint, elbow_joint, wrist_1_joint, wrist_2_joint,","[1.611053228378296, -1.1663091818438929, 2.4588828086853027, -2.8454673925982874, -1.5684798399554651, 2.5765020847320557]","[0.0, 0.0, -1.2783173588104546e-05, -1.917476038215682e-05, 0.0, -0.20194856822490692]","[-0.0274658240377903, -3.909302234649658, -1.5356402397155762, -0.6863709092140198, 0.4777680039405823, -0.4620667099952698]"
1584451157197662701,,1158164,,1584451157,197361198,'',"[shoulder_pan_joint, shoulder_lift_joint, elbow_joint, wrist_1_joint, wrist_2_joint,","[1.6110892295837402, -1.1662734190570276, 2.4588708877563477, -2.8454907576190394, -1.5684321562396448, 2.5539095401763916]","[0.0, 0.0, -1.2783173588104546e-05, -1.917476038215682e-05, 1.917476038215682e-05, -0.20164178311824799]","[-0.0274658240377903, -4.000854969024658, -1.5423656702041626, -0.6841278672218323, 0.4822540879249573, -0.3835602104663849]"
1584451157309677816,,1158178,,1584451157,309395910,'',"[shoulder_pan_joint, shoulder_lift_joint, elbow_joint, wrist_1_joint, wrist_2_joint,","[1.6110413074493408, -1.1662734190570276, 2.4588828086853027, -2.8455031553851526, -1.5684078375445765, 2.53135347366333]","[0.0, 0.0, -1.2783173588104546e-05, -1.917476038215682e-05, 1.917476038215682e-05, -0.1970781832933426]","[0.0, -3.900146961212158, -1.549091100692749, -0.6841278672218323, 0.4665527939796448, -0.5069275498390198]"
1584451157421863679,,1158192,,1584451157,421463773,'',"[shoulder_pan_joint, shoulder_lift_joint, elbow_joint, wrist_1_joint, wrist_2_joint,","[1.611053228378296, -1.1662491003619593, 2.4588589668273926, -2.8455031553851526, -1.5683839956866663, 2.509097099304199]","[0.0, 0.0, -1.2783173588104546e-05, -1.917476038215682e-05, 0.00017257283616345376, -0.2017376571893692]","[0.004577637184411287, -3.881836414337158, -1.5311566591262817, -0.6863709092140198, 0.4463654160499573, -0.4104767143726349]"
1584451157533701894,,1158206,,1584451157,533375545,'',"[shoulder_pan_joint, shoulder_lift_joint, elbow_joint, wrist_1_joint, wrist_2_joint,","[1.611053228378296, -1.1662610212909144, 2.458894968032837, -2.8454673925982874, -1.5683720747577112, 2.4864933490753174]","[0.0, 0.0, -1.2783173588104546e-05, -1.917476038215682e-05, 0.00032597093377262354, -0.19834372401237488]","[0.0, -3.996277332305908, -1.5333983898162842, -0.6818848252296448, 0.4598236680030823, -0.4396362900733948]"
1584451157645766190,,1158220,,1584451157,645414203,'',"[shoulder_pan_joint, shoulder_lift_joint, elbow_joint, wrist_1_joint, wrist_2_joint,","[1.6110413074493408, -1.166333023701803, 2.4588828086853027, -2.8454793135272425, -1.5683601538287562, 2.464129686355591]","[0.0, 0.0, -1.2783173588104546e-05, -1.917476038215682e-05, 0.00015339808305725455, -0.19993522763252258]","[-0.0320434607565403, -3.849792957305908, -1.5625419616699219, -0.6841278672218323, 0.3970184624195099, -0.4127197563648224]"
1584451157757645592,,1158234,,1584451157,757330163,'',"[shoulder_pan_joint, shoulder_lift_joint, elbow_joint, wrist_1_joint, wrist_2_joint,","[1.611053228378296, -1.1662734190570276, 2.4588470458984375, -2.8455031553851526, -1.568348232899801, 2.4416940212249756]","[0.0, 0.0, -1.2783173588104546e-05, -1.917476038215682e-05, 7.669904152862728e-05, -0.20229372382164001]","[-0.009155274368822575, -3.881836414337158, -1.5423656702041626, -0.6818848252296448, 0.3252411186695099, -0.3678589165210724]"
1584451157869730828,,1158248,,1584451157,869365716,'',"[shoulder_pan_joint, shoulder_lift_joint, elbow_joint, wrist_1_joint, wrist_2_joint,","[1.6110413074493408, -1.166333023701803, 2.4588589668273926, -2.8454554716693323, -1.5683839956866663, 2.419330358505249]","[0.0, 0.0, -1.2783173588104546e-05, 0.0, -0.0003067961661145091, -0.19914905726909637]","[-0.009155274368822575, -3.968811511993408, -1.5580583810806274, -0.6729126572608948, 0.2265472710132599, -0.5764618515968323]"
1584451157981774395,,1158262,,1584451157,981372014,'',"[shoulder_pan_joint, shoulder_lift_joint, elbow_joint, wrist_1_joint, wrist_2_joint,","[1.6110652685165405, -1.166333023701803, 2.4588589668273926, -2.8454907576190394, -1.5684321562396448, 2.3969311714172363]","[0.0, 0.0, -1.2783173588104546e-05, 0.0, -0.0007286408799700439, -0.2004912942647934]","[-0.0503540076315403, -3.945923328399658, -1.5333983898162842, -0.6751556992530823, 0.1457977443933487, -0.3701019585132599]"
1584451158093657334,,1158276,,1584451158,93373714,'',"[shoulder_pan_joint, shoulder_lift_joint, elbow_joint, wrist_1_joint, wrist_2_joint,","[1.6110292673110962, -1.1662734190570276, 2.4588589668273926, -2.8454554716693323, -1.5684321562396448, 2.3744959831237793]","[0.0, 0.0, -0.0, 0.0, -0.00023009712458588183, -0.19897648692131042]","[0.004577637184411287, -3.845215320587158, -1.5221893787384033, -0.6729126572608948, 0.1727142482995987, -0.4598236680030823]"
1584451158205654575,,1158290,,1584451158,205350447,'',"[shoulder_pan_joint, shoulder_lift_joint, elbow_joint, wrist_1_joint, wrist_2_joint,","[1.6110413074493408, -1.1662972609149378, 2.458894968032837, -2.8454673925982874, -1.5684197584735315, 2.3520731925964355]","[0.0, 0.0, -0.0, 0.0, -0.00013422331539914012, -0.20006944239139557]","[-0.0411987341940403, -4.005432605743408, -1.546849250793457, -0.6841278672218323, 0.1816864162683487, -0.3925323784351349]"
1584451158317682313,,1158304,,1584451158,317362506,'',"[shoulder_pan_joint, shoulder_lift_joint, elbow_joint, wrist_1_joint, wrist_2_joint,","[1.611053228378296, -1.166333023701803, 2.4588828086853027, -2.8454793135272425, -1.5684440771686, 2.3297696113586426]","[0.0, 0.0, -0.0, 0.0, -9.58738019107841e-05, -0.19857381284236908]","[-0.0457763709127903, -4.069519519805908, -1.5266729593276978, -0.6841278672218323, 0.1861725002527237, -0.4687958359718323]"
1584451158429692740,,1158318,,1584451158,429366711,'',"[shoulder_pan_joint, shoulder_lift_joint, elbow_joint, wrist_1_joint, wrist_2_joint,","[1.6110413074493408, -1.1662491003619593, 2.458894968032837, -2.8454793135272425, -1.568455998097555, 2.3072872161865234]","[0.0, 0.0, -0.0, 0.0, -5.752428114647046e-05, -0.2008172571659088]","[0.01373291201889515, -4.064941883087158, -1.5558165311813354, -0.6975861191749573, 0.1861725002527237, -0.4082336723804474]"
1584451158541640067,,1158332,,1584451158,541341369,'',"[shoulder_pan_joint, shoulder_lift_joint, elbow_joint, wrist_1_joint, wrist_2_joint,","[1.6110413074493408, -1.1662848631488245, 2.4588828086853027, -2.8454673925982874, -1.5684321562396448, 2.2848525047302246]","[0.0, 0.0, -0.0, 0.0, -5.752428114647046e-05, -0.1998009979724884]","[0.009155274368822575, -4.014587879180908, -1.551332950592041, -0.6975861191749573, 0.1884155422449112, -0.4216919243335724]"
1584451158653692993,,1158346,,1584451158,653372474,'',"[shoulder_pan_joint, shoulder_lift_joint, elbow_joint, wrist_1_joint, wrist_2_joint,","[1.6110413074493408, -1.1662848631488245, 2.4588708877563477, -2.8454435507403772, -1.56846791902651, 2.26254940032959]","[0.0, 0.0, -0.0, 0.0, -3.834952076431364e-05, -0.20100900530815125]","[-0.0274658240377903, -3.881836414337158, -1.5535746812820435, -0.7110443711280823, 0.1884155422449112, -0.5248718857765198]"
1584451158765654768,,1158360,,1584451158,765333168,'',"[shoulder_pan_joint, shoulder_lift_joint, elbow_joint, wrist_1_joint, wrist_2_joint,","[1.6110413074493408, -1.1662610212909144, 2.458930730819702, -2.8454673925982874, -1.5683959166156214, 2.2400314807891846]","[0.0, 0.0, -0.0, 0.0, -3.834952076431364e-05, -0.20146921277046204]","[-0.0457763709127903, -3.904724597930908, -1.5647838115692139, -0.7626343369483948, 0.1794433742761612, -0.3431854546070099]"
1584451158877666947,,1158374,,1584451158,877376635,'',"[shoulder_pan_joint, shoulder_lift_joint, elbow_joint, wrist_1_joint, wrist_2_joint,","[1.6110413074493408, -1.1663091818438929, 2.458918809890747, -2.845586601887838, -1.5684197584735315, 2.217705249786377]","[0.0, 0.0, -0.0, -0.002205097349360585, -1.917476038215682e-05, -0.1995709091424942]","[-0.02288818545639515, -4.064941883087158, -1.546849250793457, -0.7491760849952698, 0.1637420803308487, -0.5674896836280823]"
1584451158989740101,,1158388,,1584451158,989370330,'',"[shoulder_pan_joint, shoulder_lift_joint, elbow_joint, wrist_1_joint, wrist_2_joint,","[1.611053228378296, -1.1663091818438929, 2.458906888961792, -2.8455989996539515, -1.5684321562396448, 2.1953306198120117]","[0.0, 0.0, -0.0, -0.00026844663079828024, -1.917476038215682e-05, -0.20160342752933502]","[-0.004577637184411287, -3.964233875274658, -1.5603001117706299, -0.7626343369483948, 0.1794433742761612, -0.4059906303882599]"
1584451159101594355,,1158402,,1584451159,101270841,'',"[shoulder_pan_joint, shoulder_lift_joint, elbow_joint, wrist_1_joint, wrist_2_joint,","[1.611053228378296, -1.1662734190570276, 2.4589428901672363, -2.845586601887838, -1.5684321562396448, 2.1729202270507812]","[0.0, 0.0, -0.0, -0.00013422331539914012, -1.917476038215682e-05, -0.19884225726127625]","[-0.0320434607565403, -4.051208972930908, -1.5558165311813354, -0.7648773789405823, 0.1929016262292862, -0.4508515000343323]"
1584451159213575256,,1158416,,1584451159,213233397,'',"[shoulder_pan_joint, shoulder_lift_joint, elbow_joint, wrist_1_joint, wrist_2_joint,","[1.611053228378296, -1.1662734190570276, 2.4589667320251465, -2.845574680958883, -1.5684321562396448, 2.1504623889923096]","[0.0, 0.0, -0.0, -9.58738019107841e-05, -1.917476038215682e-05, -0.19782599806785583]","[-0.0274658240377903, -4.005432605743408, -1.5670255422592163, -0.7536621689796448, 0.1704712063074112, -0.4351502060890198]"
1584451159325658568,,1158430,,1584451159,325326498,'',"[shoulder_pan_joint, shoulder_lift_joint, elbow_joint, wrist_1_joint, wrist_2_joint,","[1.6110652685165405, -1.1662734190570276, 2.4589667320251465, -2.8456228415118616, -1.5684440771686, 2.128112316131592]","[0.0, 0.0, -0.0, -5.752428114647046e-05, -1.917476038215682e-05, -0.19976265728473663]","[0.0, -4.014587879180908, -1.5737509727478027, -0.7693634629249573, 0.1973877102136612, -0.4687958359718323]"
1584451159437578345,,1158444,,1584451159,437275780,'',"[shoulder_pan_joint, shoulder_lift_joint, elbow_joint, wrist_1_joint, wrist_2_joint,","[1.6110292673110962, -1.1662848631488245, 2.4589908123016357, -2.845586601887838, -1.5684321562396448, 2.105665922164917]","[0.0, 0.0, -0.0, -5.752428114647046e-05, -1.917476038215682e-05, -0.20089396834373474]","[0.009155274368822575, -4.055786609649658, -1.5311566591262817, -0.7648773789405823, 0.1727142482995987, -0.4037475883960724]"
1584451159549583842,,1158458,,1584451159,549267641,'',"[shoulder_pan_joint, shoulder_lift_joint, elbow_joint, wrist_1_joint, wrist_2_joint,","[1.611053228378296, -1.1662734190570276, 2.4589908123016357, -2.845550839100973, -1.5684440771686, 2.08331561088562]","[0.0, 0.0, -0.0, -3.834952076431364e-05, -1.917476038215682e-05, -0.20039542019367218]","[-0.0457763709127903, -4.046631336212158, -1.5849601030349731, -0.7559052109718323, 0.1749572902917862, -0.4486084580421448]"
1584451159661752904,,1158472,,1584451159,661340865,'',"[shoulder_pan_joint, shoulder_lift_joint, elbow_joint, wrist_1_joint, wrist_2_joint,","[1.6110771894454956, -1.1663091818438929, 2.4589908123016357, -2.845526997243063, -1.568455998097555, 2.0608575344085693]","[0.0, 0.0, -0.0, -3.834952076431364e-05, -1.917476038215682e-05, -0.19932162761688232]","[-0.0503540076315403, -3.955078601837158, -1.5759928226470947, -0.7671204209327698, 0.1839294582605362, -0.5473023056983948]"
1584451159773634349,,1158486,,1584451159,773284205,'',"[shoulder_pan_joint, shoulder_lift_joint, elbow_joint, wrist_1_joint, wrist_2_joint,","[1.6110652685165405, -1.1662848631488245, 2.4589908123016357, -2.845538918172018, -1.56846791902651, 2.0385308265686035]","[0.0, 0.0, 2.5566347176209092e-05, -3.834952076431364e-05, -1.917476038215682e-05, -0.20248547196388245]","[0.0320434607565403, -4.051208972930908, -1.6230708360671997, -0.7693634629249573, 0.1861725002527237, -0.3678589165210724]"
1584451159885825653,,1158500,,1584451159,885372607,'',"[shoulder_pan_joint, shoulder_lift_joint, elbow_joint, wrist_1_joint, wrist_2_joint,","[1.611053228378296, -1.1662972609149378, 2.45902681350708, -2.845562760029928, -1.5684321562396448, 2.0163002014160156]","[0.0, 0.0, 2.5566347176209092e-05, -1.917476038215682e-05, 0.0, -0.19993522763252258]","[-0.01373291201889515, -3.991699695587158, -1.690325140953064, -0.7559052109718323, 0.1839294582605362, -0.5787048935890198]"
1584451159997637719,,1158514,,1584451159,997271104,'',"[shoulder_pan_joint, shoulder_lift_joint, elbow_joint, wrist_1_joint, wrist_2_joint,","[1.611053228378296, -1.1662491003619593, 2.45902681350708, -2.845550839100973, -1.5685036818133753, 1.9937586784362793]","[0.0, 0.0, 2.5566347176209092e-05, -1.917476038215682e-05, 0.0, -0.20089396834373474]","[-0.004577637184411287, -3.977966785430908, -1.7956902980804443, -0.7581482529640198, 0.1772003322839737, -0.4396362900733948]"
1584451160109637495,,1158528,,1584451160,109255311,'',"[shoulder_pan_joint, shoulder_lift_joint, elbow_joint, wrist_1_joint, wrist_2_joint,","[1.6110292673110962, -1.1662491003619593, 2.459014654159546, -2.845526997243063, -1.5684798399554651, 1.9714196920394897]","[0.0, 0.0, 2.5566347176209092e-05, -1.917476038215682e-05, 0.0, -0.19713571667671204]","[-0.0411987341940403, -4.014587879180908, -1.9189897775650024, -0.7738495469093323, 0.1570129543542862, -0.4710388779640198]"
1584451160221636860,,1158542,,1584451160,221237945,'',"[shoulder_pan_joint, shoulder_lift_joint, elbow_joint, wrist_1_joint, wrist_2_joint,","[1.6110292673110962, -1.1662371794330042, 2.4590389728546143, -2.845526997243063, -1.56846791902651, 1.9490211009979248]","[0.0, 0.0, 2.5566347176209092e-05, -1.917476038215682e-05, 0.0, -0.2015267312526703]","[0.004577637184411287, -4.032898426055908, -2.082642078399658, -0.7693634629249573, 0.1816864162683487, -0.4620667099952698]"
1584451160333805172,,1158556,,1584451160,333359539,'',"[shoulder_pan_joint, shoulder_lift_joint, elbow_joint, wrist_1_joint, wrist_2_joint,","[1.6110652685165405, -1.1662610212909144, 2.459014654159546, -2.845526997243063, -1.568491284047262, 1.9265871047973633]","[0.0, 0.0, -1.2783173588104546e-05, -1.917476038215682e-05, 0.0, -0.19830536842346191]","[0.01373291201889515, -4.010010242462158, -2.2485358715057373, -0.7581482529640198, 0.1816864162683487, -0.5226288437843323]"
1584451160445614231,,1158570,,1584451160,445267884,'',"[shoulder_pan_joint, shoulder_lift_joint, elbow_joint, wrist_1_joint, wrist_2_joint,","[1.6110771894454956, -1.1662848631488245, 2.459002733230591, -2.8455150763141077, -1.5685036818133753, 1.90416419506073]","[0.0, 0.0, -1.2783173588104546e-05, -1.917476038215682e-05, 0.0, -0.1993599832057953]","[0.0503540076315403, -4.005432605743408, -2.4099464416503906, -0.7626343369483948, 0.1884155422449112, -0.4643097519874573]"
1584451160557627252,,1158584,,1584451160,557243546,'',"[shoulder_pan_joint, shoulder_lift_joint, elbow_joint, wrist_1_joint, wrist_2_joint,","[1.6110652685165405, -1.1662848631488245, 2.458894968032837, -2.8454673925982874, -1.5685394446002405, 1.8817896842956543]","[0.0, 0.0, -0.0005241101025603712, -1.917476038215682e-05, 0.0, -0.2015267312526703]","[-0.02288818545639515, -4.051208972930908, -2.369593858718872, -0.7716065049171448, 0.1861725002527237, -0.4418793320655823]"
1584451160669666452,,1158598,,1584451160,669280340,'',"[shoulder_pan_joint, shoulder_lift_joint, elbow_joint, wrist_1_joint, wrist_2_joint,","[1.6110292673110962, -1.1662610212909144, 2.4588828086853027, -2.845538918172018, -1.5685156027423304, 1.8594146966934204]","[0.0, 0.0, -0.0002812298189383, -1.917476038215682e-05, -7.669904152862728e-05, -0.2007022202014923]","[0.01831054873764515, -3.785706043243408, -2.3494174480438232, -0.7693634629249573, 0.1884155422449112, -0.5495453476905823]"
1584451160781611285,,1158612,,1584451160,781254289,'',"[shoulder_pan_joint, shoulder_lift_joint, elbow_joint, wrist_1_joint, wrist_2_joint,","[1.611053228378296, -1.1662491003619593, 2.4587745666503906, -2.845538918172018, -1.568455998097555, 1.8370153903961182]","[0.0, 0.0, -0.0007286408799700439, 0.0, -7.669904152862728e-05, -0.20089396834373474]","[0.01373291201889515, -4.106140613555908, -2.300097703933716, -0.7648773789405823, 0.1973877102136612, -0.4127197563648224]"
1584451160893648692,,1158626,,1584451160,893277599,'',"[shoulder_pan_joint, shoulder_lift_joint, elbow_joint, wrist_1_joint, wrist_2_joint,","[1.6110413074493408, -1.1662848631488245, 2.4587388038635254, -2.845538918172018, -1.5684321562396448, 1.8146045207977295]","[0.0, 0.0, -0.00026844663079828024, 0.0, 1.917476038215682e-05, -0.2001461535692215]","[-0.009155274368822575, -3.973389148712158, -2.1498963832855225, -0.7671204209327698, 0.1794433742761612, -0.5585175156593323]"
1584451161005562457,,1158640,,1584451161,5205000,'',"[shoulder_pan_joint, shoulder_lift_joint, elbow_joint, wrist_1_joint, wrist_2_joint,","[1.6110413074493408, -1.1662848631488245, 2.4587507247924805, -2.845562760029928, -1.5683839956866663, 1.7922172546386719]","[0.0, 0.0, -0.00014061490946915, 0.0, 1.917476038215682e-05, -0.20006944239139557]","[-0.0503540076315403, -3.950500965118408, -1.997453212738037, -0.7581482529640198, 0.1704712063074112, -0.4553375840187073]"
1584451161117707695,,1158654,,1584451161,117243779,'',"[shoulder_pan_joint, shoulder_lift_joint, elbow_joint, wrist_1_joint, wrist_2_joint,","[1.611053228378296, -1.1662972609149378, 2.4587388038635254, -2.845574680958883, -1.568348232899801, 1.7698299884796143]","[0.0, 0.0, -0.00010226538870483637, 0.0, 0.00013422331539914012, -0.19874638319015503]","[-0.0411987341940403, -3.918457508087158, -1.8136247396469116, -0.7626343369483948, 0.1637420803308487, -0.5495453476905823]"
1584451161229600812,,1158668,,1584451161,229191909,'',"[shoulder_pan_joint, shoulder_lift_joint, elbow_joint, wrist_1_joint, wrist_2_joint,","[1.6110771894454956, -1.1662610212909144, 2.4587626457214355, -2.8456109205829065, -1.5683358351336878, 1.7473820447921753]","[0.0, 0.0, -6.391586794052273e-05, -5.752428114647046e-05, 0.00013422331539914012, -0.20160342752933502]","[-0.0595092847943306, -4.023743152618408, -1.5603001117706299, -0.7603912949562073, 0.1076660305261612, -0.4732819199562073]"
1584451161341681609,,1158682,,1584451161,341260713,'',"[shoulder_pan_joint, shoulder_lift_joint, elbow_joint, wrist_1_joint, wrist_2_joint,","[1.6110771894454956, -1.1662610212909144, 2.4587745666503906, -2.845658604298727, -1.5683239142047327, 1.7249701023101807]","[0.0, 0.0, 0.00024288029817398638, -5.752428114647046e-05, 0.00013422331539914012, -0.19897648692131042]","[-0.01831054873764515, -3.977966785430908, -1.2823156118392944, -0.7536621689796448, 0.02018737979233265, -0.4732819199562073]"
1584451161453565439,,1158696,,1584451161,453158920,'',"[shoulder_pan_joint, shoulder_lift_joint, elbow_joint, wrist_1_joint, wrist_2_joint,","[1.6110413074493408, -1.1662972609149378, 2.4588589668273926, -2.8456109205829065, -1.5683119932757776, 1.702702283859253]","[0.0, 0.0, 0.00048576059634797275, -5.752428114647046e-05, -1.917476038215682e-05, -0.2007022202014923]","[-0.0411987341940403, -4.032898426055908, -1.40337336063385, -0.7222595810890198, -0.0785064771771431, -0.5114136338233948]"
1584451161565523698,,1158710,,1584451161,565140812,'',"[shoulder_pan_joint, shoulder_lift_joint, elbow_joint, wrist_1_joint, wrist_2_joint,","[1.611053228378296, -1.1662972609149378, 2.4588470458984375, -2.8456948439227503, -1.5683601538287562, 1.6801340579986572]","[0.0, 0.0, 0.0001917476038215682, -5.752428114647046e-05, -0.0008820389630272985, -0.20168012380599976]","[0.0, -4.032898426055908, -1.3652626276016235, -0.6504822373390198, -0.1749572902917862, -0.3925323784351349]"
1584451161677557538,,1158724,,1584451161,677164063,'',"[shoulder_pan_joint, shoulder_lift_joint, elbow_joint, wrist_1_joint, wrist_2_joint,","[1.6110892295837402, -1.166321102772848, 2.4588470458984375, -2.845670525227682, -1.5684321562396448, 1.6593141555786133]","[0.0, 0.0, 0.00011504856229294091, -5.752428114647046e-05, -0.0010929612908512354, -0.13301530480384827]","[-0.02288818545639515, -4.051208972930908, -1.3518117666244507, -0.5540314316749573, -0.1570129543542862, -0.5517883896827698]"
1584451161789549900,,1158738,,1584451161,789157547,'',"[shoulder_pan_joint, shoulder_lift_joint, elbow_joint, wrist_1_joint, wrist_2_joint,","[1.6110892295837402, -1.1662610212909144, 2.4588470458984375, -2.845646683369772, -1.5684321562396448, 1.6536991596221924]","[0.0, 0.0, 8.948221511673182e-05, -5.752428114647046e-05, -0.00023009712458588183, 0.004525243304669857]","[-0.0549316480755806, -3.794861316680908, -1.3316354751586914, -0.4530945420265198, -0.1682281643152237, -0.0605621412396431]"
1584451161901598968,,1158752,,1584451161,901168985,'',"[shoulder_pan_joint, shoulder_lift_joint, elbow_joint, wrist_1_joint, wrist_2_joint,","[1.6110771894454956, -1.1662734190570276, 2.45882248878479, -2.8456347624408167, -1.5684440771686, 1.6538668870925903]","[0.0, 0.0, 6.391586794052273e-05, 0.00017257283616345376, -0.00013422331539914012, 0.002550243167206645]","[0.0274658240377903, -4.023743152618408, -1.2442048788070679, -0.3364563286304474, -0.1704712063074112, 0.0336456336081028]"
1584451162013461127,,1158766,,1584451162,13086077,'',"[shoulder_pan_joint, shoulder_lift_joint, elbow_joint, wrist_1_joint, wrist_2_joint,","[1.6110652685165405, -1.1662734190570276, 2.4588589668273926, -2.8454793135272425, -1.5684440771686, 1.6539744138717651]","[0.0, 0.0, 5.1132694352418184e-05, 0.016451943665742874, -9.58738019107841e-05, 0.0006327670998871326]","[0.004577637184411287, -3.840637683868408, -1.1567742824554443, -0.4172058403491974, -0.1682281643152237, 0.0358886756002903]"
1584451162125549840,,1158780,,1584451162,125161304,'',"[shoulder_pan_joint, shoulder_lift_joint, elbow_joint, wrist_1_joint, wrist_2_joint,","[1.6110771894454956, -1.1662972609149378, 2.458906888961792, -2.8453953901873987, -1.5684197584735315, 1.6539627313613892]","[0.0, 0.0, -0.0, 0.0003067961661145091, -5.752428114647046e-05, 0.0002109223569277674]","[-0.01373291201889515, -3.936768054962158, -1.2083358764648438, -0.4037475883960724, -0.1794433742761612, 0.0358886756002903]"
1584451162237583088,,1158794,,1584451162,237183953,'',"[shoulder_pan_joint, shoulder_lift_joint, elbow_joint, wrist_1_joint, wrist_2_joint,","[1.6110892295837402, -1.1663091818438929, 2.458894968032837, -2.845431629811422, -1.568455998097555, 1.6539983749389648]","[0.0, 0.0, -0.0, 0.00011504856229294091, -5.752428114647046e-05, 0.00011504856229294091]","[-0.0320434607565403, -4.019165515899658, -1.1993685960769653, -0.4777680039405823, -0.1772003322839737, 0.0403747595846653]"
1584451162349583906,,1158808,,1584451162,349204999,'',"[shoulder_pan_joint, shoulder_lift_joint, elbow_joint, wrist_1_joint, wrist_2_joint,","[1.6110771894454956, -1.1662734190570276, 2.458906888961792, -2.8454554716693323, -1.568455998097555, 1.6538310050964355]","[0.0, 0.0, -0.0, 0.00011504856229294091, -3.834952076431364e-05, -0.01848446950316429]","[-0.01373291201889515, -3.913879871368408, -1.18367600440979, -0.5652466416358948, -0.1704712063074112, -0.2355194389820099]"
1584451162461595705,,1158822,,1584451162,461192281,'',"[shoulder_pan_joint, shoulder_lift_joint, elbow_joint, wrist_1_joint, wrist_2_joint,","[1.6110892295837402, -1.1662972609149378, 2.458930730819702, -2.845407311116354, -1.5684440771686, 1.6455693244934082]","[0.0, 0.0, -0.0, 0.00011504856229294091, -3.834952076431364e-05, -0.1547594964504242]","[0.004577637184411287, -3.854370594024658, -1.181434154510498, -0.6594544053077698, -0.1727142482995987, -0.4598236680030823]"
1584451162573534667,,1158836,,1584451162,573161450,'',"[shoulder_pan_joint, shoulder_lift_joint, elbow_joint, wrist_1_joint, wrist_2_joint,","[1.6110771894454956, -1.1662734190570276, 2.458918809890747, -2.845431629811422, -1.5684440771686, 1.6234441995620728]","[0.0, 0.0, -0.0, -0.00011504856229294091, -1.917476038215682e-05, -0.20271556079387665]","[0.004577637184411287, -4.051208972930908, -1.2060940265655518, -0.7716065049171448, -0.1749572902917862, -0.5001984238624573]"
1584451162685607891,,1158850,,1584451162,685226048,'',"[shoulder_pan_joint, shoulder_lift_joint, elbow_joint, wrist_1_joint, wrist_2_joint,","[1.6110771894454956, -1.1662734190570276, 2.458918809890747, -2.8457186857806605, -1.56846791902651, 1.6009116172790527]","[0.0, 0.0, -0.0, -0.0009779128013178706, -1.917476038215682e-05, -0.19997356832027435]","[-0.0366210974752903, -4.023743152618408, -1.2060940265655518, -0.6998291611671448, -0.1749572902917862, -0.4620667099952698]"
1584451162797516026,,1158864,,1584451162,797143169,'',"[shoulder_pan_joint, shoulder_lift_joint, elbow_joint, wrist_1_joint, wrist_2_joint,","[1.6110652685165405, -1.1662610212909144, 2.458918809890747, -2.8457186857806605, -1.5684440771686, 1.5785820484161377]","[0.0, 0.0, -0.0, -0.00023009712458588183, -1.917476038215682e-05, -0.19966678321361542]","[-0.0320434607565403, -3.854370594024658, -1.1904014348983765, -0.6347809433937073, -0.1794433742761612, -0.5966492295265198]"
1584451162909581174,,1158878,,1584451162,909199381,'',"[shoulder_pan_joint, shoulder_lift_joint, elbow_joint, wrist_1_joint, wrist_2_joint,","[1.6110892295837402, -1.1662610212909144, 2.458906888961792, -2.8457544485675257, -1.56846791902651, 1.556012749671936]","[0.0, 0.0, -0.0, -0.00013422331539914012, -1.917476038215682e-05, -0.2018526941537857]","[-0.0320434607565403, -4.106140613555908, -1.2173031568527222, -0.5517883896827698, -0.1816864162683487, -0.4015045464038849]"
1584451163021630723,,1158892,,1584451163,21150757,'',"[shoulder_pan_joint, shoulder_lift_joint, elbow_joint, wrist_1_joint, wrist_2_joint,","[1.6110892295837402, -1.166321102772848, 2.458918809890747, -2.845670525227682, -1.5684440771686, 1.533766269683838]","[0.0, 0.0, -0.0, -7.669904152862728e-05, -1.917476038215682e-05, -0.19721241295337677]","[-0.01831054873764515, -3.987122058868408, -1.1904014348983765, -0.4418793320655823, -0.1682281643152237, -0.5517883896827698]"
1584451163133492672,,1158906,,1584451163,133158528,'',"[shoulder_pan_joint, shoulder_lift_joint, elbow_joint, wrist_1_joint, wrist_2_joint,","[1.6110892295837402, -1.1662610212909144, 2.4589428901672363, -2.845646683369772, -1.5684197584735315, 1.5112684965133667]","[0.0, 0.0, -0.0, 0.0005560680292546749, -1.917476038215682e-05, -0.20237042009830475]","[-0.0366210974752903, -4.032898426055908, -1.2105777263641357, -0.3297272026538849, -0.1727142482995987, -0.4687958359718323]"
1584451163245575864,,1158920,,1584451163,245167151,'',"[shoulder_pan_joint, shoulder_lift_joint, elbow_joint, wrist_1_joint, wrist_2_joint,","[1.6110892295837402, -1.1662734190570276, 2.458918809890747, -2.8453953901873987, -1.568455998097555, 1.4888298511505127]","[0.0, 0.0, -0.0, 0.0011121360585093498, -1.917476038215682e-05, -0.19863134622573853]","[-0.0320434607565403, -3.982544422149658, -1.2150613069534302, -0.3745880424976349, -0.1659851223230362, -0.5293579697608948]"
1584451163357732373,,1158934,,1584451163,357220677,'',"[shoulder_pan_joint, shoulder_lift_joint, elbow_joint, wrist_1_joint, wrist_2_joint,","[1.6110771894454956, -1.1662610212909144, 2.4589428901672363, -2.8453834692584437, -1.5684078375445765, 1.4665946960449219]","[0.0, 0.0, -0.0, 0.00023009712458588183, -1.917476038215682e-05, -0.1995709091424942]","[-0.0366210974752903, -3.904724597930908, -1.1904014348983765, -0.4149627983570099, -0.1704712063074112, -0.5091705918312073]"
1584451163469492020,,1158948,,1584451163,469112281,'',"[shoulder_pan_joint, shoulder_lift_joint, elbow_joint, wrist_1_joint, wrist_2_joint,","[1.6110771894454956, -1.1662848631488245, 2.458930730819702, -2.8453953901873987, -1.5684321562396448, 1.4441677331924438]","[0.0, 0.0, -0.0, 0.00013422331539914012, -1.917476038215682e-05, -0.19985853135585785]","[-0.0274658240377903, -3.808594226837158, -1.181434154510498, -0.4777680039405823, -0.1772003322839737, -0.5271149277687073]"
1584451163581630486,,1158962,,1584451163,581173142,'',"[shoulder_pan_joint, shoulder_lift_joint, elbow_joint, wrist_1_joint, wrist_2_joint,","[1.6110771894454956, -1.1662734190570276, 2.458906888961792, -2.845431629811422, -1.5684440771686, 1.4218121767044067]","[0.0, 0.0, -0.0, 5.752428114647046e-05, 0.0, -0.1994558572769165]","[-0.0411987341940403, -3.987122058868408, -1.2105777263641357, -0.5540314316749573, -0.1772003322839737, -0.4934692978858948]"
1584451163693437081,,1158976,,1584451163,693105802,'',"[shoulder_pan_joint, shoulder_lift_joint, elbow_joint, wrist_1_joint, wrist_2_joint,","[1.6110771894454956, -1.1663091818438929, 2.458930730819702, -2.8454554716693323, -1.5684321562396448, 1.3994680643081665]","[0.0, 0.0, -0.0, 5.752428114647046e-05, 0.0, -0.20181435346603394]","[-0.0274658240377903, -3.977966785430908, -1.2038522958755493, -0.6437531113624573, -0.1839294582605362, -0.5136566758155823]"
1584451163805553465,,1158990,,1584451163,805248916,'',"[shoulder_pan_joint, shoulder_lift_joint, elbow_joint, wrist_1_joint, wrist_2_joint,","[1.6110652685165405, -1.1662848631488245, 2.458906888961792, -2.845419232045309, -1.5684321562396448, 1.3770283460617065]","[0.0, 0.0, -0.0, 5.752428114647046e-05, 0.0, -0.19976265728473663]","[-0.0411987341940403, -3.895569324493408, -1.1904014348983765, -0.7514191269874573, -0.1749572902917862, -0.6347809433937073]"
1584451163917411977,,1159004,,1584451163,917065931,'',"[shoulder_pan_joint, shoulder_lift_joint, elbow_joint, wrist_1_joint, wrist_2_joint,","[1.6111011505126953, -1.1662848631488245, 2.458930730819702, -2.845407311116354, -1.5684321562396448, 1.3545758724212646]","[0.0, 0.0, -0.0, -0.00011504856229294091, 0.0, -0.20258134603500366]","[-0.01831054873764515, -3.886414051055908, -1.1881595849990845, -0.863571286201477, -0.1884155422449112, -0.4059906303882599]"
1584451164029440898,,1159018,,1584451164,29048114,'',"[shoulder_pan_joint, shoulder_lift_joint, elbow_joint, wrist_1_joint, wrist_2_joint,","[1.6110771894454956, -1.1662972609149378, 2.458906888961792, -2.8457663694964808, -1.5684197584735315, 1.3322309255599976]","[0.0, 0.0, -0.0, -0.0005560680292546749, 0.0, -0.19905318319797516]","[-0.009155274368822575, -3.950500965118408, -1.1859177350997925, -0.6863709092140198, -0.1794433742761612, -0.6616974472999573]"
1584451164141565567,,1159032,,1584451164,141147637,'',"[shoulder_pan_joint, shoulder_lift_joint, elbow_joint, wrist_1_joint, wrist_2_joint,","[1.6110652685165405, -1.1662848631488245, 2.4589548110961914, -2.845778767262594, -1.5684078375445765, 1.3098132610321045]","[0.0, 0.0, -0.0, -0.00017257283616345376, 0.0, -0.20100900530815125]","[-0.0503540076315403, -3.941345691680908, -1.2016104459762573, -0.5540314316749573, -0.1794433742761612, -0.4665527939796448]"
1584451164253359940,,1159046,,1584451164,253037087,'',"[shoulder_pan_joint, shoulder_lift_joint, elbow_joint, wrist_1_joint, wrist_2_joint,","[1.611053228378296, -1.1662972609149378, 2.458930730819702, -2.8457186857806605, -1.5684197584735315, 1.287335753440857]","[0.0, 0.0, -0.0, 0.00036432043998502195, 0.0, -0.1975383758544922]","[-0.0457763709127903, -3.913879871368408, -1.2016104459762573, -0.3970184624195099, -0.1772003322839737, -0.5944061875343323]"
1584451164365597901,,1159060,,1584451164,365167046,'',"[shoulder_pan_joint, shoulder_lift_joint, elbow_joint, wrist_1_joint, wrist_2_joint,","[1.6110652685165405, -1.1662734190570276, 2.458906888961792, -2.8456109205829065, -1.5684321562396448, 1.2649537324905396]","[0.0, 0.0, -0.0, 0.0004985437844879925, 0.0, -0.20039542019367218]","[-0.0320434607565403, -3.909302234649658, -1.1881595849990845, -0.4329071640968323, -0.1906585842370987, -0.4934692978858948]"
1584451164477452977,,1159074,,1584451164,477051627,'',"[shoulder_pan_joint, shoulder_lift_joint, elbow_joint, wrist_1_joint, wrist_2_joint,","[1.6110892295837402, -1.1662848631488245, 2.4589428901672363, -2.845574680958883, -1.5684321562396448, 1.2424989938735962]","[0.0, 0.0, -0.0, 0.0001917476038215682, 0.0, -0.19918741285800934]","[-0.0274658240377903, -4.069519519805908, -1.226270318031311, -0.4284210503101349, -0.1951446682214737, -0.5540314316749573]"
1584451164589401647,,1159088,,1584451164,589072913,'',"[shoulder_pan_joint, shoulder_lift_joint, elbow_joint, wrist_1_joint, wrist_2_joint,","[1.6110892295837402, -1.1662972609149378, 2.4589428901672363, -2.845574680958883, -1.5684321562396448, 1.2202000617980957]","[0.0, 0.0, -0.0, 0.00011504856229294091, 0.0, -0.20121993124485016]","[0.0274658240377903, -4.010010242462158, -1.2060940265655518, -0.4127197563648224, -0.2355194389820099, -0.5136566758155823]"
1584451164701501520,,1159102,,1584451164,701088800,'',"[shoulder_pan_joint, shoulder_lift_joint, elbow_joint, wrist_1_joint, wrist_2_joint,","[1.6110892295837402, -1.1662972609149378, 2.4589428901672363, -2.845574680958883, -1.5684321562396448, 1.1978528499603271]","[0.0, 0.0, -0.0, 7.669904152862728e-05, 0.0, -0.18331070244312286]","[0.004577637184411287, -4.051208972930908, -1.197126865386963, -0.4261780083179474, -0.2444916069507599, -0.4575806260108948]"
1584451164813386292,,1159116,,1584451164,813055003,'',"[shoulder_pan_joint, shoulder_lift_joint, elbow_joint, wrist_1_joint, wrist_2_joint,","[1.611053228378296, -1.1662734190570276, 2.458930730819702, -2.8456109205829065, -1.568455998097555, 1.1871941089630127]","[0.0, 0.0, -0.0, 5.752428114647046e-05, 0.0, -0.007478156592696905]","[-0.0457763709127903, -3.968811511993408, -1.197126865386963, -0.4284210503101349, -0.2534637749195099, -0.3319702446460724]"
1584451164925373645,,1159130,,1584451164,925052084,'',"[shoulder_pan_joint, shoulder_lift_joint, elbow_joint, wrist_1_joint, wrist_2_joint,","[1.6110892295837402, -1.1662972609149378, 2.4589428901672363, -2.845562760029928, -1.568455998097555, 1.1873254776000977]","[0.0, 0.0, -0.0, 3.834952076431364e-05, 0.0, 0.0018791265320032835]","[0.009155274368822575, -3.909302234649658, -1.1993685960769653, -0.4306641221046448, -0.2444916069507599, 0.0]"
1584451165037341491,,1159144,,1584451165,37037183,'',"[shoulder_pan_joint, shoulder_lift_joint, elbow_joint, wrist_1_joint, wrist_2_joint,","[1.6110652685165405, -1.1662734190570276, 2.4588828086853027, -2.845586601887838, -1.5684078375445765, 1.18752920627594]","[0.0, 0.0, -0.0, 3.834952076431364e-05, 0.0, 0.0023584954906255007]","[0.009155274368822575, -4.055786609649658, -1.192643165588379, -0.4194488823413849, -0.2400055229663849, 0.02243042178452015]"
1584451165149467984,,1159158,,1584451165,149101179,'',"[shoulder_pan_joint, shoulder_lift_joint, elbow_joint, wrist_1_joint, wrist_2_joint,","[1.6110892295837402, -1.1662848631488245, 2.458930730819702, -2.845574680958883, -1.5684440771686, 1.1874933242797852]","[0.0, 0.0, -0.0, 3.834952076431364e-05, 0.0, 0.00026844663079828024]","[0.0, -4.019165515899658, -1.2128194570541382, -0.4284210503101349, -0.2444916069507599, 0.0269165076315403]"
1584451165261395535,,1159172,,1584451165,261019854,'',"[shoulder_pan_joint, shoulder_lift_joint, elbow_joint, wrist_1_joint, wrist_2_joint,","[1.6110771894454956, -1.1663091818438929, 2.458906888961792, -2.8456109205829065, -1.5684321562396448, 1.18752920627594]","[0.0, 0.0, -0.0, 1.917476038215682e-05, 0.0, 0.00013422331539914012]","[0.009155274368822575, -4.023743152618408, -1.1993685960769653, -0.4149627983570099, -0.2377624809741974, 0.0358886756002903]"
1584451165373470612,,1159186,,1584451165,373077448,'',"[shoulder_pan_joint, shoulder_lift_joint, elbow_joint, wrist_1_joint, wrist_2_joint,","[1.6110771894454956, -1.1663091818438929, 2.4589428901672363, -2.845562760029928, -1.5684078375445765, 1.1875412464141846]","[0.0, 0.0, -0.0, 1.917476038215682e-05, 0.0, 9.58738019107841e-05]","[-0.0686645582318306, -4.060364246368408, -1.2150613069534302, -0.4284210503101349, -0.2467346489429474, 0.01570129580795765]"
1584451165485516344,,1159200,,1584451165,485104044,'',"[shoulder_pan_joint, shoulder_lift_joint, elbow_joint, wrist_1_joint, wrist_2_joint,","[1.6111011505126953, -1.1662610212909144, 2.458918809890747, -2.8455989996539515, -1.5684440771686, 1.184295415878296]","[0.0, 0.0, -0.0, 1.917476038215682e-05, 0.0, -0.0889517143368721]","[-0.004577637184411287, -3.923035144805908, -1.2150613069534302, -0.4216919243335724, -0.2400055229663849, -0.3656158745288849]"
1584451165597440509,,1159214,,1584451165,597011097,'',"[shoulder_pan_joint, shoulder_lift_joint, elbow_joint, wrist_1_joint, wrist_2_joint,","[1.611053228378296, -1.1662734190570276, 2.458894968032837, -2.8455989996539515, -1.5684798399554651, 1.1651333570480347]","[0.0, 0.0, -0.0, 1.917476038215682e-05, 0.0, -0.20143085718154907]","[-0.004577637184411287, -4.028320789337158, -1.18367600440979, -0.4239349663257599, -0.2467346489429474, -0.5091705918312073]"
1584451165709416241,,1159228,,1584451165,709016023,'',"[shoulder_pan_joint, shoulder_lift_joint, elbow_joint, wrist_1_joint, wrist_2_joint,","[1.6110771894454956, -1.1662972609149378, 2.458918809890747, -2.8455989996539515, -1.5684440771686, 1.1426053047180176]","[0.0, 0.0, -0.0, 1.917476038215682e-05, 0.0, -0.20248547196388245]","[-0.0366210974752903, -3.826904773712158, -1.2173031568527222, -0.4194488823413849, -0.2579498589038849, -0.5203858017921448]"
1584451165821503199,,1159242,,1584451165,821081291,'',"[shoulder_pan_joint, shoulder_lift_joint, elbow_joint, wrist_1_joint, wrist_2_joint,","[1.6110892295837402, -1.1663091818438929, 2.458894968032837, -2.845586601887838, -1.5684321562396448, 1.1200764179229736]","[0.0, 0.0, -0.0, 1.917476038215682e-05, 0.0, -0.20206362009048462]","[-0.0366210974752903, -4.014587879180908, -1.2217867374420166, -0.4261780083179474, -0.2467346489429474, -0.4373932480812073]"
1584451165933237820,,1159256,,1584451165,932986661,'',"[shoulder_pan_joint, shoulder_lift_joint, elbow_joint, wrist_1_joint, wrist_2_joint,","[1.6110771894454956, -1.1662972609149378, 2.4589548110961914, -2.845550839100973, -1.5684197584735315, 1.0977153778076172]","[0.0, 0.0, -0.0, 1.917476038215682e-05, 0.0, -0.20089396834373474]","[0.009155274368822575, -4.083252429962158, -1.2083358764648438, -0.4239349663257599, -0.2534637749195099, -0.6347809433937073]"
1584451166045398878,,1159270,,1584451166,45002928,'',"[shoulder_pan_joint, shoulder_lift_joint, elbow_joint, wrist_1_joint, wrist_2_joint,","[1.61111319065094, -1.1663091818438929, 2.458918809890747, -2.845586601887838, -1.5684078375445765, 1.075317144393921]","[0.0, 0.0, -0.0, 1.917476038215682e-05, 0.0, -0.2017376571893692]","[-0.0411987341940403, -4.032898426055908, -1.1881595849990845, -0.4284210503101349, -0.2489776909351349, -0.4822540879249573]"
1584451166157494994,,1159284,,1584451166,157037609,'',"[shoulder_pan_joint, shoulder_lift_joint, elbow_joint, wrist_1_joint, wrist_2_joint,","[1.6110892295837402, -1.1663091818438929, 2.4589667320251465, -2.845586601887838, -1.5684197584735315, 1.0528591871261597]","[0.0, 0.0, -0.0, 0.0, 0.0, -0.19794104993343353]","[0.0, -3.785706043243408, -1.2060940265655518, -0.4306641221046448, -0.2534637749195099, -0.6213226914405823]"
1584451166269277554,,1159298,,1584451166,268946847,'',"[shoulder_pan_joint, shoulder_lift_joint, elbow_joint, wrist_1_joint, wrist_2_joint,","[1.6110652685165405, -1.1662848631488245, 2.4589548110961914, -2.8456228415118616, -1.5684440771686, 1.0304962396621704]","[0.0, 0.0, -0.0, 0.0, 0.0, -0.1985354721546173]","[-0.004577637184411287, -4.092407703399658, -1.2083358764648438, -0.4306641221046448, -0.2444916069507599, -0.4889832139015198]"
1584451166381333746,,1159312,,1584451166,380987479,'',"[shoulder_pan_joint, shoulder_lift_joint, elbow_joint, wrist_1_joint, wrist_2_joint,","[1.6110892295837402, -1.1662734190570276, 2.4589428901672363, -2.845550839100973, -1.5684197584735315, 1.008013367652893]","[0.0, 0.0, -0.0, 0.0, 0.0, -0.19884225726127625]","[-0.02288818545639515, -4.064941883087158, -1.2150613069534302, -0.4216919243335724, -0.2444916069507599, -0.5248718857765198]"
1584451166493250928,,1159326,,1584451166,492968380,'',"[shoulder_pan_joint, shoulder_lift_joint, elbow_joint, wrist_1_joint, wrist_2_joint,","[1.6110771894454956, -1.166321102772848, 2.458918809890747, -2.845538918172018, -1.5684321562396448, 0.9856377243995667]","[0.0, 0.0, -0.0, 0.0, 0.0, -0.19959008693695068]","[-0.02288818545639515, -4.096985340118408, -1.2150613069534302, -0.4194488823413849, -0.2489776909351349, -0.4777680039405823]"
1584451166605425240,,1159340,,1584451166,605055529,'',"[shoulder_pan_joint, shoulder_lift_joint, elbow_joint, wrist_1_joint, wrist_2_joint,","[1.6110892295837402, -1.1662734190570276, 2.458930730819702, -2.845574680958883, -1.5684197584735315, 0.9633572101593018]","[0.0, 0.0, -0.0, 0.0, 0.0, -0.20035706460475922]","[-0.0503540076315403, -3.854370594024658, -1.2240285873413086, -0.4329071640968323, -0.2444916069507599, -0.5203858017921448]"
1584451166717349224,,1159354,,1584451166,716994281,'',"[shoulder_pan_joint, shoulder_lift_joint, elbow_joint, wrist_1_joint, wrist_2_joint,","[1.61111319065094, -1.1662848631488245, 2.4589428901672363, -2.845562760029928, -1.5684197584735315, 0.9409208297729492]","[0.0, 0.0, -0.0, 0.0, 0.0, -0.20035706460475922]","[0.0, -3.950500965118408, -1.2016104459762573, -0.4306641221046448, -0.2377624809741974, -0.5585175156593323]"
1584451166829296232,,1159368,,1584451166,828950226,'',"[shoulder_pan_joint, shoulder_lift_joint, elbow_joint, wrist_1_joint, wrist_2_joint,","[1.6110892295837402, -1.1662734190570276, 2.4589428901672363, -2.845550839100973, -1.5684321562396448, 0.9184837341308594]","[0.0, 0.0, -0.0, 0.0, 0.0, -0.20194856822490692]","[-0.004577637184411287, -3.964233875274658, -1.2083358764648438, -0.4216919243335724, -0.2310333549976349, -0.4172058403491974]"
1584451166941375737,,1159382,,1584451166,941020624,'',"[shoulder_pan_joint, shoulder_lift_joint, elbow_joint, wrist_1_joint, wrist_2_joint,","[1.6110892295837402, -1.1662972609149378, 2.4589428901672363, -2.845562760029928, -1.5684197584735315, 0.8961297869682312]","[0.0, 0.0, -0.0, 0.0, 0.0, -0.19976265728473663]","[-0.0503540076315403, -4.046631336212158, -1.2217867374420166, -0.4284210503101349, -0.2489776909351349, -0.5944061875343323]"
1584451167053373389,,1159396,,1584451167,52964806,'',"[shoulder_pan_joint, shoulder_lift_joint, elbow_joint, wrist_1_joint, wrist_2_joint,","[1.6110771894454956, -1.1662734190570276, 2.458930730819702, -2.845586601887838, -1.5684078375445765, 0.8737638592720032]","[0.0, 0.0, -0.0, 0.0, 0.0, -0.20263886451721191]","[0.0, -4.014587879180908, -1.2016104459762573, -0.4261780083179474, -0.2489776909351349, -0.4710388779640198]"
1584451167165288387,,1159410,,1584451167,164957329,'',"[shoulder_pan_joint, shoulder_lift_joint, elbow_joint, wrist_1_joint, wrist_2_joint,","[1.6110771894454956, -1.1662734190570276, 2.458930730819702, -2.845586601887838, -1.568455998097555, 0.8514087796211243]","[0.0, 0.0, -0.0, 0.0, 0.0, -0.1975383758544922]","[-0.0320434607565403, -4.092407703399658, -1.2083358764648438, -0.4284210503101349, -0.2534637749195099, -0.5719757676124573]"
1584451167277318360,,1159424,,1584451167,276936647,'',"[shoulder_pan_joint, shoulder_lift_joint, elbow_joint, wrist_1_joint, wrist_2_joint,","[1.6110892295837402, -1.1662734190570276, 2.4589667320251465, -2.845562760029928, -1.5684440771686, 0.8289818167686462]","[0.0, 0.0, -0.0, 0.0, 0.0, -0.20075973868370056]","[-0.0411987341940403, -4.046631336212158, -1.2016104459762573, -0.4261780083179474, -0.2646789848804474, -0.5069275498390198]"
