PorkPy/robot-pulling-data/ztwist90/joint_states_throttle.csv
rosbagTimestamp,header,seq,stamp,secs,nsecs,frame_id,name,wrist_3_joint],position,velocity,effort
1584451880797862114,,1248618,,1584451880,797514695,'',"[shoulder_pan_joint, shoulder_lift_joint, elbow_joint, wrist_1_joint, wrist_2_joint,","[1.4047822952270508, -1.17180043855776, 2.483046531677246, -2.862899128590719, -1.5669100920306605, 2.7206108570098877]","[0.0, 0.0, -0.0, 0.0, 0.0, 0.0]","[-0.7598877549171448, -4.238892078399658, -0.8832733631134033, -0.6302948594093323, 0.0919647291302681, 0.1166381984949112]"
1584451880909936949,,1248632,,1584451880,909517706,'',"[shoulder_pan_joint, shoulder_lift_joint, elbow_joint, wrist_1_joint, wrist_2_joint,","[1.404758334159851, -1.171788517628805, 2.4830703735351562, -2.862875286732809, -1.5669220129596155, 2.7206344604492188]","[0.0, 0.0, -0.0, 0.0, 0.0, 0.0]","[-0.7827759385108948, -4.261780261993408, -0.894482433795929, -0.6235657334327698, 0.0852356031537056, 0.0919647291302681]"
1584451881021949870,,1248646,,1584451881,21539774,'',"[shoulder_pan_joint, shoulder_lift_joint, elbow_joint, wrist_1_joint, wrist_2_joint,","[1.4047822952270508, -1.171788517628805, 2.483046531677246, -2.862899128590719, -1.566885773335592, 2.7206108570098877]","[0.0, 0.0, -0.0, 0.0, 0.0, 0.0]","[-0.7919312119483948, -4.161072254180908, -0.8720642924308777, -0.6370239853858948, 0.0964508131146431, 0.0897216871380806]"
1584451881133825194,,1248660,,1584451881,133396624,'',"[shoulder_pan_joint, shoulder_lift_joint, elbow_joint, wrist_1_joint, wrist_2_joint,","[1.4047822952270508, -1.17180043855776, 2.483046531677246, -2.862887207661764, -1.5668981711017054, 2.7206108570098877]","[0.0, 0.0, -0.0, 0.0, 0.0, 0.0]","[-0.7507324814796448, -4.197693347930908, -0.8765479326248169, -0.6370239853858948, 0.0829925611615181, 0.0852356031537056]"
1584451881245773274,,1248674,,1584451881,245389847,'',"[shoulder_pan_joint, shoulder_lift_joint, elbow_joint, wrist_1_joint, wrist_2_joint,","[1.4047822952270508, -1.171788517628805, 2.4830703735351562, -2.862899128590719, -1.5669100920306605, 2.7205989360809326]","[0.0, 0.0, -0.0, 0.0, 0.0, 0.0]","[-0.7827759385108948, -4.225159168243408, -0.8899987936019897, -0.6280518174171448, 0.0897216871380806, 0.1009368970990181]"
1584451881357787156,,1248688,,1584451881,357397408,'',"[shoulder_pan_joint, shoulder_lift_joint, elbow_joint, wrist_1_joint, wrist_2_joint,","[1.404758334159851, -1.1717646757708948, 2.4830703735351562, -2.862911049519674, -1.5669100920306605, 2.7206225395202637]","[0.0, 0.0, -0.0, 0.0, 0.0, 0.0]","[-0.7690430283546448, -4.225159168243408, -0.910175085067749, -0.6325379014015198, 0.0740203931927681, 0.0942077711224556]"
1584451881469964745,,1248702,,1584451881,469474820,'',"[shoulder_pan_joint, shoulder_lift_joint, elbow_joint, wrist_1_joint, wrist_2_joint,","[1.4047462940216064, -1.171788517628805, 2.4830822944641113, -2.862887207661764, -1.566885773335592, 2.720658540725708]","[0.0, 0.0, -0.0, 0.0, 0.0, 0.0]","[-0.7690430283546448, -4.220581531524658, -0.8743061423301697, -0.6325379014015198, 0.0964508131146431, 0.0942077711224556]"
1584451881582025334,,1248716,,1584451881,581451623,'',"[shoulder_pan_joint, shoulder_lift_joint, elbow_joint, wrist_1_joint, wrist_2_joint,","[1.4047702550888062, -1.1717646757708948, 2.4830703735351562, -2.862887207661764, -1.5669100920306605, 2.7206344604492188]","[0.0, 0.0, -0.0, 0.0, 0.0, 0.0]","[-0.7873535752296448, -4.206848621368408, -0.910175085067749, -0.6392670273780823, 0.0605621412396431, 0.0919647291302681]"
1584451881693986839,,1248730,,1584451881,693498307,'',"[shoulder_pan_joint, shoulder_lift_joint, elbow_joint, wrist_1_joint, wrist_2_joint,","[1.4047942161560059, -1.17180043855776, 2.483058452606201, -2.862899128590719, -1.566885773335592, 2.720646381378174]","[0.0, 0.0, -0.0, 0.0, 0.0, 0.0]","[-0.7919312119483948, -4.206848621368408, -0.8743061423301697, -0.6258087754249573, 0.0807495191693306, 0.0942077711224556]"
1584451881805781983,,1248744,,1584451881,805420217,'',"[shoulder_pan_joint, shoulder_lift_joint, elbow_joint, wrist_1_joint, wrist_2_joint,","[1.4047702550888062, -1.171788517628805, 2.4830822944641113, -2.862887207661764, -1.566885773335592, 2.7206344604492188]","[0.0, 0.0, -0.0, 0.0, 0.0, 0.0]","[-0.7873535752296448, -4.266357898712158, -0.8967242240905762, -0.6302948594093323, 0.0740203931927681, 0.0964508131146431]"
1584451881917939814,,1248758,,1584451881,917455309,'',"[shoulder_pan_joint, shoulder_lift_joint, elbow_joint, wrist_1_joint, wrist_2_joint,","[1.4048062562942505, -1.17177659669985, 2.483058452606201, -2.862899128590719, -1.5669100920306605, 2.7206225395202637]","[0.0, 0.0, -0.0, 0.0, 0.0, 0.0]","[-0.7781983017921448, -4.248047351837158, -0.9056914448738098, -0.6347809433937073, 0.0785064771771431, 0.1031799390912056]"
1584451882029963696,,1248772,,1584451882,29452190,'',"[shoulder_pan_joint, shoulder_lift_joint, elbow_joint, wrist_1_joint, wrist_2_joint,","[1.4048062562942505, -1.1718123594867151, 2.483058452606201, -2.862922970448629, -1.5668981711017054, 2.7206344604492188]","[0.0, 0.0, -0.0, 0.0, 0.0, 0.0]","[-0.7827759385108948, -4.234314441680908, -0.8877570033073425, -0.6258087754249573, 0.0874786451458931, 0.0964508131146431]"
1584451882141869476,,1248786,,1584451882,141464700,'',"[shoulder_pan_joint, shoulder_lift_joint, elbow_joint, wrist_1_joint, wrist_2_joint,","[1.4047702550888062, -1.17177659669985, 2.483046531677246, -2.862875286732809, -1.5669220129596155, 2.7206225395202637]","[0.0, 0.0, -0.0, 0.0, 0.0, 0.0]","[-0.7690430283546448, -4.252624988555908, -0.8877570033073425, -0.6235657334327698, 0.0852356031537056, 0.1076660305261612]"
1584451882253806405,,1248800,,1584451882,253447114,'',"[shoulder_pan_joint, shoulder_lift_joint, elbow_joint, wrist_1_joint, wrist_2_joint,","[1.4047942161560059, -1.1718123594867151, 2.483046531677246, -2.862887207661764, -1.5669220129596155, 2.7206225395202637]","[0.0, 0.0, -0.0, 0.0, 0.0, 0.0]","[-0.7827759385108948, -4.193115711212158, -0.8877570033073425, -0.6280518174171448, 0.0672912672162056, 0.0874786451458931]"
1584451882365756759,,1248814,,1584451882,365414540,'',"[shoulder_pan_joint, shoulder_lift_joint, elbow_joint, wrist_1_joint, wrist_2_joint,","[1.4047822952270508, -1.171788517628805, 2.4830703735351562, -2.862887207661764, -1.5669100920306605, 2.7206344604492188]","[0.0, 0.0, -0.0, 0.0, 0.0, 0.0]","[-0.7553101181983948, -4.248047351837158, -0.892240583896637, -0.6258087754249573, 0.0785064771771431, 0.0919647291302681]"
1584451882477879995,,1248828,,1584451882,477448970,'',"[shoulder_pan_joint, shoulder_lift_joint, elbow_joint, wrist_1_joint, wrist_2_joint,","[1.4047462940216064, -1.1717522780047815, 2.483058452606201, -2.862887207661764, -1.5668981711017054, 2.7206225395202637]","[0.0, 0.0, -0.0, 0.0, 0.0, 0.0]","[-0.7553101181983948, -4.266357898712158, -0.8877570033073425, -0.6347809433937073, 0.0560760572552681, 0.0919647291302681]"
1584451882589948470,,1248842,,1584451882,589432767,'',"[shoulder_pan_joint, shoulder_lift_joint, elbow_joint, wrist_1_joint, wrist_2_joint,","[1.4047942161560059, -1.1717646757708948, 2.4830703735351562, -2.862899128590719, -1.5669100920306605, 2.720646381378174]","[0.0, 0.0, -0.0, 0.0, 0.0, 0.0]","[-0.7736206650733948, -4.261780261993408, -0.8832733631134033, -0.6325379014015198, 0.0740203931927681, 0.0986938551068306]"
1584451882701772788,,1248856,,1584451882,701427383,'',"[shoulder_pan_joint, shoulder_lift_joint, elbow_joint, wrist_1_joint, wrist_2_joint,","[1.4047702550888062, -1.171788517628805, 2.4830703735351562, -2.8629348913775843, -1.5669100920306605, 2.7206108570098877]","[0.0, 0.0, -0.0, 0.0, 0.0, 0.0]","[-0.7827759385108948, -4.266357898712158, -0.8989660143852234, -0.6415100693702698, 0.0650482252240181, 0.0807495191693306]"
1584451882813875126,,1248870,,1584451882,813508661,'',"[shoulder_pan_joint, shoulder_lift_joint, elbow_joint, wrist_1_joint, wrist_2_joint,","[1.4047822952270508, -1.1717646757708948, 2.4830822944641113, -2.862899128590719, -1.5669100920306605, 2.7205989360809326]","[0.0, 0.0, -0.0, 0.0, 0.0, 0.0]","[-0.8010864853858948, -4.234314441680908, -0.9079332947731018, -0.6347809433937073, 0.0358886756002903, 0.0986938551068306]"
1584451882925840538,,1248884,,1584451882,925410104,'',"[shoulder_pan_joint, shoulder_lift_joint, elbow_joint, wrist_1_joint, wrist_2_joint,","[1.4047822952270508, -1.1717408339129847, 2.4830822944641113, -2.862863365803854, -1.5669100920306605, 2.7206225395202637]","[0.0, 0.0, -0.0, 0.0, 0.0, 0.0]","[-0.7598877549171448, -4.257202625274658, -0.9012078642845154, -0.6347809433937073, 0.0919647291302681, 0.0986938551068306]"
1584451883037681137,,1248898,,1584451883,37357592,'',"[shoulder_pan_joint, shoulder_lift_joint, elbow_joint, wrist_1_joint, wrist_2_joint,","[1.4047702550888062, -1.17180043855776, 2.4830822944641113, -2.862899128590719, -1.5669458548175257, 2.7206108570098877]","[0.0, 0.0, -0.0, 0.0, 0.0, 0.0]","[-0.7781983017921448, -4.275513172149658, -0.9034496545791626, -0.6302948594093323, 0.1390686184167862, 0.1031799390912056]"
1584451883149653772,,1248912,,1584451883,149322744,'',"[shoulder_pan_joint, shoulder_lift_joint, elbow_joint, wrist_1_joint, wrist_2_joint,","[1.4047822952270508, -1.17177659669985, 2.4830822944641113, -2.862911049519674, -1.566885773335592, 2.7206225395202637]","[0.0, 0.0, -0.0, 0.0, 0.0, 0.0]","[-0.7644653916358948, -4.275513172149658, -0.894482433795929, -0.6302948594093323, 0.0605621412396431, 0.1054229810833931]"
1584451883261668356,,1248926,,1584451883,261327329,'',"[shoulder_pan_joint, shoulder_lift_joint, elbow_joint, wrist_1_joint, wrist_2_joint,","[1.4047942161560059, -1.1718123594867151, 2.483046531677246, -2.862875286732809, -1.5669339338885706, 2.7206225395202637]","[0.0, 0.0, -0.0, 0.0, 0.0, 0.0]","[-0.7690430283546448, -4.252624988555908, -0.892240583896637, -0.6280518174171448, 0.0807495191693306, 0.0919647291302681]"
1584451883373736239,,1248940,,1584451883,373364445,'',"[shoulder_pan_joint, shoulder_lift_joint, elbow_joint, wrist_1_joint, wrist_2_joint,","[1.4047942161560059, -1.171788517628805, 2.483046531677246, -2.862875286732809, -1.5669100920306605, 2.720646381378174]","[0.0, 0.0, -0.0, 0.0, 0.0, 0.0]","[-0.7598877549171448, -4.248047351837158, -0.894482433795929, -0.6190796494483948, 0.1121521145105362, 0.0986938551068306]"
1584451883485700740,,1248954,,1584451883,485358200,'',"[shoulder_pan_joint, shoulder_lift_joint, elbow_joint, wrist_1_joint, wrist_2_joint,","[1.4047822952270508, -1.17177659669985, 2.483058452606201, -2.862875286732809, -1.5669339338885706, 2.7206344604492188]","[0.0, 0.0, -0.0, 0.0, 0.0, 0.0]","[-0.7461548447608948, -4.225159168243408, -0.8877570033073425, -0.6370239853858948, 0.0717773512005806, 0.0942077711224556]"
1584451883597661593,,1248968,,1584451883,597326788,'',"[shoulder_pan_joint, shoulder_lift_joint, elbow_joint, wrist_1_joint, wrist_2_joint,","[1.4047702550888062, -1.17177659669985, 2.4830703735351562, -2.8628390471087855, -1.5669220129596155, 2.7206344604492188]","[0.0, 0.0, -0.0, 0.0, 0.0, 0.0]","[-0.8056641221046448, -4.216003894805908, -0.8899987936019897, -0.6235657334327698, 0.0762634351849556, 0.0874786451458931]"
1584451883709850182,,1248982,,1584451883,709384632,'',"[shoulder_pan_joint, shoulder_lift_joint, elbow_joint, wrist_1_joint, wrist_2_joint,","[1.4048062562942505, -1.1717522780047815, 2.4830703735351562, -2.862887207661764, -1.5669220129596155, 2.7206344604492188]","[0.0, 0.0, -0.0, 0.0, 0.0, 0.0]","[-0.7827759385108948, -4.216003894805908, -0.9056914448738098, -0.6325379014015198, 0.0650482252240181, 0.0964508131146431]"
1584451883821664402,,1248996,,1584451883,821312414,'',"[shoulder_pan_joint, shoulder_lift_joint, elbow_joint, wrist_1_joint, wrist_2_joint,","[1.4047942161560059, -1.1717646757708948, 2.4830944538116455, -2.862899128590719, -1.5668981711017054, 2.7206225395202637]","[0.0, 0.0, -0.0, 0.0, 0.0, 0.0]","[-0.7827759385108948, -4.234314441680908, -0.9236259460449219, -0.6347809433937073, 0.0897216871380806, 0.0919647291302681]"
1584451883933618632,,1249010,,1584451883,933247579,'',"[shoulder_pan_joint, shoulder_lift_joint, elbow_joint, wrist_1_joint, wrist_2_joint,","[1.4047702550888062, -1.1718123594867151, 2.483046531677246, -2.862887207661764, -1.5669100920306605, 2.7206225395202637]","[0.0, 0.0, -0.0, 0.0, 0.0, 0.0]","[-0.7644653916358948, -4.257202625274658, -0.9056914448738098, -0.6325379014015198, 0.0942077711224556, 0.0897216871380806]"
1584451884045614832,,1249024,,1584451884,45263266,'',"[shoulder_pan_joint, shoulder_lift_joint, elbow_joint, wrist_1_joint, wrist_2_joint,","[1.4047822952270508, -1.17180043855776, 2.483058452606201, -2.862911049519674, -1.5669100920306605, 2.720646381378174]","[0.0, 0.0, -0.0, 0.0, 0.0, 0.0]","[-0.7781983017921448, -4.238892078399658, -0.8989660143852234, -0.6302948594093323, 0.0897216871380806, 0.1009368970990181]"
1584451884157659302,,1249038,,1584451884,157255889,'',"[shoulder_pan_joint, shoulder_lift_joint, elbow_joint, wrist_1_joint, wrist_2_joint,","[1.4047942161560059, -1.17180043855776, 2.483058452606201, -2.862899128590719, -1.5669100920306605, 2.720646381378174]","[0.0, 0.0, -0.0, 0.0, 0.0, 0.0]","[-0.7919312119483948, -4.261780261993408, -0.9056914448738098, -0.6325379014015198, 0.1054229810833931, 0.0785064771771431]"
1584451884269599507,,1249052,,1584451884,269265192,'',"[shoulder_pan_joint, shoulder_lift_joint, elbow_joint, wrist_1_joint, wrist_2_joint,","[1.4047702550888062, -1.17177659669985, 2.4830703735351562, -2.862887207661764, -1.5669220129596155, 2.7206108570098877]","[0.0, 0.0, -0.0, 0.0, 0.0, 0.0]","[-0.7873535752296448, -4.257202625274658, -0.8877570033073425, -0.6280518174171448, 0.0740203931927681, 0.0807495191693306]"
1584451884381670726,,1249066,,1584451884,381278764,'',"[shoulder_pan_joint, shoulder_lift_joint, elbow_joint, wrist_1_joint, wrist_2_joint,","[1.4047822952270508, -1.1717522780047815, 2.483046531677246, -2.862899128590719, -1.5669339338885706, 2.7206225395202637]","[0.0, 0.0, -0.0, 0.0, 0.0, 0.0]","[-0.7965088486671448, -4.238892078399658, -0.8989660143852234, -0.6168366074562073, 0.1099090725183487, 0.0964508131146431]"
1584451884493699327,,1249080,,1584451884,493297366,'',"[shoulder_pan_joint, shoulder_lift_joint, elbow_joint, wrist_1_joint, wrist_2_joint,","[1.4047702550888062, -1.17180043855776, 2.4830944538116455, -2.862887207661764, -1.5669100920306605, 2.7206108570098877]","[0.0, 0.0, -0.0, 0.0, 0.0, 0.0]","[-0.7598877549171448, -4.211426258087158, -0.9079332947731018, -0.6235657334327698, 0.0762634351849556, 0.0942077711224556]"
1584451884605629803,,1249094,,1584451884,605243251,'',"[shoulder_pan_joint, shoulder_lift_joint, elbow_joint, wrist_1_joint, wrist_2_joint,","[1.4047702550888062, -1.17180043855776, 2.4830944538116455, -2.862922970448629, -1.5668981711017054, 2.7206344604492188]","[0.0, 0.0, -0.0, 0.0, 0.0, 0.0]","[-0.7873535752296448, -4.193115711212158, -0.9056914448738098, -0.6258087754249573, 0.0740203931927681, 0.0919647291302681]"
1584451884717644036,,1249108,,1584451884,717237367,'',"[shoulder_pan_joint, shoulder_lift_joint, elbow_joint, wrist_1_joint, wrist_2_joint,","[1.4047822952270508, -1.1717646757708948, 2.483058452606201, -2.8629472891436976, -1.5669339338885706, 2.7206225395202637]","[0.0, 0.0, -0.0, 0.0, 0.0, 0.0]","[-0.7690430283546448, -4.216003894805908, -0.9056914448738098, -0.6280518174171448, 0.0852356031537056, 0.0986938551068306]"
1584451884829879552,,1249122,,1584451884,829323023,'',"[shoulder_pan_joint, shoulder_lift_joint, elbow_joint, wrist_1_joint, wrist_2_joint,","[1.4047702550888062, -1.17177659669985, 2.4830703735351562, -2.862899128590719, -1.5669100920306605, 2.7206344604492188]","[0.0, 0.0, -0.0, 0.0, 0.0, 0.0]","[-0.8102417588233948, -4.266357898712158, -0.9079332947731018, -0.6415100693702698, 0.0852356031537056, 0.1009368970990181]"
1584451884941863810,,1249136,,1584451884,941322338,'',"[shoulder_pan_joint, shoulder_lift_joint, elbow_joint, wrist_1_joint, wrist_2_joint,","[1.4047702550888062, -1.1717646757708948, 2.4830703735351562, -2.862899128590719, -1.5669100920306605, 2.7206225395202637]","[0.0, 0.0, -0.0, 0.0, 0.0, 0.0]","[-0.7690430283546448, -4.266357898712158, -0.9056914448738098, -0.6280518174171448, 0.0919647291302681, 0.0964508131146431]"
1584451885053829262,,1249150,,1584451885,53295485,'',"[shoulder_pan_joint, shoulder_lift_joint, elbow_joint, wrist_1_joint, wrist_2_joint,","[1.4047702550888062, -1.1717522780047815, 2.4831063747406006, -2.862887207661764, -1.5669100920306605, 2.720658540725708]","[0.0, 0.0, -0.0, 0.0, 0.0, 0.0]","[-0.7690430283546448, -4.238892078399658, -0.9034496545791626, -0.6280518174171448, 0.0874786451458931, 0.0919647291302681]"
1584451885165834338,,1249164,,1584451885,165425895,'',"[shoulder_pan_joint, shoulder_lift_joint, elbow_joint, wrist_1_joint, wrist_2_joint,","[1.4047942161560059, -1.1718123594867151, 2.483058452606201, -2.862911049519674, -1.5668981711017054, 2.720658540725708]","[0.0, 0.0, -0.0, 0.0, 0.0, 0.0]","[-0.7781983017921448, -4.248047351837158, -0.8989660143852234, -0.6302948594093323, 0.0829925611615181, 0.0964508131146431]"
1584451885277793799,,1249178,,1584451885,277297191,'',"[shoulder_pan_joint, shoulder_lift_joint, elbow_joint, wrist_1_joint, wrist_2_joint,","[1.4047822952270508, -1.1717646757708948, 2.4830822944641113, -2.862887207661764, -1.5668981711017054, 2.7206344604492188]","[0.0, 0.0, -0.0, 0.0, 0.0, 0.0]","[-0.7919312119483948, -4.261780261993408, -0.9393185973167419, -0.6258087754249573, 0.0897216871380806, 0.0942077711224556]"
1584451885389644667,,1249192,,1584451885,389254959,'',"[shoulder_pan_joint, shoulder_lift_joint, elbow_joint, wrist_1_joint, wrist_2_joint,","[1.404758334159851, -1.171788517628805, 2.483046531677246, -2.862875286732809, -1.5668981711017054, 2.7206225395202637]","[0.0, 0.0, -0.0, 0.0, 0.0, 0.0]","[-0.7873535752296448, -4.252624988555908, -0.9303513765335083, -0.6280518174171448, 0.0852356031537056, 0.0942077711224556]"
1584451885501645144,,1249206,,1584451885,501262560,'',"[shoulder_pan_joint, shoulder_lift_joint, elbow_joint, wrist_1_joint, wrist_2_joint,","[1.4047822952270508, -1.17180043855776, 2.483034372329712, -2.862887207661764, -1.5669220129596155, 2.7206225395202637]","[0.0, 0.0, -0.0, 0.0, 0.0, 0.0]","[-0.7873535752296448, -4.225159168243408, -0.9079332947731018, -0.6258087754249573, 0.0986938551068306, 0.0986938551068306]"
1584451885613863348,,1249220,,1584451885,613298954,'',"[shoulder_pan_joint, shoulder_lift_joint, elbow_joint, wrist_1_joint, wrist_2_joint,","[1.4047702550888062, -1.17177659669985, 2.4830822944641113, -2.862899128590719, -1.5669339338885706, 2.720646381378174]","[0.0, 0.0, -0.0, 0.0, 0.0, 0.0]","[-0.7873535752296448, -4.193115711212158, -0.9034496545791626, -0.6302948594093323, 0.0807495191693306, 0.0897216871380806]"
1584451885725614410,,1249234,,1584451885,725209012,'',"[shoulder_pan_joint, shoulder_lift_joint, elbow_joint, wrist_1_joint, wrist_2_joint,","[1.4047822952270508, -1.17180043855776, 2.483058452606201, -2.862911049519674, -1.5669458548175257, 2.7206108570098877]","[0.0, 0.0, -0.0, 0.0, 0.0, 0.0]","[-0.7919312119483948, -4.216003894805908, -0.9191423058509827, -0.6213226914405823, 0.0717773512005806, 0.0942077711224556]"
1584451885837818878,,1249248,,1584451885,837260435,'',"[shoulder_pan_joint, shoulder_lift_joint, elbow_joint, wrist_1_joint, wrist_2_joint,","[1.4047822952270508, -1.1717646757708948, 2.4830822944641113, -2.862887207661764, -1.5669339338885706, 2.7205989360809326]","[0.0, 0.0, -0.0, 0.0, 0.0, 0.0]","[-0.7781983017921448, -4.234314441680908, -0.910175085067749, -0.6325379014015198, 0.0583190992474556, 0.0964508131146431]"
1584451885949688351,,1249262,,1584451885,949203526,'',"[shoulder_pan_joint, shoulder_lift_joint, elbow_joint, wrist_1_joint, wrist_2_joint,","[1.4047702550888062, -1.1717646757708948, 2.483034372329712, -2.862875286732809, -1.566885773335592, 2.7206108570098877]","[0.0, 0.0, -0.0, 0.0, 0.0, 0.0]","[-0.7781983017921448, -4.275513172149658, -0.910175085067749, -0.6325379014015198, 0.0874786451458931, 0.0986938551068306]"
1584451886061786110,,1249276,,1584451886,61277721,'',"[shoulder_pan_joint, shoulder_lift_joint, elbow_joint, wrist_1_joint, wrist_2_joint,","[1.4047462940216064, -1.1717646757708948, 2.483058452606201, -2.862899128590719, -1.5669220129596155, 2.720646381378174]","[0.0, 0.0, -0.0, 0.0, 0.0, 0.0]","[-0.7827759385108948, -4.243469715118408, -0.9146587252616882, -0.6370239853858948, 0.0650482252240181, 0.1188812404870987]"
1584451886173651626,,1249290,,1584451886,173220611,'',"[shoulder_pan_joint, shoulder_lift_joint, elbow_joint, wrist_1_joint, wrist_2_joint,","[1.4047702550888062, -1.171788517628805, 2.483058452606201, -2.862899128590719, -1.5668981711017054, 2.7206344604492188]","[0.0, 0.0, -0.0, 0.0, 0.0, 0.0]","[-0.8010864853858948, -4.197693347930908, -0.9348350167274475, -0.6370239853858948, 0.0740203931927681, 0.0986938551068306]"
1584451886285542198,,1249304,,1584451886,285209056,'',"[shoulder_pan_joint, shoulder_lift_joint, elbow_joint, wrist_1_joint, wrist_2_joint,","[1.4047822952270508, -1.171788517628805, 2.4830703735351562, -2.862887207661764, -1.5669220129596155, 2.720646381378174]","[0.0, 0.0, -0.0, 0.0, 0.0, 0.0]","[-0.7644653916358948, -4.193115711212158, -0.9124168753623962, -0.6258087754249573, 0.0829925611615181, 0.0874786451458931]"
1584451886397706642,,1249318,,1584451886,397271158,'',"[shoulder_pan_joint, shoulder_lift_joint, elbow_joint, wrist_1_joint, wrist_2_joint,","[1.4047702550888062, -1.1718123594867151, 2.4830703735351562, -2.862887207661764, -1.5669339338885706, 2.7206344604492188]","[0.0, 0.0, -0.0, 0.0, 0.0, 0.0]","[-0.7690430283546448, -4.248047351837158, -0.9146587252616882, -0.6392670273780823, 0.0695343092083931, 0.0986938551068306]"
1584451886509797969,,1249332,,1584451886,509282326,'',"[shoulder_pan_joint, shoulder_lift_joint, elbow_joint, wrist_1_joint, wrist_2_joint,","[1.4057058095932007, -1.1714285055743616, 2.481966495513916, -2.8617737928973597, -1.566885773335592, 2.721269369125366]","[0.02202540822327137, 0.008142881095409393, -0.023022495210170746, 0.021015537902712822, 0.0, 0.00926140882074833]","[0.7919312119483948, -2.815246820449829, -1.9234734773635864, -0.1816864162683487, 0.0672912672162056, 0.3431854546070099]"
1584451886621624582,,1249346,,1584451886,621193507,'',"[shoulder_pan_joint, shoulder_lift_joint, elbow_joint, wrist_1_joint, wrist_2_joint,","[1.40692937374115, -1.171236817036764, 2.4815824031829834, -2.8612354437457483, -1.5669458548175257, 2.718635320663452]","[-0.0025310683995485306, -0.0024032366927713156, 0.01564660482108593, -0.018254371359944344, 0.0, -0.045348308980464935]","[-0.0732421949505806, -4.193115711212158, -1.0962454080581665, -0.5203858017921448, 0.0448608435690403, -0.3566437065601349]"
1584451886733618306,,1249360,,1584451886,733181981,'',"[shoulder_pan_joint, shoulder_lift_joint, elbow_joint, wrist_1_joint, wrist_2_joint,","[1.4050099849700928, -1.1716087500201624, 2.482278823852539, -2.862276856099264, -1.566885773335592, 2.715533971786499]","[-0.016630908474326134, 0.0001917476038215682, -0.005241101142019033, 0.0029529130551964045, 0.0, -0.006442719604820013]","[-0.9704591035842896, -3.414917230606079, -1.4908039569854736, -0.4059906303882599, 0.0358886756002903, -0.2086029201745987]"
1584451886845736444,,1249374,,1584451886,845215531,'',"[shoulder_pan_joint, shoulder_lift_joint, elbow_joint, wrist_1_joint, wrist_2_joint,","[1.4043264389038086, -1.1715129057513636, 2.481642723083496, -2.861713711415426, -1.5669220129596155, 2.720431089401245]","[0.002147573046386242, 0.0003323625132907182, -0.0013933659065514803, 0.0010929612908512354, 0.0, 0.05305656045675278]","[0.0411987341940403, -3.524780750274658, -1.5087385177612305, -0.3678589165210724, 0.0358886756002903, 0.3656158745288849]"
1584451886957616316,,1249388,,1584451886,957163340,'',"[shoulder_pan_joint, shoulder_lift_joint, elbow_joint, wrist_1_joint, wrist_2_joint,","[1.404362440109253, -1.171549145375387, 2.481966495513916, -2.861976925526754, -1.5669339338885706, 2.7245500087738037]","[0.0003067961661145091, 0.00020453077740967274, 0.0008692558039911091, -0.0011888351291418076, 0.0, 0.027343207970261574]","[0.02288818545639515, -3.593445301055908, -1.3944061994552612, -0.4329071640968323, 0.0426178015768528, 0.3319702446460724]"
1584451887069748069,,1249402,,1584451887,69214151,'',"[shoulder_pan_joint, shoulder_lift_joint, elbow_joint, wrist_1_joint, wrist_2_joint,","[1.404362440109253, -1.171549145375387, 2.4819183349609375, -2.861917797719137, -1.5669339338885706, 2.727064847946167]","[0.0, 0.00011504856229294091, 0.00029401297797448933, -0.00024927189224399626, 0.0, 0.019002187997102737]","[0.2563476860523224, -3.602600574493408, -1.3809553384780884, -0.4463654160499573, 0.0426178015768528, 0.3229980766773224]"
1584451887181586373,,1249416,,1584451887,181154897,'',"[shoulder_pan_joint, shoulder_lift_joint, elbow_joint, wrist_1_joint, wrist_2_joint,","[1.404422402381897, -1.1715605894671839, 2.4819424152374268, -2.861965004597799, -1.5669220129596155, 2.7287890911102295]","[0.0008692558039911091, -6.391586794052273e-05, -0.0008564726449549198, 0.00015339808305725455, 0.0, 0.01125558465719223]","[-0.4806519150733948, -3.717041492462158, -1.2666230201721191, -0.4867401719093323, 0.0471038855612278, 0.2624359428882599]"
1584451887293581651,,1249430,,1584451887,293133774,'',"[shoulder_pan_joint, shoulder_lift_joint, elbow_joint, wrist_1_joint, wrist_2_joint,","[1.4051780700683594, -1.171549145375387, 2.4818105697631836, -2.86182147661318, -1.5669577757464808, 2.731363296508789]","[0.019468773156404495, 0.0, -0.000472977408207953, 0.0004410194815136492, 0.0, 0.03447622060775757]","[0.6454468369483948, -3.533936023712158, -1.4728695154190063, -0.3835602104663849, 0.0560760572552681, 0.2758941948413849]"
1584451887405577239,,1249444,,1584451887,405136706,'',"[shoulder_pan_joint, shoulder_lift_joint, elbow_joint, wrist_1_joint, wrist_2_joint,","[1.4083925485610962, -1.1715849081622522, 2.4818105697631836, -2.8618457953082483, -1.5669696966754358, 2.735865354537964]","[0.032162465155124664, 0.0, -0.0001917476038215682, 0.00017257283616345376, 0.0, 0.03696893900632858]","[0.8285523056983948, -3.616333484649658, -1.374229907989502, -0.4329071640968323, 0.0628051832318306, 0.3431854546070099]"
1584451887517609326,,1249458,,1584451887,517157061,'',"[shoulder_pan_joint, shoulder_lift_joint, elbow_joint, wrist_1_joint, wrist_2_joint,","[1.413010597229004, -1.1715248266803187, 2.4818105697631836, -2.8618577162372034, -1.5669940153705042, 2.739720582962036]","[0.05168237164616585, 0.0, -0.00015339808305725455, 0.00011504856229294091, 0.0, 0.032405346632003784]","[1.1123658418655396, -3.694153308868408, -1.4414842128753662, -0.3925323784351349, 0.0762634351849556, 0.3297272026538849]"
1584451887629648195,,1249472,,1584451887,629191642,'',"[shoulder_pan_joint, shoulder_lift_joint, elbow_joint, wrist_1_joint, wrist_2_joint,","[1.4189239740371704, -1.1715367476092737, 2.48172664642334, -2.8618577162372034, -1.5670059362994593, 2.742558479309082]","[0.05294790491461754, 0.0, -0.0010482202051207423, 7.669904152862728e-05, 0.0, 0.022664567455649376]","[0.7827759385108948, -3.634644031524658, -1.4952876567840576, -0.3544006645679474, 0.1031799390912056, 0.3409424126148224]"
1584451887741616873,,1249486,,1584451887,741142247,'',"[shoulder_pan_joint, shoulder_lift_joint, elbow_joint, wrist_1_joint, wrist_2_joint,","[1.4249093532562256, -1.1715968290912073, 2.481618881225586, -2.8618457953082483, -1.5670416990863245, 2.7447500228881836]","[0.05799725651741028, 0.0, -0.0008820389630272985, 7.669904152862728e-05, -0.00015339808305725455, 0.018580343574285507]","[0.9384156465530396, -3.726196765899658, -1.4392423629760742, -0.3678589165210724, 0.1009368970990181, 0.2826233208179474]"
1584451887853598305,,1249500,,1584451887,853148635,'',"[shoulder_pan_joint, shoulder_lift_joint, elbow_joint, wrist_1_joint, wrist_2_joint,","[1.4320343732833862, -1.1715729872332972, 2.4815948009490967, -2.86182147661318, -1.5670536200152796, 2.747300148010254]","[0.06888852268457413, 0.0, -0.0002556634717620909, 7.669904152862728e-05, -0.0003067961661145091, 0.03002767451107502]","[0.9429932832717896, -3.694153308868408, -1.5647838115692139, -0.3229980766773224, 0.1547699123620987, 0.2983246147632599]"
1584451887965590817,,1249514,,1584451887,965109619,'',"[shoulder_pan_joint, shoulder_lift_joint, elbow_joint, wrist_1_joint, wrist_2_joint,","[1.4405267238616943, -1.1715367476092737, 2.481522560119629, -2.86182147661318, -1.5671375433551233, 2.75053334236145]","[0.07862929999828339, 0.0, -0.0009843043517321348, 7.669904152862728e-05, -0.0009587380336597562, 0.02327815815806389]","[0.7553101181983948, -3.826904773712158, -1.4123406410217285, -0.3611297905445099, 0.1682281643152237, 0.3095398247241974]"
1584451888077523789,,1249528,,1584451888,77096140,'',"[shoulder_pan_joint, shoulder_lift_joint, elbow_joint, wrist_1_joint, wrist_2_joint,","[1.4493426084518433, -1.1715729872332972, 2.4813907146453857, -2.8618577162372034, -1.5671613852130335, 2.7531676292419434]","[0.07745324820280075, 0.0, -0.000945954816415906, 7.669904152862728e-05, 0.00023009712458588183, 0.01835024543106556]","[0.9521485567092896, -3.771973133087158, -1.5580583810806274, -0.3095398247241974, 0.1704712063074112, 0.3745880424976349]"
1584451888189564271,,1249542,,1584451888,189125672,'',"[shoulder_pan_joint, shoulder_lift_joint, elbow_joint, wrist_1_joint, wrist_2_joint,","[1.4571750164031982, -1.1715729872332972, 2.481414794921875, -2.8617857138263147, -1.5671613852130335, 2.751107692718506]","[0.06343010812997818, 0.0, -0.0003067961661145091, 5.752428114647046e-05, 0.00023009712458588183, -0.05361263081431389]","[1.0116578340530396, -3.785706043243408, -1.5423656702041626, -0.3342132866382599, 0.1794433742761612, -0.3072967827320099]"
1584451888301787394,,1249556,,1584451888,301188476,'',"[shoulder_pan_joint, shoulder_lift_joint, elbow_joint, wrist_1_joint, wrist_2_joint,","[1.4639641046524048, -1.1715367476092737, 2.48142671585083, -2.86179763475527, -1.5671737829791468, 2.745887517929077]","[0.06221570447087288, 0.0, 3.834952076431364e-05, 3.834952076431364e-05, 0.00013422331539914012, -0.041743453592061996]","[1.2084962129592896, -3.945923328399658, -1.4706276655197144, -0.3454284965991974, 0.2018737941980362, -0.3521576225757599]"
1584451888413673018,,1249570,,1584451888,413081423,'',"[shoulder_pan_joint, shoulder_lift_joint, elbow_joint, wrist_1_joint, wrist_2_joint,","[1.470489501953125, -1.1715367476092737, 2.4814865589141846, -2.8617857138263147, -1.567197624837057, 2.7414331436157227]","[0.05131165683269501, 0.0, 3.834952076431364e-05, 3.834952076431364e-05, 7.669904152862728e-05, -0.04114903509616852]","[0.9613038301467896, -3.881836414337158, -1.4437259435653687, -0.3588867485523224, 0.1704712063074112, -0.2646789848804474]"
1584451888525707218,,1249584,,1584451888,525211211,'',"[shoulder_pan_joint, shoulder_lift_joint, elbow_joint, wrist_1_joint, wrist_2_joint,","[1.475911259651184, -1.171549145375387, 2.4815948009490967, -2.8617618719684046, -1.5672333876239222, 2.7360570430755615]","[0.045162953436374664, 0.0, 0.002684466540813446, 3.834952076431364e-05, -7.669904152862728e-05, -0.058463845402002335]","[1.3458253145217896, -3.977966785430908, -1.450451374053955, -0.3544006645679474, 0.2086029201745987, -0.3072967827320099]"
1584451888637587310,,1249598,,1584451888,637130938,'',"[shoulder_pan_joint, shoulder_lift_joint, elbow_joint, wrist_1_joint, wrist_2_joint,","[1.4799772500991821, -1.1715849081622522, 2.482074499130249, -2.8617499510394495, -1.5673888365374964, 2.729435443878174]","[0.03014272265136242, -0.0005496764788404107, 0.0017129452899098396, 0.0, -0.0006519418675452471, -0.053286660462617874]","[0.9017945528030396, -3.977966785430908, -1.4414842128753662, -0.3678589165210724, 0.1727142482995987, -0.3229980766773224]"
1584451888749474826,,1249612,,1584451888,749119934,'',"[shoulder_pan_joint, shoulder_lift_joint, elbow_joint, wrist_1_joint, wrist_2_joint,","[1.4825202226638794, -1.1715729872332972, 2.482062339782715, -2.8614147345172327, -1.5674126783954065, 2.7230653762817383]","[0.015186410397291183, -0.00015339808305725455, -0.0005752427969127893, 0.0016106799012050033, -0.0004410194815136492, -0.06805122643709183]","[0.9933472871780396, -3.858948230743408, -1.4594186544418335, -0.3499145805835724, 0.1884155422449112, -0.2534637749195099]"
1584451888861527141,,1249626,,1584451888,861119850,'',"[shoulder_pan_joint, shoulder_lift_joint, elbow_joint, wrist_1_joint, wrist_2_joint,","[1.483803629875183, -1.171549145375387, 2.4820263385772705, -2.861354653035299, -1.5673888365374964, 2.7150070667266846]","[0.012655341997742653, -8.948221511673182e-05, -0.00020453077740967274, 0.0010929612908512354, -0.00024927189224399626, -0.06126336008310318]","[0.7598877549171448, -3.758240222930908, -1.5289148092269897, -0.3162689507007599, 0.1861725002527237, -0.3768310844898224]"
1584451888973460313,,1249640,,1584451888,973112974,'',"[shoulder_pan_joint, shoulder_lift_joint, elbow_joint, wrist_1_joint, wrist_2_joint,","[1.4857230186462402, -1.1715729872332972, 2.4821105003356934, -2.8612473646747034, -1.567460838948385, 2.7096431255340576]","[0.020926054567098618, -6.391586794052273e-05, -0.00012783173588104546, 0.0004793690168298781, -0.00013422331539914012, -0.04705486074090004]","[0.8880616426467896, -3.826904773712158, -1.502013087272644, -0.3297272026538849, 0.1682281643152237, -0.2669220268726349]"
1584451889085452635,,1249654,,1584451889,85067666,'',"[shoulder_pan_joint, shoulder_lift_joint, elbow_joint, wrist_1_joint, wrist_2_joint,","[1.4886733293533325, -1.1715968290912073, 2.482086658477783, -2.861103359852926, -1.5676406065570276, 2.7033329010009766]","[0.031919583678245544, -3.834952076431364e-05, -8.948221511673182e-05, 0.001342233270406723, -0.0006711166352033615, -0.06461894512176514]","[1.1123658418655396, -3.955078601837158, -1.4459677934646606, -0.3521576225757599, 0.1502838283777237, -0.3252411186695099]"
1584451889197444406,,1249668,,1584451889,197060730,'',"[shoulder_pan_joint, shoulder_lift_joint, elbow_joint, wrist_1_joint, wrist_2_joint,","[1.492224097251892, -1.1715729872332972, 2.4821226596832275, -2.8608878294574183, -1.5677369276629847, 2.696579933166504]","[0.03136990964412689, -3.834952076431364e-05, -0.0, 0.0012271846644580364, -0.0004985437844879925, -0.05543423071503639]","[0.7644653916358948, -3.918457508087158, -1.5087385177612305, -0.3409424126148224, 0.2086029201745987, -0.2557068169116974]"
1584451889309530885,,1249682,,1584451889,309082748,'',"[shoulder_pan_joint, shoulder_lift_joint, elbow_joint, wrist_1_joint, wrist_2_joint,","[1.4951025247573853, -1.1715849081622522, 2.482170581817627, -2.8606842199908655, -1.5677607695208948, 2.6897549629211426]","[0.014930746518075466, -2.5566347176209092e-05, 0.00026844663079828024, 0.0007861651829443872, -0.000517718552146107, -0.07462816685438156]","[1.0116578340530396, -3.973389148712158, -1.4347587823867798, -0.3970184624195099, 0.2018737941980362, -0.3072967827320099]"
1584451889421385008,,1249696,,1584451889,421034023,'',"[shoulder_pan_joint, shoulder_lift_joint, elbow_joint, wrist_1_joint, wrist_2_joint,","[1.4947186708450317, -1.1715729872332972, 2.4821584224700928, -2.860720459614889, -1.5677006880389612, 2.6816370487213135]","[-0.027419907972216606, -2.5566347176209092e-05, 0.0003962783666793257, 0.0002109223569277674, -0.0002109223569277674, -0.07261481881141663]","[-0.6362915635108948, -3.932190418243408, -1.4392423629760742, -0.4149627983570099, 0.1637420803308487, -0.3409424126148224]"
1584451889533477899,,1249710,,1584451889,533108569,'',"[shoulder_pan_joint, shoulder_lift_joint, elbow_joint, wrist_1_joint, wrist_2_joint,","[1.4906046390533447, -1.1715968290912073, 2.4820263385772705, -2.860816303883688, -1.5676048437701624, 2.672537326812744]","[-0.04195437580347061, -2.5566347176209092e-05, -0.001508414512500167, 0.00011504856229294091, 1.917476038215682e-05, -0.09127186238765717]","[-0.8926392793655396, -3.666687488555908, -1.5782346725463867, -0.3386993706226349, 0.1614990383386612, -0.3678589165210724]"
1584451889645502572,,1249724,,1584451889,645086605,'',"[shoulder_pan_joint, shoulder_lift_joint, elbow_joint, wrist_1_joint, wrist_2_joint,","[1.4861304759979248, -1.1715849081622522, 2.4818105697631836, -2.8609235922442835, -1.567460838948385, 2.662767171859741]","[-0.03966618701815605, -1.2783173588104546e-05, -0.0011888351291418076, -1.917476038215682e-05, 0.0009012137306854129, -0.07100413739681244]","[-1.0070801973342896, -3.616333484649658, -1.5311566591262817, -0.3476715385913849, 0.1547699123620987, -0.2915954887866974]"
1584451889757388635,,1249738,,1584451889,757027701,'',"[shoulder_pan_joint, shoulder_lift_joint, elbow_joint, wrist_1_joint, wrist_2_joint,","[1.481776475906372, -1.1715729872332972, 2.4810547828674316, -2.860828224812643, -1.5674007574664515, 2.6542422771453857]","[-0.038733016699552536, 0.0, -0.011236409656703472, 0.003144660731777549, 0.000517718552146107, -0.056718941777944565]","[-0.9887696504592896, -3.245544672012329, -1.9571006298065186, -0.1592559963464737, 0.1390686184167862, -0.3970184624195099]"
1584451889869471326,,1249752,,1584451889,869070327,'',"[shoulder_pan_joint, shoulder_lift_joint, elbow_joint, wrist_1_joint, wrist_2_joint,","[1.4787538051605225, -1.1715729872332972, 2.4808387756347656, -2.860875908528463, -1.5673769156085413, 2.651632308959961]","[-0.0057652113027870655, 0.0001917476038215682, 0.00020453077740967274, -0.00011504856229294091, 0.00023009712458588183, -0.0016873788554221392]","[-0.2655029594898224, -3.767395496368408, -1.4975295066833496, -0.3499145805835724, 0.1480407863855362, -0.0829925611615181]"
1584451889981474759,,1249766,,1584451889,981017274,'',"[shoulder_pan_joint, shoulder_lift_joint, elbow_joint, wrist_1_joint, wrist_2_joint,","[1.4788620471954346, -1.1715729872332972, 2.4808387756347656, -2.860840145741598, -1.5674007574664515, 2.651656150817871]","[0.0, 0.00014061490946915, -0.0, -0.00011504856229294091, 0.00013422331539914012, 0.00036432043998502195]","[-0.0457763709127903, -3.497314691543579, -1.5625419616699219, -0.3386993706226349, 0.0291595496237278, -0.0291595496237278]"
1584451890093569022,,1249780,,1584451890,93106929,'',"[shoulder_pan_joint, shoulder_lift_joint, elbow_joint, wrist_1_joint, wrist_2_joint,","[1.4788620471954346, -1.1715968290912073, 2.4808268547058105, -2.860852066670553, -1.5674126783954065, 2.651644229888916]","[0.0, 7.669904152862728e-05, -0.0, -0.00011504856229294091, -1.917476038215682e-05, 0.00015339808305725455]","[-0.0595092847943306, -3.588867664337158, -1.551332950592041, -0.3386993706226349, 0.02018737979233265, -0.0269165076315403]"
1584451890205518955,,1249794,,1584451890,205129327,'',"[shoulder_pan_joint, shoulder_lift_joint, elbow_joint, wrist_1_joint, wrist_2_joint,","[1.4788620471954346, -1.1715849081622522, 2.4808268547058105, -2.860863987599508, -1.5674007574664515, 2.651644229888916]","[0.0, 5.1132694352418184e-05, -0.0, -7.669904152862728e-05, -1.917476038215682e-05, 9.58738019107841e-05]","[-0.0595092847943306, -3.529358386993408, -1.549091100692749, -0.3364563286304474, 0.01570129580795765, -0.02467346377670765]"
1584451890317484016,,1249808,,1584451890,317057028,'',"[shoulder_pan_joint, shoulder_lift_joint, elbow_joint, wrist_1_joint, wrist_2_joint,","[1.4788260459899902, -1.1715605894671839, 2.4808387756347656, -2.860863987599508, -1.5674126783954065, 2.651644229888916]","[0.0, 3.834952076431364e-05, -0.0, -5.752428114647046e-05, -1.917476038215682e-05, 7.669904152862728e-05]","[-0.02288818545639515, -3.598022937774658, -1.5446075201034546, -0.3319702446460724, 0.01794433780014515, -0.0358886756002903]"
1584451890429433518,,1249822,,1584451890,429097641,'',"[shoulder_pan_joint, shoulder_lift_joint, elbow_joint, wrist_1_joint, wrist_2_joint,","[1.4788739681243896, -1.1715968290912073, 2.4808506965637207, -2.860863987599508, -1.5674126783954065, 2.651632308959961]","[0.0, 3.834952076431364e-05, -0.0, -5.752428114647046e-05, -1.917476038215682e-05, 5.752428114647046e-05]","[-0.02288818545639515, -3.538513660430908, -1.5737509727478027, -0.3431854546070099, 0.0269165076315403, -0.0291595496237278]"
1584451890541476656,,1249836,,1584451890,541072361,'',"[shoulder_pan_joint, shoulder_lift_joint, elbow_joint, wrist_1_joint, wrist_2_joint,","[1.4788739681243896, -1.1715849081622522, 2.4808268547058105, -2.860840145741598, -1.5674007574664515, 2.651644229888916]","[0.0, 2.5566347176209092e-05, -0.0, -3.834952076431364e-05, -1.917476038215682e-05, 3.834952076431364e-05]","[-0.0457763709127903, -3.579712390899658, -1.549091100692749, -0.3364563286304474, 0.02467346377670765, -0.0336456336081028]"
1584451890653564626,,1249850,,1584451890,653104898,'',"[shoulder_pan_joint, shoulder_lift_joint, elbow_joint, wrist_1_joint, wrist_2_joint,","[1.4788739681243896, -1.1715849081622522, 2.4808268547058105, -2.860863987599508, -1.5674126783954065, 2.651632308959961]","[0.0, 2.5566347176209092e-05, -0.0, -3.834952076431364e-05, -1.917476038215682e-05, 3.834952076431364e-05]","[-0.0274658240377903, -3.593445301055908, -1.5423656702041626, -0.3386993706226349, 0.01794433780014515, -0.02467346377670765]"
1584451890765345935,,1249864,,1584451890,765015437,'',"[shoulder_pan_joint, shoulder_lift_joint, elbow_joint, wrist_1_joint, wrist_2_joint,","[1.4788620471954346, -1.1715849081622522, 2.4808387756347656, -2.860875908528463, -1.5674250761615198, 2.651644229888916]","[0.0, 2.5566347176209092e-05, -0.0, -1.917476038215682e-05, -1.917476038215682e-05, 3.834952076431364e-05]","[-0.02288818545639515, -3.511047601699829, -1.551332950592041, -0.3364563286304474, 0.02018737979233265, -0.0291595496237278]"
1584451890877488577,,1249878,,1584451890,877047734,'',"[shoulder_pan_joint, shoulder_lift_joint, elbow_joint, wrist_1_joint, wrist_2_joint,","[1.4788620471954346, -1.1715849081622522, 2.4808268547058105, -2.860852066670553, -1.567436997090475, 2.651644229888916]","[0.0, 1.2783173588104546e-05, -0.0, -1.917476038215682e-05, -1.917476038215682e-05, 1.917476038215682e-05]","[-0.0411987341940403, -3.547668933868408, -1.546849250793457, -0.3364563286304474, 0.02467346377670765, -0.0269165076315403]"
1584451890989429524,,1249892,,1584451890,989042461,'',"[shoulder_pan_joint, shoulder_lift_joint, elbow_joint, wrist_1_joint, wrist_2_joint,","[1.47885000705719, -1.1715849081622522, 2.4808387756347656, -2.860840145741598, -1.5674126783954065, 2.651644229888916]","[0.0, 1.2783173588104546e-05, -0.0, -1.917476038215682e-05, -1.917476038215682e-05, 1.917476038215682e-05]","[-0.0366210974752903, -3.598022937774658, -1.5580583810806274, -0.3364563286304474, 0.0269165076315403, -0.0269165076315403]"
1584451891101502487,,1249906,,1584451891,101067514,'',"[shoulder_pan_joint, shoulder_lift_joint, elbow_joint, wrist_1_joint, wrist_2_joint,","[1.4788620471954346, -1.1715729872332972, 2.4808268547058105, -2.860852066670553, -1.5674126783954065, 2.6507577896118164]","[0.0, 1.2783173588104546e-05, -0.0, -1.917476038215682e-05, -1.917476038215682e-05, -0.03434199467301369]","[-0.0503540076315403, -3.570557117462158, -1.5782346725463867, -0.3454284965991974, 0.02467346377670765, -0.2624359428882599]"
1584451891213435628,,1249920,,1584451891,213096705,'',"[shoulder_pan_joint, shoulder_lift_joint, elbow_joint, wrist_1_joint, wrist_2_joint,","[1.4788739681243896, -1.1715729872332972, 2.480862617492676, -2.860840145741598, -1.5674126783954065, 2.6375160217285156]","[0.0, 1.2783173588104546e-05, -0.0, -1.917476038215682e-05, -1.917476038215682e-05, -0.20499736070632935]","[-0.009155274368822575, -3.565979480743408, -1.5782346725463867, -0.3386993706226349, 0.0291595496237278, -0.4979553818702698]"
1584451891325487963,,1249934,,1584451891,325053020,'',"[shoulder_pan_joint, shoulder_lift_joint, elbow_joint, wrist_1_joint, wrist_2_joint,","[1.4788620471954346, -1.1715849081622522, 2.4808268547058105, -2.860840145741598, -1.5673888365374964, 2.614874839782715]","[0.0, 1.2783173588104546e-05, -0.0, -1.917476038215682e-05, -1.917476038215682e-05, -0.20237042009830475]","[-0.0366210974752903, -3.625488758087158, -1.5356402397155762, -0.3409424126148224, 0.01794433780014515, -0.3880462944507599]"
1584451891437512125,,1249948,,1584451891,437087702,'',"[shoulder_pan_joint, shoulder_lift_joint, elbow_joint, wrist_1_joint, wrist_2_joint,","[1.47885000705719, -1.1715849081622522, 2.4808506965637207, -2.860852066670553, -1.5674007574664515, 2.5922939777374268]","[0.0, 1.2783173588104546e-05, -0.0, -1.917476038215682e-05, -1.917476038215682e-05, -0.1995709091424942]","[-0.0503540076315403, -3.570557117462158, -1.5558165311813354, -0.3386993706226349, 0.02467346377670765, -0.4822540879249573]"
1584451891549527539,,1249962,,1584451891,549048114,'',"[shoulder_pan_joint, shoulder_lift_joint, elbow_joint, wrist_1_joint, wrist_2_joint,","[1.4788620471954346, -1.1715968290912073, 2.48087477684021, -2.860840145741598, -1.5674126783954065, 2.569952964782715]","[0.0, 1.2783173588104546e-05, -0.0, -1.917476038215682e-05, -1.917476038215682e-05, -0.20045293867588043]","[-0.0320434607565403, -3.511047601699829, -1.551332950592041, -0.3386993706226349, 0.02018737979233265, -0.4104767143726349]"
1584451891661405568,,1249976,,1584451891,661051647,'',"[shoulder_pan_joint, shoulder_lift_joint, elbow_joint, wrist_1_joint, wrist_2_joint,","[1.4788979291915894, -1.1715968290912073, 2.4808506965637207, -2.860840145741598, -1.5674126783954065, 2.547516345977783]","[0.0, 1.2783173588104546e-05, -0.0, -1.917476038215682e-05, -1.917476038215682e-05, -0.19840124249458313]","[-0.0549316480755806, -3.625488758087158, -1.5535746812820435, -0.3342132866382599, 0.01794433780014515, -0.4979553818702698]"
1584451891773446511,,1249990,,1584451891,773025044,'',"[shoulder_pan_joint, shoulder_lift_joint, elbow_joint, wrist_1_joint, wrist_2_joint,","[1.4788739681243896, -1.1715849081622522, 2.4808506965637207, -2.860828224812643, -1.5673649946795862, 2.5250682830810547]","[0.0, 0.0, -0.0, 0.0, -1.917476038215682e-05, -0.19897648692131042]","[-0.0320434607565403, -3.556824207305908, -1.5535746812820435, -0.3364563286304474, 0.01570129580795765, -0.4194488823413849]"
1584451891885397396,,1250004,,1584451891,884975468,'',"[shoulder_pan_joint, shoulder_lift_joint, elbow_joint, wrist_1_joint, wrist_2_joint,","[1.4788739681243896, -1.1715605894671839, 2.4808387756347656, -2.860840145741598, -1.5673530737506312, 2.5026919841766357]","[0.0, 0.0, -0.0, 0.0, 0.0, -0.20028036832809448]","[-0.01373291201889515, -3.584290027618408, -1.5625419616699219, -0.3342132866382599, 0.01794433780014515, -0.4418793320655823]"
1584451891997499904,,1250018,,1584451891,996980444,'',"[shoulder_pan_joint, shoulder_lift_joint, elbow_joint, wrist_1_joint, wrist_2_joint,","[1.4788739681243896, -1.1715968290912073, 2.4808506965637207, -2.860816303883688, -1.5673649946795862, 2.4802439212799072]","[0.0, 0.0, -0.0, 0.0, 0.0, -0.20097066462039948]","[-0.0366210974752903, -3.588867664337158, -1.5535746812820435, -0.3364563286304474, 0.01794433780014515, -0.4800110459327698]"
1584451892109423548,,1250032,,1584451892,109033079,'',"[shoulder_pan_joint, shoulder_lift_joint, elbow_joint, wrist_1_joint, wrist_2_joint,","[1.4788979291915894, -1.1715729872332972, 2.4808506965637207, -2.860840145741598, -1.567329231892721, 2.4579758644104004]","[0.0, 0.0, -0.0, 0.0, 0.0, -0.20020367205142975]","[-0.0366210974752903, -3.520203113555908, -1.5670255422592163, -0.3342132866382599, 0.02018737979233265, -0.4037475883960724]"
1584451892221255501,,1250046,,1584451892,220936124,'',"[shoulder_pan_joint, shoulder_lift_joint, elbow_joint, wrist_1_joint, wrist_2_joint,","[1.4788620471954346, -1.1715605894671839, 2.480862617492676, -2.8607919851886194, -1.5672934691058558, 2.4354324340820312]","[0.0, 0.0, -0.0, 0.0, 0.0, -0.20085561275482178]","[-0.01831054873764515, -3.529358386993408, -1.593927264213562, -0.3364563286304474, 0.01570129580795765, -0.5158997178077698]"
1584451892333397794,,1250060,,1584451892,333007314,'',"[shoulder_pan_joint, shoulder_lift_joint, elbow_joint, wrist_1_joint, wrist_2_joint,","[1.4788620471954346, -1.1715849081622522, 2.48087477684021, -2.8608043829547327, -1.567329231892721, 2.413093090057373]","[0.0, 0.0, -0.0, 0.0, 0.0, -0.20200610160827637]","[-0.0274658240377903, -3.579712390899658, -1.5625419616699219, -0.3364563286304474, 0.02018737979233265, -0.3790741264820099]"
1584451892445404532,,1250074,,1584451892,445008713,'',"[shoulder_pan_joint, shoulder_lift_joint, elbow_joint, wrist_1_joint, wrist_2_joint,","[1.4788739681243896, -1.1715849081622522, 2.480862617492676, -2.860852066670553, -1.567317310963766, 2.3908255100250244]","[0.0, 0.0, -0.0, 0.0, 0.0, -0.1975383758544922]","[0.0, -3.561401844024658, -1.5647838115692139, -0.3274841606616974, 0.011215210892260075, -0.5517883896827698]"
1584451892557374353,,1250088,,1584451892,557004512,'',"[shoulder_pan_joint, shoulder_lift_joint, elbow_joint, wrist_1_joint, wrist_2_joint,","[1.4788620471954346, -1.1716087500201624, 2.480886697769165, -2.8608043829547327, -1.5673053900348108, 2.368306875228882]","[0.0, 0.0, -0.0, 0.0, 0.0, -0.2001461535692215]","[-0.0457763709127903, -3.570557117462158, -1.5715092420578003, -0.3521576225757599, -0.0022430422250181437, -0.4261780083179474]"
1584451892669439070,,1250102,,1584451892,669002615,'',"[shoulder_pan_joint, shoulder_lift_joint, elbow_joint, wrist_1_joint, wrist_2_joint,","[1.4788739681243896, -1.1715968290912073, 2.48087477684021, -2.8608043829547327, -1.567317310963766, 2.3458361625671387]","[0.0, 0.0, -0.0, 0.0, 0.0, -0.1984395980834961]","[-0.009155274368822575, -3.607178211212158, -1.5804764032363892, -0.3342132866382599, -0.0269165076315403, -0.4979553818702698]"
1584451892781355971,,1250116,,1584451892,780946927,'',"[shoulder_pan_joint, shoulder_lift_joint, elbow_joint, wrist_1_joint, wrist_2_joint,","[1.4788739681243896, -1.1715849081622522, 2.4809226989746094, -2.8608043829547327, -1.567341152821676, 2.3236286640167236]","[0.0, 0.0, -0.0, 0.0, 0.0, -0.20284979045391083]","[-0.02288818545639515, -3.556824207305908, -1.5916855335235596, -0.3409424126148224, -0.0829925611615181, -0.4777680039405823]"
1584451892893509585,,1250130,,1584451892,893005363,'',"[shoulder_pan_joint, shoulder_lift_joint, elbow_joint, wrist_1_joint, wrist_2_joint,","[1.4788979291915894, -1.1716206709491175, 2.480910539627075, -2.8608043829547327, -1.567329231892721, 2.3011460304260254]","[0.0, 0.0, -0.0, 0.0, -0.00023009712458588183, -0.19920659065246582]","[0.004577637184411287, -3.565979480743408, -1.6208289861679077, -0.3386993706226349, -0.0942077711224556, -0.4643097519874573]"
1584451893005446353,,1250144,,1584451893,4953112,'',"[shoulder_pan_joint, shoulder_lift_joint, elbow_joint, wrist_1_joint, wrist_2_joint,","[1.4788620471954346, -1.1715605894671839, 2.48089861869812, -2.8607800642596644, -1.5673053900348108, 2.278770923614502]","[0.0, 0.0, -0.0, 0.0, -0.0002109223569277674, -0.19870804250240326]","[-0.0320434607565403, -3.520203113555908, -1.679116129875183, -0.3454284965991974, -0.0964508131146431, -0.5562744736671448]"
1584451893117289437,,1250158,,1584451893,116942248,'',"[shoulder_pan_joint, shoulder_lift_joint, elbow_joint, wrist_1_joint, wrist_2_joint,","[1.478909969329834, -1.171549145375387, 2.48089861869812, -2.8607919851886194, -1.567341152821676, 2.256312370300293]","[0.0, 0.0, -0.0, 0.0, -0.00011504856229294091, -0.20446047186851501]","[-0.0457763709127903, -3.570557117462158, -1.773272156715393, -0.3431854546070099, -0.0874786451458931, -0.3723450005054474]"
1584451893229176473,,1250172,,1584451893,228895278,'',"[shoulder_pan_joint, shoulder_lift_joint, elbow_joint, wrist_1_joint, wrist_2_joint,","[1.47885000705719, -1.1715849081622522, 2.480886697769165, -2.8607919851886194, -1.567317310963766, 2.2339978218078613]","[0.0, 0.0, -0.0, 0.0, -7.669904152862728e-05, -0.1980752795934677]","[-0.02288818545639515, -3.565979480743408, -1.8763954639434814, -0.3521576225757599, -0.0852356031537056, -0.5966492295265198]"
1584451893341246059,,1250186,,1584451893,340956708,'',"[shoulder_pan_joint, shoulder_lift_joint, elbow_joint, wrist_1_joint, wrist_2_joint,","[1.47885000705719, -1.1715605894671839, 2.48087477684021, -2.8607919851886194, -1.5672934691058558, 2.2115516662597656]","[0.0, 0.0, -0.0, 0.0, -5.752428114647046e-05, -0.1991107165813446]","[-0.01831054873764515, -3.552246570587158, -1.8943299055099487, -0.3499145805835724, -0.0852356031537056, -0.4777680039405823]"
1584451893453163532,,1250200,,1584451893,452909487,'',"[shoulder_pan_joint, shoulder_lift_joint, elbow_joint, wrist_1_joint, wrist_2_joint,","[1.4788979291915894, -1.1715849081622522, 2.48089861869812, -2.8607919851886194, -1.5673053900348108, 2.189117670059204]","[0.0, 0.0, -0.0, 0.0, -5.752428114647046e-05, -0.19932162761688232]","[-0.0320434607565403, -3.524780750274658, -1.9055389165878296, -0.3947754204273224, -0.0919647291302681, -0.5293579697608948]"
1584451893565302187,,1250214,,1584451893,564965739,'',"[shoulder_pan_joint, shoulder_lift_joint, elbow_joint, wrist_1_joint, wrist_2_joint,","[1.478909969329834, -1.1715729872332972, 2.48089861869812, -2.8607919851886194, -1.567329231892721, 2.1667909622192383]","[0.0, 0.0, -0.0, 0.0, -3.834952076431364e-05, -0.20125828683376312]","[-0.0595092847943306, -3.556824207305908, -1.916748046875, -0.4396362900733948, -0.0919647291302681, -0.4553375840187073]"
1584451893677209490,,1250228,,1584451893,676897167,'',"[shoulder_pan_joint, shoulder_lift_joint, elbow_joint, wrist_1_joint, wrist_2_joint,","[1.4788979291915894, -1.1715729872332972, 2.48089861869812, -2.8608043829547327, -1.567317310963766, 2.1444528102874756]","[0.0, 0.0, -0.0, 0.0, -3.834952076431364e-05, -0.1991107165813446]","[-0.0320434607565403, -3.588867664337158, -1.9862442016601562, -0.5091705918312073, -0.1031799390912056, -0.4867401719093323]"
1584451893789341394,,1250242,,1584451893,788935465,'',"[shoulder_pan_joint, shoulder_lift_joint, elbow_joint, wrist_1_joint, wrist_2_joint,","[1.4788620471954346, -1.1715367476092737, 2.480886697769165, -2.860816303883688, -1.5673053900348108, 2.1219706535339355]","[0.0, 0.0, -0.0, 0.0, -1.917476038215682e-05, -0.1992449313402176]","[-0.0274658240377903, -3.602600574493408, -2.0333220958709717, -0.5764618515968323, -0.1099090725183487, -0.4777680039405823]"
1584451893901169398,,1250256,,1584451893,900869088,'',"[shoulder_pan_joint, shoulder_lift_joint, elbow_joint, wrist_1_joint, wrist_2_joint,","[1.4788620471954346, -1.1715367476092737, 2.480886697769165, -2.860816303883688, -1.567317310963766, 2.099560260772705]","[0.0, 0.0, -0.0, 0.0, -1.917476038215682e-05, -0.20121993124485016]","[-0.0366210974752903, -3.556824207305908, -2.013145923614502, -0.5809479355812073, -0.1031799390912056, -0.4396362900733948]"
1584451894013379578,,1250270,,1584451894,12951649,'',"[shoulder_pan_joint, shoulder_lift_joint, elbow_joint, wrist_1_joint, wrist_2_joint,","[1.4788739681243896, -1.1715729872332972, 2.48089861869812, -2.8607919851886194, -1.5673649946795862, 2.077198028564453]","[0.0, 0.0, -0.0, 0.0, -1.917476038215682e-05, -0.2001461535692215]","[-0.0961303785443306, -3.584290027618408, -2.008662223815918, -0.5831909775733948, -0.1099090725183487, -0.5001984238624573]"
1584451894125238481,,1250284,,1584451894,124879441,'',"[shoulder_pan_joint, shoulder_lift_joint, elbow_joint, wrist_1_joint, wrist_2_joint,","[1.4788979291915894, -1.1715367476092737, 2.48089861869812, -2.8607919851886194, -1.567317310963766, 2.0547163486480713]","[0.0, 0.0, -0.0, 0.0, -1.917476038215682e-05, -0.20089396834373474]","[-0.0503540076315403, -3.575134754180908, -2.0355639457702637, -0.5764618515968323, -0.1345825344324112, -0.4351502060890198]"
1584451894237242124,,1250298,,1584451894,236885508,'',"[shoulder_pan_joint, shoulder_lift_joint, elbow_joint, wrist_1_joint, wrist_2_joint,","[1.4788979291915894, -1.1716087500201624, 2.480886697769165, -2.8608043829547327, -1.567341152821676, 2.0324137210845947]","[0.0, 0.0, -0.0, 0.0, -0.0004218447138555348, -0.20035706460475922]","[-0.009155274368822575, -3.561401844024658, -2.0333220958709717, -0.5854340195655823, -0.1345825344324112, -0.5966492295265198]"
1584451894349473703,,1250312,,1584451894,348975814,'',"[shoulder_pan_joint, shoulder_lift_joint, elbow_joint, wrist_1_joint, wrist_2_joint,","[1.4788739681243896, -1.1715605894671839, 2.48089861869812, -2.8607919851886194, -1.5673530737506312, 2.0100395679473877]","[0.0, 0.0, -0.0, 0.0, -0.00017257283616345376, -0.1994558572769165]","[-0.01831054873764515, -3.552246570587158, -2.0400476455688477, -0.5921631455421448, -0.1368255764245987, -0.4800110459327698]"
1584451894461316236,,1250326,,1584451894,460950323,'',"[shoulder_pan_joint, shoulder_lift_joint, elbow_joint, wrist_1_joint, wrist_2_joint,","[1.4788739681243896, -1.1715729872332972, 2.48089861869812, -2.8607681433307093, -1.5673649946795862, 1.987605094909668]","[0.0, 0.0, -0.0, 0.0, -0.00011504856229294091, -0.19778765738010406]","[-0.0366210974752903, -3.588867664337158, -2.078158378601074, -0.5899201035499573, -0.1368255764245987, -0.4732819199562073]"
1584451894573349404,,1250340,,1584451894,573007476,'',"[shoulder_pan_joint, shoulder_lift_joint, elbow_joint, wrist_1_joint, wrist_2_joint,","[1.478909969329834, -1.1715729872332972, 2.48089861869812, -2.860828224812643, -1.567341152821676, 1.9651826620101929]","[0.0, 0.0, -0.0, 0.0, -7.669904152862728e-05, -0.19874638319015503]","[-0.0320434607565403, -3.556824207305908, -2.080400228500366, -0.5921631455421448, -0.1413116604089737, -0.4687958359718323]"
1584451894685386280,,1250354,,1584451894,684960996,'',"[shoulder_pan_joint, shoulder_lift_joint, elbow_joint, wrist_1_joint, wrist_2_joint,","[1.4788739681243896, -1.1715367476092737, 2.4809226989746094, -2.8607919851886194, -1.5674007574664515, 1.9428443908691406]","[0.0, 0.0, -0.0, 0.0, -5.752428114647046e-05, -0.20035706460475922]","[-0.0274658240377903, -3.570557117462158, -2.0714330673217773, -0.5988922715187073, -0.1390686184167862, -0.5001984238624573]"
1584451894797197624,,1250368,,1584451894,796864382,'',"[shoulder_pan_joint, shoulder_lift_joint, elbow_joint, wrist_1_joint, wrist_2_joint,","[1.4788739681243896, -1.1715729872332972, 2.48087477684021, -2.8607800642596644, -1.5673769156085413, 1.920409917831421]","[0.0, 0.0, -0.0, 0.0, -3.834952076431364e-05, -0.20194856822490692]","[-0.0320434607565403, -3.520203113555908, -2.089367389678955, -0.6123505234718323, -0.1390686184167862, -0.5630035996437073]"
1584451894909319007,,1250382,,1584451894,908936363,'',"[shoulder_pan_joint, shoulder_lift_joint, elbow_joint, wrist_1_joint, wrist_2_joint,","[1.4788979291915894, -1.1715605894671839, 2.480862617492676, -2.860816303883688, -1.567317310963766, 1.8979874849319458]","[0.0, 0.0, -1.2783173588104546e-05, -1.917476038215682e-05, -3.834952076431364e-05, -0.19959008693695068]","[-0.0366210974752903, -3.556824207305908, -2.176798105239868, -0.6616974472999573, -0.1413116604089737, -0.4396362900733948]"
1584451895021463334,,1250396,,1584451895,20928926,'',"[shoulder_pan_joint, shoulder_lift_joint, elbow_joint, wrist_1_joint, wrist_2_joint,","[1.478909969329834, -1.1715729872332972, 2.480886697769165, -2.8608043829547327, -1.567329231892721, 1.8755881786346436]","[0.0, 0.0, -1.2783173588104546e-05, -1.917476038215682e-05, -3.834952076431364e-05, -0.20112405717372894]","[-0.0457763709127903, -3.561401844024658, -2.174556255340576, -0.7110443711280823, -0.1502838283777237, -0.5226288437843323]"
1584451895133265049,,1250410,,1584451895,132861836,'',"[shoulder_pan_joint, shoulder_lift_joint, elbow_joint, wrist_1_joint, wrist_2_joint,","[1.4788739681243896, -1.1715729872332972, 2.480886697769165, -2.8607800642596644, -1.567329231892721, 1.8531773090362549]","[0.0, 0.0, -1.2783173588104546e-05, -1.917476038215682e-05, -1.917476038215682e-05, -0.20223619043827057]","[-0.01831054873764515, -3.607178211212158, -2.1655890941619873, -0.6886139512062073, -0.1345825344324112, -0.4284210503101349]"
1584451895245251160,,1250424,,1584451895,244884666,'',"[shoulder_pan_joint, shoulder_lift_joint, elbow_joint, wrist_1_joint, wrist_2_joint,","[1.478909969329834, -1.1715849081622522, 2.480886697769165, -2.8608043829547327, -1.5673649946795862, 1.83085036277771]","[0.0, 0.0, -1.2783173588104546e-05, -1.917476038215682e-05, -1.917476038215682e-05, -0.1991107165813446]","[-0.0503540076315403, -3.556824207305908, -2.183523416519165, -0.7065582871437073, -0.1390686184167862, -0.6168366074562073]"
1584451895357372865,,1250438,,1584451895,356968399,'',"[shoulder_pan_joint, shoulder_lift_joint, elbow_joint, wrist_1_joint, wrist_2_joint,","[1.4788620471954346, -1.1715367476092737, 2.480910539627075, -2.8608043829547327, -1.5673649946795862, 1.8082952499389648]","[0.0, 0.0, -1.2783173588104546e-05, -1.917476038215682e-05, -1.917476038215682e-05, -0.2000311017036438]","[-0.0366210974752903, -3.593445301055908, -2.185765266418457, -0.7088013291358948, -0.1413116604089737, -0.4665527939796448]"
1584451895469347463,,1250452,,1584451895,468910317,'',"[shoulder_pan_joint, shoulder_lift_joint, elbow_joint, wrist_1_joint, wrist_2_joint,","[1.47885000705719, -1.1715605894671839, 2.48087477684021, -2.8607681433307093, -1.567341152821676, 1.7860277891159058]","[0.0, 0.0, -1.2783173588104546e-05, -1.917476038215682e-05, -1.917476038215682e-05, -0.1977493017911911]","[-0.0411987341940403, -3.598022937774658, -2.176798105239868, -0.7088013291358948, -0.1300964504480362, -0.5540314316749573]"
1584451895581243285,,1250466,,1584451895,580882512,'',"[shoulder_pan_joint, shoulder_lift_joint, elbow_joint, wrist_1_joint, wrist_2_joint,","[1.4788739681243896, -1.171549145375387, 2.48089861869812, -2.860816303883688, -1.567341152821676, 1.7636281251907349]","[0.0, 0.0, -1.2783173588104546e-05, -1.917476038215682e-05, -1.917476038215682e-05, -0.2008364349603653]","[-0.0457763709127903, -3.529358386993408, -2.194732427597046, -0.7402039170265198, -0.1390686184167862, -0.4620667099952698]"
1584451895693300058,,1250480,,1584451895,692881847,'',"[shoulder_pan_joint, shoulder_lift_joint, elbow_joint, wrist_1_joint, wrist_2_joint,","[1.478909969329834, -1.1715729872332972, 2.48089861869812, -2.860816303883688, -1.567317310963766, 1.7411210536956787]","[0.0, 0.0, -1.2783173588104546e-05, -1.917476038215682e-05, -1.917476038215682e-05, -0.19993522763252258]","[-0.0595092847943306, -3.524780750274658, -2.185765266418457, -0.7424469590187073, -0.1390686184167862, -0.4755249619483948]"
1584451895805170432,,1250494,,1584451895,804828674,'',"[shoulder_pan_joint, shoulder_lift_joint, elbow_joint, wrist_1_joint, wrist_2_joint,","[1.478909969329834, -1.1715729872332972, 2.480862617492676, -2.8607919851886194, -1.567341152821676, 1.7188525199890137]","[0.0, 0.0, -1.2783173588104546e-05, -1.917476038215682e-05, -1.917476038215682e-05, -0.19987769424915314]","[-0.0732421949505806, -3.520203113555908, -2.185765266418457, -0.7334747910499573, -0.1390686184167862, -0.5787048935890198]"
1584451895917269755,,1250508,,1584451895,916843428,'',"[shoulder_pan_joint, shoulder_lift_joint, elbow_joint, wrist_1_joint, wrist_2_joint,","[1.4788979291915894, -1.1715729872332972, 2.48087477684021, -2.860816303883688, -1.567341152821676, 1.6964644193649292]","[0.0, 0.0, -1.2783173588104546e-05, -1.917476038215682e-05, -1.917476038215682e-05, -0.18563085794448853]","[-0.0274658240377903, -3.543091297149658, -2.2081832885742188, -0.7446900010108948, -0.1390686184167862, -0.4216919243335724]"
1584451896029394935,,1250522,,1584451896,28854355,'',"[shoulder_pan_joint, shoulder_lift_joint, elbow_joint, wrist_1_joint, wrist_2_joint,","[1.4788739681243896, -1.1715367476092737, 2.480886697769165, -2.860756222401754, -1.567341152821676, 1.6856411695480347]","[0.0, 0.0, -1.2783173588104546e-05, -1.917476038215682e-05, 0.0, -0.008858739398419857]","[-0.0411987341940403, -3.520203113555908, -2.19921612739563, -0.7334747910499573, -0.1300964504480362, -0.2624359428882599]"
1584451896141209225,,1250536,,1584451896,140779262,'',"[shoulder_pan_joint, shoulder_lift_joint, elbow_joint, wrist_1_joint, wrist_2_joint,","[1.4788739681243896, -1.171549145375387, 2.4808387756347656, -2.860816303883688, -1.5673649946795862, 1.6858928203582764]","[0.0, 0.0, -1.2783173588104546e-05, -1.917476038215682e-05, 0.0, 0.0022626216523349285]","[-0.0457763709127903, -3.506469964981079, -2.19921612739563, -0.7357178330421448, -0.1413116604089737, 0.02467346377670765]"
1584451896253275195,,1250550,,1584451896,252843749,'',"[shoulder_pan_joint, shoulder_lift_joint, elbow_joint, wrist_1_joint, wrist_2_joint,","[1.4788739681243896, -1.171549145375387, 2.48087477684021, -2.860863987599508, -1.567341152821676, 1.6860127449035645]","[0.0, 0.0, -1.2783173588104546e-05, -1.917476038215682e-05, 0.0, 0.0004985437844879925]","[-0.0732421949505806, -3.552246570587158, -2.2104251384735107, -0.7245026230812073, -0.1300964504480362, 0.01345825381577015]"
1584451896365297052,,1250564,,1584451896,364805784,'',"[shoulder_pan_joint, shoulder_lift_joint, elbow_joint, wrist_1_joint, wrist_2_joint,","[1.4788739681243896, -1.171549145375387, 2.48089861869812, -2.860828224812643, -1.5673769156085413, 1.6860246658325195]","[0.0, 0.0, -2.5566347176209092e-05, -1.917476038215682e-05, 0.0, 0.0001917476038215682]","[-0.0503540076315403, -3.588867664337158, -2.203699827194214, -0.7357178330421448, -0.1345825344324112, 0.01570129580795765]"
1584451896477208653,,1250578,,1584451896,476840165,'',"[shoulder_pan_joint, shoulder_lift_joint, elbow_joint, wrist_1_joint, wrist_2_joint,","[1.4788739681243896, -1.171549145375387, 2.480862617492676, -2.860816303883688, -1.5673649946795862, 1.6860246658325195]","[0.0, 0.0, -2.5566347176209092e-05, -1.917476038215682e-05, 0.0, 0.00011504856229294091]","[-0.0411987341940403, -3.607178211212158, -2.2081832885742188, -0.7334747910499573, -0.1502838283777237, 0.01345825381577015]"
1584451896589119323,,1250592,,1584451896,588764060,'',"[shoulder_pan_joint, shoulder_lift_joint, elbow_joint, wrist_1_joint, wrist_2_joint,","[1.478909969329834, -1.1715605894671839, 2.4808268547058105, -2.8608043829547327, -1.567341152821676, 1.6861201524734497]","[0.0008692558039911091, 0.0, -0.00020453077740967274, -1.917476038215682e-05, 0.0, 0.0008820389630272985]","[-0.0961303785443306, -3.593445301055908, -2.2193925380706787, -0.7222595810890198, -0.1368255764245987, -0.004486084450036287]"
1584451896701266735,,1250606,,1584451896,700835329,'',"[shoulder_pan_joint, shoulder_lift_joint, elbow_joint, wrist_1_joint, wrist_2_joint,","[1.4807090759277344, -1.1713088194476526, 2.4799752235412598, -2.8605168501483362, -1.5673530737506312, 1.6879643201828003]","[0.0658716931939125, 0.010878480970859528, -0.029695311561226845, 0.01543568167835474, 0.0, 0.0635259822010994]","[1.6021729707717896, -2.714538812637329, -2.560147762298584, -0.2018737941980362, -0.0269165076315403, 0.2041168361902237]"
1584451896813155744,,1250620,,1584451896,812788739,'',"[shoulder_pan_joint, shoulder_lift_joint, elbow_joint, wrist_1_joint, wrist_2_joint,","[1.481860637664795, -1.1711772123919886, 2.4794111251831055, -2.860636536275045, -1.567329231892721, 1.689029335975647]","[-0.0020069582387804985, 0.0, 0.0020453077740967274, 0.0007861651829443872, -0.0004026699753012508, -0.000862864195369184]","[-0.1647949367761612, -3.529358386993408, -1.912264347076416, -0.4598236680030823, -0.1323394924402237, -0.0919647291302681]"
1584451896925138789,,1250634,,1584451896,924786210,'',"[shoulder_pan_joint, shoulder_lift_joint, elbow_joint, wrist_1_joint, wrist_2_joint,","[1.486586570739746, -1.1704934279071253, 2.4775516986846924, -2.859271828328268, -1.567209545766012, 1.6935672760009766]","[0.015148060396313667, 0.0021731394808739424, -0.0062765381298959255, 0.0044293696992099285, 0.007228884845972061, 0.006442719604820013]","[-0.9704591035842896, -3.181457757949829, -1.499771237373352, -0.2691650688648224, -0.1861725002527237, 0.1996307522058487]"
1584451897037284478,,1250648,,1584451897,36839136,'',"[shoulder_pan_joint, shoulder_lift_joint, elbow_joint, wrist_1_joint, wrist_2_joint,","[1.4862985610961914, -1.1705535093890589, 2.477623701095581, -2.8593676725970667, -1.5673053900348108, 1.6934714317321777]","[0.0005496764788404107, -0.00026844663079828024, 0.0007669904152862728, 0.0005944175645709038, 0.0004985437844879925, -0.0003451456723269075]","[-0.2105713039636612, -3.520203113555908, -1.5064966678619385, -0.2377624809741974, -0.1009368970990181, -0.0560760572552681]"
1584451897149076456,,1250662,,1584451897,148741400,'',"[shoulder_pan_joint, shoulder_lift_joint, elbow_joint, wrist_1_joint, wrist_2_joint,","[1.4862866401672363, -1.1705411116229456, 2.4777073860168457, -2.8590920607196253, -1.5672934691058558, 1.6934235095977783]","[0.0, -0.00011504856229294091, -0.0, 0.0013614079216495156, 0.0001917476038215682, -0.00015339808305725455]","[-0.2105713039636612, -3.337097406387329, -1.4414842128753662, -0.2243042290210724, -0.1031799390912056, -0.0291595496237278]"
1584451897261257941,,1250676,,1584451897,260855169,'',"[shoulder_pan_joint, shoulder_lift_joint, elbow_joint, wrist_1_joint, wrist_2_joint,","[1.490017056465149, -1.1698697249041956, 2.476231813430786, -2.8577869574176233, -1.5672696272479456, 1.697206735610962]","[0.08730907738208771, 0.015595471486449242, -0.036201946437358856, 0.021514080464839935, 0.003067961661145091, 0.08515510708093643]","[1.2496949434280396, -2.760315179824829, -2.369593858718872, -0.1435547024011612, 0.0426178015768528, 0.3476715385913849]"
1584451897373160827,,1250690,,1584451897,372806024,'',"[shoulder_pan_joint, shoulder_lift_joint, elbow_joint, wrist_1_joint, wrist_2_joint,","[1.5009081363677979, -1.1681321302997034, 2.4714930057525635, -2.8551529089557093, -1.567221466694967, 1.7081618309020996]","[0.09864775091409683, 0.015838351100683212, -0.04084223881363869, 0.023757528513669968, 0.0007478156476281583, 0.09689006209373474]","[1.4053345918655396, -2.673340082168579, -2.100576400756836, -0.0874786451458931, 0.1570129543542862, 0.3072967827320099]"
1584451897485196590,,1250704,,1584451897,484788217,'',"[shoulder_pan_joint, shoulder_lift_joint, elbow_joint, wrist_1_joint, wrist_2_joint,","[1.511738896369934, -1.1664288679706019, 2.4669337272644043, -2.852375332509176, -1.5671494642840784, 1.7189723253250122]","[0.09566926956176758, 0.015659388154745102, -0.0421205572783947, 0.025770878419280052, 0.001418932224623859, 0.09698593616485596]","[1.3549805879592896, -2.645874261856079, -2.302339553833008, -0.1099090725183487, 0.2310333549976349, 0.2714081108570099]"
1584451897597218117,,1250718,,1584451897,596774438,'',"[shoulder_pan_joint, shoulder_lift_joint, elbow_joint, wrist_1_joint, wrist_2_joint,","[1.522414207458496, -1.164631191884176, 2.4618823528289795, -2.849513832722799, -1.5669100920306605, 1.7296514511108398]","[0.09621894359588623, 0.016682041808962822, -0.04578932747244835, 0.026250246912240982, 0.001725728390738368, 0.09679418802261353]","[1.2222291231155396, -2.499389886856079, -2.087125539779663, -0.0964508131146431, 0.2826233208179474, 0.3476715385913849]"
1584451897709092889,,1250732,,1584451897,708724511,'',"[shoulder_pan_joint, shoulder_lift_joint, elbow_joint, wrist_1_joint, wrist_2_joint,","[1.529682993888855, -1.1633718649493616, 2.458702802658081, -2.847682778035299, -1.5666702429400843, 1.736954689025879]","[-0.005573463626205921, -0.001725728390738368, 0.00250550196506083, -0.006442719604820013, 0.0070946612395346165, -0.0038349521346390247]","[-0.0640869215130806, -3.382873773574829, -1.6701488494873047, -0.3072967827320099, 0.1884155422449112, -0.0426178015768528]"
1584451897821272722,,1250746,,1584451897,820818724,'',"[shoulder_pan_joint, shoulder_lift_joint, elbow_joint, wrist_1_joint, wrist_2_joint,","[1.5296107530593872, -1.1633957068072718, 2.4586668014526367, -2.847694222127096, -1.5665386358844202, 1.7368707656860352]","[-0.0005496764788404107, -0.0001917476038215682, -0.001470064977183938, -0.00032597093377262354, 0.000517718552146107, -0.000690291344653815]","[-0.3158569633960724, -3.492737054824829, -1.551332950592041, -0.3386993706226349, 0.1614990383386612, -0.0785064771771431]"
1584451897933338141,,1250760,,1584451897,932856511,'',"[shoulder_pan_joint, shoulder_lift_joint, elbow_joint, wrist_1_joint, wrist_2_joint,","[1.5349006652832031, -1.1623643080340784, 2.456327199935913, -2.8461974302874964, -1.5664904753314417, 1.74219810962677]","[0.0972416028380394, 0.01792200841009617, -0.044677190482616425, 0.027822576463222504, 0.0016682040877640247, 0.09247986972332001]","[1.2542725801467896, -2.618408441543579, -2.2283596992492676, -0.0403747595846653, 0.2983246147632599, 0.3745880424976349]"
1584451898045135809,,1250774,,1584451898,44721967,'',"[shoulder_pan_joint, shoulder_lift_joint, elbow_joint, wrist_1_joint, wrist_2_joint,","[1.5404301881790161, -1.1613333860980433, 2.4537477493286133, -2.8446529547320765, -1.566430393849508, 1.7477895021438599]","[-0.0031318773981183767, -0.0008309062686748803, -0.0, -0.0014764565275982022, 0.0004026699753012508, -0.0011888351291418076]","[-0.0778198316693306, -3.337097406387329, -1.788964867591858, -0.3790741264820099, 0.1614990383386612, 0.011215210892260075]"
1584451898157316052,,1250788,,1584451898,156804176,'',"[shoulder_pan_joint, shoulder_lift_joint, elbow_joint, wrist_1_joint, wrist_2_joint,","[1.5404541492462158, -1.1613333860980433, 2.4537720680236816, -2.8446171919452112, -1.5663707892047327, 1.747753620147705]","[-0.0005880259559489787, 0.0, 0.0011760519118979573, -0.00024927189224399626, 0.00032597093377262354, -0.00046019424917176366]","[-0.3616333305835724, -3.378296136856079, -1.8472518920898438, -0.3858032524585724, 0.1839294582605362, -0.01570129580795765]"
1584451898269027270,,1250802,,1584451898,268648292,'',"[shoulder_pan_joint, shoulder_lift_joint, elbow_joint, wrist_1_joint, wrist_2_joint,","[1.5404541492462158, -1.1613333860980433, 2.453807830810547, -2.8446410338031214, -1.5663588682757776, 1.7476457357406616]","[-3.834952076431364e-05, 0.0, 0.0002556634717620909, -0.00013422331539914012, 0.00015339808305725455, -0.0009779128013178706]","[-0.5081177353858948, -3.414917230606079, -1.8517354726791382, -0.3925323784351349, 0.1816864162683487, -0.01794433780014515]"
1584451898381158602,,1250816,,1584451898,380775196,'',"[shoulder_pan_joint, shoulder_lift_joint, elbow_joint, wrist_1_joint, wrist_2_joint,","[1.5403822660446167, -1.1613214651690882, 2.4537477493286133, -2.8446653524981897, -1.5663707892047327, 1.7476457357406616]","[-0.0003962783666793257, 0.0, -2.5566347176209092e-05, -9.58738019107841e-05, 0.0, -0.00023009712458588183]","[-0.6958008408546448, -3.451538324356079, -1.9212316274642944, -0.3970184624195099, 0.1727142482995987, -0.01570129580795765]"
1584451898493222998,,1250830,,1584451898,492766576,'',"[shoulder_pan_joint, shoulder_lift_joint, elbow_joint, wrist_1_joint, wrist_2_joint,","[1.5403703451156616, -1.1613333860980433, 2.453735589981079, -2.8446653524981897, -1.5663588682757776, 1.7476576566696167]","[-0.00023009712458588183, 0.0, -0.0, -5.752428114647046e-05, 0.0, -0.00013422331539914012]","[-0.4852295517921448, -3.501892328262329, -2.022113084793091, -0.3947754204273224, 0.1682281643152237, -0.01570129580795765]"
1584451898605124882,,1250844,,1584451898,604748278,'',"[shoulder_pan_joint, shoulder_lift_joint, elbow_joint, wrist_1_joint, wrist_2_joint,","[1.5403703451156616, -1.1613214651690882, 2.4537599086761475, -2.8446410338031214, -1.5663464705096644, 1.7476097345352173]","[-0.00010226538870483637, 0.0, -0.0, -5.752428114647046e-05, 0.0, -7.669904152862728e-05]","[-0.5035400986671448, -3.662109851837158, -1.9795187711715698, -0.3880462944507599, 0.1682281643152237, -0.02243042178452015]"
1584451898717258939,,1250858,,1584451898,716769134,'',"[shoulder_pan_joint, shoulder_lift_joint, elbow_joint, wrist_1_joint, wrist_2_joint,","[1.5403822660446167, -1.1613572279559534, 2.4537720680236816, -2.8446529547320765, -1.5663588682757776, 1.7476097345352173]","[-6.391586794052273e-05, 0.0, -0.0, -3.834952076431364e-05, 5.752428114647046e-05, -5.752428114647046e-05]","[-0.4852295517921448, -3.762817859649658, -1.9840023517608643, -0.3925323784351349, 0.1727142482995987, -0.02018737979233265]"
1584451898829141356,,1250872,,1584451898,828760875,'',"[shoulder_pan_joint, shoulder_lift_joint, elbow_joint, wrist_1_joint, wrist_2_joint,","[1.5403703451156616, -1.1613453070269983, 2.4537720680236816, -2.8446171919452112, -1.5663464705096644, 1.7476097345352173]","[-5.1132694352418184e-05, 0.0, -0.0, -3.834952076431364e-05, 5.752428114647046e-05, -5.752428114647046e-05]","[-0.4989624619483948, -3.666687488555908, -1.9795187711715698, -0.3947754204273224, 0.1951446682214737, -0.02467346377670765]"
1584451898941231891,,1250886,,1584451898,940812418,'',"[shoulder_pan_joint, shoulder_lift_joint, elbow_joint, wrist_1_joint, wrist_2_joint,","[1.540358304977417, -1.1613696257220667, 2.453735589981079, -2.8446653524981897, -1.5663707892047327, 1.747621774673462]","[-3.834952076431364e-05, -5.1132694352418184e-05, -0.0, -3.834952076431364e-05, 5.752428114647046e-05, -3.834952076431364e-05]","[-0.5081177353858948, -3.707886219024658, -1.9279570579528809, -0.3925323784351349, 0.1816864162683487, -0.02018737979233265]"
1584451899053245573,,1250900,,1584451899,52774794,'',"[shoulder_pan_joint, shoulder_lift_joint, elbow_joint, wrist_1_joint, wrist_2_joint,","[1.540358304977417, -1.1613572279559534, 2.453735589981079, -2.8446410338031214, -1.5663588682757776, 1.747633695602417]","[-2.5566347176209092e-05, -5.1132694352418184e-05, -0.0, -1.917476038215682e-05, 5.752428114647046e-05, -3.834952076431364e-05]","[-0.4943848252296448, -3.712463855743408, -1.9750350713729858, -0.3858032524585724, 0.1614990383386612, -0.01794433780014515]"
1584451899165178084,,1250914,,1584451899,164747369,'',"[shoulder_pan_joint, shoulder_lift_joint, elbow_joint, wrist_1_joint, wrist_2_joint,","[1.5403703451156616, -1.161297623311178, 2.4537720680236816, -2.844605271016256, -1.5663464705096644, 1.747621774673462]","[-2.5566347176209092e-05, -5.1132694352418184e-05, -0.0, -1.917476038215682e-05, 0.0, -1.917476038215682e-05]","[-0.4852295517921448, -3.671265125274658, -1.9840023517608643, -0.3947754204273224, 0.0807495191693306, -0.02018737979233265]"
1584451899277177910,,1250928,,1584451899,276757335,'',"[shoulder_pan_joint, shoulder_lift_joint, elbow_joint, wrist_1_joint, wrist_2_joint,","[1.5403822660446167, -1.1613333860980433, 2.4537599086761475, -2.8446171919452112, -1.5663707892047327, 1.7476097345352173]","[-2.5566347176209092e-05, 0.0, -0.0, -1.917476038215682e-05, 0.0, -1.917476038215682e-05]","[-0.4898071885108948, -3.680420398712158, -2.004178524017334, -0.3925323784351349, 0.0897216871380806, -0.01794433780014515]"
1584451899389043916,,1250942,,1584451899,388692009,'',"[shoulder_pan_joint, shoulder_lift_joint, elbow_joint, wrist_1_joint, wrist_2_joint,","[1.540358304977417, -1.1613572279559534, 2.453735589981079, -2.8446410338031214, -1.5663588682757776, 1.747621774673462]","[-1.2783173588104546e-05, 0.0, -3.834952076431364e-05, -1.917476038215682e-05, 0.0, -1.917476038215682e-05]","[-0.4760742783546448, -3.749084949493408, -2.0512566566467285, -0.3835602104663849, 0.1054229810833931, -0.011215210892260075]"
1584451899501083186,,1250956,,1584451899,500683099,'',"[shoulder_pan_joint, shoulder_lift_joint, elbow_joint, wrist_1_joint, wrist_2_joint,","[1.5438966751098633, -1.1607335249530237, 2.451780080795288, -2.843539539967672, -1.5663946310626429, 1.7512731552124023]","[0.08172282576560974, 0.015096927992999554, -0.04146861657500267, 0.02364247851073742, 0.0, 0.08114758878946304]","[1.5014649629592896, -2.714538812637329, -2.1409289836883545, -0.1457977443933487, 0.2377624809741974, 0.2736511528491974]"
1584451899613095707,,1250970,,1584451899,612709566,'',"[shoulder_pan_joint, shoulder_lift_joint, elbow_joint, wrist_1_joint, wrist_2_joint,","[1.5544277429580688, -1.158719841633932, 2.446692705154419, -2.8405945936786097, -1.5663226286517542, 1.7616530656814575]","[0.09541361033916473, 0.01787087693810463, -0.04337330907583237, 0.02678713947534561, 0.0006519418675452471, 0.09476166218519211]","[1.0116578340530396, -2.778625726699829, -2.0534985065460205, -0.1323394924402237, 0.2758941948413849, 0.4015045464038849]"
1584451899725134495,,1250984,,1584451899,724746891,'',"[shoulder_pan_joint, shoulder_lift_joint, elbow_joint, wrist_1_joint, wrist_2_joint,","[1.5649828910827637, -1.1567052046405237, 2.441725492477417, -2.8375657240497034, -1.5662034193622034, 1.7722362279891968]","[0.09468496590852737, 0.0181137565523386, -0.04465162381529808, 0.027841752395033836, 0.0009587380336597562, 0.09200049936771393]","[1.0116578340530396, -2.934265375137329, -2.3382084369659424, -0.1076660305261612, 0.3140259087085724, 0.3566437065601349]"
1584451899837266759,,1250998,,1584451899,836769250,'',"[shoulder_pan_joint, shoulder_lift_joint, elbow_joint, wrist_1_joint, wrist_2_joint,","[1.5753579139709473, -1.1547868887530726, 2.436338424682617, -2.8343446890460413, -1.5660951773272913, 1.7826037406921387]","[0.09049208462238312, 0.017551297321915627, -0.048780590295791626, 0.02870461530983448, 0.0008245147182606161, 0.0928250178694725]","[1.6387940645217896, -2.787781000137329, -2.1274781227111816, -0.1166381984949112, 0.4059906303882599, 0.2893524467945099]"
1584451899949063666,,1251012,,1584451899,948672906,'',"[shoulder_pan_joint, shoulder_lift_joint, elbow_joint, wrist_1_joint, wrist_2_joint,","[1.5854696035385132, -1.1527250448810022, 2.431143045425415, -2.8311966101275843, -1.5659154097186487, 1.7928637266159058]","[0.09219224750995636, 0.01890631392598152, -0.04640292003750801, 0.02791845053434372, 0.0014764565275982022, 0.0919238030910492]","[1.2084962129592896, -2.650451898574829, -2.385286331176758, -0.1300964504480362, 0.3611297905445099, 0.4059906303882599]"
1584451900061118034,,1251026,,1584451900,60687049,'',"[shoulder_pan_joint, shoulder_lift_joint, elbow_joint, wrist_1_joint, wrist_2_joint,","[1.5958445072174072, -1.1505549589740198, 2.4256958961486816, -2.8278921286212366, -1.5658558050738733, 1.8031595945358276]","[0.09109289199113846, 0.020056799054145813, -0.05156732350587845, 0.027055587619543076, 0.0018216022290289402, 0.08998715132474899]","[0.9887696504592896, -2.934265375137329, -2.371835470199585, -0.1794433742761612, 0.4284210503101349, 0.3499145805835724]"
1584451900173284021,,1251040,,1584451900,172753240,'',"[shoulder_pan_joint, shoulder_lift_joint, elbow_joint, wrist_1_joint, wrist_2_joint,","[1.6059437990188599, -1.1482885519610804, 2.42022442817688, -2.8246715704547327, -1.5657356421100062, 1.8132754564285278]","[0.08714289218187332, 0.020363595336675644, -0.04737444221973419, 0.029107285663485527, 0.0007286408799700439, 0.09061991423368454]","[1.4968873262405396, -3.007507562637329, -2.5870494842529297, -0.2691650688648224, 0.5674896836280823, 0.2758941948413849]"
1584451900285110583,,1251054,,1584451900,284691030,'',"[shoulder_pan_joint, shoulder_lift_joint, elbow_joint, wrist_1_joint, wrist_2_joint,","[1.61593496799469, -1.1460707823382776, 2.414764881134033, -2.8213189283954065, -1.5656641165362757, 1.823344111442566]","[0.09000632166862488, 0.02118171937763691, -0.053356967866420746, 0.030238596722483635, 0.0019558256026357412, 0.09023642539978027]","[1.5014649629592896, -3.094482660293579, -2.939013719558716, -0.3656158745288849, 0.6751556992530823, 0.4037475883960724]"
1584451900397107434,,1251068,,1584451900,396609564,'',"[shoulder_pan_joint, shoulder_lift_joint, elbow_joint, wrist_1_joint, wrist_2_joint,","[1.6259620189666748, -1.1438162962542933, 2.409029722213745, -2.8179667631732386, -1.5655682722674769, 1.833376407623291]","[0.08902201801538467, 0.020747089758515358, -0.051119912415742874, 0.02906893566250801, 0.00138058268930763, 0.08847234398126602]","[1.7166138887405396, -3.332519769668579, -3.2640762329101562, -0.4912262558937073, 0.8545990586280823, 0.3050537407398224]"
1584451900508974513,,1251082,,1584451900,508627214,'',"[shoulder_pan_joint, shoulder_lift_joint, elbow_joint, wrist_1_joint, wrist_2_joint,","[1.635785698890686, -1.1416228453265589, 2.403534412384033, -2.8145788351642054, -1.5655439535724085, 1.8431813716888428]","[0.0875391736626625, 0.0202229805290699, -0.05169515311717987, 0.03112063556909561, 0.0003451456723269075, 0.08866409212350845]","[1.7303467988967896, -3.414917230606079, -3.914201259613037, -0.5944061875343323, 0.8545990586280823, 0.2601929008960724]"
1584451900621040041,,1251096,,1584451900,620573901,'',"[shoulder_pan_joint, shoulder_lift_joint, elbow_joint, wrist_1_joint, wrist_2_joint,","[1.6381723880767822, -1.1411789099322718, 2.4018304347991943, -2.8141358534442347, -1.5654962698565882, 1.8455512523651123]","[0.001508414512500167, -0.00043462790199555457, -0.001418932224623859, -0.0009395632660016418, 0.0006519418675452471, -0.0006519418675452471]","[0.5447388291358948, -4.023743152618408, -3.187854528427124, -0.8501129746437073, 0.903946042060852, -0.0628051832318306]"
1584451900733269787,,1251110,,1584451900,732727034,'',"[shoulder_pan_joint, shoulder_lift_joint, elbow_joint, wrist_1_joint, wrist_2_joint,","[1.6381604671478271, -1.1411307493792933, 2.4016382694244385, -2.8142316977130335, -1.5653279463397425, 1.8455272912979126]","[-0.00026844663079828024, -0.00014061490946915, -0.0008053399506025016, 0.0, 0.0019366508349776268, -0.0003451456723269075]","[0.5905151963233948, -4.129028797149658, -3.0600714683532715, -0.868057370185852, 0.8658143281936646, -0.0852356031537056]"
1584451900844954044,,1251124,,1584451900,844563926,'',"[shoulder_pan_joint, shoulder_lift_joint, elbow_joint, wrist_1_joint, wrist_2_joint,","[1.6381365060806274, -1.1411550680743616, 2.401602029800415, -2.8142436186419886, -1.5649927298175257, 1.845491647720337]","[-0.00011504856229294091, -7.669904152862728e-05, -0.00024288029817398638, -0.0002109223569277674, 0.004467719234526157, -0.0008053399506025016]","[0.4898071885108948, -4.257202625274658, -2.9703989028930664, -0.8590851426124573, 0.9017030000686646, -0.0897216871380806]"
1584451900956963999,,1251138,,1584451900,956560856,'',"[shoulder_pan_joint, shoulder_lift_joint, elbow_joint, wrist_1_joint, wrist_2_joint,","[1.6381604671478271, -1.1411431471454065, 2.40161395072937, -2.814291302357809, -1.5645015875445765, 1.8454557657241821]","[-7.669904152862728e-05, -5.1132694352418184e-05, -0.00014061490946915, -0.00026844663079828024, 0.001764077926054597, -0.00024927189224399626]","[0.3479004204273224, -4.010010242462158, -2.81795597076416, -0.8478699326515198, 0.6953430771827698, -0.1009368970990181]"
1584451901068996296,,1251152,,1584451901,68602842,'',"[shoulder_pan_joint, shoulder_lift_joint, elbow_joint, wrist_1_joint, wrist_2_joint,","[1.6381484270095825, -1.1411669890033167, 2.401602029800415, -2.8143275419818323, -1.5645611921893519, 1.8454316854476929]","[-1.2783173588104546e-05, -3.834952076431364e-05, -8.948221511673182e-05, -0.00028762139845639467, -0.0005368932615965605, -0.00013422331539914012]","[0.2105713039636612, -4.083252429962158, -2.658787250518799, -0.8523560166358948, 0.4553375840187073, -0.1054229810833931]"
1584451901181099716,,1251166,,1584451901,180688938,'',"[shoulder_pan_joint, shoulder_lift_joint, elbow_joint, wrist_1_joint, wrist_2_joint,","[1.6381244659423828, -1.1411908308612269, 2.4016382694244385, -2.8144353071795862, -1.564789120350973, 1.8454316854476929]","[-0.00021731395099777728, -3.834952076431364e-05, -7.669904152862728e-05, -0.0004410194815136492, -0.0029912625905126333, -0.00013422331539914012]","[0.2471924126148224, -4.202270984649658, -2.445815324783325, -0.7850647568702698, 0.3521576225757599, -0.1031799390912056]"
1584451901292971573,,1251180,,1584451901,292587165,'',"[shoulder_pan_joint, shoulder_lift_joint, elbow_joint, wrist_1_joint, wrist_2_joint,","[1.638100504875183, -1.1411550680743616, 2.401674270629883, -2.8144353071795862, -1.5649927298175257, 1.8439116477966309]","[-0.0001661812566453591, -2.5566347176209092e-05, 0.000945954816415906, -0.00013422331539914012, -0.0005752427969127893, -0.04879976436495781]","[0.2746582329273224, -4.037476062774658, -2.2485358715057373, -0.6931000351905823, 0.3723450005054474, -0.4127197563648224]"
1584451901405127441,,1251194,,1584451901,404616888,'',"[shoulder_pan_joint, shoulder_lift_joint, elbow_joint, wrist_1_joint, wrist_2_joint,","[1.638088583946228, -1.1411307493792933, 2.40177059173584, -2.814423386250631, -1.5650165716754358, 1.82815682888031]","[-8.948221511673182e-05, -2.5566347176209092e-05, 0.0017129452899098396, -0.00013422331539914012, -0.0001917476038215682, -0.2030031830072403]","[0.2838135063648224, -4.248047351837158, -2.2216341495513916, -0.5742188096046448, 0.3544006645679474, -0.6078644394874573]"
1584451901517048450,,1251208,,1584451901,516614770,'',"[shoulder_pan_joint, shoulder_lift_joint, elbow_joint, wrist_1_joint, wrist_2_joint,","[1.6381125450134277, -1.1411550680743616, 2.40177059173584, -2.8143752256976526, -1.5650165716754358, 1.8054100275039673]","[-6.391586794052273e-05, -2.5566347176209092e-05, 0.0002812298189383, 0.00023009712458588183, -0.00011504856229294091, -0.2030031830072403]","[0.2700805962085724, -4.216003894805908, -2.185765266418457, -0.4463654160499573, 0.3588867485523224, -0.3835602104663849]"
1584451901628993915,,1251222,,1584451901,628594719,'',"[shoulder_pan_joint, shoulder_lift_joint, elbow_joint, wrist_1_joint, wrist_2_joint,","[1.6381125450134277, -1.1411789099322718, 2.4017345905303955, -2.8142197767840784, -1.5649927298175257, 1.783058762550354]","[-5.1132694352418184e-05, -1.2783173588104546e-05, 0.00014061490946915, 0.0006135923322290182, -7.669904152862728e-05, -0.1992449313402176]","[0.2426147758960724, -4.193115711212158, -2.1678307056427, -0.4934692978858948, 0.3633728325366974, -0.5607605576515198]"
1584451901741024308,,1251236,,1584451901,740623640,'',"[shoulder_pan_joint, shoulder_lift_joint, elbow_joint, wrist_1_joint, wrist_2_joint,","[1.638100504875183, -1.1411193052874964, 2.401710271835327, -2.8142078558551233, -1.5649331251727503, 1.7606111764907837]","[-3.834952076431364e-05, -1.2783173588104546e-05, 0.00010226538870483637, 0.0001917476038215682, -5.752428114647046e-05, -0.2015267312526703]","[0.2700805962085724, -4.170227527618408, -2.176798105239868, -0.4844971299171448, 0.3790741264820099, -0.4486084580421448]"
1584451901852965274,,1251250,,1584451901,852552603,'',"[shoulder_pan_joint, shoulder_lift_joint, elbow_joint, wrist_1_joint, wrist_2_joint,","[1.6381244659423828, -1.1411789099322718, 2.401674270629883, -2.814279381428854, -1.5648968855487269, 1.7381519079208374]","[-2.5566347176209092e-05, -1.2783173588104546e-05, 7.669904152862728e-05, 0.0, -5.752428114647046e-05, -0.19836290180683136]","[0.2288818657398224, -3.982544422149658, -2.1543798446655273, -0.4822540879249573, 0.3633728325366974, -0.5517883896827698]"
1584451901965023620,,1251264,,1584451901,964580502,'',"[shoulder_pan_joint, shoulder_lift_joint, elbow_joint, wrist_1_joint, wrist_2_joint,","[1.6381484270095825, -1.1411550680743616, 2.4016504287719727, -2.814279381428854, -1.5648492018329065, 1.7157875299453735]","[-2.5566347176209092e-05, -1.2783173588104546e-05, 6.391586794052273e-05, 0.0, -5.752428114647046e-05, -0.19987769424915314]","[0.2105713039636612, -4.170227527618408, -2.1431708335876465, -0.4822540879249573, 0.2848663628101349, -0.4553375840187073]"
1584451902077075844,,1251278,,1584451902,76581711,'',"[shoulder_pan_joint, shoulder_lift_joint, elbow_joint, wrist_1_joint, wrist_2_joint,","[1.638100504875183, -1.1411550680743616, 2.401674270629883, -2.814303700123922, -1.5648492018329065, 1.6933515071868896]","[-2.5566347176209092e-05, -1.2783173588104546e-05, 5.1132694352418184e-05, 0.0, 5.752428114647046e-05, -0.19937916100025177]","[0.2014160305261612, -4.156494617462158, -2.0310802459716797, -0.4710388779640198, 0.1929016262292862, -0.5158997178077698]"
1584451902188933745,,1251292,,1584451902,188547203,'',"[shoulder_pan_joint, shoulder_lift_joint, elbow_joint, wrist_1_joint, wrist_2_joint,","[1.6381365060806274, -1.1411908308612269, 2.4016504287719727, -2.8143513838397425, -1.5649331251727503, 1.6709871292114258]","[-1.2783173588104546e-05, -1.2783173588104546e-05, 3.834952076431364e-05, 0.0, -0.0015723303658887744, -0.20006944239139557]","[0.1510620266199112, -4.142761707305908, -1.8853626251220703, -0.4822540879249573, 0.0695343092083931, -0.5181427597999573]"
1584451902301119569,,1251306,,1584451902,300685138,'',"[shoulder_pan_joint, shoulder_lift_joint, elbow_joint, wrist_1_joint, wrist_2_joint,","[1.6381244659423828, -1.1412032286273401, 2.4016382694244385, -2.8143513838397425, -1.5649569670306605, 1.6485867500305176]","[-1.2783173588104546e-05, -1.2783173588104546e-05, 3.834952076431364e-05, 0.0, -0.0007669904152862728, -0.20125828683376312]","[0.009155274368822575, -4.179382801055908, -1.7015341520309448, -0.4463654160499573, 0.0628051832318306, -0.4441223740577698]"
1584451902412953325,,1251320,,1584451902,412497363,'',"[shoulder_pan_joint, shoulder_lift_joint, elbow_joint, wrist_1_joint, wrist_2_joint,","[1.6381244659423828, -1.1412032286273401, 2.4016261100769043, -2.814399544392721, -1.5649450461017054, 1.626162052154541]","[-1.2783173588104546e-05, -1.2783173588104546e-05, -0.0, 0.0, -0.0002109223569277674, -0.20191022753715515]","[-0.1235962063074112, -3.964233875274658, -1.4706276655197144, -0.3813171684741974, 0.0605621412396431, -0.4957123398780823]"
1584451902524988647,,1251334,,1584451902,524498893,'',"[shoulder_pan_joint, shoulder_lift_joint, elbow_joint, wrist_1_joint, wrist_2_joint,","[1.638100504875183, -1.1411908308612269, 2.4017465114593506, -2.8143633047686976, -1.5649450461017054, 1.6037132740020752]","[-0.0003707120195031166, -1.2783173588104546e-05, 0.0006391586503013968, -3.834952076431364e-05, -0.00011504856229294091, -0.2001461535692215]","[-0.0869751051068306, -4.110718250274658, -1.4773530960083008, -0.3028106987476349, 0.0560760572552681, -0.3768310844898224]"
1584451902636980489,,1251348,,1584451902,636533725,'',"[shoulder_pan_joint, shoulder_lift_joint, elbow_joint, wrist_1_joint, wrist_2_joint,","[1.638088583946228, -1.141214672719137, 2.4017221927642822, -2.8143156210528772, -1.564920727406637, 1.5814073085784912]","[-0.0001917476038215682, -1.2783173588104546e-05, 0.00021731395099777728, 0.0011888351291418076, -7.669904152862728e-05, -0.20056799054145813]","[-0.0823974683880806, -4.129028797149658, -1.4863203763961792, -0.2086029201745987, 0.01794433780014515, -0.6145935654640198]"
1584451902749082866,,1251362,,1584451902,748589475,'',"[shoulder_pan_joint, shoulder_lift_joint, elbow_joint, wrist_1_joint, wrist_2_joint,","[1.638100504875183, -1.1411908308612269, 2.4017345905303955, -2.8142555395709437, -1.5649688879596155, 1.5589102506637573]","[-0.00010226538870483637, -1.2783173588104546e-05, 0.00012783173588104546, 0.0003834952076431364, 0.0, -0.20006944239139557]","[-0.0595092847943306, -4.092407703399658, -1.4885622262954712, -0.2400055229663849, -0.0358886756002903, -0.4306641221046448]"
1584451902861203679,,1251376,,1584451902,860610571,'',"[shoulder_pan_joint, shoulder_lift_joint, elbow_joint, wrist_1_joint, wrist_2_joint,","[1.6381365060806274, -1.1412032286273401, 2.4017221927642822, -2.8142674604998987, -1.5650289694415491, 1.5365803241729736]","[-6.391586794052273e-05, -1.2783173588104546e-05, 8.948221511673182e-05, 0.00017257283616345376, -0.0004218447138555348, -0.1970781832933426]","[-0.0778198316693306, -4.138184070587158, -1.4840785264968872, -0.2332763969898224, -0.02467346377670765, -0.5226288437843323]"
1584451902973155275,,1251390,,1584451902,972594308,'',"[shoulder_pan_joint, shoulder_lift_joint, elbow_joint, wrist_1_joint, wrist_2_joint,","[1.6381125450134277, -1.1411669890033167, 2.4017465114593506, -2.814291302357809, -1.5650046507464808, 1.5141301155090332]","[-5.1132694352418184e-05, -1.2783173588104546e-05, 6.391586794052273e-05, 9.58738019107841e-05, -0.00017257283616345376, -0.2004912942647934]","[-0.0823974683880806, -4.096985340118408, -1.4751113653182983, -0.2220611870288849, -0.0336456336081028, -0.4441223740577698]"
1584451903084996695,,1251404,,1584451903,84621745,'',"[shoulder_pan_joint, shoulder_lift_joint, elbow_joint, wrist_1_joint, wrist_2_joint,","[1.6381125450134277, -1.1411789099322718, 2.4017345905303955, -2.8142674604998987, -1.5650165716754358, 1.4916795492172241]","[-3.834952076431364e-05, -1.2783173588104546e-05, 5.1132694352418184e-05, 7.669904152862728e-05, -0.00011504856229294091, -0.1998009979724884]","[-0.0366210974752903, -4.060364246368408, -1.4863203763961792, -0.2377624809741974, -0.0291595496237278, -0.4620667099952698]"
1584451903196869394,,1251418,,1584451903,196475769,'',"[shoulder_pan_joint, shoulder_lift_joint, elbow_joint, wrist_1_joint, wrist_2_joint,","[1.6381125450134277, -1.1411908308612269, 2.4017345905303955, -2.8142316977130335, -1.5649927298175257, 1.469396710395813]","[-2.5566347176209092e-05, -1.2783173588104546e-05, 5.1132694352418184e-05, 5.752428114647046e-05, -7.669904152862728e-05, -0.1998009979724884]","[-0.0732421949505806, -4.138184070587158, -1.4840785264968872, -0.2332763969898224, -0.0269165076315403, -0.4710388779640198]"
1584451903308876904,,1251432,,1584451903,308486656,'',"[shoulder_pan_joint, shoulder_lift_joint, elbow_joint, wrist_1_joint, wrist_2_joint,","[1.6381244659423828, -1.1411789099322718, 2.4017586708068848, -2.8142555395709437, -1.5650046507464808, 1.4469454288482666]","[-2.5566347176209092e-05, -1.2783173588104546e-05, 3.834952076431364e-05, 3.834952076431364e-05, -5.752428114647046e-05, -0.20160342752933502]","[-0.0686645582318306, -4.129028797149658, -1.46614408493042, -0.2310333549976349, -0.0291595496237278, -0.3880462944507599]"
1584451903420917377,,1251446,,1584451903,420456196,'',"[shoulder_pan_joint, shoulder_lift_joint, elbow_joint, wrist_1_joint, wrist_2_joint,","[1.6381365060806274, -1.1412032286273401, 2.4017221927642822, -2.8142197767840784, -1.5650408903705042, 1.4245424270629883]","[-2.5566347176209092e-05, -1.2783173588104546e-05, 3.834952076431364e-05, 3.834952076431364e-05, -3.834952076431364e-05, -0.19966678321361542]","[-0.0411987341940403, -4.046631336212158, -1.4952876567840576, -0.2332763969898224, -0.0314025916159153, -0.5652466416358948]"
1584451903532836382,,1251460,,1584451903,532453798,'',"[shoulder_pan_joint, shoulder_lift_joint, elbow_joint, wrist_1_joint, wrist_2_joint,","[1.638100504875183, -1.1412032286273401, 2.4017345905303955, -2.8142436186419886, -1.5650046507464808, 1.4022340774536133]","[-1.2783173588104546e-05, -1.2783173588104546e-05, 2.5566347176209092e-05, 3.834952076431364e-05, -3.834952076431364e-05, -0.20223619043827057]","[-0.0549316480755806, -4.055786609649658, -1.4863203763961792, -0.2287903130054474, -0.0269165076315403, -0.4149627983570099]"
1584451903644826159,,1251474,,1584451903,644416775,'',"[shoulder_pan_joint, shoulder_lift_joint, elbow_joint, wrist_1_joint, wrist_2_joint,","[1.6381125450134277, -1.1411908308612269, 2.4017345905303955, -2.8142555395709437, -1.5650165716754358, 1.3797943592071533]","[-1.2783173588104546e-05, -1.2783173588104546e-05, 2.5566347176209092e-05, 1.917476038215682e-05, -3.834952076431364e-05, -0.19914905726909637]","[-0.0823974683880806, -4.106140613555908, -1.4930458068847656, -0.2287903130054474, -0.0291595496237278, -0.5495453476905823]"
