PorkPy/robot-pulling-data/ztwist70/joint_states_throttle.csv
rosbagTimestamp,header,seq,stamp,secs,nsecs,frame_id,name,wrist_3_joint],position,velocity,effort
1584451519837725633,,1203496,,1584451519,837394084,'',"[shoulder_pan_joint, shoulder_lift_joint, elbow_joint, wrist_1_joint, wrist_2_joint,","[1.4047702550888062, -1.1718247572528284, 2.4830703735351562, -2.8628152052508753, -1.5669696966754358, 2.7206344604492188]","[0.0, 0.0, -0.0, 0.0, 0.0, 0.0]","[-0.6866455674171448, -4.335022449493408, -0.892240583896637, -0.5450592637062073, 0.02243042178452015, 0.01345825381577015]"
1584451519949789699,,1203510,,1584451519,949334299,'',"[shoulder_pan_joint, shoulder_lift_joint, elbow_joint, wrist_1_joint, wrist_2_joint,","[1.4047702550888062, -1.17180043855776, 2.483046531677246, -2.862887207661764, -1.5669696966754358, 2.720670461654663]","[0.0, 0.0, -0.0, 0.0, 0.0, 0.0]","[-0.7095337510108948, -4.312134265899658, -0.8989660143852234, -0.5405731797218323, 0.02018737979233265, 0.01794433780014515]"
1584451520061805485,,1203524,,1584451520,61357648,'',"[shoulder_pan_joint, shoulder_lift_joint, elbow_joint, wrist_1_joint, wrist_2_joint,","[1.4047822952270508, -1.17180043855776, 2.483058452606201, -2.862863365803854, -1.5669577757464808, 2.720682382583618]","[0.0, 0.0, -0.0, 0.0, 0.0, 0.0]","[-0.6866455674171448, -4.325867176055908, -0.892240583896637, -0.5405731797218323, 0.02467346377670765, 0.008972168900072575]"
1584451520173738487,,1203538,,1584451520,173323061,'',"[shoulder_pan_joint, shoulder_lift_joint, elbow_joint, wrist_1_joint, wrist_2_joint,","[1.4047462940216064, -1.1718247572528284, 2.483058452606201, -2.862863365803854, -1.5669100920306605, 2.720658540725708]","[0.0, 0.0, -0.0, 0.0, 0.0, 0.0]","[-0.6958008408546448, -4.357910633087158, -0.8967242240905762, -0.5405731797218323, 0.02018737979233265, 0.011215210892260075]"
1584451520285730038,,1203552,,1584451520,285378411,'',"[shoulder_pan_joint, shoulder_lift_joint, elbow_joint, wrist_1_joint, wrist_2_joint,","[1.4047702550888062, -1.171788517628805, 2.483058452606201, -2.862863365803854, -1.5669220129596155, 2.7206344604492188]","[0.0, 0.0, -0.0, 0.0, 0.0, 0.0]","[-0.6912232041358948, -4.335022449493408, -0.9034496545791626, -0.5428162217140198, 0.02243042178452015, 0.02018737979233265]"
1584451520397602035,,1203566,,1584451520,397306342,'',"[shoulder_pan_joint, shoulder_lift_joint, elbow_joint, wrist_1_joint, wrist_2_joint,","[1.4047462940216064, -1.17180043855776, 2.483058452606201, -2.8628271261798304, -1.5669458548175257, 2.720658540725708]","[0.0, 0.0, -0.0, 0.0, 0.0, 0.0]","[-0.7049561142921448, -4.284668445587158, -0.9034496545791626, -0.5473023056983948, 0.01794433780014515, 0.01345825381577015]"
1584451520509643619,,1203580,,1584451520,509316108,'',"[shoulder_pan_joint, shoulder_lift_joint, elbow_joint, wrist_1_joint, wrist_2_joint,","[1.4047702550888062, -1.1718123594867151, 2.4830703735351562, -2.8628514448748987, -1.5669577757464808, 2.720658540725708]","[0.0, 0.0, -0.0, 0.0, 0.0, 0.0]","[-0.7049561142921448, -4.321289539337158, -0.910175085067749, -0.5360870957374573, 0.0269165076315403, 0.011215210892260075]"
1584451520621711652,,1203594,,1584451520,621358533,'',"[shoulder_pan_joint, shoulder_lift_joint, elbow_joint, wrist_1_joint, wrist_2_joint,","[1.4048062562942505, -1.1718485991107386, 2.483046531677246, -2.862863365803854, -1.5669458548175257, 2.7206344604492188]","[0.0, 0.0, -0.0, 0.0, 0.0, 0.0]","[-0.7141113877296448, -4.335022449493408, -0.8899987936019897, -0.5562744736671448, 0.02018737979233265, 0.01345825381577015]"
1584451520733773415,,1203608,,1584451520,733386422,'',"[shoulder_pan_joint, shoulder_lift_joint, elbow_joint, wrist_1_joint, wrist_2_joint,","[1.4047343730926514, -1.17180043855776, 2.483046531677246, -2.8628390471087855, -1.5669696966754358, 2.720646381378174]","[0.0, 0.0, -0.0, 0.0, 0.0, 0.0]","[-0.6866455674171448, -4.307556629180908, -0.8989660143852234, -0.5495453476905823, 0.02018737979233265, 0.008972168900072575]"
1584451520845668936,,1203622,,1584451520,845296180,'',"[shoulder_pan_joint, shoulder_lift_joint, elbow_joint, wrist_1_joint, wrist_2_joint,","[1.4047702550888062, -1.17180043855776, 2.483046531677246, -2.8628514448748987, -1.5669577757464808, 2.7206225395202637]","[0.0, 0.0, -0.0, 0.0, 0.0, 0.0]","[-0.6774902939796448, -4.325867176055908, -0.8967242240905762, -0.5428162217140198, 0.0269165076315403, 0.01570129580795765]"
1584451520957666899,,1203636,,1584451520,957325551,'',"[shoulder_pan_joint, shoulder_lift_joint, elbow_joint, wrist_1_joint, wrist_2_joint,","[1.4047462940216064, -1.17180043855776, 2.4830703735351562, -2.862863365803854, -1.5669100920306605, 2.7206344604492188]","[0.0, 0.0, -0.0, 0.0, 0.0, 0.0]","[-0.6912232041358948, -4.321289539337158, -0.8877570033073425, -0.5450592637062073, 0.02467346377670765, 0.01794433780014515]"
1584451521069682204,,1203650,,1584451521,69301463,'',"[shoulder_pan_joint, shoulder_lift_joint, elbow_joint, wrist_1_joint, wrist_2_joint,","[1.4047702550888062, -1.17180043855776, 2.483046531677246, -2.862863365803854, -1.5669339338885706, 2.720646381378174]","[0.0, 0.0, -0.0, 0.0, 0.0, 0.0]","[-0.7095337510108948, -4.293823719024658, -0.9012078642845154, -0.5316010117530823, 0.0291595496237278, 0.008972168900072575]"
1584451521181614795,,1203664,,1584451521,181276463,'',"[shoulder_pan_joint, shoulder_lift_joint, elbow_joint, wrist_1_joint, wrist_2_joint,","[1.4047702550888062, -1.1718123594867151, 2.4830703735351562, -2.8628514448748987, -1.5669458548175257, 2.7206108570098877]","[0.0, 0.0, -0.0, 0.0, 0.0, 0.0]","[-0.7095337510108948, -4.280090808868408, -0.8877570033073425, -0.5428162217140198, 0.02467346377670765, 0.01345825381577015]"
1584451521293754883,,1203678,,1584451521,293332995,'',"[shoulder_pan_joint, shoulder_lift_joint, elbow_joint, wrist_1_joint, wrist_2_joint,","[1.4047702550888062, -1.171788517628805, 2.483058452606201, -2.862875286732809, -1.5669696966754358, 2.720658540725708]","[0.0, 0.0, -0.0, 0.0, 0.0, 0.0]","[-0.6820679306983948, -4.307556629180908, -0.894482433795929, -0.5450592637062073, 0.02467346377670765, 0.011215210892260075]"
1584451521405626309,,1203692,,1584451521,405287517,'',"[shoulder_pan_joint, shoulder_lift_joint, elbow_joint, wrist_1_joint, wrist_2_joint,","[1.404758334159851, -1.1718362013446253, 2.483058452606201, -2.8628514448748987, -1.5669577757464808, 2.720670461654663]","[0.0, 0.0, -0.0, 0.0, 0.0, 0.0]","[-0.7095337510108948, -4.325867176055908, -0.8967242240905762, -0.5450592637062073, 0.01794433780014515, 0.008972168900072575]"
1584451521517795371,,1203706,,1584451521,517347254,'',"[shoulder_pan_joint, shoulder_lift_joint, elbow_joint, wrist_1_joint, wrist_2_joint,","[1.404758334159851, -1.1718123594867151, 2.483058452606201, -2.8628271261798304, -1.5669220129596155, 2.720658540725708]","[0.0, 0.0, -0.0, 0.0, 0.0, 0.0]","[-0.7003784775733948, -4.307556629180908, -0.9034496545791626, -0.5360870957374573, 0.02243042178452015, 0.01794433780014515]"
1584451521629762176,,1203720,,1584451521,629332584,'',"[shoulder_pan_joint, shoulder_lift_joint, elbow_joint, wrist_1_joint, wrist_2_joint,","[1.404758334159851, -1.1718485991107386, 2.483034372329712, -2.8628152052508753, -1.5669458548175257, 2.720658540725708]","[0.0, 0.0, -0.0, 0.0, 0.0, 0.0]","[-0.7141113877296448, -4.321289539337158, -0.9034496545791626, -0.5517883896827698, 0.02467346377670765, 0.011215210892260075]"
1584451521741564003,,1203734,,1584451521,741254916,'',"[shoulder_pan_joint, shoulder_lift_joint, elbow_joint, wrist_1_joint, wrist_2_joint,","[1.4047942161560059, -1.1718247572528284, 2.4831063747406006, -2.8628390471087855, -1.5669458548175257, 2.720646381378174]","[0.0, 0.0, -0.0, 0.0, 0.0, 0.0]","[-0.6500244736671448, -4.321289539337158, -0.9034496545791626, -0.5473023056983948, 0.02467346377670765, 0.01570129580795765]"
1584451521853825948,,1203748,,1584451521,853385626,'',"[shoulder_pan_joint, shoulder_lift_joint, elbow_joint, wrist_1_joint, wrist_2_joint,","[1.4047702550888062, -1.1718123594867151, 2.483046531677246, -2.862863365803854, -1.5669458548175257, 2.720658540725708]","[0.0, 0.0, -0.0, 0.0, 0.0, 0.0]","[-0.7049561142921448, -4.307556629180908, -0.9056914448738098, -0.5428162217140198, 0.01345825381577015, 0.008972168900072575]"
1584451521965703096,,1203762,,1584451521,965305944,'',"[shoulder_pan_joint, shoulder_lift_joint, elbow_joint, wrist_1_joint, wrist_2_joint,","[1.404758334159851, -1.1718247572528284, 2.4830703735351562, -2.862863365803854, -1.5669940153705042, 2.7206344604492188]","[0.0, 0.0, -0.0, 0.0, 0.0, 0.0]","[-0.7049561142921448, -4.339600086212158, -0.8855151534080505, -0.5383301377296448, 0.02018737979233265, 0.01794433780014515]"
1584451522077618414,,1203776,,1584451522,77252311,'',"[shoulder_pan_joint, shoulder_lift_joint, elbow_joint, wrist_1_joint, wrist_2_joint,","[1.4047462940216064, -1.1718123594867151, 2.483058452606201, -2.862875286732809, -1.5669696966754358, 2.7206225395202637]","[0.0, 0.0, -0.0, 0.0, 0.0, 0.0]","[-0.6866455674171448, -4.344177722930908, -0.894482433795929, -0.5450592637062073, 0.0269165076315403, 0.01345825381577015]"
1584451522189560442,,1203790,,1584451522,189239853,'',"[shoulder_pan_joint, shoulder_lift_joint, elbow_joint, wrist_1_joint, wrist_2_joint,","[1.404758334159851, -1.1718123594867151, 2.4830822944641113, -2.8628390471087855, -1.5669458548175257, 2.720658540725708]","[0.0, 0.0, -0.0, 0.0, 0.0, 0.0]","[-0.7003784775733948, -4.316711902618408, -0.8855151534080505, -0.5495453476905823, 0.01794433780014515, 0.02018737979233265]"
1584451522301774809,,1203804,,1584451522,301330480,'',"[shoulder_pan_joint, shoulder_lift_joint, elbow_joint, wrist_1_joint, wrist_2_joint,","[1.404758334159851, -1.1718123594867151, 2.483034372329712, -2.8628271261798304, -1.5669696966754358, 2.720646381378174]","[0.0, 0.0, -0.0, 0.0, 0.0, 0.0]","[-0.7095337510108948, -4.321289539337158, -0.892240583896637, -0.5428162217140198, 0.02467346377670765, 0.01345825381577015]"
1584451522413583499,,1203818,,1584451522,413251900,'',"[shoulder_pan_joint, shoulder_lift_joint, elbow_joint, wrist_1_joint, wrist_2_joint,","[1.4047702550888062, -1.1718485991107386, 2.483058452606201, -2.8628271261798304, -1.5669458548175257, 2.7206344604492188]","[0.0, 0.0, -0.0, 0.0, 0.0, 0.0]","[-0.7324219346046448, -4.353332996368408, -0.9079332947731018, -0.5450592637062073, 0.02243042178452015, 0.01570129580795765]"
1584451522525724088,,1203832,,1584451522,525313050,'',"[shoulder_pan_joint, shoulder_lift_joint, elbow_joint, wrist_1_joint, wrist_2_joint,","[1.4047702550888062, -1.1718123594867151, 2.483058452606201, -2.8628271261798304, -1.5669577757464808, 2.720670461654663]","[0.0, 0.0, -0.0, 0.0, 0.0, 0.0]","[-0.7186890244483948, -4.348755359649658, -0.9034496545791626, -0.5428162217140198, 0.02018737979233265, 0.01794433780014515]"
1584451522637620822,,1203846,,1584451522,637288822,'',"[shoulder_pan_joint, shoulder_lift_joint, elbow_joint, wrist_1_joint, wrist_2_joint,","[1.4047702550888062, -1.1718123594867151, 2.4830703735351562, -2.8628514448748987, -1.5669458548175257, 2.7206225395202637]","[0.0, 0.0, -0.0, 0.0, 0.0, 0.0]","[-0.7461548447608948, -4.261780261993408, -0.9079332947731018, -0.5450592637062073, 0.02243042178452015, 0.01345825381577015]"
1584451522749610739,,1203860,,1584451522,749240067,'',"[shoulder_pan_joint, shoulder_lift_joint, elbow_joint, wrist_1_joint, wrist_2_joint,","[1.4047462940216064, -1.1718247572528284, 2.483058452606201, -2.8628514448748987, -1.5669577757464808, 2.720646381378174]","[0.0, 0.0, -0.0, 0.0, 0.0, 0.0]","[-0.6958008408546448, -4.280090808868408, -0.9079332947731018, -0.5428162217140198, 0.02243042178452015, 0.011215210892260075]"
1584451522861637556,,1203874,,1584451522,861266272,'',"[shoulder_pan_joint, shoulder_lift_joint, elbow_joint, wrist_1_joint, wrist_2_joint,","[1.4047702550888062, -1.1718123594867151, 2.483058452606201, -2.862863365803854, -1.5669577757464808, 2.720646381378174]","[0.0, 0.0, -0.0, 0.0, 0.0, 0.0]","[-0.7186890244483948, -4.325867176055908, -0.9079332947731018, -0.5383301377296448, 0.02243042178452015, 0.008972168900072575]"
1584451522973567131,,1203888,,1584451522,973204263,'',"[shoulder_pan_joint, shoulder_lift_joint, elbow_joint, wrist_1_joint, wrist_2_joint,","[1.4047702550888062, -1.171788517628805, 2.483058452606201, -2.8628514448748987, -1.5669220129596155, 2.720658540725708]","[0.0, 0.0, -0.0, 0.0, 0.0, 0.0]","[-0.7049561142921448, -4.316711902618408, -0.9056914448738098, -0.5316010117530823, 0.02243042178452015, 0.0269165076315403]"
1584451523085726505,,1203902,,1584451523,85272707,'',"[shoulder_pan_joint, shoulder_lift_joint, elbow_joint, wrist_1_joint, wrist_2_joint,","[1.4047702550888062, -1.17177659669985, 2.483034372329712, -2.8628390471087855, -1.5669577757464808, 2.720658540725708]","[0.0, 0.0, -0.0, 0.0, 0.0, 0.0]","[-0.7690430283546448, -4.348755359649658, -0.8899987936019897, -0.5316010117530823, 0.02243042178452015, 0.01345825381577015]"
1584451523197754755,,1203916,,1584451523,197288574,'',"[shoulder_pan_joint, shoulder_lift_joint, elbow_joint, wrist_1_joint, wrist_2_joint,","[1.4050339460372925, -1.1716926733600062, 2.4827585220336914, -2.8623960653888147, -1.5669940153705042, 2.7209341526031494]","[0.02015906386077404, 0.008219580166041851, -0.021987058222293854, 0.027055587619543076, 0.0, 0.018733739852905273]","[0.7186890244483948, -2.833557367324829, -1.9212316274642944, -0.2422485649585724, 0.0493469275534153, 0.3499145805835724]"
1584451523309661968,,1203930,,1584451523,309271589,'',"[shoulder_pan_joint, shoulder_lift_joint, elbow_joint, wrist_1_joint, wrist_2_joint,","[1.4067256450653076, -1.1711528936969202, 2.4812228679656982, -2.860995594655172, -1.5669696966754358, 2.71992826461792]","[0.0062637547962367535, 0.0005496764788404107, 0.0041673146188259125, -0.0046786414459347725, 0.0, -0.044562142342329025]","[0.7644653916358948, -3.684998035430908, -1.5087385177612305, -0.3790741264820099, 0.0515899695456028, -0.3095398247241974]"
1584451523421543092,,1203944,,1584451523,421188630,'',"[shoulder_pan_joint, shoulder_lift_joint, elbow_joint, wrist_1_joint, wrist_2_joint,","[1.4055380821228027, -1.1715605894671839, 2.4823625087738037, -2.8623841444598597, -1.5669339338885706, 2.716348171234131]","[-0.021756961941719055, -0.0011377024929970503, 0.0021347899455577135, -0.002205097349360585, 0.0, -0.020325245335698128]","[-0.8743286728858948, -3.849792957305908, -1.0222655534744263, -0.5876770615577698, 0.0314025916159153, -0.3813171684741974]"
1584451523533509787,,1203958,,1584451523,533172787,'',"[shoulder_pan_joint, shoulder_lift_joint, elbow_joint, wrist_1_joint, wrist_2_joint,","[1.4041463136672974, -1.1714046637164515, 2.4814627170562744, -2.8616183439837855, -1.566981617604391, 2.718635320663452]","[-0.002940129954367876, 0.0014061491237953305, -0.008986570872366428, 0.007478156592696905, 0.0, 0.05221287161111832]","[-0.7095337510108948, -3.094482660293579, -1.9257152080535889, -0.2063598781824112, 0.0358886756002903, 0.3297272026538849]"
1584451523645623365,,1203972,,1584451523,645213199,'',"[shoulder_pan_joint, shoulder_lift_joint, elbow_joint, wrist_1_joint, wrist_2_joint,","[1.404170274734497, -1.1714885870562952, 2.4820144176483154, -2.8620970884906214, -1.5669577757464808, 2.722886085510254]","[0.00043462790199555457, -0.0022754049859941006, 0.01080178190022707, -0.007919175550341606, 0.0, 0.017679128795862198]","[-0.0549316480755806, -3.964233875274658, -0.9819130301475525, -0.6145935654640198, 0.0336456336081028, 0.3364563286304474]"
1584451523757636757,,1203986,,1584451523,757277686,'',"[shoulder_pan_joint, shoulder_lift_joint, elbow_joint, wrist_1_joint, wrist_2_joint,","[1.4041823148727417, -1.1715129057513636, 2.4820263385772705, -2.8621447722064417, -1.5669339338885706, 2.722766160964966]","[-0.003285275539383292, -0.0002812298189383, -0.002646117005497217, 0.0013230585027486086, 0.0, -0.05083229020237923]","[-0.6134033799171448, -3.437805414199829, -1.5064966678619385, -0.3858032524585724, 0.0493469275534153, -0.2063598781824112]"
1584451523869501431,,1204000,,1584451523,869182575,'',"[shoulder_pan_joint, shoulder_lift_joint, elbow_joint, wrist_1_joint, wrist_2_joint,","[1.4043384790420532, -1.1715009848224085, 2.4820022583007812, -2.8620970884906214, -1.5669696966754358, 2.717700958251953]","[0.0015595471486449242, -0.00014061490946915, -0.00029401297797448933, 0.00026844663079828024, 0.0, -0.03292306512594223]","[0.1739502102136612, -3.611755847930908, -1.3988897800445557, -0.4306641221046448, 0.0358886756002903, -0.3117828667163849]"
1584451523981543225,,1204014,,1584451523,981203250,'',"[shoulder_pan_joint, shoulder_lift_joint, elbow_joint, wrist_1_joint, wrist_2_joint,","[1.4043505191802979, -1.1714766661273401, 2.481990337371826, -2.8621447722064417, -1.5669458548175257, 2.7148752212524414]","[0.00023009712458588183, -7.669904152862728e-05, -0.00015339808305725455, 0.00013422331539914012, 0.0, -0.017123060300946236]","[-0.1327514797449112, -3.547668933868408, -1.3630207777023315, -0.4463654160499573, 0.0358886756002903, -0.3431854546070099]"
1584451524093490293,,1204028,,1584451524,93152322,'',"[shoulder_pan_joint, shoulder_lift_joint, elbow_joint, wrist_1_joint, wrist_2_joint,","[1.405250072479248, -1.171464745198385, 2.4819424152374268, -2.862072769795553, -1.5669696966754358, 2.7174017429351807]","[0.019213110208511353, 6.391586794052273e-05, -0.0009203884983435273, 0.0007094661123119295, 0.0, 0.06187695264816284]","[0.7690430283546448, -3.488159418106079, -1.5289148092269897, -0.3768310844898224, 0.0448608435690403, 0.3499145805835724]"
1584451524205547898,,1204042,,1584451524,205167076,'',"[shoulder_pan_joint, shoulder_lift_joint, elbow_joint, wrist_1_joint, wrist_2_joint,","[1.4070971012115479, -1.1714766661273401, 2.4819183349609375, -2.8620250860797327, -1.5669458548175257, 2.7233171463012695]","[0.012450811453163624, 6.391586794052273e-05, -0.00024288029817398638, 0.0002109223569277674, 0.0, 0.036144424229860306]","[0.9841920137405396, -3.662109851837158, -1.360779047012329, -0.4351502060890198, 0.0515899695456028, 0.3678589165210724]"
1584451524317475799,,1204056,,1584451524,317137147,'',"[shoulder_pan_joint, shoulder_lift_joint, elbow_joint, wrist_1_joint, wrist_2_joint,","[1.406389594078064, -1.171464745198385, 2.4819424152374268, -2.8620131651507776, -1.5669940153705042, 2.723496437072754]","[-0.0262310728430748, 6.391586794052273e-05, 0.0006008091731928289, 0.00011504856229294091, 0.0, -0.053459230810403824]","[-1.0711671113967896, -3.529358386993408, -1.4392423629760742, -0.4441223740577698, 0.0358886756002903, -0.2400055229663849]"
1584451524429512575,,1204070,,1584451524,429164294,'',"[shoulder_pan_joint, shoulder_lift_joint, elbow_joint, wrist_1_joint, wrist_2_joint,","[1.4045661687850952, -1.17145282426943, 2.481630802154541, -2.8619053999530237, -1.5670178572284144, 2.7178807258605957]","[-0.0046658581122756, 0.0003707120195031166, -0.004039482679218054, 0.0033747577108442783, 0.0, -0.03430364653468132]","[-0.8605957627296448, -3.332519769668579, -1.6611815690994263, -0.3588867485523224, 0.0403747595846653, -0.3431854546070099]"
1584451524541598692,,1204084,,1584451524,541182995,'',"[shoulder_pan_joint, shoulder_lift_joint, elbow_joint, wrist_1_joint, wrist_2_joint,","[1.406437635421753, -1.1713927427874964, 2.481294870376587, -2.861713711415426, -1.5670416990863245, 2.7162764072418213]","[0.03416942432522774, 0.00020453077740967274, -0.002160356380045414, 0.0008820389630272985, 0.0, 0.033249035477638245]","[0.8377075791358948, -3.451538324356079, -1.6611815690994263, -0.3005676567554474, 0.0515899695456028, 0.1143951565027237]"
1584451524653561870,,1204098,,1584451524,653187641,'',"[shoulder_pan_joint, shoulder_lift_joint, elbow_joint, wrist_1_joint, wrist_2_joint,","[1.4106358289718628, -1.1714046637164515, 2.4811747074127197, -2.8616183439837855, -1.5670416990863245, 2.7216522693634033]","[0.04213333874940872, 0.00010226538870483637, -0.0023009711876511574, 0.00026844663079828024, 0.0, 0.04469636455178261]","[0.8377075791358948, -3.680420398712158, -1.4571768045425415, -0.3656158745288849, 0.0829925611615181, 0.4082336723804474]"
1584451524765556406,,1204112,,1584451524,765167330,'',"[shoulder_pan_joint, shoulder_lift_joint, elbow_joint, wrist_1_joint, wrist_2_joint,","[1.4154455661773682, -1.1713808218585413, 2.4810667037963867, -2.8616541067706507, -1.5670655409442347, 2.7248735427856445]","[0.03604855015873909, 6.391586794052273e-05, -0.0006519418675452471, 0.00013422331539914012, 0.0, 0.013652428984642029]","[0.8834840059280396, -3.721619129180908, -1.4100987911224365, -0.3880462944507599, 0.0964508131146431, 0.3229980766773224]"
1584451524877527859,,1204126,,1584451524,877166885,'',"[shoulder_pan_joint, shoulder_lift_joint, elbow_joint, wrist_1_joint, wrist_2_joint,","[1.418768286705017, -1.1713689009295862, 2.4806225299835205, -2.8616064230548304, -1.5670655409442347, 2.7242865562438965]","[0.025170069187879562, 5.1132694352418184e-05, -0.009127185679972172, 0.003950000740587711, 0.0, -0.045156560838222504]","[0.7553101181983948, -3.492737054824829, -1.5827182531356812, -0.2781372368335724, 0.0740203931927681, -0.2265472710132599]"
1584451524989672706,,1204140,,1584451524,989206526,'',"[shoulder_pan_joint, shoulder_lift_joint, elbow_joint, wrist_1_joint, wrist_2_joint,","[1.4215028285980225, -1.1700614134417933, 2.476087808609009, -2.8586729208575647, -1.5670655409442347, 2.718958616256714]","[0.026141589507460594, 0.02707476168870926, -0.0819273591041565, 0.04013277217745781, 0.0, -0.03875219076871872]","[0.7827759385108948, -2.842712640762329, -1.5804764032363892, -0.1637420803308487, 0.0785064771771431, -0.2983246147632599]"
1584451525101663426,,1204154,,1584451525,101133526,'',"[shoulder_pan_joint, shoulder_lift_joint, elbow_joint, wrist_1_joint, wrist_2_joint,","[1.4249932765960693, -1.1649540106402796, 2.460634469985962, -2.850699249898092, -1.5670416990863245, 2.7160487174987793]","[0.03682832419872284, 0.06354515254497528, -0.18214744329452515, 0.10525026172399521, 0.0, -0.017199760302901268]","[1.0162354707717896, -2.568054437637329, -1.7620631456375122, -0.1390686184167862, 0.0785064771771431, -0.3185119926929474]"
1584451525213485991,,1204168,,1584451525,213125547,'',"[shoulder_pan_joint, shoulder_lift_joint, elbow_joint, wrist_1_joint, wrist_2_joint,","[1.4296592473983765, -1.155602757130758, 2.439013719558716, -2.838128391896383, -1.5670297781573694, 2.7153782844543457]","[0.04695259779691696, 0.09164257347583771, -0.18594403564929962, 0.11399395018815994, 0.0, 0.03863714262843132]","[0.9201050996780396, -3.048706293106079, -1.9817605018615723, -0.1794433742761612, 0.0403747595846653, 0.1300964504480362]"
1584451525325642049,,1204182,,1584451525,325145852,'',"[shoulder_pan_joint, shoulder_lift_joint, elbow_joint, wrist_1_joint, wrist_2_joint,","[1.4359326362609863, -1.1474135557757776, 2.422624349594116, -2.8273051420794886, -1.5670178572284144, 2.7215805053710938]","[0.062305185943841934, 0.058649200946092606, -0.10463027656078339, 0.06761020421981812, 0.0, 0.056239571422338486]","[0.8193970322608948, -3.479004144668579, -2.3404502868652344, -0.1143951565027237, 0.0628051832318306, 0.4015045464038849]"
1584451525437528123,,1204196,,1584451525,437115212,'',"[shoulder_pan_joint, shoulder_lift_joint, elbow_joint, wrist_1_joint, wrist_2_joint,","[1.4439328908920288, -1.1434572378741663, 2.4164209365844727, -2.823019329701559, -1.5670416990863245, 2.7261903285980225]","[0.07517784088850021, 0.011210842989385128, -0.008769256994128227, 0.010277671739459038, 0.0, 0.02828277088701725]","[0.8605957627296448, -3.515625476837158, -2.2597451210021973, -0.1839294582605362, 0.1121521145105362, 0.3454284965991974]"
1584451525549531485,,1204210,,1584451525,549162727,'',"[shoulder_pan_joint, shoulder_lift_joint, elbow_joint, wrist_1_joint, wrist_2_joint,","[1.453204870223999, -1.1433852354632776, 2.4163849353790283, -2.822911564503805, -1.5670655409442347, 2.7292556762695312]","[0.0920388475060463, -0.0006263754912652075, 0.0008436894277110696, -0.001073786523193121, 0.0, 0.026767965406179428]","[0.7278442978858948, -4.316711902618408, -1.786723017692566, -0.4172058403491974, 0.1457977443933487, 0.2826233208179474]"
1584451525661602645,,1204224,,1584451525,661142355,'',"[shoulder_pan_joint, shoulder_lift_joint, elbow_joint, wrist_1_joint, wrist_2_joint,","[1.4641083478927612, -1.1434090773211878, 2.416337013244629, -2.82292348543276, -1.5670655409442347, 2.7335541248321533]","[0.11274758726358414, -0.00015339808305725455, -8.948221511673182e-05, -0.00023009712458588183, 0.0, 0.0475534051656723]","[1.1306763887405396, -4.357910633087158, -1.8450100421905518, -0.3745880424976349, 0.1682281643152237, 0.3274841606616974]"
1584451525773442061,,1204238,,1584451525,773092098,'',"[shoulder_pan_joint, shoulder_lift_joint, elbow_joint, wrist_1_joint, wrist_2_joint,","[1.478094220161438, -1.1434572378741663, 2.4163968563079834, -2.8229592482196253, -1.5670655409442347, 2.7387030124664307]","[0.13074630498886108, -8.948221511673182e-05, -8.948221511673182e-05, -0.00013422331539914012, 0.0, 0.04001772403717041]","[0.8010864853858948, -4.518127918243408, -1.7934484481811523, -0.3880462944507599, 0.2108459621667862, 0.3880462944507599]"
1584451525885619570,,1204252,,1584451525,885159440,'',"[shoulder_pan_joint, shoulder_lift_joint, elbow_joint, wrist_1_joint, wrist_2_joint,","[1.4926438331604004, -1.1434691588031214, 2.4164209365844727, -2.8229716459857386, -1.567077938710348, 2.742403030395508]","[0.13533546030521393, -0.0003707120195031166, -8.948221511673182e-05, -9.58738019107841e-05, 0.0, 0.02653786912560463]","[0.7507324814796448, -4.554749011993408, -1.833801031112671, -0.3925323784351349, 0.1682281643152237, 0.3656158745288849]"
1584451525997448687,,1204266,,1584451525,997084958,'',"[shoulder_pan_joint, shoulder_lift_joint, elbow_joint, wrist_1_joint, wrist_2_joint,","[1.5086922645568848, -1.143529240285055, 2.4164090156555176, -2.8229592482196253, -1.5671137014972132, 2.745168685913086]","[0.14695535600185394, -0.0005368932615965605, -8.948221511673182e-05, -5.752428114647046e-05, 0.0, 0.024045148864388466]","[0.8056641221046448, -4.541016101837158, -1.9458914995193481, -0.3319702446460724, 0.2534637749195099, 0.3095398247241974]"
1584451526109614824,,1204280,,1584451526,109106985,'',"[shoulder_pan_joint, shoulder_lift_joint, elbow_joint, wrist_1_joint, wrist_2_joint,","[1.525352954864502, -1.1435774008380335, 2.416552782058716, -2.822887722645895, -1.567197624837057, 2.748353958129883]","[0.1520814150571823, -0.0003195793251506984, 0.0007414240390062332, 0.0, 0.0, 0.03104393742978573]","[1.1581422090530396, -4.724121570587158, -1.8517354726791382, -0.3745880424976349, 0.2714081108570099, 0.3678589165210724]"
1584451526221480931,,1204294,,1584451526,221098186,'',"[shoulder_pan_joint, shoulder_lift_joint, elbow_joint, wrist_1_joint, wrist_2_joint,","[1.5419657230377197, -1.1443923155414026, 2.4189646244049072, -2.823282543812887, -1.5673053900348108, 2.7508325576782227]","[0.13975843787193298, -0.02165469527244568, 0.05083868280053139, -0.015397332608699799, -0.0006327670998871326, 0.014093448407948017]","[0.8834840059280396, -5.342102527618408, -1.6141035556793213, -0.8478699326515198, 0.3207550346851349, 0.3297272026538849]"
1584451526333509932,,1204308,,1584451526,333097912,'',"[shoulder_pan_joint, shoulder_lift_joint, elbow_joint, wrist_1_joint, wrist_2_joint,","[1.5562748908996582, -1.147449795399801, 2.424531936645508, -2.825282398854391, -1.5674126783954065, 2.7502100467681885]","[0.11604564636945724, -0.031983498483896255, 0.045111820101737976, -0.0175640806555748, -0.0003451456723269075, -0.04964345321059227]","[0.9292603731155396, -5.049133777618408, -1.5109803676605225, -0.944320797920227, 0.3229980766773224, -0.2400055229663849]"
1584451526445583966,,1204322,,1584451526,445173850,'',"[shoulder_pan_joint, shoulder_lift_joint, elbow_joint, wrist_1_joint, wrist_2_joint,","[1.5687249898910522, -1.1508668104754847, 2.4298229217529297, -2.826850716267721, -1.5675209204303187, 2.7445943355560303]","[0.10060357302427292, -0.03181731700897217, 0.0589943453669548, -0.021878400817513466, -0.0008820389630272985, -0.045520879328250885]","[1.0986329317092896, -5.085754871368408, -1.416824221611023, -0.939834713935852, 0.3342132866382599, -0.2871094048023224]"
1584451526557485228,,1204336,,1584451526,557098456,'',"[shoulder_pan_joint, shoulder_lift_joint, elbow_joint, wrist_1_joint, wrist_2_joint,","[1.578956127166748, -1.1550152937518519, 2.4360382556915283, -2.8300469557391565, -1.567580525075094, 2.7389066219329834]","[0.0819273591041565, -0.030193855985999107, 0.04502233862876892, -0.024505343288183212, -0.0003067961661145091, -0.05783107876777649]","[1.0665894746780396, -4.792786121368408, -1.3293936252593994, -0.8501129746437073, 0.3454284965991974, -0.2534637749195099]"
1584451526669462482,,1204350,,1584451526,669085819,'',"[shoulder_pan_joint, shoulder_lift_joint, elbow_joint, wrist_1_joint, wrist_2_joint,","[1.5869807004928589, -1.1570408979998987, 2.4411375522613525, -2.8331597487079065, -1.5676525274859827, 2.7312071323394775]","[0.06868398934602737, -0.013920876197516918, 0.05423900485038757, -0.031446605920791626, -0.000517718552146107, -0.06847307085990906]","[0.9841920137405396, -5.062866687774658, -1.322668194770813, -0.8501129746437073, 0.3409424126148224, -0.3454284965991974]"
1584451526781446219,,1204364,,1584451526,781077029,'',"[shoulder_pan_joint, shoulder_lift_joint, elbow_joint, wrist_1_joint, wrist_2_joint,","[1.594441294670105, -1.1590436140643519, 2.447136402130127, -2.837254349385397, -1.5676286856280726, 2.723245143890381]","[0.06414596736431122, -0.01943042315542698, 0.039027027785778046, -0.02822524681687355, -0.0001917476038215682, -0.07790704816579819]","[1.0253907442092896, -4.861450672149658, -1.2957664728164673, -0.9106751680374146, 0.3476715385913849, -0.2287903130054474]"
1584451526893513060,,1204378,,1584451526,893082867,'',"[shoulder_pan_joint, shoulder_lift_joint, elbow_joint, wrist_1_joint, wrist_2_joint,","[1.6015418767929077, -1.1609376112567347, 2.4512758255004883, -2.839888397847311, -1.5676286856280726, 2.7133543491363525]","[0.056118130683898926, -0.017525730654597282, 0.04532913491129875, -0.026039324700832367, -0.00013422331539914012, -0.09228812158107758]","[0.9567261934280396, -4.962158679962158, -1.3630207777023315, -0.8545990586280823, 0.3970184624195099, -0.3117828667163849]"
1584451527005570443,,1204392,,1584451527,5126264,'',"[shoulder_pan_joint, shoulder_lift_joint, elbow_joint, wrist_1_joint, wrist_2_joint,","[1.6069751977920532, -1.1638391653644007, 2.458462953567505, -2.844581429158346, -1.5675328413592737, 2.702422857284546]","[0.04421699792146683, -0.03708398714661598, 0.06908027082681656, -0.0545138418674469, 5.752428114647046e-05, -0.10064831376075745]","[0.9063721895217896, -4.943848133087158, -1.3562953472137451, -0.6392670273780823, 0.3813171684741974, -0.3072967827320099]"
1584451527117458922,,1204406,,1584451527,117060808,'',"[shoulder_pan_joint, shoulder_lift_joint, elbow_joint, wrist_1_joint, wrist_2_joint,","[1.6121569871902466, -1.168011490498678, 2.4644017219543457, -2.849633518849508, -1.5674966017352503, 2.691586971282959]","[0.05179741978645325, -0.0267807487398386, 0.05221926420927048, -0.03664296865463257, 5.752428114647046e-05, -0.10291093587875366]","[0.7873535752296448, -4.476929187774658, -1.2486884593963623, -0.5899201035499573, 0.3970184624195099, -0.2377624809741974]"
1584451527229342271,,1204420,,1584451527,229027453,'',"[shoulder_pan_joint, shoulder_lift_joint, elbow_joint, wrist_1_joint, wrist_2_joint,","[1.6180341243743896, -1.1705172697650355, 2.4713847637176514, -2.854302708302633, -1.5674126783954065, 2.6794698238372803]","[0.055517323315143585, -0.022370554506778717, 0.057626545429229736, -0.04532913491129875, 0.0013230585027486086, -0.10239321738481522]","[0.5676270127296448, -4.866028308868408, -1.1612578630447388, -0.5899201035499573, 0.4037475883960724, -0.2871094048023224]"
1584451527341388493,,1204434,,1584451527,341042948,'',"[shoulder_pan_joint, shoulder_lift_joint, elbow_joint, wrist_1_joint, wrist_2_joint,","[1.6243789196014404, -1.1727355162249964, 2.4761240482330322, -2.85777455965151, -1.567436997090475, 2.6675922870635986]","[0.0582401379942894, -0.0158894844353199, 0.035230427980422974, -0.01980752684175968, 0.00024927189224399626, -0.09790632873773575]","[0.8377075791358948, -4.792786121368408, -1.2016104459762573, -0.6123505234718323, 0.3880462944507599, -0.3274841606616974]"
1584451527453379443,,1204448,,1584451527,453067741,'',"[shoulder_pan_joint, shoulder_lift_joint, elbow_joint, wrist_1_joint, wrist_2_joint,","[1.6303044557571411, -1.1746299902545374, 2.4808387756347656, -2.8599541823016565, -1.5675328413592737, 2.655331611633301]","[0.043603405356407166, -0.020670391619205475, 0.04908738657832146, -0.024102672934532166, 0.00011504856229294091, -0.11943957954645157]","[0.8789063692092896, -4.806519031524658, -1.275590181350708, -0.6459961533546448, 0.4306641221046448, -0.2422485649585724]"
1584451527565475679,,1204462,,1584451527,565061305,'',"[shoulder_pan_joint, shoulder_lift_joint, elbow_joint, wrist_1_joint, wrist_2_joint,","[1.6343704462051392, -1.1772201696978968, 2.4844980239868164, -2.86219293275942, -1.567580525075094, 2.642341136932373]","[0.03147217258810997, -0.02298414520919323, 0.014278804883360863, -0.009108010679483414, 0.00011504856229294091, -0.11911360919475555]","[0.7461548447608948, -4.412842273712158, -1.192643165588379, -0.6706696152687073, 0.4015045464038849, -0.3297272026538849]"
1584451527677453535,,1204476,,1584451527,677044050,'',"[shoulder_pan_joint, shoulder_lift_joint, elbow_joint, wrist_1_joint, wrist_2_joint,","[1.6378488540649414, -1.1786225477801722, 2.486069917678833, -2.8625038305865687, -1.56777269044985, 2.6293022632598877]","[0.030129939317703247, -0.007759386207908392, 0.021399032324552536, -0.006653641816228628, -0.0017449031583964825, -0.12634249031543732]","[1.0894776582717896, -4.394531726837158, -1.3450863361358643, -0.6931000351905823, 0.4329071640968323, -0.2332763969898224]"
1584451527789323619,,1204490,,1584451527,789010133,'',"[shoulder_pan_joint, shoulder_lift_joint, elbow_joint, wrist_1_joint, wrist_2_joint,","[1.6407033205032349, -1.1801813284503382, 2.489849090576172, -2.86434775987734, -1.56777269044985, 2.614180564880371]","[0.02528511732816696, -0.017257284373044968, 0.04819256439805031, -0.026039324700832367, -0.00026844663079828024, -0.13849928975105286]","[0.8651733994483948, -4.431152820587158, -1.136597990989685, -0.6661835312843323, 0.4194488823413849, -0.2669220268726349]"
1584451527901386052,,1204504,,1584451527,901010971,'',"[shoulder_pan_joint, shoulder_lift_joint, elbow_joint, wrist_1_joint, wrist_2_joint,","[1.6439177989959717, -1.1822431723224085, 2.496267795562744, -2.8685858885394495, -1.5676406065570276, 2.5985801219940186]","[0.03627864643931389, -0.019302591681480408, 0.04815421625971794, -0.03689223900437355, -0.00013422331539914012, -0.1377514749765396]","[0.8331299424171448, -4.650879383087158, -1.0626182556152344, -0.6661835312843323, 0.4822540879249573, -0.2512207329273224]"
1584451528013445219,,1204518,,1584451528,13044180,'',"[shoulder_pan_joint, shoulder_lift_joint, elbow_joint, wrist_1_joint, wrist_2_joint,","[1.648187518119812, -1.1838863531695765, 2.4998068809509277, -2.8715437094317835, -1.5676644484149378, 2.583601951599121]","[0.03815777227282524, -0.009037703275680542, 0.021769745275378227, -0.014553642831742764, -0.00013422331539914012, -0.12902696430683136]","[0.8468628525733948, -4.403687000274658, -1.2060940265655518, -0.6639404892921448, 0.4486084580421448, -0.2579498589038849]"
1584451528125428234,,1204532,,1584451528,125015994,'',"[shoulder_pan_joint, shoulder_lift_joint, elbow_joint, wrist_1_joint, wrist_2_joint,","[1.6520737409591675, -1.184857193623678, 2.503214120864868, -2.87307578722109, -1.5677369276629847, 2.568767786026001]","[0.0291200689971447, -0.012016182765364647, 0.04313042759895325, -0.019270634278655052, 0.00013422331539914012, -0.1380966305732727]","[0.8560181260108948, -4.751587390899658, -1.055892825126648, -0.7020722031593323, 0.4418793320655823, -0.2669220268726349]"
1584451528237325839,,1204546,,1584451528,237011612,'',"[shoulder_pan_joint, shoulder_lift_joint, elbow_joint, wrist_1_joint, wrist_2_joint,","[1.654928207397461, -1.186991039906637, 2.508204698562622, -2.8760932127581995, -1.5676763693438929, 2.553347110748291]","[0.025144502520561218, -0.0218975767493248, 0.02929903380572796, -0.024275247007608414, 0.00013422331539914012, -0.13174977898597717]","[0.7049561142921448, -4.421997547149658, -0.8967242240905762, -0.5809479355812073, 0.4194488823413849, -0.2893524467945099]"
1584451528349326938,,1204560,,1584451528,348997593,'',"[shoulder_pan_joint, shoulder_lift_joint, elbow_joint, wrist_1_joint, wrist_2_joint,","[1.6566195487976074, -1.1880105177508753, 2.5089609622955322, -2.8768590132342737, -1.5677126089679163, 2.5380101203918457]","[0.00250550196506083, -0.0008564726449549198, -0.0023137545213103294, 0.0025310683995485306, 0.0, -0.14624589681625366]","[0.4302978813648224, -3.744507312774658, -1.4818367958068848, -0.2624359428882599, 0.4620667099952698, -0.2871094048023224]"
1584451528461420479,,1204574,,1584451528,461033567,'',"[shoulder_pan_joint, shoulder_lift_joint, elbow_joint, wrist_1_joint, wrist_2_joint,","[1.653441071510315, -1.187890354787008, 2.5077250003814697, -2.876380268727438, -1.5676048437701624, 2.519956111907959]","[-0.03783819451928139, 0.00570129556581378, -0.03575453534722328, 0.023431556299328804, 3.834952076431364e-05, -0.15493206679821014]","[-0.9704591035842896, -2.742004632949829, -1.7060178518295288, -0.0785064771771431, 0.3947754204273224, -0.3072967827320099]"
1584451528573322332,,1204588,,1584451528,572998758,'',"[shoulder_pan_joint, shoulder_lift_joint, elbow_joint, wrist_1_joint, wrist_2_joint,","[1.6494109630584717, -1.1871712843524378, 2.503309965133667, -2.8746798674212855, -1.5675328413592737, 2.5084269046783447]","[-0.0252212006598711, 0.0014444986591115594, -0.025131719186902046, 0.006711165886372328, 0.000517718552146107, -0.030775491148233414]","[-0.6134033799171448, -2.801513910293579, -1.463902235031128, -0.0493469275534153, 0.4149627983570099, -0.2063598781824112]"
1584451528685519588,,1204602,,1584451528,685099022,'',"[shoulder_pan_joint, shoulder_lift_joint, elbow_joint, wrist_1_joint, wrist_2_joint,","[1.648691177368164, -1.187218968068258, 2.502661943435669, -2.8749197165118616, -1.5677369276629847, 2.5079712867736816]","[0.0005496764788404107, -0.0003323625132907182, -0.003157443832606077, -0.002837864449247718, -0.001208009896799922, 0.0007478156476281583]","[-0.1327514797449112, -3.561401844024658, -1.3092173337936401, -0.3813171684741974, 0.0762634351849556, 0.0471038855612278]"
1584451528797314911,,1204616,,1584451528,796949028,'',"[shoulder_pan_joint, shoulder_lift_joint, elbow_joint, wrist_1_joint, wrist_2_joint,","[1.6487032175064087, -1.187207047139303, 2.502650022506714, -2.8749197165118616, -1.567784611378805, 2.5079712867736816]","[0.00015339808305725455, -0.00015339808305725455, 0.0005113269435241818, -0.0003067961661145091, -0.00032597093377262354, 0.0002109223569277674]","[-0.1235962063074112, -3.584290027618408, -1.3540536165237427, -0.3880462944507599, 0.1502838283777237, 0.0560760572552681]"
1584451528909324516,,1204630,,1584451528,908983690,'',"[shoulder_pan_joint, shoulder_lift_joint, elbow_joint, wrist_1_joint, wrist_2_joint,","[1.6487151384353638, -1.187207047139303, 2.502650022506714, -2.8749197165118616, -1.567784611378805, 2.5079593658447266]","[8.948221511673182e-05, -8.948221511673182e-05, 0.0001917476038215682, -0.00028762139845639467, -0.00013422331539914012, 0.00011504856229294091]","[-0.0823974683880806, -3.588867664337158, -1.3518117666244507, -0.3835602104663849, 0.2579498589038849, 0.0426178015768528]"
1584451529021427014,,1204644,,1584451529,21032347,'',"[shoulder_pan_joint, shoulder_lift_joint, elbow_joint, wrist_1_joint, wrist_2_joint,","[1.6487032175064087, -1.187207047139303, 2.5026259422302246, -2.8749077955829065, -1.5676887671100062, 2.5079712867736816]","[6.391586794052273e-05, -6.391586794052273e-05, 0.00011504856229294091, -0.00015339808305725455, 0.0026269422378391027, 7.669904152862728e-05]","[-0.0320434607565403, -3.561401844024658, -1.3562953472137451, -0.3476715385913849, 0.3723450005054474, 0.0471038855612278]"
1584451529133333426,,1204658,,1584451529,132973423,'',"[shoulder_pan_joint, shoulder_lift_joint, elbow_joint, wrist_1_joint, wrist_2_joint,","[1.6487032175064087, -1.187207047139303, 2.502661943435669, -2.8749316374408167, -1.5675566832171839, 2.5079712867736816]","[3.834952076431364e-05, -5.1132694352418184e-05, 8.948221511673182e-05, -9.58738019107841e-05, 0.0016298546688631177, 5.752428114647046e-05]","[-0.0274658240377903, -3.634644031524658, -1.358537197113037, -0.2871094048023224, 0.4059906303882599, 0.0560760572552681]"
1584451529245334214,,1204672,,1584451529,244981165,'',"[shoulder_pan_joint, shoulder_lift_joint, elbow_joint, wrist_1_joint, wrist_2_joint,","[1.648727536201477, -1.187195126210348, 2.502638101577759, -2.8748839537249964, -1.5675566832171839, 2.5079593658447266]","[3.834952076431364e-05, -3.834952076431364e-05, 6.391586794052273e-05, 1.917476038215682e-05, 0.00026844663079828024, 5.752428114647046e-05]","[-0.0869751051068306, -3.634644031524658, -1.3383609056472778, -0.2355194389820099, 0.4553375840187073, 0.0493469275534153]"
1584451529357424600,,1204686,,1584451529,357024162,'',"[shoulder_pan_joint, shoulder_lift_joint, elbow_joint, wrist_1_joint, wrist_2_joint,","[1.648727536201477, -1.187218968068258, 2.502661943435669, -2.8749077955829065, -1.5675447622882288, 2.5079355239868164]","[2.5566347176209092e-05, -2.5566347176209092e-05, 5.1132694352418184e-05, 1.917476038215682e-05, 0.00013422331539914012, 3.834952076431364e-05]","[-0.0640869215130806, -3.616333484649658, -1.3450863361358643, -0.2400055229663849, 0.4261780083179474, 0.0605621412396431]"
1584451529469276860,,1204700,,1584451529,468985736,'',"[shoulder_pan_joint, shoulder_lift_joint, elbow_joint, wrist_1_joint, wrist_2_joint,","[1.6487151384353638, -1.187207047139303, 2.502674102783203, -2.874871555958883, -1.567568604146139, 2.5079593658447266]","[2.5566347176209092e-05, -2.5566347176209092e-05, 3.834952076431364e-05, 1.917476038215682e-05, 9.58738019107841e-05, 3.834952076431364e-05]","[-0.0503540076315403, -3.611755847930908, -1.3473281860351562, -0.2377624809741974, 0.4351502060890198, 0.0538330152630806]"
1584451529581407471,,1204714,,1584451529,581009037,'',"[shoulder_pan_joint, shoulder_lift_joint, elbow_joint, wrist_1_joint, wrist_2_joint,","[1.648727536201477, -1.187207047139303, 2.502674102783203, -2.8748839537249964, -1.5675447622882288, 2.5079474449157715]","[2.5566347176209092e-05, -2.5566347176209092e-05, 3.834952076431364e-05, 1.917476038215682e-05, 5.752428114647046e-05, 1.917476038215682e-05]","[-0.0915527418255806, -3.607178211212158, -1.327151894569397, -0.2265472710132599, 0.4598236680030823, 0.0560760572552681]"
1584451529693334881,,1204728,,1584451529,692948590,'',"[shoulder_pan_joint, shoulder_lift_joint, elbow_joint, wrist_1_joint, wrist_2_joint,","[1.648691177368164, -1.187218968068258, 2.502686023712158, -2.874859635029928, -1.567568604146139, 2.507995367050171]","[1.2783173588104546e-05, -1.2783173588104546e-05, 3.834952076431364e-05, 1.917476038215682e-05, 5.752428114647046e-05, 1.917476038215682e-05]","[-0.0778198316693306, -3.598022937774658, -1.3495699167251587, -0.1884155422449112, 0.4396362900733948, 0.0515899695456028]"
1584451529805374191,,1204742,,1584451529,804966680,'',"[shoulder_pan_joint, shoulder_lift_joint, elbow_joint, wrist_1_joint, wrist_2_joint,","[1.6487032175064087, -1.1871712843524378, 2.502661943435669, -2.874871555958883, -1.5675209204303187, 2.5079712867736816]","[1.2783173588104546e-05, 0.0, 2.5566347176209092e-05, 1.917476038215682e-05, 3.834952076431364e-05, 1.917476038215682e-05]","[-0.1098632961511612, -3.588867664337158, -1.3630207777023315, -0.2063598781824112, 0.4396362900733948, 0.0538330152630806]"
1584451529917255978,,1204756,,1584451529,916902678,'',"[shoulder_pan_joint, shoulder_lift_joint, elbow_joint, wrist_1_joint, wrist_2_joint,","[1.6487395763397217, -1.1871827284442347, 2.502661943435669, -2.874871555958883, -1.5675566832171839, 2.507995367050171]","[1.2783173588104546e-05, 0.0, 2.5566347176209092e-05, 1.917476038215682e-05, 3.834952076431364e-05, 1.917476038215682e-05]","[-0.1098632961511612, -3.630066394805908, -1.3630207777023315, -0.2086029201745987, 0.4373932480812073, 0.0515899695456028]"
1584451530029351983,,1204770,,1584451530,28995527,'',"[shoulder_pan_joint, shoulder_lift_joint, elbow_joint, wrist_1_joint, wrist_2_joint,","[1.6487151384353638, -1.1872308889972132, 2.502686023712158, -2.874871555958883, -1.5675566832171839, 2.507995367050171]","[1.2783173588104546e-05, 0.0, 2.5566347176209092e-05, 1.917476038215682e-05, 3.834952076431364e-05, 1.917476038215682e-05]","[-0.0595092847943306, -3.584290027618408, -1.3473281860351562, -0.2041168361902237, 0.4149627983570099, 0.0515899695456028]"
1584451530141195197,,1204784,,1584451530,140878846,'',"[shoulder_pan_joint, shoulder_lift_joint, elbow_joint, wrist_1_joint, wrist_2_joint,","[1.6487151384353638, -1.1871827284442347, 2.502650022506714, -2.8748958746539515, -1.5675328413592737, 2.5079712867736816]","[1.2783173588104546e-05, 0.0, 2.5566347176209092e-05, 1.917476038215682e-05, 1.917476038215682e-05, 1.917476038215682e-05]","[-0.0823974683880806, -3.575134754180908, -1.3562953472137451, -0.2108459621667862, 0.4261780083179474, 0.0448608435690403]"
1584451530253310209,,1204798,,1584451530,252934136,'',"[shoulder_pan_joint, shoulder_lift_joint, elbow_joint, wrist_1_joint, wrist_2_joint,","[1.6487151384353638, -1.187207047139303, 2.502674102783203, -2.874859635029928, -1.5675566832171839, 2.507995367050171]","[1.2783173588104546e-05, 0.0, 1.2783173588104546e-05, 1.917476038215682e-05, 1.917476038215682e-05, 1.917476038215682e-05]","[-0.0549316480755806, -3.575134754180908, -1.3361190557479858, -0.2041168361902237, 0.4486084580421448, 0.0471038855612278]"
1584451530365407476,,1204812,,1584451530,364995186,'',"[shoulder_pan_joint, shoulder_lift_joint, elbow_joint, wrist_1_joint, wrist_2_joint,","[1.6487151384353638, -1.187195126210348, 2.502650022506714, -2.8748839537249964, -1.5675328413592737, 2.5079593658447266]","[1.2783173588104546e-05, 0.0, 1.2783173588104546e-05, 1.917476038215682e-05, 1.917476038215682e-05, 1.917476038215682e-05]","[-0.0686645582318306, -3.607178211212158, -1.3383609056472778, -0.2086029201745987, 0.4373932480812073, 0.0560760572552681]"
1584451530477279033,,1204826,,1584451530,476934540,'',"[shoulder_pan_joint, shoulder_lift_joint, elbow_joint, wrist_1_joint, wrist_2_joint,","[1.6487032175064087, -1.1872308889972132, 2.502661943435669, -2.874871555958883, -1.5675089995013636, 2.507983446121216]","[1.2783173588104546e-05, 0.0, 1.2783173588104546e-05, 1.917476038215682e-05, 1.917476038215682e-05, 1.917476038215682e-05]","[-0.0457763709127903, -3.648376941680908, -1.3159427642822266, -0.2041168361902237, 0.4755249619483948, 0.0515899695456028]"
1584451530589219619,,1204840,,1584451530,588915872,'',"[shoulder_pan_joint, shoulder_lift_joint, elbow_joint, wrist_1_joint, wrist_2_joint,","[1.648727536201477, -1.1872308889972132, 2.502674102783203, -2.874859635029928, -1.567568604146139, 2.508007287979126]","[1.2783173588104546e-05, 0.0, 1.2783173588104546e-05, 1.917476038215682e-05, 1.917476038215682e-05, 0.0]","[-0.0869751051068306, -3.593445301055908, -1.3518117666244507, -0.2108459621667862, 0.4373932480812073, 0.0515899695456028]"
1584451530701363604,,1204854,,1584451530,700964980,'',"[shoulder_pan_joint, shoulder_lift_joint, elbow_joint, wrist_1_joint, wrist_2_joint,","[1.648727536201477, -1.1872308889972132, 2.502674102783203, -2.8748839537249964, -1.5675447622882288, 2.507983446121216]","[0.0, 0.0, 1.2783173588104546e-05, 1.917476038215682e-05, 0.0, 0.0]","[-0.0823974683880806, -3.556824207305908, -1.324910044670105, -0.1996307522058487, 0.4665527939796448, 0.0515899695456028]"
1584451530813354484,,1204868,,1584451530,812957012,'',"[shoulder_pan_joint, shoulder_lift_joint, elbow_joint, wrist_1_joint, wrist_2_joint,","[1.6487151384353638, -1.187195126210348, 2.502674102783203, -2.874871555958883, -1.5675447622882288, 2.507983446121216]","[0.0, 0.0, 1.2783173588104546e-05, 1.917476038215682e-05, 0.0, 0.0]","[-0.0457763709127903, -3.598022937774658, -1.358537197113037, -0.2086029201745987, 0.4172058403491974, 0.0695343092083931]"
1584451530925373856,,1204882,,1584451530,924947290,'',"[shoulder_pan_joint, shoulder_lift_joint, elbow_joint, wrist_1_joint, wrist_2_joint,","[1.648727536201477, -1.1871827284442347, 2.502661943435669, -2.874871555958883, -1.5675209204303187, 2.507983446121216]","[0.0, 0.0, 1.2783173588104546e-05, 1.917476038215682e-05, 0.0, 0.0]","[-0.0732421949505806, -3.575134754180908, -1.3428444862365723, -0.2063598781824112, 0.4284210503101349, 0.0515899695456028]"
1584451531037296779,,1204896,,1584451531,36932409,'',"[shoulder_pan_joint, shoulder_lift_joint, elbow_joint, wrist_1_joint, wrist_2_joint,","[1.648691177368164, -1.1871827284442347, 2.502661943435669, -2.874859635029928, -1.5675328413592737, 2.5079712867736816]","[0.0, 0.0, 1.2783173588104546e-05, 1.917476038215682e-05, 0.0, 0.0]","[-0.0732421949505806, -3.671265125274658, -1.3338773250579834, -0.2063598781824112, 0.4329071640968323, 0.0560760572552681]"
1584451531149315231,,1204910,,1584451531,148910244,'',"[shoulder_pan_joint, shoulder_lift_joint, elbow_joint, wrist_1_joint, wrist_2_joint,","[1.6487032175064087, -1.1871712843524378, 2.502661943435669, -2.874871555958883, -1.5675328413592737, 2.507995367050171]","[0.0, 0.0, 1.2783173588104546e-05, 0.0, 0.0, 0.0]","[-0.0686645582318306, -3.616333484649658, -1.3518117666244507, -0.2086029201745987, 0.4373932480812073, 0.0403747595846653]"
1584451531261257359,,1204924,,1584451531,260872259,'',"[shoulder_pan_joint, shoulder_lift_joint, elbow_joint, wrist_1_joint, wrist_2_joint,","[1.6487151384353638, -1.1871588865863245, 2.502650022506714, -2.8749077955829065, -1.5675328413592737, 2.504643201828003]","[0.0, 0.0, 1.2783173588104546e-05, 0.0, 0.0, -0.0875903069972992]","[-0.0503540076315403, -3.639221668243408, -1.324910044670105, -0.2063598781824112, 0.4216919243335724, -0.2400055229663849]"
1584451531373250543,,1204938,,1584451531,372905318,'',"[shoulder_pan_joint, shoulder_lift_joint, elbow_joint, wrist_1_joint, wrist_2_joint,","[1.6487395763397217, -1.187207047139303, 2.502661943435669, -2.874871555958883, -1.5675328413592737, 2.4856672286987305]","[0.0, 0.0, 1.2783173588104546e-05, 0.0, 0.0, -0.2008364349603653]","[-0.0961303785443306, -3.547668933868408, -1.3428444862365723, -0.2086029201745987, 0.4127197563648224, -0.4194488823413849]"
1584451531485198372,,1204952,,1584451531,484877232,'',"[shoulder_pan_joint, shoulder_lift_joint, elbow_joint, wrist_1_joint, wrist_2_joint,","[1.6487032175064087, -1.187207047139303, 2.502686023712158, -2.8748839537249964, -1.5675089995013636, 2.4631597995758057]","[0.0, 0.0, 1.2783173588104546e-05, 0.0, 3.834952076431364e-05, -0.1991107165813446]","[-0.0732421949505806, -3.611755847930908, -1.3518117666244507, -0.2041168361902237, 0.4687958359718323, -0.3835602104663849]"
1584451531597198308,,1204966,,1584451531,596865957,'',"[shoulder_pan_joint, shoulder_lift_joint, elbow_joint, wrist_1_joint, wrist_2_joint,","[1.6487151384353638, -1.187207047139303, 2.5027103424072266, -2.874859635029928, -1.5674126783954065, 2.440652370452881]","[0.0, 0.0, 1.2783173588104546e-05, 0.0, 0.0003067961661145091, -0.20001192390918732]","[-0.1007080152630806, -3.657532215118408, -1.3406027555465698, -0.2086029201745987, 0.4306641221046448, -0.3813171684741974]"
1584451531709331013,,1204980,,1584451531,708897864,'',"[shoulder_pan_joint, shoulder_lift_joint, elbow_joint, wrist_1_joint, wrist_2_joint,","[1.6487032175064087, -1.1871827284442347, 2.5027103424072266, -2.874847714100973, -1.56744891801943, 2.4182889461517334]","[0.0, 0.0, -0.0, 0.0, 0.00028762139845639467, -0.19937916100025177]","[-0.1052856519818306, -3.607178211212158, -1.3338773250579834, -0.2041168361902237, 0.4530945420265198, -0.4687958359718323]"
1584451531821260327,,1204994,,1584451531,820850602,'',"[shoulder_pan_joint, shoulder_lift_joint, elbow_joint, wrist_1_joint, wrist_2_joint,","[1.6487032175064087, -1.1871827284442347, 2.502686023712158, -2.874859635029928, -1.567341152821676, 2.395949602127075]","[0.0, 0.0, -0.0, 0.0, 0.00026844663079828024, -0.2011815905570984]","[-0.0732421949505806, -3.588867664337158, -1.3383609056472778, -0.2063598781824112, 0.4149627983570099, -0.3342132866382599]"
1584451531933185925,,1205008,,1584451531,932849717,'',"[shoulder_pan_joint, shoulder_lift_joint, elbow_joint, wrist_1_joint, wrist_2_joint,","[1.6487151384353638, -1.187195126210348, 2.502686023712158, -2.874859635029928, -1.5673530737506312, 2.3735263347625732]","[0.0, 0.0, -0.0, 0.0, 0.00015339808305725455, -0.20089396834373474]","[-0.0961303785443306, -3.620911121368408, -1.3338773250579834, -0.2041168361902237, 0.3319702446460724, -0.4822540879249573]"
1584451532045271892,,1205022,,1584451532,44895199,'',"[shoulder_pan_joint, shoulder_lift_joint, elbow_joint, wrist_1_joint, wrist_2_joint,","[1.6487395763397217, -1.187218968068258, 2.502661943435669, -2.8748000303851526, -1.5673888365374964, 2.3511035442352295]","[0.0, 0.0, -0.0, 0.0, 7.669904152862728e-05, -0.20160342752933502]","[-0.0686645582318306, -3.634644031524658, -1.3540536165237427, -0.2130890041589737, 0.2512207329273224, -0.3678589165210724]"
1584451532157214431,,1205036,,1584451532,156840913,'',"[shoulder_pan_joint, shoulder_lift_joint, elbow_joint, wrist_1_joint, wrist_2_joint,","[1.648691177368164, -1.187207047139303, 2.5026979446411133, -2.874871555958883, -1.56744891801943, 2.328824043273926]","[0.0, 0.0, -0.0, 0.0, -0.00199417513795197, -0.19905318319797516]","[-0.0869751051068306, -3.556824207305908, -1.3114591836929321, -0.2063598781824112, 0.1413116604089737, -0.4620667099952698]"
1584451532269350061,,1205050,,1584451532,268932882,'',"[shoulder_pan_joint, shoulder_lift_joint, elbow_joint, wrist_1_joint, wrist_2_joint,","[1.6487395763397217, -1.1871827284442347, 2.502686023712158, -2.874847714100973, -1.5674846808062952, 2.306269884109497]","[0.0, 0.0, -0.0, 0.0, -0.00028762139845639467, -0.20006944239139557]","[-0.02288818545639515, -3.584290027618408, -1.3562953472137451, -0.2108459621667862, 0.1659851223230362, -0.3858032524585724]"
1584451532381177636,,1205064,,1584451532,380859211,'',"[shoulder_pan_joint, shoulder_lift_joint, elbow_joint, wrist_1_joint, wrist_2_joint,","[1.6487514972686768, -1.1871827284442347, 2.502686023712158, -2.874835793172018, -1.5674727598773401, 2.283930778503418]","[0.0, 0.0, -0.0, 0.0, -0.00015339808305725455, -0.1984395980834961]","[-0.1052856519818306, -3.611755847930908, -1.3450863361358643, -0.2086029201745987, 0.1749572902917862, -0.4867401719093323]"
1584451532493281206,,1205078,,1584451532,492862954,'',"[shoulder_pan_joint, shoulder_lift_joint, elbow_joint, wrist_1_joint, wrist_2_joint,","[1.648691177368164, -1.1871712843524378, 2.5026979446411133, -2.874823872243063, -1.5674846808062952, 2.261591911315918]","[0.0, 0.0, -0.0, 0.0, -9.58738019107841e-05, -0.2017376571893692]","[-0.0411987341940403, -3.579712390899658, -1.3652626276016235, -0.2108459621667862, 0.1772003322839737, -0.4216919243335724]"
1584451532605205321,,1205092,,1584451532,604877408,'',"[shoulder_pan_joint, shoulder_lift_joint, elbow_joint, wrist_1_joint, wrist_2_joint,","[1.6487395763397217, -1.187207047139303, 2.5027103424072266, -2.8748000303851526, -1.5674727598773401, 2.2390737533569336]","[0.0, 0.0, -0.0, 0.0, -7.669904152862728e-05, -0.20006944239139557]","[-0.0823974683880806, -3.625488758087158, -1.3630207777023315, -0.2086029201745987, 0.1816864162683487, -0.4261780083179474]"
1584451532717232738,,1205106,,1584451532,716833813,'',"[shoulder_pan_joint, shoulder_lift_joint, elbow_joint, wrist_1_joint, wrist_2_joint,","[1.6487395763397217, -1.187207047139303, 2.5027103424072266, -2.8748000303851526, -1.567460838948385, 2.216723680496216]","[0.0, 0.0, -0.0, 0.0, -5.752428114647046e-05, -0.19836290180683136]","[-0.1052856519818306, -3.630066394805908, -1.3495699167251587, -0.2086029201745987, 0.1659851223230362, -0.5203858017921448]"
1584451532829072435,,1205120,,1584451532,828793855,'',"[shoulder_pan_joint, shoulder_lift_joint, elbow_joint, wrist_1_joint, wrist_2_joint,","[1.6487395763397217, -1.1872308889972132, 2.5027222633361816, -2.8747881094561976, -1.5674966017352503, 2.194265127182007]","[0.0, 0.0, -0.0, 0.0, -3.834952076431364e-05, -0.2026580423116684]","[-0.0823974683880806, -3.538513660430908, -1.3540536165237427, -0.2086029201745987, 0.1592559963464737, -0.3454284965991974]"
1584451532941118959,,1205134,,1584451532,940844496,'',"[shoulder_pan_joint, shoulder_lift_joint, elbow_joint, wrist_1_joint, wrist_2_joint,","[1.6487151384353638, -1.1871712843524378, 2.5027341842651367, -2.8747881094561976, -1.5674966017352503, 2.1719746589660645]","[0.0, 0.0, -0.0, 0.0, -3.834952076431364e-05, -0.2004912942647934]","[-0.0640869215130806, -3.552246570587158, -1.3562953472137451, -0.2108459621667862, 0.1749572902917862, -0.5046845078468323]"
1584451533053179659,,1205148,,1584451533,52832310,'',"[shoulder_pan_joint, shoulder_lift_joint, elbow_joint, wrist_1_joint, wrist_2_joint,","[1.6487151384353638, -1.1871712843524378, 2.502746343612671, -2.874763790761129, -1.56744891801943, 2.1495285034179688]","[0.0, 0.0, -0.0, 0.0, -3.834952076431364e-05, -0.1980752795934677]","[-0.0640869215130806, -3.588867664337158, -1.3899224996566772, -0.2063598781824112, 0.1614990383386612, -0.4059906303882599]"
1584451533165175498,,1205162,,1584451533,164826947,'',"[shoulder_pan_joint, shoulder_lift_joint, elbow_joint, wrist_1_joint, wrist_2_joint,","[1.6487395763397217, -1.1871827284442347, 2.5027341842651367, -2.8747757116900843, -1.5674727598773401, 2.1271421909332275]","[0.0, 0.0, -0.0, 3.834952076431364e-05, -1.917476038215682e-05, -0.19891896843910217]","[-0.0686645582318306, -3.602600574493408, -1.3652626276016235, -0.2108459621667862, 0.1592559963464737, -0.4665527939796448]"
1584451533277109652,,1205176,,1584451533,276813038,'',"[shoulder_pan_joint, shoulder_lift_joint, elbow_joint, wrist_1_joint, wrist_2_joint,","[1.648691177368164, -1.1871827284442347, 2.502758264541626, -2.874739948903219, -1.5674966017352503, 2.1046602725982666]","[0.0, 0.0, -0.0, 3.834952076431364e-05, -1.917476038215682e-05, -0.2011815905570984]","[-0.1007080152630806, -3.570557117462158, -1.3876807689666748, -0.2130890041589737, 0.1727142482995987, -0.4216919243335724]"
1584451533389148130,,1205190,,1584451533,388837910,'',"[shoulder_pan_joint, shoulder_lift_joint, elbow_joint, wrist_1_joint, wrist_2_joint,","[1.6487514972686768, -1.187207047139303, 2.5027823448181152, -2.874763790761129, -1.5675089995013636, 2.0823216438293457]","[0.0, 0.0, -0.0, 3.834952076431364e-05, -1.917476038215682e-05, -0.19918741285800934]","[-0.1052856519818306, -3.630066394805908, -1.4100987911224365, -0.2153320610523224, 0.1772003322839737, -0.4486084580421448]"
1584451533501236421,,1205204,,1584451533,500864527,'',"[shoulder_pan_joint, shoulder_lift_joint, elbow_joint, wrist_1_joint, wrist_2_joint,","[1.6487395763397217, -1.187207047139303, 2.5027823448181152, -2.874739948903219, -1.5674966017352503, 2.059887647628784]","[0.0, 0.0, -0.0, 3.834952076431364e-05, -1.917476038215682e-05, -0.19987769424915314]","[-0.0778198316693306, -3.556824207305908, -1.454935073852539, -0.2265472710132599, 0.1816864162683487, -0.4912262558937073]"
1584451533613105323,,1205218,,1584451533,612790776,'',"[shoulder_pan_joint, shoulder_lift_joint, elbow_joint, wrist_1_joint, wrist_2_joint,","[1.6487151384353638, -1.1871827284442347, 2.5027823448181152, -2.8746798674212855, -1.5674846808062952, 2.0375373363494873]","[0.0, 0.0, -0.0, 3.834952076431364e-05, -1.917476038215682e-05, -0.20202527940273285]","[-0.1144409328699112, -3.584290027618408, -1.5737509727478027, -0.2534637749195099, 0.1861725002527237, -0.3745880424976349]"
1584451533725078509,,1205232,,1584451533,724739606,'',"[shoulder_pan_joint, shoulder_lift_joint, elbow_joint, wrist_1_joint, wrist_2_joint,","[1.6487032175064087, -1.187218968068258, 2.502746343612671, -2.874716107045309, -1.5675209204303187, 2.0152108669281006]","[0.0, 0.0, -0.0, 3.834952076431364e-05, -1.917476038215682e-05, -0.2006063461303711]","[-0.0503540076315403, -3.657532215118408, -1.721710443496704, -0.3162689507007599, 0.1704712063074112, -0.4889832139015198]"
1584451533837131736,,1205246,,1584451533,836789777,'',"[shoulder_pan_joint, shoulder_lift_joint, elbow_joint, wrist_1_joint, wrist_2_joint,","[1.6487395763397217, -1.1871827284442347, 2.502746343612671, -2.874716107045309, -1.5675328413592737, 1.9926931858062744]","[0.0, 0.0, -0.0, 3.834952076431364e-05, -1.917476038215682e-05, -0.20125828683376312]","[-0.0595092847943306, -3.593445301055908, -1.8427683115005493, -0.3858032524585724, 0.1682281643152237, -0.3858032524585724]"
1584451533949058104,,1205260,,1584451533,948765898,'',"[shoulder_pan_joint, shoulder_lift_joint, elbow_joint, wrist_1_joint, wrist_2_joint,","[1.648727536201477, -1.1871712843524378, 2.5027341842651367, -2.874704186116354, -1.5675089995013636, 1.9702945947647095]","[0.0, 0.0, -0.00011504856229294091, 1.917476038215682e-05, -1.917476038215682e-05, -0.1998009979724884]","[-0.0503540076315403, -3.570557117462158, -1.8427683115005493, -0.4777680039405823, 0.1861725002527237, -0.4508515000343323]"
1584451534061105009,,1205274,,1584451534,60784129,'',"[shoulder_pan_joint, shoulder_lift_joint, elbow_joint, wrist_1_joint, wrist_2_joint,","[1.6487395763397217, -1.1871827284442347, 2.502758264541626, -2.874763790761129, -1.5675566832171839, 1.9479680061340332]","[0.0, 0.0, -0.00011504856229294091, -0.00024927189224399626, -1.917476038215682e-05, -0.19972430169582367]","[-0.0915527418255806, -3.657532215118408, -1.831559181213379, -0.5742188096046448, 0.1816864162683487, -0.4530945420265198]"
1584451534173072505,,1205288,,1584451534,172757817,'',"[shoulder_pan_joint, shoulder_lift_joint, elbow_joint, wrist_1_joint, wrist_2_joint,","[1.6487032175064087, -1.187195126210348, 2.502758264541626, -2.874751869832174, -1.5675447622882288, 1.9254976511001587]","[0.0, 0.0, -0.00011504856229294091, -0.0002109223569277674, -1.917476038215682e-05, -0.19822867214679718]","[-0.0961303785443306, -3.602600574493408, -1.8607027530670166, -0.6101074814796448, 0.1839294582605362, -0.4844971299171448]"
1584451534285165034,,1205302,,1584451534,284856137,'',"[shoulder_pan_joint, shoulder_lift_joint, elbow_joint, wrist_1_joint, wrist_2_joint,","[1.6487151384353638, -1.187207047139303, 2.502770185470581, -2.874739948903219, -1.5675447622882288, 1.9030747413635254]","[0.0, 0.0, -7.669904152862728e-05, -0.00011504856229294091, -7.669904152862728e-05, -0.1977493017911911]","[-0.0457763709127903, -3.588867664337158, -1.8562191724777222, -0.6101074814796448, 0.1682281643152237, -0.4530945420265198]"
1584451534397034557,,1205316,,1584451534,396740367,'',"[shoulder_pan_joint, shoulder_lift_joint, elbow_joint, wrist_1_joint, wrist_2_joint,","[1.6487032175064087, -1.187207047139303, 2.502746343612671, -2.874739948903219, -1.5675924460040491, 1.8807241916656494]","[0.0, 0.0, -6.391586794052273e-05, -7.669904152862728e-05, -7.669904152862728e-05, -0.20112405717372894]","[-0.02288818545639515, -3.643799304962158, -1.9212316274642944, -0.6123505234718323, 0.1749572902917862, -0.4530945420265198]"
1584451534509171950,,1205330,,1584451534,508835782,'',"[shoulder_pan_joint, shoulder_lift_joint, elbow_joint, wrist_1_joint, wrist_2_joint,","[1.6487032175064087, -1.1871712843524378, 2.502746343612671, -2.874728027974264, -1.5676167646991175, 1.8583608865737915]","[0.0, 0.0, -5.1132694352418184e-05, -5.752428114647046e-05, -7.669904152862728e-05, -0.20097066462039948]","[-0.0549316480755806, -3.620911121368408, -2.0400476455688477, -0.6168366074562073, 0.1861725002527237, -0.5158997178077698]"
1584451534620935074,,1205344,,1584451534,620714963,'',"[shoulder_pan_joint, shoulder_lift_joint, elbow_joint, wrist_1_joint, wrist_2_joint,","[1.6487032175064087, -1.1871588865863245, 2.502758264541626, -2.874739948903219, -1.5676048437701624, 1.8359743356704712]","[0.0, 0.0, -5.1132694352418184e-05, -5.752428114647046e-05, -7.669904152862728e-05, -0.20028036832809448]","[-0.0869751051068306, -3.602600574493408, -2.1498963832855225, -0.6168366074562073, 0.1816864162683487, -0.4172058403491974]"
1584451534733171813,,1205358,,1584451534,732804447,'',"[shoulder_pan_joint, shoulder_lift_joint, elbow_joint, wrist_1_joint, wrist_2_joint,","[1.648691177368164, -1.1871712843524378, 2.502770185470581, -2.874739948903219, -1.5676406065570276, 1.8135271072387695]","[0.0, 0.0, -5.1132694352418184e-05, -3.834952076431364e-05, -7.669904152862728e-05, -0.20035706460475922]","[-0.0823974683880806, -3.630066394805908, -2.089367389678955, -0.6706696152687073, 0.1973877102136612, -0.5360870957374573]"
1584451534845083514,,1205372,,1584451534,844742698,'',"[shoulder_pan_joint, shoulder_lift_joint, elbow_joint, wrist_1_joint, wrist_2_joint,","[1.6487151384353638, -1.1871588865863245, 2.502746343612671, -2.874751869832174, -1.5676167646991175, 1.791139841079712]","[0.0, 0.0, -5.1132694352418184e-05, -3.834952076431364e-05, -7.669904152862728e-05, -0.2028689682483673]","[-0.0823974683880806, -3.639221668243408, -2.10506010055542, -0.7289887070655823, 0.2467346489429474, -0.3925323784351349]"
1584451534957261443,,1205386,,1584451534,956775526,'',"[shoulder_pan_joint, shoulder_lift_joint, elbow_joint, wrist_1_joint, wrist_2_joint,","[1.6487151384353638, -1.187195126210348, 2.502770185470581, -2.874716107045309, -1.5676525274859827, 1.7688241004943848]","[0.0, 0.0, -5.1132694352418184e-05, -3.834952076431364e-05, -7.669904152862728e-05, -0.19822867214679718]","[-0.0503540076315403, -3.607178211212158, -2.116269111633301, -0.8052521347999573, 0.3095398247241974, -0.5293579697608948]"
1584451535069178966,,1205400,,1584451535,68794087,'',"[shoulder_pan_joint, shoulder_lift_joint, elbow_joint, wrist_1_joint, wrist_2_joint,","[1.6487151384353638, -1.1871712843524378, 2.502758264541626, -2.8748000303851526, -1.5676286856280726, 1.7463046312332153]","[0.0, 0.0, -5.1132694352418184e-05, -0.01685461401939392, -7.669904152862728e-05, -0.20001192390918732]","[-0.0595092847943306, -3.671265125274658, -2.1252365112304688, -0.8254395127296448, 0.3813171684741974, -0.4239349663257599]"
1584451535181107709,,1205414,,1584451535,180780628,'',"[shoulder_pan_joint, shoulder_lift_joint, elbow_joint, wrist_1_joint, wrist_2_joint,","[1.6487151384353638, -1.1871588865863245, 2.5027341842651367, -2.874979797993795, -1.5675924460040491, 1.7238929271697998]","[0.0, 0.0, -5.1132694352418184e-05, -0.0003834952076431364, 0.00046019424917176366, -0.19742333889007568]","[-0.0915527418255806, -3.639221668243408, -2.1229946613311768, -0.8209534287452698, 0.4844971299171448, -0.5181427597999573]"
1584451535293047173,,1205428,,1584451535,292749457,'',"[shoulder_pan_joint, shoulder_lift_joint, elbow_joint, wrist_1_joint, wrist_2_joint,","[1.6487151384353638, -1.1871827284442347, 2.5027823448181152, -2.874943558369772, -1.567568604146139, 1.701600432395935]","[0.0, 0.0, -5.1132694352418184e-05, -0.00017257283616345376, 0.00046019424917176366, -0.20237042009830475]","[-0.0595092847943306, -3.620911121368408, -2.19921612739563, -0.8119812607765198, 0.4755249619483948, -0.4620667099952698]"
1584451535405162926,,1205442,,1584451535,404754313,'',"[shoulder_pan_joint, shoulder_lift_joint, elbow_joint, wrist_1_joint, wrist_2_joint,","[1.648727536201477, -1.1871712843524378, 2.5027103424072266, -2.87496787706484, -1.567580525075094, 1.679068922996521]","[0.0, 0.0, -3.834952076431364e-05, -9.58738019107841e-05, 0.00017257283616345376, -0.1998009979724884]","[-0.0686645582318306, -3.620911121368408, -2.3426921367645264, -0.8030090928077698, 0.4912262558937073, -0.4553375840187073]"
1584451535517067975,,1205456,,1584451535,516719183,'',"[shoulder_pan_joint, shoulder_lift_joint, elbow_joint, wrist_1_joint, wrist_2_joint,","[1.6487032175064087, -1.1871712843524378, 2.5027341842651367, -2.8749197165118616, -1.5676048437701624, 1.6566802263259888]","[0.0, 0.0, -0.00048576059634797275, -7.669904152862728e-05, 0.00011504856229294091, -0.2004912942647934]","[-0.0778198316693306, -3.607178211212158, -2.3269994258880615, -0.7469330430030823, 0.4755249619483948, -0.5226288437843323]"
1584451535629195029,,1205470,,1584451535,628783691,'',"[shoulder_pan_joint, shoulder_lift_joint, elbow_joint, wrist_1_joint, wrist_2_joint,","[1.648727536201477, -1.1871588865863245, 2.5027341842651367, -2.8749197165118616, -1.5675924460040491, 1.6342074871063232]","[0.0, 0.0, -0.00023009712458588183, -3.834952076431364e-05, 7.669904152862728e-05, -0.20290730893611908]","[-0.0778198316693306, -3.588867664337158, -2.3449337482452393, -0.6841278672218323, 0.4979553818702698, -0.4015045464038849]"
1584451535741028734,,1205484,,1584451535,740716441,'',"[shoulder_pan_joint, shoulder_lift_joint, elbow_joint, wrist_1_joint, wrist_2_joint,","[1.648727536201477, -1.1871588865863245, 2.502770185470581, -2.8749077955829065, -1.5676406065570276, 1.6117708683013916]","[0.0, 0.0, -0.00012783173588104546, -3.834952076431364e-05, 5.752428114647046e-05, -0.19761507213115692]","[-0.1098632961511612, -3.588867664337158, -2.3539011478424072, -0.6123505234718323, 0.5046845078468323, -0.5181427597999573]"
1584451535853252589,,1205498,,1584451535,852765159,'',"[shoulder_pan_joint, shoulder_lift_joint, elbow_joint, wrist_1_joint, wrist_2_joint,","[1.6487151384353638, -1.1871469656573694, 2.502758264541626, -2.874847714100973, -1.5676167646991175, 1.5894775390625]","[0.0, 0.0, -8.948221511673182e-05, 0.00015339808305725455, 3.834952076431364e-05, -0.20006944239139557]","[-0.0503540076315403, -3.698730945587158, -2.3157904148101807, -0.5921631455421448, 0.5226288437843323, -0.4777680039405823]"
1584451535965048365,,1205512,,1584451535,964704963,'',"[shoulder_pan_joint, shoulder_lift_joint, elbow_joint, wrist_1_joint, wrist_2_joint,","[1.6487151384353638, -1.187195126210348, 2.5027942657470703, -2.874871555958883, -1.5676048437701624, 1.5670040845870972]","[0.0, 0.0, -6.391586794052273e-05, 0.00015339808305725455, 3.834952076431364e-05, -0.19905318319797516]","[-0.0686645582318306, -3.588867664337158, -2.3494174480438232, -0.6011353135108948, 0.4957123398780823, -0.5271149277687073]"
1584451536077065222,,1205526,,1584451536,76734384,'',"[shoulder_pan_joint, shoulder_lift_joint, elbow_joint, wrist_1_joint, wrist_2_joint,","[1.648691177368164, -1.1871469656573694, 2.502758264541626, -2.874859635029928, -1.5676048437701624, 1.5446741580963135]","[0.0, 0.0, -5.1132694352418184e-05, 0.00011504856229294091, 3.834952076431364e-05, -0.20039542019367218]","[-0.0869751051068306, -3.593445301055908, -2.369593858718872, -0.5966492295265198, 0.5719757676124573, -0.4889832139015198]"
1584451536189123859,,1205540,,1584451536,188762374,'',"[shoulder_pan_joint, shoulder_lift_joint, elbow_joint, wrist_1_joint, wrist_2_joint,","[1.648679256439209, -1.1871350447284144, 2.502746343612671, -2.874847714100973, -1.5675924460040491, 1.5222119092941284]","[0.0, 0.0, -5.1132694352418184e-05, 7.669904152862728e-05, 0.0014572817599400878, -0.1985354721546173]","[-0.0686645582318306, -3.620911121368408, -2.4211554527282715, -0.5966492295265198, 0.6639404892921448, -0.5114136338233948]"
1584451536301276170,,1205554,,1584451536,300795793,'',"[shoulder_pan_joint, shoulder_lift_joint, elbow_joint, wrist_1_joint, wrist_2_joint,","[1.648691177368164, -1.1871827284442347, 2.5027823448181152, -2.874823872243063, -1.567580525075094, 1.499821662902832]","[0.0, 0.0, -3.834952076431364e-05, 5.752428114647046e-05, 0.00028762139845639467, -0.20194856822490692]","[-0.0549316480755806, -3.598022937774658, -2.5332460403442383, -0.5988922715187073, 0.6101074814796448, -0.5024414658546448]"
1584451536412974954,,1205568,,1584451536,412691955,'',"[shoulder_pan_joint, shoulder_lift_joint, elbow_joint, wrist_1_joint, wrist_2_joint,","[1.6487151384353638, -1.1871469656573694, 2.502746343612671, -2.874823872243063, -1.5675924460040491, 1.4774070978164673]","[0.0, 0.0, -3.834952076431364e-05, 5.752428114647046e-05, 0.00015339808305725455, -0.20194856822490692]","[-0.0778198316693306, -3.593445301055908, -2.6251602172851562, -0.5988922715187073, 0.6549683213233948, -0.4643097519874573]"
1584451536524867209,,1205582,,1584451536,524581025,'',"[shoulder_pan_joint, shoulder_lift_joint, elbow_joint, wrist_1_joint, wrist_2_joint,","[1.648691177368164, -1.1871469656573694, 2.502686023712158, -2.8748119513141077, -1.567568604146139, 1.4550399780273438]","[0.0, 0.0, -0.0005880259559489787, 3.834952076431364e-05, 9.58738019107841e-05, -0.19966678321361542]","[-0.0595092847943306, -3.643799304962158, -2.638611078262329, -0.6011353135108948, 0.6504822373390198, -0.5809479355812073]"
1584451536636841839,,1205596,,1584451536,636608703,'',"[shoulder_pan_joint, shoulder_lift_joint, elbow_joint, wrist_1_joint, wrist_2_joint,","[1.6487032175064087, -1.1871588865863245, 2.502758264541626, -2.8748000303851526, -1.5676167646991175, 1.432612657546997]","[0.0, 0.0, -0.00021731395099777728, 3.834952076431364e-05, 7.669904152862728e-05, -0.20143085718154907]","[-0.0411987341940403, -3.634644031524658, -2.6206765174865723, -0.6033783555030823, 0.6572113633155823, -0.4486084580421448]"
1584451536748841514,,1205610,,1584451536,748606886,'',"[shoulder_pan_joint, shoulder_lift_joint, elbow_joint, wrist_1_joint, wrist_2_joint,","[1.648691177368164, -1.1871350447284144, 2.502746343612671, -2.8747757116900843, -1.5676048437701624, 1.4102332592010498]","[0.0, 0.0, -0.00012783173588104546, 3.834952076431364e-05, 3.834952076431364e-05, -0.20001192390918732]","[-0.1007080152630806, -3.657532215118408, -2.6744799613952637, -0.5944061875343323, 0.6527252793312073, -0.5338440537452698]"
1584451536860896123,,1205624,,1584451536,860643281,'',"[shoulder_pan_joint, shoulder_lift_joint, elbow_joint, wrist_1_joint, wrist_2_joint,","[1.648691177368164, -1.1871827284442347, 2.5027823448181152, -2.874739948903219, -1.5676167646991175, 1.3879369497299194]","[0.0, 0.0, -8.948221511673182e-05, 3.834952076431364e-05, 3.834952076431364e-05, -0.20121993124485016]","[-0.0778198316693306, -3.570557117462158, -2.6879308223724365, -0.6033783555030823, 0.6572113633155823, -0.4912262558937073]"
1584451536972836868,,1205638,,1584451536,972597471,'',"[shoulder_pan_joint, shoulder_lift_joint, elbow_joint, wrist_1_joint, wrist_2_joint,","[1.648691177368164, -1.1871588865863245, 2.502770185470581, -2.874739948903219, -1.5676048437701624, 1.365341067314148]","[0.0, 0.0, -6.391586794052273e-05, 3.834952076431364e-05, 3.834952076431364e-05, -0.19721241295337677]","[-0.009155274368822575, -3.662109851837158, -2.6834471225738525, -0.6033783555030823, 0.6572113633155823, -0.5652466416358948]"
1584451537084899482,,1205652,,1584451537,84583662,'',"[shoulder_pan_joint, shoulder_lift_joint, elbow_joint, wrist_1_joint, wrist_2_joint,","[1.6486672163009644, -1.1871588865863245, 2.502770185470581, -2.874728027974264, -1.5676286856280726, 1.3430800437927246]","[0.0, 0.0, -5.1132694352418184e-05, 3.834952076431364e-05, 3.834952076431364e-05, -0.1995709091424942]","[-0.0457763709127903, -3.620911121368408, -2.7865705490112305, -0.6145935654640198, 0.6818848252296448, -0.4979553818702698]"
1584451537197001710,,1205666,,1584451537,196703393,'',"[shoulder_pan_joint, shoulder_lift_joint, elbow_joint, wrist_1_joint, wrist_2_joint,","[1.648691177368164, -1.1871350447284144, 2.5027341842651367, -2.874728027974264, -1.5676406065570276, 1.320590853691101]","[0.0, 0.0, -5.1132694352418184e-05, 3.834952076431364e-05, 3.834952076431364e-05, -0.20089396834373474]","[-0.0778198316693306, -3.625488758087158, -2.8829684257507324, -0.6213226914405823, 0.7379608750343323, -0.5226288437843323]"
1584451537308906929,,1205680,,1584451537,308700554,'',"[shoulder_pan_joint, shoulder_lift_joint, elbow_joint, wrist_1_joint, wrist_2_joint,","[1.6486552953720093, -1.1871827284442347, 2.5027823448181152, -2.874751869832174, -1.5675924460040491, 1.2982211112976074]","[0.0, 0.0, -3.834952076431364e-05, 3.834952076431364e-05, 0.0, -0.20131580531597137]","[-0.0869751051068306, -3.625488758087158, -2.8784847259521484, -0.6616974472999573, 0.7962799668312073, -0.5338440537452698]"
1584451537420854989,,1205694,,1584451537,420584844,'',"[shoulder_pan_joint, shoulder_lift_joint, elbow_joint, wrist_1_joint, wrist_2_joint,","[1.6486672163009644, -1.1871712843524378, 2.502746343612671, -2.874716107045309, -1.5675924460040491, 1.2757911682128906]","[0.0, 0.0, -3.834952076431364e-05, 3.834952076431364e-05, 0.0003451456723269075, -0.1998009979724884]","[-0.0595092847943306, -3.593445301055908, -2.905386447906494, -0.7177734971046448, 0.7760925889015198, -0.4800110459327698]"
1584451537532830951,,1205708,,1584451537,532565295,'',"[shoulder_pan_joint, shoulder_lift_joint, elbow_joint, wrist_1_joint, wrist_2_joint,","[1.6486432552337646, -1.1871588865863245, 2.5027222633361816, -2.874728027974264, -1.5675328413592737, 1.2534091472625732]","[0.0, 0.0, -3.834952076431364e-05, 1.917476038215682e-05, 0.00015339808305725455, -0.20006944239139557]","[-0.0549316480755806, -3.630066394805908, -2.8964192867279053, -0.7895508408546448, 0.7850647568702698, -0.5764618515968323]"
1584451537644843811,,1205722,,1584451537,644581972,'',"[shoulder_pan_joint, shoulder_lift_joint, elbow_joint, wrist_1_joint, wrist_2_joint,","[1.648679256439209, -1.1871231237994593, 2.5027103424072266, -2.8747757116900843, -1.5674846808062952, 1.2310028076171875]","[0.0, 0.0, -0.00010226538870483637, 1.917476038215682e-05, 0.0006711166352033615, -0.2008364349603653]","[-0.0778198316693306, -3.584290027618408, -2.8986611366271973, -0.8545990586280823, 0.7962799668312073, -0.4822540879249573]"
1584451537756811958,,1205736,,1584451537,756546973,'',"[shoulder_pan_joint, shoulder_lift_joint, elbow_joint, wrist_1_joint, wrist_2_joint,","[1.648679256439209, -1.1871469656573694, 2.50254225730896, -2.874835793172018, -1.5671737829791468, 1.2086552381515503]","[0.0, 0.0, -0.0012783173006027937, -0.00015339808305725455, 0.0025310683995485306, -0.1975383758544922]","[-0.0457763709127903, -3.684998035430908, -2.813472270965576, -0.8344116806983948, 0.7020722031593323, -0.5764618515968323]"
1584451537868816773,,1205750,,1584451537,868550757,'',"[shoulder_pan_joint, shoulder_lift_joint, elbow_joint, wrist_1_joint, wrist_2_joint,","[1.6487151384353638, -1.1871827284442347, 2.5023140907287598, -2.874823872243063, -1.5670178572284144, 1.1862356662750244]","[0.0, 0.0, -0.0006391586503013968, -0.00015339808305725455, -0.0007861651829443872, -0.2007022202014923]","[-0.0595092847943306, -3.611755847930908, -2.5242786407470703, -0.8231964707374573, 0.4306641221046448, -0.4687958359718323]"
1584451537980886120,,1205764,,1584451537,980555833,'',"[shoulder_pan_joint, shoulder_lift_joint, elbow_joint, wrist_1_joint, wrist_2_joint,","[1.6487151384353638, -1.1871588865863245, 2.5023140907287598, -2.8748839537249964, -1.5671137014972132, 1.1637558937072754]","[0.0, 0.0, -0.00026844663079828024, -0.00013422331539914012, -0.002377670258283615, -0.19761507213115692]","[-0.0823974683880806, -3.625488758087158, -2.190248966217041, -0.8231964707374573, 0.2691650688648224, -0.5697327256202698]"
1584451538092884373,,1205778,,1584451538,92635699,'',"[shoulder_pan_joint, shoulder_lift_joint, elbow_joint, wrist_1_joint, wrist_2_joint,","[1.6487151384353638, -1.187195126210348, 2.5023140907287598, -2.874955479298727, -1.5672696272479456, 1.141419529914856]","[0.0, 0.0, 0.00023009712458588183, -0.00011504856229294091, -0.0032213598024100065, -0.2011815905570984]","[-0.0411987341940403, -3.579712390899658, -1.8024157285690308, -0.8119812607765198, 0.0717773512005806, -0.5405731797218323]"
1584451538204833495,,1205792,,1584451538,204608164,'',"[shoulder_pan_joint, shoulder_lift_joint, elbow_joint, wrist_1_joint, wrist_2_joint,","[1.648727536201477, -1.1871712843524378, 2.5024099349975586, -2.875003163014547, -1.5673649946795862, 1.1188668012619019]","[0.0, 0.0, 0.0017512948252260685, -0.0001917476038215682, -0.000690291344653815, -0.19997356832027435]","[-0.0869751051068306, -3.584290027618408, -1.419066071510315, -0.7985230088233948, 0.0695343092083931, -0.4575806260108948]"
1584451538316785522,,1205806,,1584451538,316540715,'',"[shoulder_pan_joint, shoulder_lift_joint, elbow_joint, wrist_1_joint, wrist_2_joint,","[1.6487395763397217, -1.1871712843524378, 2.5026259422302246, -2.8752430121051233, -1.5672934691058558, 1.09666109085083]","[0.0, 0.0, 0.0024671524297446012, -0.0003834952076431364, 0.00032597093377262354, -0.20056799054145813]","[-0.0823974683880806, -3.611755847930908, -1.358537197113037, -0.6437531113624573, 0.011215210892260075, -0.5787048935890198]"
1584451538428832396,,1205820,,1584451538,428582339,'',"[shoulder_pan_joint, shoulder_lift_joint, elbow_joint, wrist_1_joint, wrist_2_joint,","[1.6487514972686768, -1.1871827284442347, 2.502650022506714, -2.8751829306231897, -1.5672934691058558, 1.074203372001648]","[0.0, 0.0, -0.0, -0.00017257283616345376, 0.00015339808305725455, -0.2030031830072403]","[-0.0640869215130806, -3.639221668243408, -1.3406027555465698, -0.4822540879249573, -0.0717773512005806, -0.4082336723804474]"
1584451538540856447,,1205834,,1584451538,540604457,'',"[shoulder_pan_joint, shoulder_lift_joint, elbow_joint, wrist_1_joint, wrist_2_joint,","[1.6487395763397217, -1.187195126210348, 2.5026140213012695, -2.874943558369772, -1.5673530737506312, 1.0517688989639282]","[0.0, 0.0, -0.0, 0.009683254174888134, -0.0027036413084715605, -0.19732746481895447]","[-0.0823974683880806, -3.552246570587158, -1.327151894569397, -0.3992615044116974, -0.1794433742761612, -0.5630035996437073]"
1584451538652803154,,1205848,,1584451538,652549501,'',"[shoulder_pan_joint, shoulder_lift_joint, elbow_joint, wrist_1_joint, wrist_2_joint,","[1.648727536201477, -1.187195126210348, 2.5026259422302246, -2.874871555958883, -1.5675328413592737, 1.0294662714004517]","[0.0, 0.0, -0.0, 0.00046019424917176366, -0.0006519418675452471, -0.20020367205142975]","[-0.0915527418255806, -3.588867664337158, -1.3293936252593994, -0.3745880424976349, -0.2041168361902237, -0.4710388779640198]"
1584451538764768687,,1205862,,1584451538,764517087,'',"[shoulder_pan_joint, shoulder_lift_joint, elbow_joint, wrist_1_joint, wrist_2_joint,","[1.6487395763397217, -1.1871712843524378, 2.502638101577759, -2.874859635029928, -1.5675328413592737, 1.0069595575332642]","[0.0, 0.0, -0.0, 0.00017257283616345376, -0.0002109223569277674, -0.19863134622573853]","[-0.1007080152630806, -3.570557117462158, -1.322668194770813, -0.3701019585132599, -0.2108459621667862, -0.5114136338233948]"
1584451538876860214,,1205876,,1584451538,876538694,'',"[shoulder_pan_joint, shoulder_lift_joint, elbow_joint, wrist_1_joint, wrist_2_joint,","[1.6487395763397217, -1.1871712843524378, 2.5026021003723145, -2.874823872243063, -1.5675328413592737, 0.9845834970474243]","[0.0, 0.0, -0.0, 0.00011504856229294091, -0.00011504856229294091, -0.20028036832809448]","[-0.0503540076315403, -3.616333484649658, -1.3361190557479858, -0.3768310844898224, -0.2086029201745987, -0.5114136338233948]"
1584451538988879657,,1205890,,1584451538,988640651,'',"[shoulder_pan_joint, shoulder_lift_joint, elbow_joint, wrist_1_joint, wrist_2_joint,","[1.6487395763397217, -1.1871712843524378, 2.502661943435669, -2.8748119513141077, -1.5675566832171839, 0.9622789621353149]","[0.0, 0.0, -0.0, 7.669904152862728e-05, -7.669904152862728e-05, -0.1993599832057953]","[-0.1190185695886612, -3.639221668243408, -1.3204264640808105, -0.3768310844898224, -0.2018737941980362, -0.5473023056983948]"
1584451539100802259,,1205904,,1584451539,100580414,'',"[shoulder_pan_joint, shoulder_lift_joint, elbow_joint, wrist_1_joint, wrist_2_joint,","[1.6487635374069214, -1.1871827284442347, 2.5026259422302246, -2.874835793172018, -1.5675089995013636, 0.9398426413536072]","[0.0, 0.0, -0.0, 5.752428114647046e-05, -5.752428114647046e-05, -0.2010473608970642]","[-0.1052856519818306, -3.657532215118408, -1.3495699167251587, -0.3768310844898224, -0.1906585842370987, -0.5248718857765198]"
1584451539212759806,,1205918,,1584451539,212535016,'',"[shoulder_pan_joint, shoulder_lift_joint, elbow_joint, wrist_1_joint, wrist_2_joint,","[1.6487151384353638, -1.1871827284442347, 2.5026259422302246, -2.8748000303851526, -1.5675447622882288, 0.9174291491508484]","[0.0, 0.0, -0.0, 3.834952076431364e-05, -5.752428114647046e-05, -0.20131580531597137]","[-0.1190185695886612, -3.584290027618408, -1.3428444862365723, -0.3813171684741974, -0.2018737941980362, -0.4912262558937073]"
1584451539324769211,,1205932,,1584451539,324521248,'',"[shoulder_pan_joint, shoulder_lift_joint, elbow_joint, wrist_1_joint, wrist_2_joint,","[1.6487395763397217, -1.187195126210348, 2.502650022506714, -2.8748000303851526, -1.5675328413592737, 0.8950515985488892]","[0.0, 0.0, -0.0, 3.834952076431364e-05, -3.834952076431364e-05, -0.19905318319797516]","[-0.0823974683880806, -3.675842761993408, -1.3450863361358643, -0.3723450005054474, -0.2086029201745987, -0.6594544053077698]"
1584451539436820312,,1205946,,1584451539,436602966,'',"[shoulder_pan_joint, shoulder_lift_joint, elbow_joint, wrist_1_joint, wrist_2_joint,","[1.6487395763397217, -1.1871827284442347, 2.5026259422302246, -2.874823872243063, -1.5675328413592737, 0.8726373314857483]","[0.0, 0.0, -0.0, 3.834952076431364e-05, -3.834952076431364e-05, -0.20164178311824799]","[-0.1098632961511612, -3.602600574493408, -1.3406027555465698, -0.3813171684741974, -0.2063598781824112, -0.4261780083179474]"
1584451539548739578,,1205960,,1584451539,548537240,'',"[shoulder_pan_joint, shoulder_lift_joint, elbow_joint, wrist_1_joint, wrist_2_joint,","[1.6487395763397217, -1.1871827284442347, 2.502638101577759, -2.8747881094561976, -1.5675209204303187, 0.8502111434936523]","[0.0, 0.0, -0.0, 1.917476038215682e-05, -1.917476038215682e-05, -0.19834372401237488]","[-0.0915527418255806, -3.630066394805908, -1.3361190557479858, -0.3701019585132599, -0.2063598781824112, -0.5674896836280823]"
1584451539660719097,,1205974,,1584451539,660504957,'',"[shoulder_pan_joint, shoulder_lift_joint, elbow_joint, wrist_1_joint, wrist_2_joint,","[1.6487514972686768, -1.187207047139303, 2.5026259422302246, -2.874823872243063, -1.5675447622882288, 0.8278436660766602]","[0.0, 0.0, -0.0, 1.917476038215682e-05, -1.917476038215682e-05, -0.1984395980834961]","[-0.1007080152630806, -3.643799304962158, -1.3361190557479858, -0.3790741264820099, -0.2018737941980362, -0.5158997178077698]"
1584451539772705588,,1205988,,1584451539,772478864,'',"[shoulder_pan_joint, shoulder_lift_joint, elbow_joint, wrist_1_joint, wrist_2_joint,","[1.6487395763397217, -1.1871712843524378, 2.502661943435669, -2.874835793172018, -1.5675328413592737, 0.8053919672966003]","[0.0, 0.0, -0.0, 1.917476038215682e-05, -1.917476038215682e-05, -0.19794104993343353]","[-0.0869751051068306, -3.593445301055908, -1.3361190557479858, -0.3790741264820099, -0.2108459621667862, -0.5764618515968323]"
1584451539884649169,,1206002,,1584451539,884465045,'',"[shoulder_pan_joint, shoulder_lift_joint, elbow_joint, wrist_1_joint, wrist_2_joint,","[1.6487514972686768, -1.1871712843524378, 2.502638101577759, -2.8748119513141077, -1.567568604146139, 0.7830473780632019]","[0.0, 0.0, -0.0, 1.917476038215682e-05, -1.917476038215682e-05, -0.2006063461303711]","[-0.1190185695886612, -3.598022937774658, -1.3518117666244507, -0.3701019585132599, -0.2041168361902237, -0.4755249619483948]"
1584451539996741929,,1206016,,1584451539,996487103,'',"[shoulder_pan_joint, shoulder_lift_joint, elbow_joint, wrist_1_joint, wrist_2_joint,","[1.6487514972686768, -1.1871350447284144, 2.502638101577759, -2.874823872243063, -1.5675447622882288, 0.760606586933136]","[0.0, 0.0, -0.0, 1.917476038215682e-05, -1.917476038215682e-05, -0.20075973868370056]","[-0.0732421949505806, -3.607178211212158, -1.324910044670105, -0.3745880424976349, -0.2018737941980362, -0.4957123398780823]"
1584451540108756893,,1206030,,1584451540,108501677,'',"[shoulder_pan_joint, shoulder_lift_joint, elbow_joint, wrist_1_joint, wrist_2_joint,","[1.6487635374069214, -1.187207047139303, 2.502650022506714, -2.8748119513141077, -1.5675209204303187, 0.7382136583328247]","[0.0, 0.0, -0.0, 1.917476038215682e-05, -1.917476038215682e-05, -0.19937916100025177]","[-0.1281738430261612, -3.698730945587158, -1.3540536165237427, -0.3768310844898224, -0.2086029201745987, -0.5450592637062073]"
1584451540220919554,,1206044,,1584451540,220697900,'',"[shoulder_pan_joint, shoulder_lift_joint, elbow_joint, wrist_1_joint, wrist_2_joint,","[1.6487514972686768, -1.187195126210348, 2.502638101577759, -2.874835793172018, -1.5675328413592737, 0.7159151434898376]","[0.0, 0.0, -0.0, 1.917476038215682e-05, -1.917476038215682e-05, -0.2007022202014923]","[-0.0869751051068306, -3.565979480743408, -1.324910044670105, -0.3745880424976349, -0.2063598781824112, -0.4486084580421448]"
1584451540332679231,,1206058,,1584451540,332449793,'',"[shoulder_pan_joint, shoulder_lift_joint, elbow_joint, wrist_1_joint, wrist_2_joint,","[1.6487151384353638, -1.1871827284442347, 2.502638101577759, -2.8748000303851526, -1.5675209204303187, 0.6934608221054077]","[0.0, 0.0, -0.0, 1.917476038215682e-05, -1.917476038215682e-05, -0.20258134603500366]","[-0.0823974683880806, -3.634644031524658, -1.3428444862365723, -0.3745880424976349, -0.1951446682214737, -0.5652466416358948]"
1584451540444766371,,1206072,,1584451540,444554215,'',"[shoulder_pan_joint, shoulder_lift_joint, elbow_joint, wrist_1_joint, wrist_2_joint,","[1.6487395763397217, -1.1871827284442347, 2.5026259422302246, -2.874823872243063, -1.5675566832171839, 0.670981764793396]","[0.0, 0.0, -0.0, 1.917476038215682e-05, -1.917476038215682e-05, -0.2011815905570984]","[-0.0503540076315403, -3.666687488555908, -1.324910044670105, -0.3701019585132599, -0.2063598781824112, -0.4441223740577698]"
1584451540556694363,,1206086,,1584451540,556477648,'',"[shoulder_pan_joint, shoulder_lift_joint, elbow_joint, wrist_1_joint, wrist_2_joint,","[1.6487635374069214, -1.1871588865863245, 2.502638101577759, -2.8748119513141077, -1.5675328413592737, 0.6487064957618713]","[0.0, 0.0, -0.0, 1.917476038215682e-05, 0.0, -0.19748085737228394]","[-0.1144409328699112, -3.652954578399658, -1.369746208190918, -0.3745880424976349, -0.2153320610523224, -0.5585175156593323]"
1584451540668712503,,1206100,,1584451540,668486762,'',"[shoulder_pan_joint, shoulder_lift_joint, elbow_joint, wrist_1_joint, wrist_2_joint,","[1.6487754583358765, -1.1871827284442347, 2.502661943435669, -2.874823872243063, -1.5675328413592737, 0.6262502670288086]","[0.0, 0.0, -0.0, 1.917476038215682e-05, 0.0, -0.20006944239139557]","[-0.0732421949505806, -3.607178211212158, -1.3137010335922241, -0.3656158745288849, -0.2153320610523224, -0.4643097519874573]"
1584451540780627922,,1206114,,1584451540,780440472,'',"[shoulder_pan_joint, shoulder_lift_joint, elbow_joint, wrist_1_joint, wrist_2_joint,","[1.6487635374069214, -1.1871712843524378, 2.502638101577759, -2.874823872243063, -1.5675447622882288, 0.6037697792053223]","[0.0, 0.0, -0.0, 1.917476038215682e-05, 0.0, -0.19715487957000732]","[-0.0823974683880806, -3.607178211212158, -1.322668194770813, -0.3813171684741974, -0.2130890041589737, -0.5293579697608948]"
1584451540892647755,,1206128,,1584451540,892460065,'',"[shoulder_pan_joint, shoulder_lift_joint, elbow_joint, wrist_1_joint, wrist_2_joint,","[1.6487395763397217, -1.187207047139303, 2.502638101577759, -2.8748119513141077, -1.5674966017352503, 0.5814206600189209]","[0.0, 0.0, -0.0, 1.917476038215682e-05, 0.0, -0.20097066462039948]","[-0.0503540076315403, -3.620911121368408, -1.324910044670105, -0.3723450005054474, -0.2108459621667862, -0.4934692978858948]"
1584451541004686344,,1206142,,1584451541,4491600,'',"[shoulder_pan_joint, shoulder_lift_joint, elbow_joint, wrist_1_joint, wrist_2_joint,","[1.6487395763397217, -1.1871712843524378, 2.502650022506714, -2.8748000303851526, -1.5675566832171839, 0.559010922908783]","[0.0, 0.0, -0.0, 1.917476038215682e-05, 0.0, -0.2004912942647934]","[-0.0778198316693306, -3.593445301055908, -1.3316354751586914, -0.3835602104663849, -0.2086029201745987, -0.4867401719093323]"
1584451541116630256,,1206156,,1584451541,116445882,'',"[shoulder_pan_joint, shoulder_lift_joint, elbow_joint, wrist_1_joint, wrist_2_joint,","[1.6487635374069214, -1.1871712843524378, 2.502638101577759, -2.8748000303851526, -1.5675089995013636, 0.5366487503051758]","[0.0, 0.0, -0.0, 1.917476038215682e-05, 0.0, -0.19914905726909637]","[-0.1281738430261612, -3.570557117462158, -1.3361190557479858, -0.3790741264820099, -0.2086029201745987, -0.5944061875343323]"
1584451541228631946,,1206170,,1584451541,228452250,'',"[shoulder_pan_joint, shoulder_lift_joint, elbow_joint, wrist_1_joint, wrist_2_joint,","[1.6487635374069214, -1.1871827284442347, 2.502661943435669, -2.874751869832174, -1.5675566832171839, 0.514249861240387]","[0.0, 0.0, -0.0, 1.917476038215682e-05, 0.0, -0.20294566452503204]","[-0.0961303785443306, -3.611755847930908, -1.3383609056472778, -0.3880462944507599, -0.2018737941980362, -0.4239349663257599]"
1584451541340629508,,1206184,,1584451541,340434884,'',"[shoulder_pan_joint, shoulder_lift_joint, elbow_joint, wrist_1_joint, wrist_2_joint,","[1.648727536201477, -1.1871712843524378, 2.502661943435669, -2.8747757116900843, -1.5675328413592737, 0.4917786717414856]","[0.0, 0.0, -0.0, 1.917476038215682e-05, 0.0, -0.19801774621009827]","[-0.0686645582318306, -3.671265125274658, -1.3338773250579834, -0.3790741264820099, -0.2041168361902237, -0.5876770615577698]"
1584451541452742726,,1206198,,1584451541,452526082,'',"[shoulder_pan_joint, shoulder_lift_joint, elbow_joint, wrist_1_joint, wrist_2_joint,","[1.648727536201477, -1.187195126210348, 2.5026259422302246, -2.8747881094561976, -1.5675566832171839, 0.469498872756958]","[0.0, 0.0, -0.0, 0.0, 0.0, -0.20168012380599976]","[-0.0869751051068306, -3.625488758087158, -1.3383609056472778, -0.3790741264820099, -0.2086029201745987, -0.4934692978858948]"
1584451541564623680,,1206212,,1584451541,564428075,'',"[shoulder_pan_joint, shoulder_lift_joint, elbow_joint, wrist_1_joint, wrist_2_joint,","[1.6487514972686768, -1.1871588865863245, 2.502686023712158, -2.874823872243063, -1.5675447622882288, 0.4469786584377289]","[0.0, 0.0, -0.0, 0.0, 0.0, -0.1984395980834961]","[-0.0915527418255806, -3.634644031524658, -1.3181846141815186, -0.3701019585132599, -0.1951446682214737, -0.5473023056983948]"
1584451541676591687,,1206226,,1584451541,676402884,'',"[shoulder_pan_joint, shoulder_lift_joint, elbow_joint, wrist_1_joint, wrist_2_joint,","[1.6487395763397217, -1.1871588865863245, 2.502661943435669, -2.8748000303851526, -1.5675447622882288, 0.4245898723602295]","[0.0, 0.0, -0.0, 0.0, 0.0, -0.1994558572769165]","[-0.0869751051068306, -3.570557117462158, -1.3047337532043457, -0.3768310844898224, -0.2108459621667862, -0.5001984238624573]"
1584451541788606061,,1206240,,1584451541,788416457,'',"[shoulder_pan_joint, shoulder_lift_joint, elbow_joint, wrist_1_joint, wrist_2_joint,","[1.6487395763397217, -1.1871231237994593, 2.5026140213012695, -2.8748000303851526, -1.5675209204303187, 0.4023081958293915]","[0.0, 0.0, -0.0, 0.0, 0.0, -0.19897648692131042]","[-0.0869751051068306, -3.643799304962158, -1.322668194770813, -0.3768310844898224, -0.1996307522058487, -0.5697327256202698]"
1584451541900623910,,1206254,,1584451541,900424588,'',"[shoulder_pan_joint, shoulder_lift_joint, elbow_joint, wrist_1_joint, wrist_2_joint,","[1.6487514972686768, -1.1871712843524378, 2.502638101577759, -2.8748119513141077, -1.5675447622882288, 0.3798104226589203]","[0.0, 0.0, -0.0, 0.0, 0.0, -0.20056799054145813]","[-0.0961303785443306, -3.602600574493408, -1.3047337532043457, -0.3768310844898224, -0.2063598781824112, -0.5181427597999573]"
1584451542012648733,,1206268,,1584451542,12446896,'',"[shoulder_pan_joint, shoulder_lift_joint, elbow_joint, wrist_1_joint, wrist_2_joint,","[1.6487754583358765, -1.1871588865863245, 2.502661943435669, -2.8747881094561976, -1.5675566832171839, 0.35729992389678955]","[0.0, 0.0, -0.0, 0.0, 0.0, -0.19976265728473663]","[-0.1190185695886612, -3.611755847930908, -1.327151894569397, -0.3768310844898224, -0.1906585842370987, -0.4957123398780823]"
1584451542124567217,,1206282,,1584451542,124369187,'',"[shoulder_pan_joint, shoulder_lift_joint, elbow_joint, wrist_1_joint, wrist_2_joint,","[1.648727536201477, -1.1871712843524378, 2.502661943435669, -2.874835793172018, -1.5674966017352503, 0.3350287675857544]","[0.0, 0.0, -0.0, 0.0, 0.0, -0.20020367205142975]","[-0.1281738430261612, -3.588867664337158, -1.324910044670105, -0.3633728325366974, -0.2108459621667862, -0.5854340195655823]"
1584451542236559149,,1206296,,1584451542,236376077,'',"[shoulder_pan_joint, shoulder_lift_joint, elbow_joint, wrist_1_joint, wrist_2_joint,","[1.6487151384353638, -1.1871469656573694, 2.502674102783203, -2.8748119513141077, -1.5675566832171839, 0.31258904933929443]","[0.0, 0.0, -0.0, 0.0, 0.0, -0.2015267312526703]","[-0.0732421949505806, -3.611755847930908, -1.3092173337936401, -0.3768310844898224, -0.1929016262292862, -0.4463654160499573]"
1584451542348698636,,1206310,,1584451542,348486570,'',"[shoulder_pan_joint, shoulder_lift_joint, elbow_joint, wrist_1_joint, wrist_2_joint,","[1.648727536201477, -1.187195126210348, 2.502638101577759, -2.8748000303851526, -1.5675328413592737, 0.29019689559936523]","[0.0, 0.0, -0.0, 0.0, 0.0, -0.19815197587013245]","[-0.1098632961511612, -3.598022937774658, -1.322668194770813, -0.3768310844898224, -0.2086029201745987, -0.6706696152687073]"
1584451542460743837,,1206324,,1584451542,460498078,'',"[shoulder_pan_joint, shoulder_lift_joint, elbow_joint, wrist_1_joint, wrist_2_joint,","[1.6487754583358765, -1.187207047139303, 2.5026259422302246, -2.874847714100973, -1.5675328413592737, 0.2678283452987671]","[0.0, 0.0, -0.0, 0.0, 0.0, -0.19985853135585785]","[-0.1098632961511612, -3.680420398712158, -1.327151894569397, -0.3768310844898224, -0.2086029201745987, -0.4979553818702698]"
1584451542572560692,,1206338,,1584451542,572373011,'',"[shoulder_pan_joint, shoulder_lift_joint, elbow_joint, wrist_1_joint, wrist_2_joint,","[1.6487635374069214, -1.1871469656573694, 2.502650022506714, -2.874847714100973, -1.5675209204303187, 0.245447039604187]","[0.0, 0.0, -0.0, 0.0, 0.0, -0.19796022772789001]","[-0.1007080152630806, -3.593445301055908, -1.327151894569397, -0.3768310844898224, -0.2063598781824112, -0.5517883896827698]"
1584451542684581277,,1206352,,1584451542,684375943,'',"[shoulder_pan_joint, shoulder_lift_joint, elbow_joint, wrist_1_joint, wrist_2_joint,","[1.6487635374069214, -1.1871588865863245, 2.502661943435669, -2.8747757116900843, -1.5675328413592737, 0.22307737171649933]","[0.0, 0.0, -0.0, 0.0, 0.0, -0.2008172571659088]","[-0.0595092847943306, -3.598022937774658, -1.3159427642822266, -0.3745880424976349, -0.2108459621667862, -0.4979553818702698]"
1584451542796573398,,1206366,,1584451542,796383995,'',"[shoulder_pan_joint, shoulder_lift_joint, elbow_joint, wrist_1_joint, wrist_2_joint,","[1.6487395763397217, -1.1871588865863245, 2.502650022506714, -2.8748000303851526, -1.5675089995013636, 0.20057548582553864]","[0.0, 0.0, -0.0, 0.0, 0.0, -0.20006944239139557]","[-0.0869751051068306, -3.611755847930908, -1.324910044670105, -0.3723450005054474, -0.2130890041589737, -0.5428162217140198]"
