PorkPy/robot-pulling-data/good_move_90_200mm/joint_states_throttle.csv
rosbagTimestamp,header,seq,stamp,secs,nsecs,frame_id,name,wrist_3_joint],position,velocity,effort
1584454447053007969,,1569414,,1584454447,52500151,'',"[shoulder_pan_joint, shoulder_lift_joint, elbow_joint, wrist_1_joint, wrist_2_joint,","[1.404698371887207, -1.17180043855776, 2.4830822944641113, -2.862887207661764, -1.5669940153705042, 2.720658540725708]","[0.0, 0.0, -0.0, 0.0, 0.0, 0.0]","[0.4119873344898224, -2.673340082168579, -1.0581345558166504, -0.5001984238624573, 0.1166381984949112, -0.011215210892260075]"
1584454447164862846,,1569428,,1584454447,164457278,'',"[shoulder_pan_joint, shoulder_lift_joint, elbow_joint, wrist_1_joint, wrist_2_joint,","[1.404686450958252, -1.1718605200396937, 2.4830822944641113, -2.862899128590719, -1.5669940153705042, 2.720658540725708]","[0.0, 0.0, -0.0, 0.0, 0.0, 0.0]","[0.3982544243335724, -2.700805902481079, -1.051409125328064, -0.5091705918312073, 0.1099090725183487, -0.008972168900072575]"
1584454447276734815,,1569442,,1584454447,276392415,'',"[shoulder_pan_joint, shoulder_lift_joint, elbow_joint, wrist_1_joint, wrist_2_joint,","[1.4047223329544067, -1.1718123594867151, 2.4830822944641113, -2.862887207661764, -1.5670297781573694, 2.720646381378174]","[0.0, 0.0, -0.0, 0.0, 0.0, 0.0]","[0.4165649712085724, -2.664184808731079, -1.040200114250183, -0.5069275498390198, 0.1188812404870987, -0.006729126907885075]"
1584454447388886676,,1569456,,1584454447,388447896,'',"[shoulder_pan_joint, shoulder_lift_joint, elbow_joint, wrist_1_joint, wrist_2_joint,","[1.404686450958252, -1.1718247572528284, 2.4831063747406006, -2.862899128590719, -1.5669940153705042, 2.7206344604492188]","[0.0, 0.0, -0.0, 0.0, 0.0, 0.0]","[0.4119873344898224, -2.673340082168579, -1.0491673946380615, -0.5114136338233948, 0.1390686184167862, -0.004486084450036287]"
1584454447500809650,,1569470,,1584454447,500404183,'',"[shoulder_pan_joint, shoulder_lift_joint, elbow_joint, wrist_1_joint, wrist_2_joint,","[1.4047104120254517, -1.1718485991107386, 2.4830944538116455, -2.862875286732809, -1.5669940153705042, 2.7206225395202637]","[0.0, 0.0, -0.0, 0.0, 0.0, 0.0]","[0.4119873344898224, -2.700805902481079, -1.0603764057159424, -0.5046845078468323, 0.1076660305261612, -0.004486084450036287]"
1584454447612860673,,1569484,,1584454447,612426272,'',"[shoulder_pan_joint, shoulder_lift_joint, elbow_joint, wrist_1_joint, wrist_2_joint,","[1.404698371887207, -1.171788517628805, 2.483058452606201, -2.862887207661764, -1.5670297781573694, 2.7206108570098877]","[0.0, 0.0, -0.0, 0.0, 0.0, 0.0]","[0.4165649712085724, -2.682495355606079, -1.053650975227356, -0.5024414658546448, 0.1031799390912056, -0.0022430422250181437]"
1584454447725084540,,1569498,,1584454447,724510698,'',"[shoulder_pan_joint, shoulder_lift_joint, elbow_joint, wrist_1_joint, wrist_2_joint,","[1.4047104120254517, -1.1718247572528284, 2.4830703735351562, -2.862911049519674, -1.5670178572284144, 2.7206225395202637]","[0.0, 0.0, -0.0, 0.0, 0.0, 0.0]","[0.4074096977710724, -2.655029535293579, -1.0357165336608887, -0.5136566758155823, 0.1390686184167862, -0.004486084450036287]"
1584454447836805937,,1569512,,1584454447,836427390,'',"[shoulder_pan_joint, shoulder_lift_joint, elbow_joint, wrist_1_joint, wrist_2_joint,","[1.4047223329544067, -1.1718247572528284, 2.4830822944641113, -2.862887207661764, -1.5669940153705042, 2.720646381378174]","[0.0, 0.0, -0.0, 0.0, 0.0, 0.0]","[0.4165649712085724, -2.659607172012329, -1.055892825126648, -0.5024414658546448, 0.1368255764245987, -0.004486084450036287]"
1584454447948849887,,1569526,,1584454447,948419122,'',"[shoulder_pan_joint, shoulder_lift_joint, elbow_joint, wrist_1_joint, wrist_2_joint,","[1.4047223329544067, -1.1718485991107386, 2.483058452606201, -2.8629348913775843, -1.5669940153705042, 2.7206225395202637]","[0.0, 0.0, -0.0, 0.0, 0.0, 0.0]","[0.3982544243335724, -2.719116449356079, -1.0603764057159424, -0.5024414658546448, 0.1031799390912056, -0.004486084450036287]"
1584454448060822313,,1569540,,1584454448,60426634,'',"[shoulder_pan_joint, shoulder_lift_joint, elbow_joint, wrist_1_joint, wrist_2_joint,","[1.4047104120254517, -1.1718247572528284, 2.4830822944641113, -2.8628514448748987, -1.5669940153705042, 2.720646381378174]","[0.0, 0.0, -0.0, 0.0, 0.0, 0.0]","[0.3982544243335724, -2.691650629043579, -1.0491673946380615, -0.5114136338233948, 0.1121521145105362, -0.006729126907885075]"
1584454448172996366,,1569554,,1584454448,172509066,'',"[shoulder_pan_joint, shoulder_lift_joint, elbow_joint, wrist_1_joint, wrist_2_joint,","[1.4047104120254517, -1.1718123594867151, 2.483058452606201, -2.862911049519674, -1.5670178572284144, 2.720646381378174]","[0.0, 0.0, -0.0, 0.0, 0.0, 0.0]","[0.4302978813648224, -2.636718988418579, -1.051409125328064, -0.4934692978858948, 0.1233673244714737, -0.006729126907885075]"
1584454448284864077,,1569568,,1584454448,284429535,'',"[shoulder_pan_joint, shoulder_lift_joint, elbow_joint, wrist_1_joint, wrist_2_joint,","[1.404698371887207, -1.1718362013446253, 2.4831063747406006, -2.862863365803854, -1.5670059362994593, 2.720646381378174]","[0.0, 0.0, -0.0, 0.0, 0.0, 0.0]","[0.4074096977710724, -2.668762445449829, -1.053650975227356, -0.5136566758155823, 0.1256103664636612, -0.01345825381577015]"
1584454448396932774,,1569582,,1584454448,396408815,'',"[shoulder_pan_joint, shoulder_lift_joint, elbow_joint, wrist_1_joint, wrist_2_joint,","[1.4046744108200073, -1.17180043855776, 2.4831063747406006, -2.862875286732809, -1.5670059362994593, 2.7206344604492188]","[0.0, 0.0, -0.0, 0.0, 0.0, 0.0]","[0.4028320610523224, -2.664184808731079, -1.0312328338623047, -0.5024414658546448, 0.1278534084558487, -0.006729126907885075]"
1584454448508837784,,1569596,,1584454448,508391360,'',"[shoulder_pan_joint, shoulder_lift_joint, elbow_joint, wrist_1_joint, wrist_2_joint,","[1.404686450958252, -1.1718724409686487, 2.4831182956695557, -2.862899128590719, -1.5670059362994593, 2.720646381378174]","[0.0, 0.0, -0.0, 0.0, 0.0, 0.0]","[0.4028320610523224, -2.677917718887329, -1.0491673946380615, -0.5136566758155823, 0.0986938551068306, -0.0022430422250181437]"
1584454448620904617,,1569610,,1584454448,620422516,'',"[shoulder_pan_joint, shoulder_lift_joint, elbow_joint, wrist_1_joint, wrist_2_joint,","[1.404686450958252, -1.1718247572528284, 2.4830703735351562, -2.862875286732809, -1.5670059362994593, 2.720658540725708]","[0.0, 0.0, -0.0, 0.0, 0.0, 0.0]","[0.4257202446460724, -2.636718988418579, -1.0469255447387695, -0.5158997178077698, 0.0852356031537056, -0.004486084450036287]"
1584454448733095581,,1569624,,1584454448,732430549,'',"[shoulder_pan_joint, shoulder_lift_joint, elbow_joint, wrist_1_joint, wrist_2_joint,","[1.404686450958252, -1.17180043855776, 2.4830822944641113, -2.862911049519674, -1.5670059362994593, 2.7206225395202637]","[0.0, 0.0, -0.0, 0.0, 0.0, 0.0]","[0.4119873344898224, -2.682495355606079, -1.040200114250183, -0.5091705918312073, 0.1121521145105362, -0.006729126907885075]"
1584454448844800879,,1569638,,1584454448,844326423,'',"[shoulder_pan_joint, shoulder_lift_joint, elbow_joint, wrist_1_joint, wrist_2_joint,","[1.404698371887207, -1.1718247572528284, 2.4830944538116455, -2.862922970448629, -1.5670059362994593, 2.7206225395202637]","[0.0, 0.0, -0.0, 0.0, 0.0, 0.0]","[0.4348755180835724, -2.682495355606079, -1.0693436861038208, -0.5226288437843323, 0.1278534084558487, -0.006729126907885075]"
1584454448956969361,,1569652,,1584454448,956346438,'',"[shoulder_pan_joint, shoulder_lift_joint, elbow_joint, wrist_1_joint, wrist_2_joint,","[1.404698371887207, -1.1718485991107386, 2.4831063747406006, -2.862899128590719, -1.5670178572284144, 2.7206344604492188]","[0.0, 0.0, -0.0, 0.0, 0.0, 0.0]","[0.3982544243335724, -2.682495355606079, -1.0491673946380615, -0.5001984238624573, 0.1368255764245987, -0.004486084450036287]"
1584454449068855577,,1569666,,1584454449,68356585,'',"[shoulder_pan_joint, shoulder_lift_joint, elbow_joint, wrist_1_joint, wrist_2_joint,","[1.4047343730926514, -1.1718605200396937, 2.4831182956695557, -2.862875286732809, -1.5670178572284144, 2.720646381378174]","[0.0, 0.0, -0.0, 0.0, 0.0, 0.0]","[0.4394531846046448, -2.691650629043579, -1.051409125328064, -0.5203858017921448, 0.1076660305261612, -0.004486084450036287]"
1584454449180752402,,1569680,,1584454449,180344500,'',"[shoulder_pan_joint, shoulder_lift_joint, elbow_joint, wrist_1_joint, wrist_2_joint,","[1.404686450958252, -1.17180043855776, 2.4830822944641113, -2.862875286732809, -1.5670059362994593, 2.7206225395202637]","[0.0, 0.0, -0.0, 0.0, 0.0, 0.0]","[0.4302978813648224, -2.645874261856079, -1.055892825126648, -0.5114136338233948, 0.1166381984949112, -0.008972168900072575]"
1584454449293019559,,1569694,,1584454449,292387889,'',"[shoulder_pan_joint, shoulder_lift_joint, elbow_joint, wrist_1_joint, wrist_2_joint,","[1.4047104120254517, -1.1718123594867151, 2.4830703735351562, -2.862863365803854, -1.5670297781573694, 2.7206225395202637]","[0.0, 0.0, -0.0, 0.0, 0.0, 0.0]","[0.4074096977710724, -2.673340082168579, -1.0446836948394775, -0.5114136338233948, 0.1188812404870987, -0.01345825381577015]"
1584454449404876108,,1569708,,1584454449,404384971,'',"[shoulder_pan_joint, shoulder_lift_joint, elbow_joint, wrist_1_joint, wrist_2_joint,","[1.404686450958252, -1.171788517628805, 2.4830944538116455, -2.862887207661764, -1.5670178572284144, 2.720658540725708]","[0.0, 0.0, -0.0, 0.0, 0.0, 0.0]","[0.4119873344898224, -2.709961175918579, -1.042441964149475, -0.5136566758155823, 0.1413116604089737, -0.006729126907885075]"
1584454449516831544,,1569722,,1584454449,516353541,'',"[shoulder_pan_joint, shoulder_lift_joint, elbow_joint, wrist_1_joint, wrist_2_joint,","[1.404686450958252, -1.1718362013446253, 2.4830822944641113, -2.862887207661764, -1.5670178572284144, 2.7206225395202637]","[0.0, 0.0, -0.0, 0.0, 0.0, 0.0]","[0.4028320610523224, -2.673340082168579, -1.051409125328064, -0.5114136338233948, 0.1054229810833931, -0.004486084450036287]"
1584454449629057463,,1569736,,1584454449,628501805,'',"[shoulder_pan_joint, shoulder_lift_joint, elbow_joint, wrist_1_joint, wrist_2_joint,","[1.4047223329544067, -1.1718485991107386, 2.4831063747406006, -2.862887207661764, -1.5669940153705042, 2.720646381378174]","[0.0, 0.0, -0.0, 0.0, 0.0, 0.0]","[0.4165649712085724, -2.677917718887329, -1.0491673946380615, -0.5114136338233948, 0.0919647291302681, -0.006729126907885075]"
1584454449740871784,,1569750,,1584454449,740384564,'',"[shoulder_pan_joint, shoulder_lift_joint, elbow_joint, wrist_1_joint, wrist_2_joint,","[1.404698371887207, -1.1718724409686487, 2.4831063747406006, -2.862911049519674, -1.5669940153705042, 2.7206344604492188]","[0.0, 0.0, -0.0, 0.0, 0.0, 0.0]","[0.4119873344898224, -2.668762445449829, -1.051409125328064, -0.5136566758155823, 0.1368255764245987, -0.004486084450036287]"
1584454449852976127,,1569764,,1584454449,852394481,'',"[shoulder_pan_joint, shoulder_lift_joint, elbow_joint, wrist_1_joint, wrist_2_joint,","[1.404698371887207, -1.1718247572528284, 2.4831063747406006, -2.862899128590719, -1.5669696966754358, 2.7206344604492188]","[0.0, 0.0, -0.0, 0.0, 0.0, 0.0]","[0.4348755180835724, -2.677917718887329, -1.0446836948394775, -0.5091705918312073, 0.1121521145105362, -0.006729126907885075]"
1584454449964732450,,1569778,,1584454449,964349475,'',"[shoulder_pan_joint, shoulder_lift_joint, elbow_joint, wrist_1_joint, wrist_2_joint,","[1.404686450958252, -1.1718605200396937, 2.483058452606201, -2.862911049519674, -1.5670059362994593, 2.720646381378174]","[0.0, 0.0, -0.0, 0.0, 0.0, 0.0]","[0.4257202446460724, -2.655029535293579, -1.0491673946380615, -0.5046845078468323, 0.0964508131146431, -0.006729126907885075]"
1584454450076734592,,1569792,,1584454450,76316621,'',"[shoulder_pan_joint, shoulder_lift_joint, elbow_joint, wrist_1_joint, wrist_2_joint,","[1.4047343730926514, -1.1718362013446253, 2.4831063747406006, -2.862911049519674, -1.5670416990863245, 2.720646381378174]","[0.0, 0.0, -0.0, 0.0, 0.0, 0.0]","[0.4302978813648224, -2.659607172012329, -1.0626182556152344, -0.5069275498390198, 0.1300964504480362, -0.0022430422250181437]"
1584454450188933421,,1569806,,1584454450,188381340,'',"[shoulder_pan_joint, shoulder_lift_joint, elbow_joint, wrist_1_joint, wrist_2_joint,","[1.4047104120254517, -1.1718362013446253, 2.4830822944641113, -2.862887207661764, -1.5670059362994593, 2.720646381378174]","[0.0, 0.0, -0.0, 0.0, 0.0, 0.0]","[0.4257202446460724, -2.705383539199829, -1.0469255447387695, -0.5158997178077698, 0.1233673244714737, -0.0022430422250181437]"
1584454450300743684,,1569820,,1584454450,300327607,'',"[shoulder_pan_joint, shoulder_lift_joint, elbow_joint, wrist_1_joint, wrist_2_joint,","[1.4047104120254517, -1.1718123594867151, 2.4830703735351562, -2.862875286732809, -1.566981617604391, 2.720646381378174]","[0.0, 0.0, -0.0, 0.0, 0.0, 0.0]","[0.4074096977710724, -2.659607172012329, -1.0671018362045288, -0.5114136338233948, 0.1031799390912056, -0.011215210892260075]"
1584454450412704740,,1569834,,1584454450,412290186,'',"[shoulder_pan_joint, shoulder_lift_joint, elbow_joint, wrist_1_joint, wrist_2_joint,","[1.4047223329544067, -1.1718247572528284, 2.4830703735351562, -2.862899128590719, -1.5670178572284144, 2.7206344604492188]","[0.0, 0.0, -0.0, 0.0, 0.0, 0.0]","[0.4440308213233948, -2.632141351699829, -1.055892825126648, -0.5091705918312073, 0.1054229810833931, -0.008972168900072575]"
1584454450524933425,,1569848,,1584454450,524388417,'',"[shoulder_pan_joint, shoulder_lift_joint, elbow_joint, wrist_1_joint, wrist_2_joint,","[1.4047104120254517, -1.1718362013446253, 2.4831063747406006, -2.862875286732809, -1.5670059362994593, 2.720658540725708]","[0.0, 0.0, -0.0, 0.0, 0.0, 0.0]","[0.4165649712085724, -2.650451898574829, -1.0626182556152344, -0.5069275498390198, 0.1368255764245987, -0.0022430422250181437]"
1584454450636821714,,1569862,,1584454450,636318605,'',"[shoulder_pan_joint, shoulder_lift_joint, elbow_joint, wrist_1_joint, wrist_2_joint,","[1.404686450958252, -1.1718247572528284, 2.4830822944641113, -2.862875286732809, -1.5669940153705042, 2.7206108570098877]","[0.0, 0.0, -0.0, 0.0, 0.0, 0.0]","[0.4028320610523224, -2.664184808731079, -1.0783108472824097, -0.5181427597999573, 0.1166381984949112, -0.008972168900072575]"
1584454450748822413,,1569876,,1584454450,748315867,'',"[shoulder_pan_joint, shoulder_lift_joint, elbow_joint, wrist_1_joint, wrist_2_joint,","[1.404698371887207, -1.1718362013446253, 2.4831063747406006, -2.862899128590719, -1.566981617604391, 2.720646381378174]","[0.0, 0.0, -0.0, 0.0, 0.0, 0.0]","[0.4302978813648224, -2.732849359512329, -1.0581345558166504, -0.5091705918312073, 0.1233673244714737, -0.006729126907885075]"
1584454450860942285,,1569890,,1584454450,860351602,'',"[shoulder_pan_joint, shoulder_lift_joint, elbow_joint, wrist_1_joint, wrist_2_joint,","[1.4047223329544067, -1.1718362013446253, 2.4830703735351562, -2.862899128590719, -1.5670059362994593, 2.7206344604492188]","[0.0, 0.0, -0.0, 0.0, 0.0, 0.0]","[0.4074096977710724, -2.677917718887329, -1.0446836948394775, -0.5069275498390198, 0.1278534084558487, -0.011215210892260075]"
1584454450972688128,,1569904,,1584454450,972280847,'',"[shoulder_pan_joint, shoulder_lift_joint, elbow_joint, wrist_1_joint, wrist_2_joint,","[1.4047223329544067, -1.17180043855776, 2.4830822944641113, -2.862899128590719, -1.5670059362994593, 2.720646381378174]","[0.0, 0.0, -0.0, 0.0, 0.0, 0.0]","[0.3936767876148224, -2.677917718887329, -1.0603764057159424, -0.4957123398780823, 0.1143951565027237, -0.008972168900072575]"
1584454451084756183,,1569918,,1584454451,84300011,'',"[shoulder_pan_joint, shoulder_lift_joint, elbow_joint, wrist_1_joint, wrist_2_joint,","[1.4047104120254517, -1.1718362013446253, 2.483058452606201, -2.862899128590719, -1.566981617604391, 2.720670461654663]","[0.0, 0.0, -0.0, 0.0, 0.0, 0.0]","[0.4257202446460724, -2.691650629043579, -1.0603764057159424, -0.5114136338233948, 0.1031799390912056, -0.008972168900072575]"
1584454451196768193,,1569932,,1584454451,196291613,'',"[shoulder_pan_joint, shoulder_lift_joint, elbow_joint, wrist_1_joint, wrist_2_joint,","[1.4047223329544067, -1.1718362013446253, 2.4831063747406006, -2.862887207661764, -1.5670178572284144, 2.720646381378174]","[0.0, 0.0, -0.0, 0.0, 0.0, 0.0]","[0.4257202446460724, -2.668762445449829, -1.0603764057159424, -0.5091705918312073, 0.1188812404870987, -0.006729126907885075]"
1584454451308984406,,1569946,,1584454451,308369217,'',"[shoulder_pan_joint, shoulder_lift_joint, elbow_joint, wrist_1_joint, wrist_2_joint,","[1.404686450958252, -1.1718123594867151, 2.4830703735351562, -2.862911049519674, -1.5669940153705042, 2.7206108570098877]","[0.0, 0.0, -0.0, 0.0, 0.0, 0.0]","[0.4074096977710724, -2.655029535293579, -1.051409125328064, -0.5114136338233948, 0.1211242824792862, -0.006729126907885075]"
1584454451420805279,,1569960,,1584454451,420376077,'',"[shoulder_pan_joint, shoulder_lift_joint, elbow_joint, wrist_1_joint, wrist_2_joint,","[1.4047223329544067, -1.1718485991107386, 2.4830822944641113, -2.862922970448629, -1.5669940153705042, 2.7206225395202637]","[0.0, 0.0, -0.0, 0.0, 0.0, 0.0]","[0.4074096977710724, -2.659607172012329, -1.0626182556152344, -0.5069275498390198, 0.1143951565027237, -0.006729126907885075]"
1584454451532704569,,1569974,,1584454451,532278633,'',"[shoulder_pan_joint, shoulder_lift_joint, elbow_joint, wrist_1_joint, wrist_2_joint,","[1.404698371887207, -1.1718247572528284, 2.4830944538116455, -2.862911049519674, -1.5670059362994593, 2.720646381378174]","[0.0, 0.0, -0.0, 0.0, 0.0, 0.0]","[0.4074096977710724, -2.636718988418579, -1.0603764057159424, -0.5069275498390198, 0.1099090725183487, -0.006729126907885075]"
1584454451644787551,,1569988,,1584454451,644312835,'',"[shoulder_pan_joint, shoulder_lift_joint, elbow_joint, wrist_1_joint, wrist_2_joint,","[1.404698371887207, -1.1718123594867151, 2.4830703735351562, -2.862887207661764, -1.5669940153705042, 2.720658540725708]","[0.0, 0.0, -0.0, 0.0, 0.0, 0.0]","[0.4165649712085724, -2.664184808731079, -1.0626182556152344, -0.5046845078468323, 0.1368255764245987, -0.0022430422250181437]"
1584454451756699555,,1570002,,1584454451,756247391,'',"[shoulder_pan_joint, shoulder_lift_joint, elbow_joint, wrist_1_joint, wrist_2_joint,","[1.4047104120254517, -1.1718123594867151, 2.4830822944641113, -2.862899128590719, -1.5670297781573694, 2.720646381378174]","[0.0, 0.0, -0.0, 0.0, 0.0, 0.0]","[0.3936767876148224, -2.677917718887329, -1.0693436861038208, -0.5136566758155823, 0.1345825344324112, -0.0022430422250181437]"
1584454451868609915,,1570016,,1584454451,868233402,'',"[shoulder_pan_joint, shoulder_lift_joint, elbow_joint, wrist_1_joint, wrist_2_joint,","[1.404698371887207, -1.1718247572528284, 2.4830703735351562, -2.862875286732809, -1.5670059362994593, 2.720658540725708]","[0.0, 0.0, -0.0, 0.0, 0.0, 0.0]","[0.4257202446460724, -2.677917718887329, -1.053650975227356, -0.5158997178077698, 0.1166381984949112, -0.004486084450036287]"
1584454451980617127,,1570030,,1584454451,980201992,'',"[shoulder_pan_joint, shoulder_lift_joint, elbow_joint, wrist_1_joint, wrist_2_joint,","[1.404698371887207, -1.1718362013446253, 2.4830703735351562, -2.862875286732809, -1.5670178572284144, 2.7206344604492188]","[0.0, 0.0, -0.0, 0.0, 0.0, 0.0]","[0.3845215141773224, -2.622986078262329, -1.0603764057159424, -0.5091705918312073, 0.1143951565027237, -0.011215210892260075]"
1584454452092518270,,1570044,,1584454452,92193383,'',"[shoulder_pan_joint, shoulder_lift_joint, elbow_joint, wrist_1_joint, wrist_2_joint,","[1.4047343730926514, -1.1718362013446253, 2.4830822944641113, -2.862899128590719, -1.5670059362994593, 2.7206108570098877]","[0.0, 0.0, -0.0, 0.0, 0.0, 0.0]","[0.4074096977710724, -2.668762445449829, -1.0648599863052368, -0.5069275498390198, 0.1099090725183487, -0.011215210892260075]"
1584454452204524530,,1570058,,1584454452,204173093,'',"[shoulder_pan_joint, shoulder_lift_joint, elbow_joint, wrist_1_joint, wrist_2_joint,","[1.404686450958252, -1.1718605200396937, 2.4830944538116455, -2.862899128590719, -1.5670059362994593, 2.7206225395202637]","[0.0, 0.0, -0.0, 0.0, 0.0, 0.0]","[0.4074096977710724, -2.659607172012329, -1.0491673946380615, -0.5181427597999573, 0.1502838283777237, -0.006729126907885075]"
1584454452316547070,,1570072,,1584454452,316154837,'',"[shoulder_pan_joint, shoulder_lift_joint, elbow_joint, wrist_1_joint, wrist_2_joint,","[1.4047223329544067, -1.1718247572528284, 2.4830822944641113, -2.862922970448629, -1.5670178572284144, 2.720646381378174]","[0.0, 0.0, -0.0, 0.0, 0.0, 0.0]","[0.4211426079273224, -2.659607172012329, -1.0626182556152344, -0.5136566758155823, 0.0986938551068306, -0.011215210892260075]"
1584454452428826219,,1570086,,1584454452,428254020,'',"[shoulder_pan_joint, shoulder_lift_joint, elbow_joint, wrist_1_joint, wrist_2_joint,","[1.4047104120254517, -1.1718247572528284, 2.483058452606201, -2.862887207661764, -1.5670297781573694, 2.7206344604492188]","[0.0, 0.0, -0.0, 0.0, 0.0, 0.0]","[0.4074096977710724, -2.668762445449829, -1.053650975227356, -0.5046845078468323, 0.1547699123620987, -0.008972168900072575]"
1584454452540852015,,1570100,,1584454452,540322045,'',"[shoulder_pan_joint, shoulder_lift_joint, elbow_joint, wrist_1_joint, wrist_2_joint,","[1.4047104120254517, -1.1718485991107386, 2.483046531677246, -2.862887207661764, -1.5670297781573694, 2.7206225395202637]","[0.0, 0.0, -0.0, 0.0, 0.0, 0.0]","[0.4119873344898224, -2.673340082168579, -1.0626182556152344, -0.5091705918312073, 0.1233673244714737, -0.006729126907885075]"
1584454452652786811,,1570114,,1584454452,652238507,'',"[shoulder_pan_joint, shoulder_lift_joint, elbow_joint, wrist_1_joint, wrist_2_joint,","[1.4047223329544067, -1.1718485991107386, 2.483058452606201, -2.862875286732809, -1.5670297781573694, 2.7206344604492188]","[0.0, 0.0, -0.0, 0.0, 0.0, 0.0]","[0.4211426079273224, -2.645874261856079, -1.055892825126648, -0.5001984238624573, 0.1480407863855362, -0.006729126907885075]"
1584454452764764998,,1570128,,1584454452,764238655,'',"[shoulder_pan_joint, shoulder_lift_joint, elbow_joint, wrist_1_joint, wrist_2_joint,","[1.4034868478775024, -1.1718485991107386, 2.4829142093658447, -2.8628390471087855, -1.5670059362994593, 2.7184436321258545]","[-0.01495631318539381, -0.0003323625132907182, -0.0021347899455577135, 0.00015339808305725455, 0.0, -0.02509976178407669]","[-1.0757447481155396, -3.410339593887329, -1.5221893787384033, -0.3297272026538849, 0.0448608435690403, -0.3409424126148224]"
1584454452876556046,,1570142,,1584454452,876158243,'',"[shoulder_pan_joint, shoulder_lift_joint, elbow_joint, wrist_1_joint, wrist_2_joint,","[1.4027070999145508, -1.17180043855776, 2.4828662872314453, -2.8628271261798304, -1.5670297781573694, 2.7176411151885986]","[0.006711165886372328, -0.00012783173588104546, -0.0004218447138555348, 0.00015339808305725455, 0.0, 0.035473305732011795]","[0.2655029594898224, -3.446960687637329, -1.5177057981491089, -0.3319702446460724, 0.0448608435690403, 0.1480407863855362]"
1584454452988605837,,1570156,,1584454452,988154213,'',"[shoulder_pan_joint, shoulder_lift_joint, elbow_joint, wrist_1_joint, wrist_2_joint,","[1.4053099155426025, -1.1718485991107386, 2.482818365097046, -2.862791363392965, -1.5669940153705042, 2.7229819297790527]","[0.024530909955501556, -7.669904152862728e-05, -0.0003707120195031166, 0.00024927189224399626, 0.0, 0.03459126874804497]","[0.7736206650733948, -3.593445301055908, -1.374229907989502, -0.3701019585132599, 0.0471038855612278, 0.4082336723804474]"
1584454453100593001,,1570170,,1584454453,100175181,'',"[shoulder_pan_joint, shoulder_lift_joint, elbow_joint, wrist_1_joint, wrist_2_joint,","[1.4076731204986572, -1.1718843618976038, 2.482830286026001, -2.86280328432192, -1.5670059362994593, 2.72589111328125]","[0.016643691807985306, -5.1132694352418184e-05, -0.00017896443023346364, 0.00015339808305725455, 0.0, 0.01532063353806734]","[1.0345460176467896, -3.657532215118408, -1.3406027555465698, -0.4037475883960724, 0.0628051832318306, 0.3364563286304474]"
1584454453212578582,,1570184,,1584454453,212168816,'',"[shoulder_pan_joint, shoulder_lift_joint, elbow_joint, wrist_1_joint, wrist_2_joint,","[1.4091242551803589, -1.1718724409686487, 2.482830286026001, -2.862767521535055, -1.5670536200152796, 2.7272801399230957]","[0.012770390138030052, -3.834952076431364e-05, -0.00011504856229294091, 9.58738019107841e-05, 0.0, 0.011773303151130676]","[0.7324219346046448, -3.561401844024658, -1.4414842128753662, -0.3633728325366974, 0.0807495191693306, 0.3409424126148224]"
1584454453324531272,,1570198,,1584454453,324096349,'',"[shoulder_pan_joint, shoulder_lift_joint, elbow_joint, wrist_1_joint, wrist_2_joint,","[1.4108155965805054, -1.1718485991107386, 2.482806444168091, -2.8628271261798304, -1.5670297781573694, 2.7287769317626953]","[0.017717478796839714, -3.834952076431364e-05, -7.669904152862728e-05, 7.669904152862728e-05, 0.0, 0.015052187256515026]","[0.8743286728858948, -3.598022937774658, -1.4257915019989014, -0.3476715385913849, 0.0717773512005806, 0.2893524467945099]"
1584454453436702018,,1570212,,1584454453,436132354,'',"[shoulder_pan_joint, shoulder_lift_joint, elbow_joint, wrist_1_joint, wrist_2_joint,","[1.4129027128219604, -1.1718724409686487, 2.482806444168091, -2.86280328432192, -1.5670655409442347, 2.731111764907837]","[0.01824158802628517, -2.5566347176209092e-05, -6.391586794052273e-05, 5.752428114647046e-05, 0.0, 0.02346990630030632]","[1.0437012910842896, -3.648376941680908, -1.358537197113037, -0.3790741264820099, 0.0717773512005806, 0.2579498589038849]"
1584454453548563838,,1570226,,1584454453,548122574,'',"[shoulder_pan_joint, shoulder_lift_joint, elbow_joint, wrist_1_joint, wrist_2_joint,","[1.4143658876419067, -1.1718843618976038, 2.4828543663024902, -2.86280328432192, -1.5670178572284144, 2.733039617538452]","[0.001597896683961153, -2.5566347176209092e-05, -3.834952076431364e-05, 3.834952076431364e-05, 0.0, 0.0044293696992099285]","[0.2792358696460724, -3.694153308868408, -1.2598974704742432, -0.4284210503101349, 0.0650482252240181, 0.1076660305261612]"
1584454453660780290,,1570240,,1584454453,660205476,'',"[shoulder_pan_joint, shoulder_lift_joint, elbow_joint, wrist_1_joint, wrist_2_joint,","[1.4113671779632568, -1.1718843618976038, 2.482806444168091, -2.8628514448748987, -1.5670297781573694, 2.7279388904571533]","[-0.039154861122369766, -2.5566347176209092e-05, -3.834952076431364e-05, 3.834952076431364e-05, 0.0, -0.04772597923874855]","[-1.0620118379592896, -3.524780750274658, -1.407857060432434, -0.3813171684741974, 0.0583190992474556, -0.2960815727710724]"
1584454453772818770,,1570254,,1584454453,772318205,'',"[shoulder_pan_joint, shoulder_lift_joint, elbow_joint, wrist_1_joint, wrist_2_joint,","[1.406665325164795, -1.1718962828265589, 2.482806444168091, -2.86280328432192, -1.5670178572284144, 2.723017454147339]","[-0.047080427408218384, -2.5566347176209092e-05, -3.834952076431364e-05, 3.834952076431364e-05, 0.0, -0.047572579234838486]","[-1.1627198457717896, -3.529358386993408, -1.2845574617385864, -0.4418793320655823, 0.0336456336081028, -0.2781372368335724]"
1584454453884845448,,1570268,,1584454453,884304477,'',"[shoulder_pan_joint, shoulder_lift_joint, elbow_joint, wrist_1_joint, wrist_2_joint,","[1.4014716148376465, -1.1718605200396937, 2.4827704429626465, -2.8628271261798304, -1.5669696966754358, 2.71791672706604]","[-0.04157087951898575, -2.5566347176209092e-05, -2.5566347176209092e-05, 1.917476038215682e-05, 0.0, -0.03894393891096115]","[-0.7461548447608948, -3.451538324356079, -1.3338773250579834, -0.4127197563648224, 0.0314025916159153, -0.3476715385913849]"
1584454453996675438,,1570282,,1584454453,996202946,'',"[shoulder_pan_joint, shoulder_lift_joint, elbow_joint, wrist_1_joint, wrist_2_joint,","[1.3970576524734497, -1.1718605200396937, 2.4827585220336914, -2.8628152052508753, -1.5669696966754358, 2.7142887115478516]","[-0.036265864968299866, -2.5566347176209092e-05, -2.5566347176209092e-05, 1.917476038215682e-05, 0.0, -0.01902136206626892]","[-1.0849000215530396, -3.465271234512329, -1.3540536165237427, -0.3970184624195099, 0.0314025916159153, -0.3521576225757599]"
1584454454108513834,,1570296,,1584454454,108135838,'',"[shoulder_pan_joint, shoulder_lift_joint, elbow_joint, wrist_1_joint, wrist_2_joint,","[1.3933991193771362, -1.1718962828265589, 2.482722520828247, -2.86280328432192, -1.566981617604391, 2.71293568611145]","[-0.02768835425376892, -2.5566347176209092e-05, -0.00010226538870483637, 1.917476038215682e-05, 0.0, -0.00797670055180788]","[-1.2222291231155396, -3.414917230606079, -1.4347587823867798, -0.3880462944507599, 0.0314025916159153, -0.2422485649585724]"
1584454454220445114,,1570310,,1584454454,220063211,'',"[shoulder_pan_joint, shoulder_lift_joint, elbow_joint, wrist_1_joint, wrist_2_joint,","[1.3912640810012817, -1.1718724409686487, 2.4827704429626465, -2.8628390471087855, -1.5669577757464808, 2.71695876121521]","[-0.012949354946613312, -2.5566347176209092e-05, -0.00010226538870483637, 1.917476038215682e-05, 0.0, 0.058406319469213486]","[-1.0070801973342896, -3.515625476837158, -1.3518117666244507, -0.4059906303882599, 0.02018737979233265, 0.3342132866382599]"
1584454454332459979,,1570324,,1584454454,332094477,'',"[shoulder_pan_joint, shoulder_lift_joint, elbow_joint, wrist_1_joint, wrist_2_joint,","[1.3907963037490845, -1.1718843618976038, 2.4827463626861572, -2.8628271261798304, -1.5669696966754358, 2.723365068435669]","[0.006046440917998552, -2.5566347176209092e-05, -0.00010226538870483637, 1.917476038215682e-05, 0.0, 0.056124523282051086]","[0.3158569633960724, -3.446960687637329, -1.4571768045425415, -0.3611297905445099, 0.0314025916159153, 0.3588867485523224]"
1584454454444788241,,1570338,,1584454454,444248232,'',"[shoulder_pan_joint, shoulder_lift_joint, elbow_joint, wrist_1_joint, wrist_2_joint,","[1.3923916816711426, -1.1718962828265589, 2.4827704429626465, -2.8628271261798304, -1.566981617604391, 2.72935152053833]","[0.017257284373044968, -2.5566347176209092e-05, -8.948221511673182e-05, 1.917476038215682e-05, 0.0, 0.05158010497689247]","[0.9063721895217896, -3.579712390899658, -1.3293936252593994, -0.4015045464038849, 0.0314025916159153, 0.2826233208179474]"
1584454454556545875,,1570352,,1584454454,556147902,'',"[shoulder_pan_joint, shoulder_lift_joint, elbow_joint, wrist_1_joint, wrist_2_joint,","[1.3944065570831299, -1.1718843618976038, 2.4827585220336914, -2.86280328432192, -1.566981617604391, 2.7359492778778076]","[0.020734308287501335, -1.2783173588104546e-05, -7.669904152862728e-05, 1.917476038215682e-05, 0.0, 0.05955680459737778]","[0.8468628525733948, -3.533936023712158, -1.3899224996566772, -0.3745880424976349, 0.0448608435690403, 0.3521576225757599]"
1584454454668545162,,1570366,,1584454454,668111573,'',"[shoulder_pan_joint, shoulder_lift_joint, elbow_joint, wrist_1_joint, wrist_2_joint,","[1.396601915359497, -1.1718962828265589, 2.4827704429626465, -2.8628152052508753, -1.5670059362994593, 2.7413012981414795]","[0.019213110208511353, -1.2783173588104546e-05, -5.1132694352418184e-05, 1.917476038215682e-05, 0.0, 0.03833034634590149]","[0.7736206650733948, -3.524780750274658, -1.405615210533142, -0.3723450005054474, 0.0515899695456028, 0.3633728325366974]"
1584454454780508201,,1570380,,1584454454,780082696,'',"[shoulder_pan_joint, shoulder_lift_joint, elbow_joint, wrist_1_joint, wrist_2_joint,","[1.3989167213439941, -1.1718724409686487, 2.4827585220336914, -2.86280328432192, -1.5670178572284144, 2.7450013160705566]","[0.02382783591747284, -1.2783173588104546e-05, -5.1132694352418184e-05, 0.0, 0.0, 0.03163835406303406]","[0.7965088486671448, -3.575134754180908, -1.421307921409607, -0.3656158745288849, 0.0515899695456028, 0.2848663628101349]"
1584454454892545098,,1570394,,1584454454,892106409,'',"[shoulder_pan_joint, shoulder_lift_joint, elbow_joint, wrist_1_joint, wrist_2_joint,","[1.4022513628005981, -1.1718485991107386, 2.4827704429626465, -2.8628152052508753, -1.5670059362994593, 2.7491681575775146]","[0.03152330592274666, -1.2783173588104546e-05, -3.834952076431364e-05, 0.0, 0.0, 0.03357500582933426]","[1.0437012910842896, -3.652954578399658, -1.2666230201721191, -0.4239349663257599, 0.0740203931927681, 0.3117828667163849]"
1584454455004591522,,1570408,,1584454455,4171468,'',"[shoulder_pan_joint, shoulder_lift_joint, elbow_joint, wrist_1_joint, wrist_2_joint,","[1.405849575996399, -1.1718962828265589, 2.4827823638916016, -2.8628271261798304, -1.5670416990863245, 2.752760410308838]","[0.032827191054821014, -1.2783173588104546e-05, -3.834952076431364e-05, 0.0, 0.0, 0.03315316140651703]","[0.8010864853858948, -3.616333484649658, -1.452693223953247, -0.3409424126148224, 0.0471038855612278, 0.3499145805835724]"
1584454455116513745,,1570422,,1584454455,116088180,'',"[shoulder_pan_joint, shoulder_lift_joint, elbow_joint, wrist_1_joint, wrist_2_joint,","[1.4093883037567139, -1.1718843618976038, 2.4827823638916016, -2.862791363392965, -1.5670536200152796, 2.7558252811431885]","[0.028966670855879784, -1.2783173588104546e-05, -2.5566347176209092e-05, 0.0, 0.0, 0.026154372841119766]","[0.7690430283546448, -3.533936023712158, -1.4773530960083008, -0.3364563286304474, 0.0695343092083931, 0.3319702446460724]"
1584454455228614521,,1570436,,1584454455,228158099,'',"[shoulder_pan_joint, shoulder_lift_joint, elbow_joint, wrist_1_joint, wrist_2_joint,","[1.4128068685531616, -1.1718962828265589, 2.4827823638916016, -2.8628271261798304, -1.5670178572284144, 2.7586753368377686]","[0.029094502329826355, -1.2783173588104546e-05, -2.5566347176209092e-05, 0.0, 0.0, 0.020842963829636574]","[1.0437012910842896, -3.662109851837158, -1.3495699167251587, -0.3611297905445099, 0.0852356031537056, 0.3117828667163849]"
1584454455340549949,,1570450,,1584454455,340104908,'',"[shoulder_pan_joint, shoulder_lift_joint, elbow_joint, wrist_1_joint, wrist_2_joint,","[1.4155774116516113, -1.1718962828265589, 2.4827945232391357, -2.8628152052508753, -1.5670297781573694, 2.760255813598633]","[0.019238676875829697, -1.2783173588104546e-05, -2.5566347176209092e-05, 0.0, 0.0, 0.012962138280272484]","[0.8789063692092896, -3.666687488555908, -1.4123406410217285, -0.3701019585132599, 0.0852356031537056, 0.2691650688648224]"
1584454455452671414,,1570464,,1584454455,452190576,'',"[shoulder_pan_joint, shoulder_lift_joint, elbow_joint, wrist_1_joint, wrist_2_joint,","[1.417412519454956, -1.1718962828265589, 2.4827585220336914, -2.8628390471087855, -1.5670059362994593, 2.762758731842041]","[0.013013270683586597, -1.2783173588104546e-05, -2.5566347176209092e-05, 0.0, 0.0, 0.028321120887994766]","[0.8789063692092896, -3.616333484649658, -1.3988897800445557, -0.3611297905445099, 0.0672912672162056, 0.2669220268726349]"
1584454455564470586,,1570478,,1584454455,564068545,'',"[shoulder_pan_joint, shoulder_lift_joint, elbow_joint, wrist_1_joint, wrist_2_joint,","[1.4185761213302612, -1.1718962828265589, 2.4827704429626465, -2.862791363392965, -1.5670536200152796, 2.7658839225769043]","[0.0076187714003026485, 0.0, -1.2783173588104546e-05, 0.0, 0.0, 0.025080585852265358]","[0.8331299424171448, -3.616333484649658, -1.4414842128753662, -0.3409424126148224, 0.0695343092083931, 0.3095398247241974]"
1584454455676497034,,1570492,,1584454455,676077140,'',"[shoulder_pan_joint, shoulder_lift_joint, elbow_joint, wrist_1_joint, wrist_2_joint,","[1.4188281297683716, -1.1718962828265589, 2.4827704429626465, -2.862791363392965, -1.5670536200152796, 2.768218517303467]","[-0.0008053399506025016, 0.0, -1.2783173588104546e-05, 0.0, 0.0, 0.015148060396313667]","[0.0411987341940403, -3.575134754180908, -1.468385934829712, -0.3386993706226349, 0.0785064771771431, 0.3297272026538849]"
1584454455788420509,,1570506,,1584454455,788045077,'',"[shoulder_pan_joint, shoulder_lift_joint, elbow_joint, wrist_1_joint, wrist_2_joint,","[1.4185761213302612, -1.1718843618976038, 2.4827945232391357, -2.86280328432192, -1.5670655409442347, 2.7673563957214355]","[-0.012041749432682991, 0.0, -0.0, 0.0, 0.0, -0.05181020125746727]","[-0.7644653916358948, -3.648376941680908, -1.2867993116378784, -0.4261780083179474, 0.0538330152630806, -0.2781372368335724]"
1584454455900420377,,1570520,,1584454455,900055485,'',"[shoulder_pan_joint, shoulder_lift_joint, elbow_joint, wrist_1_joint, wrist_2_joint,","[1.416524887084961, -1.1719086805926722, 2.4827463626861572, -2.862767521535055, -1.5670178572284144, 2.7623276710510254]","[-0.021693045273423195, 0.0, -0.0, 0.0, 0.0, -0.038733016699552536]","[-0.9155274629592896, -3.588867664337158, -1.3764716386795044, -0.3790741264820099, 0.0605621412396431, -0.3544006645679474]"
1584454456012494933,,1570534,,1584454456,12051535,'',"[shoulder_pan_joint, shoulder_lift_joint, elbow_joint, wrist_1_joint, wrist_2_joint,","[1.4140303134918213, -1.1718605200396937, 2.482734441757202, -2.862791363392965, -1.5670178572284144, 2.758962631225586]","[-0.024096282199025154, 0.0, -0.0, 0.0, 0.0, -0.03303811326622963]","[-0.6820679306983948, -3.611755847930908, -1.2711066007614136, -0.4216919243335724, 0.0695343092083931, -0.2915954887866974]"
1584454456124420052,,1570548,,1584454456,124044791,'',"[shoulder_pan_joint, shoulder_lift_joint, elbow_joint, wrist_1_joint, wrist_2_joint,","[1.4107556343078613, -1.1718843618976038, 2.4827704429626465, -2.8628152052508753, -1.5669940153705042, 2.754220962524414]","[-0.03296780586242676, 0.0, -0.0, 0.0, 0.0, -0.04734248295426369]","[-1.0116578340530396, -3.501892328262329, -1.407857060432434, -0.3835602104663849, 0.0471038855612278, -0.2579498589038849]"
1584454456236345460,,1570562,,1584454456,236022667,'',"[shoulder_pan_joint, shoulder_lift_joint, elbow_joint, wrist_1_joint, wrist_2_joint,","[1.4067012071609497, -1.1718724409686487, 2.4827463626861572, -2.8628514448748987, -1.5670297781573694, 2.7486536502838135]","[-0.03971732035279274, 0.0, -0.0, 0.0, 0.0, -0.045655105262994766]","[-1.0986329317092896, -3.529358386993408, -1.3002501726150513, -0.4194488823413849, 0.0471038855612278, -0.2893524467945099]"
1584454456348560700,,1570576,,1584454456,348092285,'',"[shoulder_pan_joint, shoulder_lift_joint, elbow_joint, wrist_1_joint, wrist_2_joint,","[1.4025633335113525, -1.1718843618976038, 2.4827463626861572, -2.8628271261798304, -1.5670178572284144, 2.7443549633026123]","[-0.03213689848780632, 0.0, -1.2783173588104546e-05, 0.0, 0.0, -0.030238596722483635]","[-0.8285523056983948, -3.469848871231079, -1.374229907989502, -0.3992615044116974, 0.0314025916159153, -0.2983246147632599]"
1584454456460400859,,1570590,,1584454456,460056366,'',"[shoulder_pan_joint, shoulder_lift_joint, elbow_joint, wrist_1_joint, wrist_2_joint,","[1.3989167213439941, -1.171920124684469, 2.482710599899292, -2.8628390471087855, -1.5669577757464808, 2.739816427230835]","[-0.030539002269506454, 0.0, -0.0, 0.0, 0.0, -0.0459619015455246]","[-1.0986329317092896, -3.479004144668579, -1.3899224996566772, -0.3858032524585724, 0.0403747595846653, -0.2714081108570099]"
1584454456572328783,,1570604,,1584454456,572018483,'',"[shoulder_pan_joint, shoulder_lift_joint, elbow_joint, wrist_1_joint, wrist_2_joint,","[1.3957982063293457, -1.1718843618976038, 2.4827463626861572, -2.8628152052508753, -1.5669940153705042, 2.7340691089630127]","[-0.024697091430425644, 0.0, -0.0, 0.0, 0.0, -0.046728890389204025]","[-1.0025025606155396, -3.433227777481079, -1.4302750825881958, -0.3858032524585724, 0.0314025916159153, -0.3476715385913849]"
1584454456684267165,,1570618,,1584454456,683995608,'',"[shoulder_pan_joint, shoulder_lift_joint, elbow_joint, wrist_1_joint, wrist_2_joint,","[1.3931710720062256, -1.1718605200396937, 2.4827704429626465, -2.8628390471087855, -1.5669940153705042, 2.7296507358551025]","[-0.018637867644429207, 0.0, -0.0, 0.0, 0.0, -0.028551217168569565]","[-1.0940552949905396, -3.446960687637329, -1.40337336063385, -0.3790741264820099, 0.02243042178452015, -0.3611297905445099]"
1584454456796457219,,1570632,,1584454456,796080265,'',"[shoulder_pan_joint, shoulder_lift_joint, elbow_joint, wrist_1_joint, wrist_2_joint,","[1.3916479349136353, -1.1718843618976038, 2.482722520828247, -2.8628514448748987, -1.5669696966754358, 2.726872682571411]","[-0.011543205939233303, 0.0, -0.0, 0.0, 0.0, -0.03020024672150612]","[-0.9521485567092896, -3.488159418106079, -1.3114591836929321, -0.4015045464038849, 0.0291595496237278, -0.2960815727710724]"
1584454456908317365,,1570646,,1584454456,907984934,'',"[shoulder_pan_joint, shoulder_lift_joint, elbow_joint, wrist_1_joint, wrist_2_joint,","[1.3910722732543945, -1.1718843618976038, 2.482722520828247, -2.8628152052508753, -1.566981617604391, 2.7236642837524414]","[0.006148706655949354, 0.0, -0.0, 0.0, 0.0, -0.02544490620493889]","[0.2700805962085724, -3.401184320449829, -1.4863203763961792, -0.3454284965991974, 0.0269165076315403, -0.2489776909351349]"
1584454457020359903,,1570660,,1584454457,19985604,'',"[shoulder_pan_joint, shoulder_lift_joint, elbow_joint, wrist_1_joint, wrist_2_joint,","[1.3926433324813843, -1.171920124684469, 2.4827463626861572, -2.862791363392965, -1.5670059362994593, 2.720287322998047]","[0.01702718622982502, 0.0, -0.0, 0.0, 0.0, -0.03248204290866852]","[0.8377075791358948, -3.533936023712158, -1.358537197113037, -0.3858032524585724, 0.0426178015768528, -0.2938385307788849]"
1584454457132517264,,1570674,,1584454457,132060952,'',"[shoulder_pan_joint, shoulder_lift_joint, elbow_joint, wrist_1_joint, wrist_2_joint,","[1.394802451133728, -1.1718605200396937, 2.4827704429626465, -2.86280328432192, -1.5669940153705042, 2.717425584793091]","[0.0204530768096447, 0.0, -0.0, 0.0, 0.0, -0.018637867644429207]","[0.9475709199905396, -3.579712390899658, -1.3764716386795044, -0.3768310844898224, 0.0358886756002903, -0.2691650688648224]"
1584454457244415011,,1570688,,1584454457,244004885,'',"[shoulder_pan_joint, shoulder_lift_joint, elbow_joint, wrist_1_joint, wrist_2_joint,","[1.396817684173584, -1.1718843618976038, 2.482722520828247, -2.862791363392965, -1.5670059362994593, 2.715174913406372]","[0.01937929168343544, 0.0, -0.0, 0.0, 0.0, -0.01501383725553751]","[0.8285523056983948, -3.543091297149658, -1.407857060432434, -0.3633728325366974, 0.0426178015768528, -0.2960815727710724]"
1584454457356596348,,1570702,,1584454457,356107915,'',"[shoulder_pan_joint, shoulder_lift_joint, elbow_joint, wrist_1_joint, wrist_2_joint,","[1.3994324207305908, -1.1718605200396937, 2.4826745986938477, -2.8627432028399866, -1.5670059362994593, 2.7159411907196045]","[0.03285275772213936, 0.0, -0.0032213598024100065, 0.0, 0.0, 0.05480146408081055]","[0.8605957627296448, -3.515625476837158, -1.468385934829712, -0.3274841606616974, 0.0672912672162056, 0.2422485649585724]"
1584454457468358512,,1570716,,1584454457,467951361,'',"[shoulder_pan_joint, shoulder_lift_joint, elbow_joint, wrist_1_joint, wrist_2_joint,","[1.4040744304656982, -1.1718962828265589, 2.481990337371826, -2.862300697957174, -1.5670416990863245, 2.7221553325653076]","[0.04637735337018967, 0.0, -0.01011149026453495, 0.008973787538707256, 0.0, 0.05073641613125801]","[0.8514404892921448, -3.259277582168579, -1.7060178518295288, -0.3050537407398224, 0.1054229810833931, 0.3970184624195099]"
1584454457580390078,,1570730,,1584454457,579979201,'',"[shoulder_pan_joint, shoulder_lift_joint, elbow_joint, wrist_1_joint, wrist_2_joint,","[1.4098681211471558, -1.1718485991107386, 2.4800589084625244, -2.8606603781329554, -1.5670655409442347, 2.727423906326294]","[0.054187871515750885, 0.0005752427969127893, -0.01986505091190338, 0.01501383725553751, 0.0, 0.04519490897655487]","[0.8148193955421448, -2.774048089981079, -1.8068993091583252, -0.1435547024011612, 0.0762634351849556, 0.3431854546070099]"
1584454457692321328,,1570744,,1584454457,691937972,'',"[shoulder_pan_joint, shoulder_lift_joint, elbow_joint, wrist_1_joint, wrist_2_joint,","[1.4160091876983643, -1.171549145375387, 2.477431535720825, -2.859319512044088, -1.5670536200152796, 2.732800006866455]","[0.051848553121089935, 0.009382849559187889, -0.03237977996468544, 0.01495631318539381, 0.0, 0.05447549372911453]","[0.8789063692092896, -2.494812250137329, -1.6141035556793213, -0.1502838283777237, 0.0874786451458931, 0.3185119926929474]"
1584454457804461147,,1570758,,1584454457,804012118,'',"[shoulder_pan_joint, shoulder_lift_joint, elbow_joint, wrist_1_joint, wrist_2_joint,","[1.4211909770965576, -1.1691864172564905, 2.4710726737976074, -2.8566015402423304, -1.5670297781573694, 2.738619089126587]","[0.041558098047971725, 0.03260987624526024, -0.08211910724639893, 0.03871384263038635, 0.0, 0.04412112385034561]","[0.8422852158546448, -2.755737543106079, -1.645488977432251, -0.1345825344324112, 0.1054229810833931, 0.3521576225757599]"
1584454457916548959,,1570772,,1584454457,916033346,'',"[shoulder_pan_joint, shoulder_lift_joint, elbow_joint, wrist_1_joint, wrist_2_joint,","[1.4254850149154663, -1.1651938597308558, 2.461102247238159, -2.851154152547018, -1.5670416990863245, 2.742534637451172]","[0.03525599092245102, 0.03179175406694412, -0.09428868442773819, 0.05194442719221115, 0.0, 0.025617480278015137]","[1.1718751192092896, -2.586364984512329, -1.867428183555603, -0.0785064771771431, 0.0448608435690403, 0.3297272026538849]"
1584454458028491239,,1570786,,1584454458,28005732,'',"[shoulder_pan_joint, shoulder_lift_joint, elbow_joint, wrist_1_joint, wrist_2_joint,","[1.4291316270828247, -1.1611416975604456, 2.451564311981201, -2.845550839100973, -1.5670297781573694, 2.7443430423736572]","[0.029989324510097504, 0.03930825740098953, -0.07281295955181122, 0.04617282375693321, 0.0, 0.013422331772744656]","[0.9063721895217896, -2.989197015762329, -1.8046574592590332, -0.0471038855612278, 0.0560760572552681, 0.2871094048023224]"
1584454458140243524,,1570800,,1584454458,139935469,'',"[shoulder_pan_joint, shoulder_lift_joint, elbow_joint, wrist_1_joint, wrist_2_joint,","[1.4324781894683838, -1.1569693724261683, 2.443021297454834, -2.8404749075519007, -1.567077938710348, 2.746857166290283]","[0.030462302267551422, 0.03774871304631233, -0.07204596698284149, 0.04634539410471916, 0.0, 0.03334490954875946]","[1.0986329317092896, -3.121948480606079, -1.963826060295105, -0.1659851223230362, 0.0515899695456028, 0.2758941948413849]"
1584454458252348468,,1570814,,1584454458,251939634,'',"[shoulder_pan_joint, shoulder_lift_joint, elbow_joint, wrist_1_joint, wrist_2_joint,","[1.4359686374664307, -1.153696362172262, 2.4357144832611084, -2.8357818762408655, -1.567077938710348, 2.750628709793091]","[0.03515372797846794, 0.021526863798499107, -0.07232719659805298, 0.04218447208404541, 0.0, 0.036010198295116425]","[0.9109498262405396, -3.085327386856079, -1.8808790445327759, -0.1906585842370987, 0.0560760572552681, 0.3028106987476349]"
1584454458364577564,,1570828,,1584454458,364188157,'',"[shoulder_pan_joint, shoulder_lift_joint, elbow_joint, wrist_1_joint, wrist_2_joint,","[1.4404784440994263, -1.1511662642108362, 2.4275918006896973, -2.8308733145343226, -1.567089859639303, 2.7543768882751465]","[0.03937217593193054, 0.025796443223953247, -0.06450389325618744, 0.04001772403717041, 0.0, 0.026346120983362198]","[0.8331299424171448, -2.879333734512329, -1.9032971858978271, -0.0829925611615181, 0.0538330152630806, 0.3319702446460724]"
1584454458476548117,,1570842,,1584454458,476145234,'',"[shoulder_pan_joint, shoulder_lift_joint, elbow_joint, wrist_1_joint, wrist_2_joint,","[1.444976568222046, -1.1478212515460413, 2.420008659362793, -2.826383415852682, -1.5670297781573694, 2.757657766342163]","[0.037582531571388245, 0.03266100957989693, -0.06947654485702515, 0.038483742624521255, 0.0, 0.03039199486374855]","[1.0070801973342896, -3.135681390762329, -1.8965717554092407, -0.1435547024011612, 0.0628051832318306, 0.3274841606616974]"
1584454458588430996,,1570856,,1584454458,588039505,'',"[shoulder_pan_joint, shoulder_lift_joint, elbow_joint, wrist_1_joint, wrist_2_joint,","[1.449198842048645, -1.1443803946124476, 2.4130852222442627, -2.822587792073385, -1.5670536200152796, 2.7612977027893066]","[0.04140469804406166, 0.028314730152487755, -0.06368576735258102, 0.03347913175821304, 0.0, 0.04091893881559372]","[0.9979249238967896, -3.176880121231079, -2.0714330673217773, -0.1076660305261612, 0.0583190992474556, 0.2512207329273224]"
1584454458700357697,,1570870,,1584454458,699978769,'',"[shoulder_pan_joint, shoulder_lift_joint, elbow_joint, wrist_1_joint, wrist_2_joint,","[1.4541404247283936, -1.141214672719137, 2.40457820892334, -2.817991081868307, -1.5670655409442347, 2.7663748264312744]","[0.045584797859191895, 0.029324600473046303, -0.0788082629442215, 0.046671368181705475, 0.0, 0.04580850154161453]","[1.0345460176467896, -3.085327386856079, -1.8988134860992432, -0.0986938551068306, 0.0717773512005806, 0.3117828667163849]"
1584454458812174142,,1570884,,1584454458,811875114,'',"[shoulder_pan_joint, shoulder_lift_joint, elbow_joint, wrist_1_joint, wrist_2_joint,","[1.4592621326446533, -1.1378462950335901, 2.3954107761383057, -2.8129146734820765, -1.5670655409442347, 2.7706494331359863]","[0.04981602728366852, 0.03612525016069412, -0.08902201801538467, 0.04839709401130676, 0.0, 0.030104374513030052]","[0.7690430283546448, -3.053283929824829, -1.9436497688293457, -0.1166381984949112, 0.0852356031537056, 0.3476715385913849]"
1584454458924325623,,1570898,,1584454458,923932849,'',"[shoulder_pan_joint, shoulder_lift_joint, elbow_joint, wrist_1_joint, wrist_2_joint,","[1.4658111333847046, -1.1334574858294886, 2.386171579360962, -2.8075273672686976, -1.567089859639303, 2.77370285987854]","[0.06625518947839737, 0.03910372778773308, -0.08590292930603027, 0.045233260840177536, 0.0, 0.021322334185242653]","[0.7736206650733948, -3.080749750137329, -2.111785650253296, -0.1906585842370987, 0.0672912672162056, 0.3409424126148224]"
1584454459036279104,,1570912,,1584454459,35907981,'',"[shoulder_pan_joint, shoulder_lift_joint, elbow_joint, wrist_1_joint, wrist_2_joint,","[1.4736204147338867, -1.1290934721576136, 2.3765602111816406, -2.8018644491778772, -1.567089859639303, 2.7760136127471924]","[0.07296635210514069, 0.03278883919119835, -0.08257929980754852, 0.05083229020237923, 0.0, 0.023738352581858635]","[0.8422852158546448, -3.337097406387329, -2.116269111633301, -0.0672912672162056, 0.1054229810833931, 0.2893524467945099]"
1584454459148348882,,1570926,,1584454459,147930420,'',"[shoulder_pan_joint, shoulder_lift_joint, elbow_joint, wrist_1_joint, wrist_2_joint,","[1.4816086292266846, -1.1256163755999964, 2.3668527603149414, -2.7961891333209437, -1.567089859639303, 2.7789595127105713]","[0.06396699696779251, 0.03395210951566696, -0.07907671481370926, 0.04663301631808281, 0.0, 0.029893450438976288]","[0.9750367403030396, -3.208923578262329, -2.1185109615325928, -0.0852356031537056, 0.0829925611615181, 0.3342132866382599]"
1584454459260592125,,1570940,,1584454459,260086600,'',"[shoulder_pan_joint, shoulder_lift_joint, elbow_joint, wrist_1_joint, wrist_2_joint,","[1.4880497455596924, -1.1215642134295862, 2.3583812713623047, -2.791412655507223, -1.567089859639303, 2.7820966243743896]","[0.05770324543118477, 0.03693058714270592, -0.08070017397403717, 0.0411682091653347, 0.0, 0.02701723761856556]","[1.2542725801467896, -3.071594476699829, -2.01090407371521, -0.1076660305261612, 0.0919647291302681, 0.2938385307788849]"
1584454459372560473,,1570954,,1584454459,372007861,'',"[shoulder_pan_joint, shoulder_lift_joint, elbow_joint, wrist_1_joint, wrist_2_joint,","[1.494131088256836, -1.117607895527975, 2.3499693870544434, -2.786599938069479, -1.567077938710348, 2.7847070693969727]","[0.05331861600279808, 0.02954191341996193, -0.07833528518676758, 0.044792238622903824, 0.0, 0.019424032419919968]","[0.9338380098342896, -3.419494867324829, -2.275437593460083, -0.1413116604089737, 0.0874786451458931, 0.3431854546070099]"
1584454459484393529,,1570968,,1584454459,483938069,'',"[shoulder_pan_joint, shoulder_lift_joint, elbow_joint, wrist_1_joint, wrist_2_joint,","[1.500284194946289, -1.1147545019732874, 2.340477705001831, -2.781452004109518, -1.567077938710348, 2.7867064476013184]","[0.059480104595422745, 0.02520841732621193, -0.0832568109035492, 0.04939418286085129, 0.0, 0.018676215782761574]","[1.1123658418655396, -2.998352289199829, -2.0647075176239014, -0.1749572902917862, 0.1054229810833931, 0.3499145805835724]"
1584454459596376435,,1570982,,1584454459,595945711,'',"[shoulder_pan_joint, shoulder_lift_joint, elbow_joint, wrist_1_joint, wrist_2_joint,","[1.5070972442626953, -1.1109774748431605, 2.3304340839385986, -2.7758129278766077, -1.567077938710348, 2.788886070251465]","[0.056910689920186996, 0.044741109013557434, -0.09275470674037933, 0.05495486408472061, 0.0, 0.02299053780734539]","[1.1032105684280396, -3.218078851699829, -2.1319618225097656, -0.1659851223230362, 0.0964508131146431, 0.3072967827320099]"
1584454459708292707,,1570996,,1584454459,707876540,'',"[shoulder_pan_joint, shoulder_lift_joint, elbow_joint, wrist_1_joint, wrist_2_joint,","[1.5131065845489502, -1.1056426207171839, 2.3200418949127197, -2.7698872725116175, -1.5670655409442347, 2.791520118713379]","[0.05294790491461754, 0.04688867926597595, -0.09785519540309906, 0.0563354454934597, 0.0, 0.026346120983362198]","[1.2680054903030396, -3.446960687637329, -2.181281566619873, -0.1009368970990181, 0.0964508131146431, 0.2512207329273224]"
1584454459820394415,,1571010,,1584454459,819937631,'',"[shoulder_pan_joint, shoulder_lift_joint, elbow_joint, wrist_1_joint, wrist_2_joint,","[1.5181320905685425, -1.1014345327960413, 2.3098175525665283, -2.7637575308429163, -1.567077938710348, 2.795088291168213]","[0.03725016862154007, 0.03525599092245102, -0.09508124738931656, 0.05102403834462166, 0.0, 0.037333257496356964]","[0.9017945528030396, -3.291321039199829, -2.1633472442626953, -0.2063598781824112, 0.1009368970990181, 0.3140259087085724]"
1584454459932503306,,1571024,,1584454459,931904007,'',"[shoulder_pan_joint, shoulder_lift_joint, elbow_joint, wrist_1_joint, wrist_2_joint,","[1.5215386152267456, -1.096590820943014, 2.2996532917022705, -2.7582266966449183, -1.567089859639303, 2.799123764038086]","[0.026870230212807655, 0.04651796817779541, -0.09155309200286865, 0.04935583472251892, 0.0, 0.033785928040742874]","[0.8972169160842896, -3.364563226699829, -2.365110158920288, -0.1861725002527237, 0.0717773512005806, 0.3297272026538849]"
1584454460044194116,,1571038,,1584454460,43818374,'',"[shoulder_pan_joint, shoulder_lift_joint, elbow_joint, wrist_1_joint, wrist_2_joint,","[1.5242732763290405, -1.0914834181415003, 2.2895004749298096, -2.752719227467672, -1.567077938710348, 2.8021774291992188]","[0.024057932198047638, 0.03702007234096527, -0.0878843143582344, 0.04935583472251892, 0.0, 0.022587867453694344]","[0.8926392793655396, -3.785706043243408, -2.3113067150115967, -0.1076660305261612, 0.0740203931927681, 0.3386993706226349]"
1584454460156293450,,1571052,,1584454460,155853879,'',"[shoulder_pan_joint, shoulder_lift_joint, elbow_joint, wrist_1_joint, wrist_2_joint,","[1.5270438194274902, -1.0876224676715296, 2.2787723541259766, -2.746829334889547, -1.567089859639303, 2.8043806552886963]","[0.023431556299328804, 0.03895033150911331, -0.0931382030248642, 0.053881075233221054, 0.0, 0.014189322479069233]","[0.9750367403030396, -3.497314691543579, -2.2104251384735107, -0.1973877102136612, 0.0628051832318306, 0.2871094048023224]"
1584454460268366354,,1571066,,1584454460,267916033,'',"[shoulder_pan_joint, shoulder_lift_joint, elbow_joint, wrist_1_joint, wrist_2_joint,","[1.52969491481781, -1.082599941884176, 2.267563819885254, -2.740580383931295, -1.567101780568258, 2.8059494495391846]","[0.024211330339312553, 0.04794968292117119, -0.09848156571388245, 0.0562203973531723, 0.0, 0.0131155364215374]","[0.7690430283546448, -3.616333484649658, -2.277679443359375, -0.1592559963464737, 0.0672912672162056, 0.2983246147632599]"
1584454460380270072,,1571080,,1584454460,379833266,'',"[shoulder_pan_joint, shoulder_lift_joint, elbow_joint, wrist_1_joint, wrist_2_joint,","[1.5328494310379028, -1.077599827443258, 2.2561984062194824, -2.7341631094561976, -1.5671137014972132, 2.8079609870910645]","[0.028148548677563667, 0.03843900188803673, -0.10250826925039291, 0.05817622318863869, 0.0, 0.024275247007608414]","[0.8743286728858948, -3.401184320449829, -2.3292412757873535, -0.1143951565027237, 0.0605621412396431, 0.2444916069507599]"
1584454460492238801,,1571094,,1584454460,491804430,'',"[shoulder_pan_joint, shoulder_lift_joint, elbow_joint, wrist_1_joint, wrist_2_joint,","[1.5364481210708618, -1.0725286642657679, 2.244509696960449, -2.7279022375689905, -1.567089859639303, 2.8115410804748535]","[0.0375569649040699, 0.0520019493997097, -0.10413172841072083, 0.05721748620271683, 0.0, 0.0347830168902874]","[0.9201050996780396, -3.744507312774658, -2.3225157260894775, -0.1502838283777237, 0.0515899695456028, 0.3207550346851349]"
1584454460604437631,,1571108,,1584454460,603988242,'',"[shoulder_pan_joint, shoulder_lift_joint, elbow_joint, wrist_1_joint, wrist_2_joint,","[1.5410417318344116, -1.0674098173724573, 2.2346444129943848, -2.7225149313556116, -1.567077938710348, 2.814918041229248]","[0.04242735356092453, 0.038068290799856186, -0.08480357378721237, 0.04272136464715004, 0.0, 0.027285683900117874]","[0.8972169160842896, -3.909302234649658, -2.300097703933716, -0.0672912672162056, 0.0628051832318306, 0.3342132866382599]"
1584454460716364812,,1571122,,1584454460,715866672,'',"[shoulder_pan_joint, shoulder_lift_joint, elbow_joint, wrist_1_joint, wrist_2_joint,","[1.5456358194351196, -1.064148251210348, 2.2262678146362305, -2.717642132435934, -1.567077938710348, 2.817540407180786]","[0.039027027785778046, 0.026550650596618652, -0.07263398915529251, 0.03982597589492798, 0.0, 0.02155243046581745]","[0.7873535752296448, -3.735352039337158, -2.5130696296691895, -0.1951446682214737, 0.0403747595846653, 0.3386993706226349]"
1584454460828263191,,1571136,,1584454460,827865709,'',"[shoulder_pan_joint, shoulder_lift_joint, elbow_joint, wrist_1_joint, wrist_2_joint,","[1.550169587135315, -1.0604317823993128, 2.2175068855285645, -2.7130096594439905, -1.567089859639303, 2.820258617401123]","[0.04422977939248085, 0.03880971297621727, -0.07444920390844345, 0.04398690164089203, 0.0, 0.025291508063673973]","[1.1398316621780396, -3.781128406524658, -2.3494174480438232, -0.1772003322839737, 0.0650482252240181, 0.3162689507007599]"
1584454460940367634,,1571150,,1584454460,939932180,'',"[shoulder_pan_joint, shoulder_lift_joint, elbow_joint, wrist_1_joint, wrist_2_joint,","[1.5550154447555542, -1.0561993757831019, 2.2094054222106934, -2.708400551472799, -1.567089859639303, 2.8226895332336426]","[0.04214612394571304, 0.03292945399880409, -0.0702051892876625, 0.04072719067335129, 0.0, 0.0240068007260561]","[0.7598877549171448, -4.037476062774658, -2.445815324783325, -0.0762634351849556, 0.0717773512005806, 0.2669220268726349]"
1584454461052215057,,1571164,,1584454461,51851488,'',"[shoulder_pan_joint, shoulder_lift_joint, elbow_joint, wrist_1_joint, wrist_2_joint,","[1.5590574741363525, -1.0542338530169886, 2.2048211097717285, -2.705240074788229, -1.5670536200152796, 2.8261983394622803]","[0.031216509640216827, 0.0027867318131029606, -0.007657120935618877, 0.010737866163253784, 0.0, 0.033536653965711594]","[0.8560181260108948, -4.183960437774658, -2.573598623275757, -0.1099090725183487, 0.0650482252240181, 0.3274841606616974]"
1584454461164376185,,1571178,,1584454461,163885699,'',"[shoulder_pan_joint, shoulder_lift_joint, elbow_joint, wrist_1_joint, wrist_2_joint,","[1.5626680850982666, -1.0543177763568323, 2.2049169540405273, -2.705263916646139, -1.5670536200152796, 2.8293354511260986]","[0.034271687269210815, -0.00046019424917176366, 0.0006647250265814364, -0.0007094661123119295, 0.0, 0.024716265499591827]","[1.2268067598342896, -4.774475574493408, -2.0534985065460205, -0.3723450005054474, 0.0852356031537056, 0.3409424126148224]"
1584454461276233978,,1571192,,1584454461,275840593,'',"[shoulder_pan_joint, shoulder_lift_joint, elbow_joint, wrist_1_joint, wrist_2_joint,","[1.566218376159668, -1.054377857838766, 2.2050132751464844, -2.7053354422198694, -1.5670536200152796, 2.830700159072876]","[0.02718980982899666, -0.0003707120195031166, -0.0, -0.0016490294365212321, 0.0, 0.001418932224623859]","[0.8422852158546448, -4.907227039337158, -1.9436497688293457, -0.3858032524585724, 0.0897216871380806, 0.006729126907885075]"
1584454461388192819,,1571206,,1584454461,387812619,'',"[shoulder_pan_joint, shoulder_lift_joint, elbow_joint, wrist_1_joint, wrist_2_joint,","[1.5687369108200073, -1.0544136206256312, 2.2050013542175293, -2.7053592840777796, -1.567089859639303, 2.826892614364624]","[0.016388028860092163, -0.00020453077740967274, -0.0, -0.00026844663079828024, 0.0, -0.030833015218377113]","[0.9658814668655396, -4.843140125274658, -2.1207528114318848, -0.3386993706226349, 0.0740203931927681, -0.3072967827320099]"
1584454461500219527,,1571220,,1584454461,499788732,'',"[shoulder_pan_joint, shoulder_lift_joint, elbow_joint, wrist_1_joint, wrist_2_joint,","[1.569252610206604, -1.0543893019305628, 2.204989433288574, -2.7053712050067347, -1.5670655409442347, 2.8249526023864746]","[-0.0016745957545936108, -0.00010226538870483637, -0.0, -0.00013422331539914012, 0.0, -0.001208009896799922]","[0.0778198316693306, -5.039978504180908, -2.0557403564453125, -0.3723450005054474, 0.0829925611615181, -0.1099090725183487]"
1584454461612244451,,1571234,,1584454461,611826160,'',"[shoulder_pan_joint, shoulder_lift_joint, elbow_joint, wrist_1_joint, wrist_2_joint,","[1.5691807270050049, -1.0544617811786097, 2.2050132751464844, -2.7053354422198694, -1.5670536200152796, 2.825012683868408]","[-0.00021731395099777728, -0.0009587380336597562, -0.0, -9.58738019107841e-05, 0.0, 0.0003451456723269075]","[0.0411987341940403, -5.049133777618408, -2.089367389678955, -0.3297272026538849, 0.0538330152630806, -0.0426178015768528]"
1584454461724490789,,1571248,,1584454461,723959367,'',"[shoulder_pan_joint, shoulder_lift_joint, elbow_joint, wrist_1_joint, wrist_2_joint,","[1.5692167282104492, -1.0544255415545862, 2.2050013542175293, -2.7053473631488245, -1.5670536200152796, 2.8249645233154297]","[-0.00010226538870483637, -0.00017896443023346364, -0.0, -5.752428114647046e-05, 0.0, 0.0002109223569277674]","[0.0778198316693306, -5.044556140899658, -2.08488392829895, -0.3229980766773224, 0.0493469275534153, -0.0471038855612278]"
1584454461836370542,,1571262,,1584454461,835867673,'',"[shoulder_pan_joint, shoulder_lift_joint, elbow_joint, wrist_1_joint, wrist_2_joint,","[1.5692046880722046, -1.0544493834124964, 2.2050132751464844, -2.7053473631488245, -1.567089859639303, 2.824976682662964]","[-6.391586794052273e-05, -0.00012783173588104546, -0.0, -5.752428114647046e-05, 0.0, 0.0002109223569277674]","[0.0778198316693306, -5.067444324493408, -2.096092939376831, -0.3297272026538849, 0.0515899695456028, -0.0403747595846653]"
1584454461948379547,,1571276,,1584454461,947866820,'',"[shoulder_pan_joint, shoulder_lift_joint, elbow_joint, wrist_1_joint, wrist_2_joint,","[1.5692167282104492, -1.0544374624835413, 2.2050132751464844, -2.7053592840777796, -1.567077938710348, 2.824976682662964]","[-5.1132694352418184e-05, -0.00012783173588104546, -0.0, -3.834952076431364e-05, 0.0, 0.00011504856229294091]","[0.0778198316693306, -5.291748523712158, -2.098334789276123, -0.3252411186695099, 0.0538330152630806, -0.0448608435690403]"
1584454462060240756,,1571290,,1584454462,59831922,'',"[shoulder_pan_joint, shoulder_lift_joint, elbow_joint, wrist_1_joint, wrist_2_joint,","[1.5691927671432495, -1.0544493834124964, 2.2050132751464844, -2.7053592840777796, -1.5670655409442347, 2.825000524520874]","[-3.834952076431364e-05, -7.669904152862728e-05, -0.0, -3.834952076431364e-05, 0.0, 7.669904152862728e-05]","[0.0595092847943306, -5.168152332305908, -2.114027261734009, -0.3274841606616974, 0.0471038855612278, -0.0493469275534153]"
1584454462172242968,,1571304,,1584454462,171871755,'',"[shoulder_pan_joint, shoulder_lift_joint, elbow_joint, wrist_1_joint, wrist_2_joint,","[1.5692167282104492, -1.0544493834124964, 2.2050132751464844, -2.7053712050067347, -1.5670655409442347, 2.825012683868408]","[-2.5566347176209092e-05, -5.1132694352418184e-05, -0.0, -3.834952076431364e-05, 0.0, 5.752428114647046e-05]","[0.0366210974752903, -5.245972156524658, -2.091609239578247, -0.3297272026538849, 0.0493469275534153, -0.0448608435690403]"
1584454462284432480,,1571318,,1584454462,283800569,'',"[shoulder_pan_joint, shoulder_lift_joint, elbow_joint, wrist_1_joint, wrist_2_joint,","[1.5692046880722046, -1.0544493834124964, 2.2050132751464844, -2.7053712050067347, -1.5670655409442347, 2.824976682662964]","[-2.5566347176209092e-05, -3.834952076431364e-05, -0.0, -1.917476038215682e-05, 0.0, 5.752428114647046e-05]","[0.0457763709127903, -5.232239246368408, -2.1185109615325928, -0.3297272026538849, 0.0403747595846653, -0.0448608435690403]"
1584454462396179355,,1571332,,1584454462,395741988,'',"[shoulder_pan_joint, shoulder_lift_joint, elbow_joint, wrist_1_joint, wrist_2_joint,","[1.5692046880722046, -1.0544856230365198, 2.2050013542175293, -2.7053473631488245, -1.5670536200152796, 2.824976682662964]","[-2.5566347176209092e-05, -3.834952076431364e-05, -0.0, -1.917476038215682e-05, 0.0, 3.834952076431364e-05]","[0.0778198316693306, -5.177307605743408, -2.093851089477539, -0.3252411186695099, 0.0986938551068306, -0.0493469275534153]"
1584454462508182238,,1571346,,1584454462,507791057,'',"[shoulder_pan_joint, shoulder_lift_joint, elbow_joint, wrist_1_joint, wrist_2_joint,","[1.5691927671432495, -1.0544856230365198, 2.2050013542175293, -2.7053354422198694, -1.5670536200152796, 2.8249645233154297]","[-1.2783173588104546e-05, -2.5566347176209092e-05, -0.0, -1.917476038215682e-05, 0.0, 3.834952076431364e-05]","[0.0686645582318306, -5.255127429962158, -2.0714330673217773, -0.3274841606616974, 0.0583190992474556, -0.0381317175924778]"
1584454462620109360,,1571360,,1584454462,619705446,'',"[shoulder_pan_joint, shoulder_lift_joint, elbow_joint, wrist_1_joint, wrist_2_joint,","[1.5691927671432495, -1.0544493834124964, 2.2050251960754395, -2.7053712050067347, -1.567089859639303, 2.824976682662964]","[-1.2783173588104546e-05, -2.5566347176209092e-05, -0.0, -1.917476038215682e-05, 0.0, 1.917476038215682e-05]","[0.0595092847943306, -4.902649402618408, -2.0647075176239014, -0.3297272026538849, 0.0605621412396431, -0.0448608435690403]"
1584454462732042543,,1571374,,1584454462,731731312,'',"[shoulder_pan_joint, shoulder_lift_joint, elbow_joint, wrist_1_joint, wrist_2_joint,","[1.5692046880722046, -1.0544732252704065, 2.2050132751464844, -2.7053354422198694, -1.5670655409442347, 2.824988603591919]","[-1.2783173588104546e-05, -2.5566347176209092e-05, -0.0, -1.917476038215682e-05, 0.0, 1.917476038215682e-05]","[0.02288818545639515, -4.975891590118408, -2.087125539779663, -0.3252411186695099, 0.0448608435690403, -0.0560760572552681]"
1584454462844165561,,1571388,,1584454462,843735257,'',"[shoulder_pan_joint, shoulder_lift_joint, elbow_joint, wrist_1_joint, wrist_2_joint,","[1.5691807270050049, -1.0544493834124964, 2.204965114593506, -2.7053354422198694, -1.5670536200152796, 2.822378396987915]","[-1.2783173588104546e-05, -2.5566347176209092e-05, -0.0, -1.917476038215682e-05, 0.0, -0.07579782605171204]","[0.1190185695886612, -5.085754871368408, -2.0714330673217773, -0.3274841606616974, 0.0493469275534153, -0.3790741264820099]"
1584454462956362957,,1571402,,1584454462,955807440,'',"[shoulder_pan_joint, shoulder_lift_joint, elbow_joint, wrist_1_joint, wrist_2_joint,","[1.5692167282104492, -1.0544732252704065, 2.204977035522461, -2.7053473631488245, -1.5670655409442347, 2.8042850494384766]","[-1.2783173588104546e-05, -2.5566347176209092e-05, -0.0, -1.917476038215682e-05, 0.0, -0.2032332867383957]","[0.0595092847943306, -5.218506336212158, -2.0691912174224854, -0.3297272026538849, 0.0426178015768528, -0.4082336723804474]"
1584454463068210831,,1571416,,1584454463,67761863,'',"[shoulder_pan_joint, shoulder_lift_joint, elbow_joint, wrist_1_joint, wrist_2_joint,","[1.5692046880722046, -1.0544856230365198, 2.2050013542175293, -2.7053592840777796, -1.5670536200152796, 2.781533718109131]","[-1.2783173588104546e-05, -2.5566347176209092e-05, -0.0, -1.917476038215682e-05, 0.0, -0.19897648692131042]","[0.1052856519818306, -5.154419422149658, -2.0759165287017822, -0.3207550346851349, 0.0493469275534153, -0.4463654160499573]"
1584454463180273376,,1571430,,1584454463,179810271,'',"[shoulder_pan_joint, shoulder_lift_joint, elbow_joint, wrist_1_joint, wrist_2_joint,","[1.5692167282104492, -1.0544617811786097, 2.2050251960754395, -2.7053473631488245, -1.5670416990863245, 2.759190320968628]","[-1.2783173588104546e-05, -2.5566347176209092e-05, -0.0, 0.0, 0.0, -0.20121993124485016]","[0.0549316480755806, -5.213928699493408, -2.0759165287017822, -0.3229980766773224, 0.0471038855612278, -0.4418793320655823]"
1584454463292320833,,1571444,,1584454463,291864290,'',"[shoulder_pan_joint, shoulder_lift_joint, elbow_joint, wrist_1_joint, wrist_2_joint,","[1.5692167282104492, -1.0544856230365198, 2.2050013542175293, -2.7053473631488245, -1.5670416990863245, 2.7366080284118652]","[-1.2783173588104546e-05, -2.5566347176209092e-05, -0.0, 0.0, 0.0, -0.20056799054145813]","[0.0595092847943306, -4.994202136993408, -2.0691912174224854, -0.3207550346851349, 0.0650482252240181, -0.3947754204273224]"
1584454463404255950,,1571458,,1584454463,403853297,'',"[shoulder_pan_joint, shoulder_lift_joint, elbow_joint, wrist_1_joint, wrist_2_joint,","[1.5691807270050049, -1.0544856230365198, 2.204965114593506, -2.7053592840777796, -1.5670655409442347, 2.714205026626587]","[-1.2783173588104546e-05, -2.5566347176209092e-05, -0.0, 0.0, 0.0, -0.19997356832027435]","[0.0778198316693306, -4.994202136993408, -2.078158378601074, -0.3252411186695099, 0.0538330152630806, -0.4957123398780823]"
1584454463516052838,,1571472,,1584454463,515700039,'',"[shoulder_pan_joint, shoulder_lift_joint, elbow_joint, wrist_1_joint, wrist_2_joint,","[1.5691927671432495, -1.0544856230365198, 2.204989433288574, -2.7053592840777796, -1.5670178572284144, 2.6919102668762207]","[-1.2783173588104546e-05, -2.5566347176209092e-05, -0.0, 0.0, 0.0, -0.20237042009830475]","[0.0595092847943306, -5.021667957305908, -2.0736746788024902, -0.3274841606616974, 0.0560760572552681, -0.3678589165210724]"
1584454463628196304,,1571486,,1584454463,627767703,'',"[shoulder_pan_joint, shoulder_lift_joint, elbow_joint, wrist_1_joint, wrist_2_joint,","[1.5692046880722046, -1.0544732252704065, 2.2050251960754395, -2.7053592840777796, -1.5670178572284144, 2.6695079803466797]","[-1.2783173588104546e-05, -1.2783173588104546e-05, -0.0, 0.0, 0.0, -0.19974347949028015]","[0.0961303785443306, -4.756165027618408, -2.082642078399658, -0.3297272026538849, 0.0583190992474556, -0.4732819199562073]"
1584454463740103418,,1571500,,1584454463,739674016,'',"[shoulder_pan_joint, shoulder_lift_joint, elbow_joint, wrist_1_joint, wrist_2_joint,","[1.5692046880722046, -1.054497543965475, 2.2050013542175293, -2.7053592840777796, -1.5670536200152796, 2.6471424102783203]","[-1.2783173588104546e-05, -1.2783173588104546e-05, -0.0, 0.0, 0.0, -0.19870804250240326]","[0.0549316480755806, -4.934692859649658, -2.08488392829895, -0.3297272026538849, 0.0538330152630806, -0.4149627983570099]"
1584454463852224763,,1571514,,1584454463,851779391,'',"[shoulder_pan_joint, shoulder_lift_joint, elbow_joint, wrist_1_joint, wrist_2_joint,","[1.5691807270050049, -1.0544732252704065, 2.204989433288574, -2.7053592840777796, -1.5670416990863245, 2.624800682067871]","[-1.2783173588104546e-05, -1.2783173588104546e-05, -0.0, 0.0, 0.0, -0.19773012399673462]","[0.0778198316693306, -4.801941394805908, -2.0624656677246094, -0.3252411186695099, 0.0493469275534153, -0.3992615044116974]"
1584454463964121698,,1571528,,1584454463,963714027,'',"[shoulder_pan_joint, shoulder_lift_joint, elbow_joint, wrist_1_joint, wrist_2_joint,","[1.5692046880722046, -1.0544732252704065, 2.2050013542175293, -2.705383602772848, -1.5670536200152796, 2.602471113204956]","[-1.2783173588104546e-05, -1.2783173588104546e-05, -0.0, 0.0, 0.0, -0.20237042009830475]","[0.0549316480755806, -4.714966297149658, -2.0624656677246094, -0.3207550346851349, 0.0583190992474556, -0.4194488823413849]"
1584454464076066533,,1571542,,1584454464,75636410,'',"[shoulder_pan_joint, shoulder_lift_joint, elbow_joint, wrist_1_joint, wrist_2_joint,","[1.5691927671432495, -1.0544493834124964, 2.2050013542175293, -2.7053712050067347, -1.5670416990863245, 2.5800938606262207]","[-1.2783173588104546e-05, -1.2783173588104546e-05, -0.0, 0.0, 0.0, -0.1992449313402176]","[0.0320434607565403, -4.884338855743408, -2.082642078399658, -0.3297272026538849, 0.0605621412396431, -0.4979553818702698]"
1584454464188117496,,1571556,,1584454464,187693624,'',"[shoulder_pan_joint, shoulder_lift_joint, elbow_joint, wrist_1_joint, wrist_2_joint,","[1.5691927671432495, -1.0544493834124964, 2.2050132751464844, -2.7053592840777796, -1.5670178572284144, 2.5575852394104004]","[-1.2783173588104546e-05, -1.2783173588104546e-05, -0.0, 0.0, 0.0, -0.2010473608970642]","[0.0915527418255806, -4.920959949493408, -2.0759165287017822, -0.3229980766773224, 0.0515899695456028, -0.4598236680030823]"
1584454464300245874,,1571570,,1584454464,299766799,'',"[shoulder_pan_joint, shoulder_lift_joint, elbow_joint, wrist_1_joint, wrist_2_joint,","[1.5691927671432495, -1.0544255415545862, 2.2050490379333496, -2.7053354422198694, -1.5670416990863245, 2.5351250171661377]","[-1.2783173588104546e-05, -1.2783173588104546e-05, -0.0, 0.0, 0.0, -0.20164178311824799]","[0.0503540076315403, -4.875183582305908, -2.0602238178253174, -0.3342132866382599, 0.0314025916159153, -0.3925323784351349]"
1584454464412155473,,1571584,,1584454464,411720510,'',"[shoulder_pan_joint, shoulder_lift_joint, elbow_joint, wrist_1_joint, wrist_2_joint,","[1.5691927671432495, -1.0544617811786097, 2.2050132751464844, -2.7053473631488245, -1.5670536200152796, 2.5128684043884277]","[-1.2783173588104546e-05, -1.2783173588104546e-05, -0.0, 0.0, 0.0, -0.20100900530815125]","[0.0869751051068306, -4.902649402618408, -2.078158378601074, -0.3252411186695099, 0.0560760572552681, -0.6101074814796448]"
1584454464524131666,,1571598,,1584454464,523723133,'',"[shoulder_pan_joint, shoulder_lift_joint, elbow_joint, wrist_1_joint, wrist_2_joint,","[1.5691807270050049, -1.0544856230365198, 2.2050013542175293, -2.7053712050067347, -1.5670416990863245, 2.4903361797332764]","[-1.2783173588104546e-05, -1.2783173588104546e-05, -0.0, 0.0, 0.0, -0.20100900530815125]","[0.0686645582318306, -4.948425769805908, -2.0669493675231934, -0.3274841606616974, 0.0538330152630806, -0.3611297905445099]"
1584454464636080549,,1571612,,1584454464,635691482,'',"[shoulder_pan_joint, shoulder_lift_joint, elbow_joint, wrist_1_joint, wrist_2_joint,","[1.5692286491394043, -1.05450946489443, 2.2050251960754395, -2.705383602772848, -1.5670297781573694, 2.4679126739501953]","[-1.2783173588104546e-05, 0.0, -0.0, 0.0, 0.0, -0.19761507213115692]","[0.0732421949505806, -4.985046863555908, -2.0736746788024902, -0.3319702446460724, 0.0560760572552681, -0.5854340195655823]"
1584454464748236849,,1571626,,1584454464,747705867,'',"[shoulder_pan_joint, shoulder_lift_joint, elbow_joint, wrist_1_joint, wrist_2_joint,","[1.5691927671432495, -1.0544732252704065, 2.204989433288574, -2.7053473631488245, -1.5670178572284144, 2.445584774017334]","[0.0, 0.0, -0.0, 0.0, 0.0, -0.19997356832027435]","[0.0823974683880806, -4.710388660430908, -2.0691912174224854, -0.3297272026538849, 0.0538330152630806, -0.4306641221046448]"
1584454464860113336,,1571640,,1584454464,859669587,'',"[shoulder_pan_joint, shoulder_lift_joint, elbow_joint, wrist_1_joint, wrist_2_joint,","[1.5691927671432495, -1.0544856230365198, 2.2050132751464844, -2.7053592840777796, -1.5670178572284144, 2.423161745071411]","[0.0, 0.0, -0.0, 0.0, 0.0, -0.19742333889007568]","[0.0549316480755806, -4.701233386993408, -2.0534985065460205, -0.3274841606616974, 0.0448608435690403, -0.4598236680030823]"
1584454464972144372,,1571654,,1584454464,971685154,'',"[shoulder_pan_joint, shoulder_lift_joint, elbow_joint, wrist_1_joint, wrist_2_joint,","[1.5691807270050049, -1.0544493834124964, 2.2050013542175293, -2.7053354422198694, -1.5670536200152796, 2.4007859230041504]","[0.0, 0.0, -0.0, 0.0, 0.0, -0.1993599832057953]","[0.0503540076315403, -4.989624500274658, -2.0759165287017822, -0.3252411186695099, 0.0515899695456028, -0.4261780083179474]"
1584454465084055634,,1571668,,1584454465,83658442,'',"[shoulder_pan_joint, shoulder_lift_joint, elbow_joint, wrist_1_joint, wrist_2_joint,","[1.5692046880722046, -1.0544493834124964, 2.2050013542175293, -2.7053592840777796, -1.5670297781573694, 2.3783388137817383]","[0.0, 0.0, -0.0, 0.0, 0.0, -0.2018526941537857]","[0.0961303785443306, -4.774475574493408, -2.08488392829895, -0.3252411186695099, 0.0538330152630806, -0.4284210503101349]"
1584454465195977035,,1571682,,1584454465,195614618,'',"[shoulder_pan_joint, shoulder_lift_joint, elbow_joint, wrist_1_joint, wrist_2_joint,","[1.5692167282104492, -1.0544617811786097, 2.2050251960754395, -2.7053712050067347, -1.5670416990863245, 2.3558919429779053]","[0.0, 0.0, -0.0, 0.0, 0.0, -0.20062552392482758]","[0.0915527418255806, -4.728699207305908, -2.098334789276123, -0.3319702446460724, 0.0762634351849556, -0.5316010117530823]"
1584454465308123967,,1571696,,1584454465,307685288,'',"[shoulder_pan_joint, shoulder_lift_joint, elbow_joint, wrist_1_joint, wrist_2_joint,","[1.5692167282104492, -1.0544493834124964, 2.2050132751464844, -2.7053354422198694, -1.5670059362994593, 2.333540916442871]","[0.0, 0.0, -0.0, 0.0, 0.0, -0.20112405717372894]","[0.0549316480755806, -4.861450672149658, -2.0759165287017822, -0.3274841606616974, 0.0493469275534153, -0.3588867485523224]"
1584454465420101223,,1571710,,1584454465,419655510,'',"[shoulder_pan_joint, shoulder_lift_joint, elbow_joint, wrist_1_joint, wrist_2_joint,","[1.5692167282104492, -1.0544617811786097, 2.2050371170043945, -2.7053354422198694, -1.5670416990863245, 2.311058521270752]","[0.0, 0.0, -0.0, 0.0, 0.0, -0.20001192390918732]","[0.0915527418255806, -4.898071765899658, -2.0602238178253174, -0.3207550346851349, 0.0560760572552681, -0.5674896836280823]"
1584454465532113253,,1571724,,1584454465,531655869,'',"[shoulder_pan_joint, shoulder_lift_joint, elbow_joint, wrist_1_joint, wrist_2_joint,","[1.5691927671432495, -1.0544617811786097, 2.2050013542175293, -2.7053592840777796, -1.5670297781573694, 2.2886953353881836]","[0.0, 0.0, -0.0, 0.0, 0.0, -0.2026580423116684]","[0.0961303785443306, -4.907227039337158, -2.087125539779663, -0.3252411186695099, 0.0448608435690403, -0.3992615044116974]"
1584454465644187560,,1571738,,1584454465,643733542,'',"[shoulder_pan_joint, shoulder_lift_joint, elbow_joint, wrist_1_joint, wrist_2_joint,","[1.5691927671432495, -1.0544617811786097, 2.2050490379333496, -2.7053235212909144, -1.5670416990863245, 2.266404151916504]","[0.0, 0.0, -0.0, 0.0, 0.0, -0.20018449425697327]","[0.0869751051068306, -4.989624500274658, -2.091609239578247, -0.3297272026538849, 0.0381317175924778, -0.5652466416358948]"
1584454465756234896,,1571752,,1584454465,755726927,'',"[shoulder_pan_joint, shoulder_lift_joint, elbow_joint, wrist_1_joint, wrist_2_joint,","[1.5691927671432495, -1.0544732252704065, 2.2050251960754395, -2.7053235212909144, -1.5670297781573694, 2.243802785873413]","[0.0, 0.0, -0.0, 0.0, 0.0, -0.198784738779068]","[0.0503540076315403, -4.971313953399658, -2.0647075176239014, -0.3364563286304474, 0.0628051832318306, -0.4508515000343323]"
1584454465868046142,,1571766,,1584454465,867651174,'',"[shoulder_pan_joint, shoulder_lift_joint, elbow_joint, wrist_1_joint, wrist_2_joint,","[1.5691807270050049, -1.0544374624835413, 2.2050251960754395, -2.7053354422198694, -1.5669940153705042, 2.2215116024017334]","[0.0, 0.0, -0.0, 0.0, 0.0, -0.19884225726127625]","[0.0869751051068306, -4.833984851837158, -2.0534985065460205, -0.3207550346851349, 0.0695343092083931, -0.4755249619483948]"
1584454465980206819,,1571780,,1584454465,979756027,'',"[shoulder_pan_joint, shoulder_lift_joint, elbow_joint, wrist_1_joint, wrist_2_joint,","[1.5692167282104492, -1.0544732252704065, 2.2050251960754395, -2.705383602772848, -1.5670178572284144, 2.1990771293640137]","[0.0, 0.0, -0.0, 0.0, 0.0, -0.19993522763252258]","[0.0732421949505806, -4.815674304962158, -2.0736746788024902, -0.3319702446460724, 0.0448608435690403, -0.4710388779640198]"
1584454466091893603,,1571794,,1584454466,91563316,'',"[shoulder_pan_joint, shoulder_lift_joint, elbow_joint, wrist_1_joint, wrist_2_joint,","[1.5692046880722046, -1.0544732252704065, 2.2050251960754395, -2.7053354422198694, -1.5670059362994593, 2.1767632961273193]","[0.0, 0.0, -0.0, 0.0, 0.0, -0.2011815905570984]","[0.0686645582318306, -4.801941394805908, -2.08488392829895, -0.3162689507007599, 0.0583190992474556, -0.4530945420265198]"
1584454466204028652,,1571808,,1584454466,203688607,'',"[shoulder_pan_joint, shoulder_lift_joint, elbow_joint, wrist_1_joint, wrist_2_joint,","[1.5692167282104492, -1.0544617811786097, 2.2050132751464844, -2.705299679433004, -1.5670178572284144, 2.154388904571533]","[0.0, 0.0, -0.0, 0.0, 0.0, -0.19801774621009827]","[0.0686645582318306, -4.980469226837158, -2.0759165287017822, -0.3342132866382599, 0.0515899695456028, -0.5248718857765198]"
1584454466315905350,,1571822,,1584454466,315562831,'',"[shoulder_pan_joint, shoulder_lift_joint, elbow_joint, wrist_1_joint, wrist_2_joint,","[1.5691927671432495, -1.0544732252704065, 2.2050132751464844, -2.7053235212909144, -1.5670416990863245, 2.1320502758026123]","[0.0, 0.0, -0.0, 0.0, 0.0, -0.20371265709400177]","[0.0549316480755806, -4.797363758087158, -2.0759165287017822, -0.3319702446460724, 0.0583190992474556, -0.4082336723804474]"
1584454466427830498,,1571836,,1584454466,427516572,'',"[shoulder_pan_joint, shoulder_lift_joint, elbow_joint, wrist_1_joint, wrist_2_joint,","[1.5691927671432495, -1.0544732252704065, 2.2050251960754395, -2.7053235212909144, -1.5670416990863245, 2.1095681190490723]","[0.0, 0.0, -0.0, 0.0, 0.0, -0.1995709091424942]","[0.0869751051068306, -4.833984851837158, -2.0669493675231934, -0.3274841606616974, 0.0493469275534153, -0.5495453476905823]"
1584454466539797194,,1571850,,1584454466,539520006,'',"[shoulder_pan_joint, shoulder_lift_joint, elbow_joint, wrist_1_joint, wrist_2_joint,","[1.5692046880722046, -1.0544856230365198, 2.2050132751464844, -2.7053354422198694, -1.5670178572284144, 2.0872063636779785]","[0.0, 0.0, -0.0, 0.0, 0.0, -0.1993599832057953]","[0.0961303785443306, -4.925537586212158, -2.087125539779663, -0.3252411186695099, 0.0381317175924778, -0.4508515000343323]"
1584454466652006803,,1571864,,1584454466,651601065,'',"[shoulder_pan_joint, shoulder_lift_joint, elbow_joint, wrist_1_joint, wrist_2_joint,","[1.5691927671432495, -1.0544856230365198, 2.2050371170043945, -2.7053473631488245, -1.5670536200152796, 2.0647358894348145]","[0.0, 0.0, -0.0, 0.0, 0.0, -0.19822867214679718]","[0.0869751051068306, -4.948425769805908, -2.0691912174224854, -0.3297272026538849, 0.0403747595846653, -0.4889832139015198]"
1584454466763794705,,1571878,,1584454466,763523439,'',"[shoulder_pan_joint, shoulder_lift_joint, elbow_joint, wrist_1_joint, wrist_2_joint,","[1.5692046880722046, -1.054497543965475, 2.2050490379333496, -2.7053473631488245, -1.5669940153705042, 2.042433738708496]","[0.0, 0.0, -0.0, 0.0, 0.0, -0.2013925015926361]","[0.0503540076315403, -4.705811023712158, -2.0647075176239014, -0.3342132866382599, 0.0515899695456028, -0.4687958359718323]"
1584454466875976072,,1571892,,1584454466,875591694,'',"[shoulder_pan_joint, shoulder_lift_joint, elbow_joint, wrist_1_joint, wrist_2_joint,","[1.5691807270050049, -1.0544617811786097, 2.2050371170043945, -2.7053116003619593, -1.5670416990863245, 2.0199873447418213]","[0.0, 0.0, -0.0, 0.0, 0.0, -0.198094442486763]","[0.0823974683880806, -4.696655750274658, -2.078158378601074, -0.3274841606616974, 0.0672912672162056, -0.5091705918312073]"
1584454466987834005,,1571906,,1584454466,987522342,'',"[shoulder_pan_joint, shoulder_lift_joint, elbow_joint, wrist_1_joint, wrist_2_joint,","[1.5691927671432495, -1.0544732252704065, 2.2050132751464844, -2.7053116003619593, -1.5670416990863245, 1.9975770711898804]","[0.0, 0.0, -0.0, 0.0, 0.0, -0.20227454602718353]","[0.0778198316693306, -4.902649402618408, -2.0669493675231934, -0.3342132866382599, 0.0583190992474556, -0.4755249619483948]"
1584454467099940721,,1571920,,1584454467,99579747,'',"[shoulder_pan_joint, shoulder_lift_joint, elbow_joint, wrist_1_joint, wrist_2_joint,","[1.569240689277649, -1.0544617811786097, 2.2050251960754395, -2.7053235212909144, -1.5670178572284144, 1.975214958190918]","[0.0, 0.0, -0.0, 0.0, 0.0, -0.20110487937927246]","[0.1052856519818306, -4.980469226837158, -2.078158378601074, -0.3319702446460724, 0.0560760572552681, -0.4373932480812073]"
1584454467212058690,,1571934,,1584454467,211624730,'',"[shoulder_pan_joint, shoulder_lift_joint, elbow_joint, wrist_1_joint, wrist_2_joint,","[1.5692167282104492, -1.0544856230365198, 2.2050251960754395, -2.7053354422198694, -1.5670059362994593, 1.9528642892837524]","[0.0, 0.0, -0.0, 0.0, 0.0, -0.20062552392482758]","[0.0457763709127903, -4.660034656524658, -2.0512566566467285, -0.3252411186695099, 0.0560760572552681, -0.5674896836280823]"
1584454467324115454,,1571948,,1584454467,323636138,'',"[shoulder_pan_joint, shoulder_lift_joint, elbow_joint, wrist_1_joint, wrist_2_joint,","[1.5691688060760498, -1.0544617811786097, 2.2050132751464844, -2.7053235212909144, -1.5670059362994593, 1.9303220510482788]","[0.0, 0.0, -0.0, 0.0, 0.0, -0.20089396834373474]","[0.1052856519818306, -4.682922840118408, -2.0759165287017822, -0.3229980766773224, 0.0336456336081028, -0.3970184624195099]"
1584454467436032036,,1571962,,1584454467,435577848,'',"[shoulder_pan_joint, shoulder_lift_joint, elbow_joint, wrist_1_joint, wrist_2_joint,","[1.5691927671432495, -1.0544493834124964, 2.2050132751464844, -2.7053473631488245, -1.5669940153705042, 1.9079710245132446]","[0.0, 0.0, -0.0, 0.0, 0.0, -0.19813279807567596]","[0.0640869215130806, -4.884338855743408, -2.0624656677246094, -0.3297272026538849, 0.0493469275534153, -0.5405731797218323]"
1584454467547967583,,1571976,,1584454467,547554572,'',"[shoulder_pan_joint, shoulder_lift_joint, elbow_joint, wrist_1_joint, wrist_2_joint,","[1.5691927671432495, -1.054497543965475, 2.2050251960754395, -2.7053116003619593, -1.5670059362994593, 1.8856204748153687]","[0.0, 0.0, -0.0, 0.0, 0.0, -0.19974347949028015]","[0.0869751051068306, -4.898071765899658, -2.0669493675231934, -0.3297272026538849, 0.0471038855612278, -0.4777680039405823]"
1584454467660076335,,1571990,,1584454467,659652533,'',"[shoulder_pan_joint, shoulder_lift_joint, elbow_joint, wrist_1_joint, wrist_2_joint,","[1.5692046880722046, -1.0544617811786097, 2.2050371170043945, -2.7053116003619593, -1.5670059362994593, 1.8630777597427368]","[0.0, 0.0, -0.0, 0.0, 0.0, -0.19830536842346191]","[0.0823974683880806, -4.751587390899658, -2.0467729568481445, -0.3207550346851349, 0.0515899695456028, -0.5091705918312073]"
1584454467771953984,,1572004,,1584454467,771567903,'',"[shoulder_pan_joint, shoulder_lift_joint, elbow_joint, wrist_1_joint, wrist_2_joint,","[1.5692046880722046, -1.0544732252704065, 2.2050371170043945, -2.7053116003619593, -1.5670297781573694, 1.8407148122787476]","[0.0, 0.0, -0.0, 0.0, 0.0, -0.20001192390918732]","[0.0778198316693306, -4.916382312774658, -2.0736746788024902, -0.3319702446460724, 0.0471038855612278, -0.4575806260108948]"
1584454467883955825,,1572018,,1584454467,883590924,'',"[shoulder_pan_joint, shoulder_lift_joint, elbow_joint, wrist_1_joint, wrist_2_joint,","[1.5692167282104492, -1.0544617811786097, 2.2050251960754395, -2.7053354422198694, -1.5669940153705042, 1.8183039426803589]","[0.0, 0.0, -0.0, 0.0, 0.0, -0.2007022202014923]","[0.1007080152630806, -5.012512683868408, -2.082642078399658, -0.3252411186695099, 0.0426178015768528, -0.4777680039405823]"
1584454467996151268,,1572032,,1584454467,995665821,'',"[shoulder_pan_joint, shoulder_lift_joint, elbow_joint, wrist_1_joint, wrist_2_joint,","[1.5692167282104492, -1.0544617811786097, 2.2050013542175293, -2.705287281666891, -1.5670059362994593, 1.798717975616455]","[0.0, 0.0, -0.0, 0.0, 0.0, -0.10973715037107468]","[0.0457763709127903, -4.980469226837158, -2.0647075176239014, -0.3319702446460724, 0.0426178015768528, -0.5428162217140198]"
1584454468107922148,,1572046,,1584454468,107516701,'',"[shoulder_pan_joint, shoulder_lift_joint, elbow_joint, wrist_1_joint, wrist_2_joint,","[1.5692046880722046, -1.0544732252704065, 2.2050609588623047, -2.7053473631488245, -1.566981617604391, 1.7950905561447144]","[0.0, 0.0, -0.0, 0.0, 0.0, 0.0016873788554221392]","[0.0778198316693306, -4.852295398712158, -2.0602238178253174, -0.3319702446460724, 0.0471038855612278, -0.0336456336081028]"
1584454468219978581,,1572060,,1584454468,219562474,'',"[shoulder_pan_joint, shoulder_lift_joint, elbow_joint, wrist_1_joint, wrist_2_joint,","[1.5692167282104492, -1.0544732252704065, 2.2050490379333496, -2.7053235212909144, -1.5669696966754358, 1.7952343225479126]","[0.0, 0.0, -0.0, 0.0, 0.0, 0.002511893631890416]","[0.0411987341940403, -4.907227039337158, -2.0736746788024902, -0.3252411186695099, 0.0628051832318306, 0.0381317175924778]"
1584454468332074799,,1572074,,1584454468,331564376,'',"[shoulder_pan_joint, shoulder_lift_joint, elbow_joint, wrist_1_joint, wrist_2_joint,","[1.5692167282104492, -1.0544617811786097, 2.2050132751464844, -2.7053473631488245, -1.5670178572284144, 1.7953182458877563]","[0.0, 0.0, -0.0, 0.0, 0.0, 0.0004026699753012508]","[0.0961303785443306, -4.911804676055908, -2.0691912174224854, -0.3274841606616974, 0.0493469275534153, 0.006729126907885075]"
1584454468443964370,,1572088,,1584454468,443523778,'',"[shoulder_pan_joint, shoulder_lift_joint, elbow_joint, wrist_1_joint, wrist_2_joint,","[1.5691927671432495, -1.054497543965475, 2.2050371170043945, -2.7053116003619593, -1.5670178572284144, 1.7953062057495117]","[0.0, 0.0, -0.0, 0.0, 0.0, 0.00017257283616345376]","[0.1007080152630806, -4.737854480743408, -2.0602238178253174, -0.3342132866382599, 0.0560760572552681, 0.011215210892260075]"
1584454468555920226,,1572102,,1584454468,555507445,'',"[shoulder_pan_joint, shoulder_lift_joint, elbow_joint, wrist_1_joint, wrist_2_joint,","[1.5692167282104492, -1.0544732252704065, 2.2050251960754395, -2.7053235212909144, -1.5669940153705042, 1.7952942848205566]","[0.0, 0.0, -0.0, 0.0, 0.0, 9.58738019107841e-05]","[0.0915527418255806, -4.728699207305908, -2.0669493675231934, -0.3297272026538849, 0.0515899695456028, 0.004486084450036287]"
1584454468667907370,,1572116,,1584454468,667517221,'',"[shoulder_pan_joint, shoulder_lift_joint, elbow_joint, wrist_1_joint, wrist_2_joint,","[1.5692046880722046, -1.0544856230365198, 2.2050371170043945, -2.7053473631488245, -1.5670059362994593, 1.7952942848205566]","[0.0, 0.0, -0.0, 0.0, 0.0, 7.669904152862728e-05]","[0.0686645582318306, -4.907227039337158, -2.0378057956695557, -0.3342132866382599, 0.0515899695456028, 0.008972168900072575]"
1584454468779884916,,1572130,,1584454468,779511699,'',"[shoulder_pan_joint, shoulder_lift_joint, elbow_joint, wrist_1_joint, wrist_2_joint,","[1.5692167282104492, -1.0544374624835413, 2.2050251960754395, -2.7053354422198694, -1.5669940153705042, 1.7952942848205566]","[0.0, 0.0, -0.0, 0.0, 0.0, 5.752428114647046e-05]","[0.0640869215130806, -4.815674304962158, -2.0691912174224854, -0.3274841606616974, 0.0538330152630806, 0.006729126907885075]"
1584454468891870357,,1572144,,1584454468,891477743,'',"[shoulder_pan_joint, shoulder_lift_joint, elbow_joint, wrist_1_joint, wrist_2_joint,","[1.5691927671432495, -1.0544856230365198, 2.2050251960754395, -2.7053116003619593, -1.5669940153705042, 1.7953182458877563]","[0.0, 0.0, -0.0, 0.0, 0.0, 3.834952076431364e-05]","[0.0595092847943306, -4.687500476837158, -2.0310802459716797, -0.3342132866382599, 0.0628051832318306, 0.008972168900072575]"
1584454469003985700,,1572158,,1584454469,3563391,'',"[shoulder_pan_joint, shoulder_lift_joint, elbow_joint, wrist_1_joint, wrist_2_joint,","[1.5691688060760498, -1.0544617811786097, 2.2050490379333496, -2.7053473631488245, -1.5670059362994593, 1.7953418493270874]","[0.0, 0.0, -0.0, 0.0, 0.0, 3.834952076431364e-05]","[0.0961303785443306, -4.751587390899658, -2.082642078399658, -0.3229980766773224, 0.0807495191693306, 0.006729126907885075]"
1584454469115820890,,1572172,,1584454469,115534084,'',"[shoulder_pan_joint, shoulder_lift_joint, elbow_joint, wrist_1_joint, wrist_2_joint,","[1.5692046880722046, -1.0544493834124964, 2.2050251960754395, -2.7053354422198694, -1.5670178572284144, 1.7953062057495117]","[0.0, 0.0, -0.0, 0.0, 0.0, 3.834952076431364e-05]","[0.0915527418255806, -4.980469226837158, -2.0534985065460205, -0.3297272026538849, 0.0471038855612278, 0.006729126907885075]"
1584454469227831528,,1572186,,1584454469,227484740,'',"[shoulder_pan_joint, shoulder_lift_joint, elbow_joint, wrist_1_joint, wrist_2_joint,","[1.5692046880722046, -1.0544732252704065, 2.2050132751464844, -2.7053116003619593, -1.5670297781573694, 1.7953182458877563]","[0.0, 0.0, -0.0, 0.0, 0.0, 1.917476038215682e-05]","[0.0640869215130806, -4.953003406524658, -2.0714330673217773, -0.3342132866382599, 0.0448608435690403, 0.008972168900072575]"
1584454469339984131,,1572200,,1584454469,339547766,'',"[shoulder_pan_joint, shoulder_lift_joint, elbow_joint, wrist_1_joint, wrist_2_joint,","[1.5691927671432495, -1.0544617811786097, 2.2050490379333496, -2.7053235212909144, -1.566981617604391, 1.7953301668167114]","[0.0, 0.0, -0.0, 0.0, 0.0, 1.917476038215682e-05]","[0.0549316480755806, -5.241394519805908, -2.098334789276123, -0.3229980766773224, 0.0560760572552681, -0.004486084450036287]"
1584454469451950356,,1572214,,1584454469,451530632,'',"[shoulder_pan_joint, shoulder_lift_joint, elbow_joint, wrist_1_joint, wrist_2_joint,","[1.5691927671432495, -1.0544856230365198, 2.2050251960754395, -2.7053235212909144, -1.5669940153705042, 1.797041654586792]","[0.0, 0.0, -0.0, 0.0, 0.0, 0.05012282356619835]","[0.0457763709127903, -5.012512683868408, -2.1655890941619873, -0.3117828667163849, 0.0381317175924778, 0.2018737941980362]"
1584454469563758776,,1572228,,1584454469,563450600,'',"[shoulder_pan_joint, shoulder_lift_joint, elbow_joint, wrist_1_joint, wrist_2_joint,","[1.5691688060760498, -1.0544856230365198, 2.2050132751464844, -2.7053354422198694, -1.5670059362994593, 1.8030637502670288]","[0.0, 0.0, -0.0, 0.0, 0.0, 0.05301821231842041]","[0.1052856519818306, -5.181885242462158, -2.196974277496338, -0.3050537407398224, 0.0403747595846653, 0.3095398247241974]"
1584454469675778330,,1572242,,1584454469,675421784,'',"[shoulder_pan_joint, shoulder_lift_joint, elbow_joint, wrist_1_joint, wrist_2_joint,","[1.5691927671432495, -1.05450946489443, 2.2050251960754395, -2.7053235212909144, -1.566981617604391, 1.8082116842269897]","[0.0, 0.0, -0.0, 0.0, 0.0, 0.04214612394571304]","[-0.0595092847943306, -5.181885242462158, -2.1633472442626953, -0.3050537407398224, 0.0471038855612278, 0.3140259087085724]"
1584454469787936303,,1572256,,1584454469,787491943,'',"[shoulder_pan_joint, shoulder_lift_joint, elbow_joint, wrist_1_joint, wrist_2_joint,","[1.5691807270050049, -1.0544493834124964, 2.2050251960754395, -2.7053354422198694, -1.566981617604391, 1.8128923177719116]","[0.0, 0.0, -0.0, 0.0, 0.0, 0.04772597923874855]","[0.0778198316693306, -5.177307605743408, -2.174556255340576, -0.3050537407398224, 0.0426178015768528, 0.2287903130054474]"
1584454469899747268,,1572270,,1584454469,899450253,'',"[shoulder_pan_joint, shoulder_lift_joint, elbow_joint, wrist_1_joint, wrist_2_joint,","[1.569252610206604, -1.054497543965475, 2.204953193664551, -2.7053354422198694, -1.5670655409442347, 1.8192496299743652]","[0.0, 0.0, -0.0, 0.0, 0.0, 0.059173308312892914]","[0.0366210974752903, -4.893494129180908, -2.2373268604278564, -0.2826233208179474, 0.0448608435690403, 0.3229980766773224]"
1584454470011811426,,1572284,,1584454470,11455631,'',"[shoulder_pan_joint, shoulder_lift_joint, elbow_joint, wrist_1_joint, wrist_2_joint,","[1.5693249702453613, -1.0544856230365198, 2.204893112182617, -2.7053354422198694, -1.5670416990863245, 1.8252472877502441]","[0.00024288029817398638, 0.0, -0.00021731395099777728, 0.0, 0.0, 0.04947088286280632]","[-0.01831054873764515, -5.232239246368408, -2.0490148067474365, -0.3499145805835724, 0.0583190992474556, 0.3319702446460724]"
1584454470123750961,,1572298,,1584454470,123412909,'',"[shoulder_pan_joint, shoulder_lift_joint, elbow_joint, wrist_1_joint, wrist_2_joint,","[1.5694327354431152, -1.0544856230365198, 2.204784870147705, -2.7053116003619593, -1.5670536200152796, 1.8315446376800537]","[0.004026699811220169, 0.0, -0.0007669904152862728, 0.0, 0.0, 0.06590364873409271]","[0.2563476860523224, -5.053711414337158, -2.3337247371673584, -0.2534637749195099, 0.0426178015768528, 0.3095398247241974]"
1584454470235765986,,1572312,,1584454470,235412967,'',"[shoulder_pan_joint, shoulder_lift_joint, elbow_joint, wrist_1_joint, wrist_2_joint,","[1.5717116594314575, -1.0544617811786097, 2.204364776611328, -2.7051919142352503, -1.567077938710348, 1.8386677503585815]","[0.044741109013557434, 0.0, -0.00929336715489626, 0.009913351386785507, 0.0, 0.06193447485566139]","[0.4531860947608948, -4.774475574493408, -2.454782485961914, -0.2377624809741974, 0.0515899695456028, 0.3342132866382599]"
1584454470347778678,,1572326,,1584454470,347434466,'',"[shoulder_pan_joint, shoulder_lift_joint, elbow_joint, wrist_1_joint, wrist_2_joint,","[1.5782727003097534, -1.0544493834124964, 2.202733039855957, -2.703851048146383, -1.5670655409442347, 1.8462934494018555]","[0.07103609293699265, 0.0, -0.020798223093152046, 0.017621604725718498, 0.0, 0.08266238868236542]","[0.7644653916358948, -4.046631336212158, -2.548938512802124, -0.1704712063074112, 0.0874786451458931, 0.3185119926929474]"
1584454470459832046,,1572340,,1584454470,459411701,'',"[shoulder_pan_joint, shoulder_lift_joint, elbow_joint, wrist_1_joint, wrist_2_joint,","[1.5877125263214111, -1.0539339224444788, 2.197968006134033, -2.7014086882220667, -1.5670536200152796, 1.8562781810760498]","[0.09710098803043365, 0.009549031034111977, -0.058943212032318115, 0.03033447079360485, 0.0, 0.09253739565610886]","[1.0574342012405396, -3.625488758087158, -2.457024335861206, -0.1929016262292862, 0.1054229810833931, 0.3925323784351349]"
1584454470571642610,,1572354,,1584454470,571357257,'',"[shoulder_pan_joint, shoulder_lift_joint, elbow_joint, wrist_1_joint, wrist_2_joint,","[1.599539041519165, -1.0524471441852015, 2.192099094390869, -2.6981166044818323, -1.5670655409442347, 1.8679983615875244]","[0.11079176515340805, 0.013192235492169857, -0.0365726612508297, 0.02076626569032669, 0.0, 0.11079176515340805]","[0.9704591035842896, -3.543091297149658, -2.5085859298706055, -0.1121521145105362, 0.1233673244714737, 0.3768310844898224]"
1584454470683698001,,1572368,,1584454470,683361222,'',"[shoulder_pan_joint, shoulder_lift_joint, elbow_joint, wrist_1_joint, wrist_2_joint,","[1.6114251613616943, -1.0515483061419886, 2.188678741455078, -2.6962249914752405, -1.5670536200152796, 1.8801612854003906]","[0.1025594025850296, 0.006928480230271816, -0.03273770585656166, 0.01390170119702816, 0.0, 0.11646749079227448]","[0.8743286728858948, -3.639221668243408, -2.6049838066101074, -0.1727142482995987, 0.1121521145105362, 0.3162689507007599]"
1584454470795813185,,1572382,,1584454470,795455476,'',"[shoulder_pan_joint, shoulder_lift_joint, elbow_joint, wrist_1_joint, wrist_2_joint,","[1.6234554052352905, -1.0500734488116663, 2.184286117553711, -2.6942136923419397, -1.5671137014972132, 1.8927675485610962]","[0.11345066130161285, 0.018254371359944344, -0.040778324007987976, 0.02105388604104519, 0.0, 0.12078181654214859]","[0.6774902939796448, -3.666687488555908, -2.4839260578155518, -0.0919647291302681, 0.1345825344324112, 0.3499145805835724]"
