PorkPy/robot-pulling-data/deg10/joint_states_throttle.csv
rosbagTimestamp,header,seq,stamp,secs,nsecs,frame_id,name,wrist_3_joint],position,velocity,effort
1584376712593411537,,562957,,1584376712,593187448,'',"[shoulder_pan_joint, shoulder_lift_joint, elbow_joint, wrist_1_joint, wrist_2_joint,","[1.4017117023468018, -1.1651938597308558, 2.4664175510406494, -2.85128623643984, -1.56777269044985, 2.716850757598877]","[0.0, 0.0, -0.0, 0.0, 0.0, 0.0]","[0.3570556938648224, -2.966308832168579, -1.4235496520996094, -0.4149627983570099, 0.0493469275534153, 0.004486084450036287]"
1584376712705448015,,562971,,1584376712,705140110,'',"[shoulder_pan_joint, shoulder_lift_joint, elbow_joint, wrist_1_joint, wrist_2_joint,","[1.4017117023468018, -1.165217701588766, 2.4664056301116943, -2.8513219992267054, -1.5677488485919397, 2.716850757598877]","[0.0, 0.0, -0.0, 0.0, 0.0, 0.0]","[0.3936767876148224, -2.774048089981079, -1.421307921409607, -0.4149627983570099, 0.0403747595846653, 0.0]"
1584376712817359971,,562985,,1584376712,817127758,'',"[shoulder_pan_joint, shoulder_lift_joint, elbow_joint, wrist_1_joint, wrist_2_joint,","[1.4016996622085571, -1.1651819388019007, 2.4664175510406494, -2.851298157368795, -1.5677488485919397, 2.716862916946411]","[0.0, 0.0, -0.0, 0.0, 0.0, 0.0]","[0.3707886040210724, -2.934265375137329, -1.40337336063385, -0.3992615044116974, 0.0538330152630806, 0.0022430422250181437]"
1584376712929397572,,562999,,1584376712,929125073,'',"[shoulder_pan_joint, shoulder_lift_joint, elbow_joint, wrist_1_joint, wrist_2_joint,","[1.4016996622085571, -1.1651819388019007, 2.4664175510406494, -2.8513100782977503, -1.5677250067340296, 2.7168867588043213]","[0.0, 0.0, -0.0, 0.0, 0.0, 0.0]","[0.3799438774585724, -2.920532464981079, -1.407857060432434, -0.4082336723804474, 0.0448608435690403, 0.0]"
1584376713041384999,,563013,,1584376713,41133199,'',"[shoulder_pan_joint, shoulder_lift_joint, elbow_joint, wrist_1_joint, wrist_2_joint,","[1.4017356634140015, -1.1652057806598108, 2.4664175510406494, -2.851261917744772, -1.5677488485919397, 2.716862916946411]","[0.0, 0.0, -0.0, 0.0, 0.0, 0.0]","[0.3845215141773224, -2.961731195449829, -1.3944061994552612, -0.4216919243335724, 0.0426178015768528, -0.004486084450036287]"
1584376713153392233,,563027,,1584376713,153133310,'',"[shoulder_pan_joint, shoulder_lift_joint, elbow_joint, wrist_1_joint, wrist_2_joint,","[1.4017117023468018, -1.1651938597308558, 2.4664175510406494, -2.851274315510885, -1.5677607695208948, 2.716874837875366]","[0.0, 0.0, -0.0, 0.0, 0.0, 0.0]","[0.3845215141773224, -2.893066644668579, -1.40337336063385, -0.4306641221046448, 0.0426178015768528, 0.0022430422250181437]"
1584376713265372427,,563041,,1584376713,265116539,'',"[shoulder_pan_joint, shoulder_lift_joint, elbow_joint, wrist_1_joint, wrist_2_joint,","[1.4017356634140015, -1.1651938597308558, 2.4664416313171387, -2.851274315510885, -1.56777269044985, 2.716874837875366]","[0.0, 0.0, -0.0, 0.0, 0.0, 0.0]","[0.3936767876148224, -2.925110101699829, -1.407857060432434, -0.3947754204273224, 0.0583190992474556, -0.0022430422250181437]"
1584376713377432880,,563055,,1584376713,377127129,'',"[shoulder_pan_joint, shoulder_lift_joint, elbow_joint, wrist_1_joint, wrist_2_joint,","[1.4017236232757568, -1.1651938597308558, 2.4664294719696045, -2.851261917744772, -1.56777269044985, 2.7168867588043213]","[0.0, 0.0, -0.0, 0.0, 0.0, 0.0]","[0.3982544243335724, -2.952575922012329, -1.4123406410217285, -0.4306641221046448, 0.0358886756002903, 0.008972168900072575]"
1584376713489470551,,563069,,1584376713,489115278,'',"[shoulder_pan_joint, shoulder_lift_joint, elbow_joint, wrist_1_joint, wrist_2_joint,","[1.4017236232757568, -1.1651938597308558, 2.4664535522460938, -2.85128623643984, -1.5677607695208948, 2.7168867588043213]","[0.0, 0.0, -0.0, 0.0, 0.0, 0.0]","[0.3753662407398224, -2.966308832168579, -1.4235496520996094, -0.4216919243335724, 0.0336456336081028, -0.0022430422250181437]"
1584376713601391735,,563083,,1584376713,601073160,'',"[shoulder_pan_joint, shoulder_lift_joint, elbow_joint, wrist_1_joint, wrist_2_joint,","[1.4016996622085571, -1.1652057806598108, 2.4664416313171387, -2.8513100782977503, -1.5677369276629847, 2.716862916946411]","[0.0, 0.0, -0.0, 0.0, 0.0, 0.0]","[0.3753662407398224, -2.980041742324829, -1.4100987911224365, -0.4127197563648224, 0.0448608435690403, 0.004486084450036287]"
1584376713713384572,,563097,,1584376713,713074312,'',"[shoulder_pan_joint, shoulder_lift_joint, elbow_joint, wrist_1_joint, wrist_2_joint,","[1.4017117023468018, -1.1651819388019007, 2.4664294719696045, -2.85128623643984, -1.5677607695208948, 2.716874837875366]","[0.0, 0.0, -0.0, 0.0, 0.0, 0.0]","[0.4028320610523224, -2.943420648574829, -1.407857060432434, -0.4172058403491974, 0.0448608435690403, 0.0]"
1584376713825361740,,563111,,1584376713,825043866,'',"[shoulder_pan_joint, shoulder_lift_joint, elbow_joint, wrist_1_joint, wrist_2_joint,","[1.4017117023468018, -1.1652057806598108, 2.4664416313171387, -2.85128623643984, -1.5677607695208948, 2.716850757598877]","[0.0, 0.0, -0.0, 0.0, 0.0, 0.0]","[0.3845215141773224, -2.893066644668579, -1.4145824909210205, -0.4239349663257599, 0.0403747595846653, 0.004486084450036287]"
1584376713937482275,,563125,,1584376713,937070467,'',"[shoulder_pan_joint, shoulder_lift_joint, elbow_joint, wrist_1_joint, wrist_2_joint,","[1.4017356634140015, -1.1651938597308558, 2.4664175510406494, -2.851261917744772, -1.5677607695208948, 2.716874837875366]","[0.0, 0.0, -0.0, 0.0, 0.0, 0.0]","[0.3890991508960724, -2.874756097793579, -1.407857060432434, -0.4015045464038849, 0.0426178015768528, -0.0022430422250181437]"
1584376714049455175,,563139,,1584376714,49124989,'',"[shoulder_pan_joint, shoulder_lift_joint, elbow_joint, wrist_1_joint, wrist_2_joint,","[1.4017117023468018, -1.1652057806598108, 2.4664535522460938, -2.85128623643984, -1.5677607695208948, 2.716874837875366]","[0.0, 0.0, -0.0, 0.0, 0.0, 0.0]","[0.3753662407398224, -2.938843011856079, -1.3966479301452637, -0.3992615044116974, 0.0336456336081028, 0.0022430422250181437]"
1584376714161381718,,563153,,1584376714,161055530,'',"[shoulder_pan_joint, shoulder_lift_joint, elbow_joint, wrist_1_joint, wrist_2_joint,","[1.4017117023468018, -1.1652057806598108, 2.4664056301116943, -2.851274315510885, -1.5677607695208948, 2.716874837875366]","[0.0, 0.0, -0.0, 0.0, 0.0, 0.0]","[0.3570556938648224, -2.920532464981079, -1.421307921409607, -0.4216919243335724, 0.0358886756002903, 0.008972168900072575]"
1584376714273406846,,563167,,1584376714,273071200,'',"[shoulder_pan_joint, shoulder_lift_joint, elbow_joint, wrist_1_joint, wrist_2_joint,","[1.4017356634140015, -1.1651700178729456, 2.4664535522460938, -2.851298157368795, -1.5677250067340296, 2.716874837875366]","[0.0, 0.0, -0.0, 0.0, 0.0, 0.0]","[0.3936767876148224, -2.975464105606079, -1.3562953472137451, -0.4149627983570099, 0.0358886756002903, 0.0022430422250181437]"
1584376714385395155,,563181,,1584376714,385080558,'',"[shoulder_pan_joint, shoulder_lift_joint, elbow_joint, wrist_1_joint, wrist_2_joint,","[1.4017117023468018, -1.1652057806598108, 2.4664416313171387, -2.85128623643984, -1.5677369276629847, 2.716874837875366]","[0.0, 0.0, -0.0, 0.0, 0.0, 0.0]","[0.4577637314796448, -2.975464105606079, -1.4257915019989014, -0.4037475883960724, 0.0493469275534153, 0.0022430422250181437]"
1584376714497301862,,563195,,1584376714,497041285,'',"[shoulder_pan_joint, shoulder_lift_joint, elbow_joint, wrist_1_joint, wrist_2_joint,","[1.400871992111206, -1.165445629750387, 2.466477632522583, -2.8513696829425257, -1.5677607695208948, 2.715665578842163]","[-0.012974920682609081, -0.0008436894277110696, 0.0007286408799700439, -0.0007478156476281583, 0.0, -0.015148060396313667]","[-1.0162354707717896, -3.826904773712158, -1.4145824909210205, -0.4216919243335724, 0.02467346377670765, -0.3095398247241974]"
1584376714609348909,,563209,,1584376714,609059199,'',"[shoulder_pan_joint, shoulder_lift_joint, elbow_joint, wrist_1_joint, wrist_2_joint,","[1.4014836549758911, -1.1654580275165003, 2.4663336277008057, -2.8512023130999964, -1.56777269044985, 2.716360330581665]","[0.03117815963923931, 0.0, -0.0020836573094129562, 0.002147573046386242, 0.0, 0.029682528227567673]","[1.1260987520217896, -3.529358386993408, -1.739645004272461, -0.2669220268726349, 0.0448608435690403, 0.2355194389820099]"
1584376714721348069,,563223,,1584376714,721032940,'',"[shoulder_pan_joint, shoulder_lift_joint, elbow_joint, wrist_1_joint, wrist_2_joint,","[1.404698371887207, -1.1654937903033655, 2.46634578704834, -2.8512023130999964, -1.5677607695208948, 2.719329595565796]","[0.026550650596618652, 0.0, -0.0004090615548193455, 0.00026844663079828024, 0.0, 0.024888839572668076]","[0.7919312119483948, -3.831482410430908, -1.4908039569854736, -0.3723450005054474, 0.0605621412396431, 0.3162689507007599]"
1584376714833294960,,563237,,1584376714,833000801,'',"[shoulder_pan_joint, shoulder_lift_joint, elbow_joint, wrist_1_joint, wrist_2_joint,","[1.4075528383255005, -1.1654580275165003, 2.46634578704834, -2.8512023130999964, -1.56777269044985, 2.7221553325653076]","[0.02147573232650757, 0.0, -0.00017896443023346364, 0.00013422331539914012, 0.0, 0.022837139666080475]","[1.0025025606155396, -3.817749500274658, -1.4908039569854736, -0.3656158745288849, 0.0650482252240181, 0.4015045464038849]"
1584376714945291094,,563251,,1584376714,945022963,'',"[shoulder_pan_joint, shoulder_lift_joint, elbow_joint, wrist_1_joint, wrist_2_joint,","[1.408956527709961, -1.165445629750387, 2.466357707977295, -2.8512380758868616, -1.567784611378805, 2.7240352630615234]","[0.007005179300904274, -6.391586794052273e-05, -0.00011504856229294091, 9.58738019107841e-05, 0.0, 0.012962138280272484]","[0.7598877549171448, -3.868103504180908, -1.499771237373352, -0.3768310844898224, 0.0493469275534153, 0.2848663628101349]"
1584376715057424853,,563265,,1584376715,57067587,'',"[shoulder_pan_joint, shoulder_lift_joint, elbow_joint, wrist_1_joint, wrist_2_joint,","[1.4091962575912476, -1.1654341856585901, 2.4662973880767822, -2.8512023130999964, -1.567784611378805, 2.7245500087738037]","[-0.0029529130551964045, -6.391586794052273e-05, -7.669904152862728e-05, 5.752428114647046e-05, 0.0, -0.0020516994409263134]","[-0.2975464165210724, -3.831482410430908, -1.5109803676605225, -0.3723450005054474, 0.0538330152630806, -0.006729126907885075]"
1584376715169304580,,563279,,1584376715,169005902,'',"[shoulder_pan_joint, shoulder_lift_joint, elbow_joint, wrist_1_joint, wrist_2_joint,","[1.4092921018600464, -1.1654341856585901, 2.465913772583008, -2.8511303106891077, -1.5678089300738733, 2.7247297763824463]","[0.012118448503315449, -6.391586794052273e-05, -0.013920876197516918, 0.006289321463555098, 0.0, 0.01581917703151703]","[0.7278442978858948, -3.501892328262329, -1.775514006614685, -0.2243042290210724, 0.0650482252240181, 0.3072967827320099]"
1584376715281405048,,563293,,1584376715,281040718,'',"[shoulder_pan_joint, shoulder_lift_joint, elbow_joint, wrist_1_joint, wrist_2_joint,","[1.4121589660644531, -1.1646788755999964, 2.4609344005584717, -2.8483527342425745, -1.5678327719317835, 2.7274599075317383]","[0.04006246477365494, 0.014496118761599064, -0.08335907757282257, 0.039020638912916183, 0.0, 0.035780102014541626]","[0.8697510361671448, -2.458191156387329, -1.8024157285690308, -0.0605621412396431, 0.0560760572552681, 0.3252411186695099]"
1584376715393348303,,563307,,1584376715,392983822,'',"[shoulder_pan_joint, shoulder_lift_joint, elbow_joint, wrist_1_joint, wrist_2_joint,","[1.4180964231491089, -1.1602304617511194, 2.44659686088562, -2.8407982031451624, -1.5678804556476038, 2.7328598499298096]","[0.06266311556100845, 0.0682365819811821, -0.17487381398677826, 0.09673666208982468, 0.0, 0.06576942652463913]","[0.8789063692092896, -2.513122797012329, -1.6477307081222534, -0.2220611870288849, 0.0560760572552681, 0.3095398247241974]"
1584376715505378470,,563321,,1584376715,504996326,'',"[shoulder_pan_joint, shoulder_lift_joint, elbow_joint, wrist_1_joint, wrist_2_joint,","[1.425557255744934, -1.1506989637957972, 2.4239559173583984, -2.827724281941549, -1.5678566137896937, 2.7404870986938477]","[0.081582210958004, 0.09078609943389893, -0.22240164875984192, 0.12843254208564758, 0.0, 0.07223132252693176]","[0.9475709199905396, -2.664184808731079, -2.015387773513794, -0.1233673244714737, 0.0403747595846653, 0.3521576225757599]"
1584376715617293581,,563335,,1584376715,616972091,'',"[shoulder_pan_joint, shoulder_lift_joint, elbow_joint, wrist_1_joint, wrist_2_joint,","[1.435956597328186, -1.139536205922262, 2.3979787826538086, -2.81297475496401, -1.5678804556476038, 2.7504372596740723]","[0.10273836553096771, 0.1014600470662117, -0.2387513369321823, 0.13744467496871948, -7.669904152862728e-05, 0.09911433607339859]","[0.8697510361671448, -2.769470453262329, -2.1498963832855225, -0.1054229810833931, 0.0381317175924778, 0.3409424126148224]"
1584376715729301767,,563349,,1584376715,728969718,'',"[shoulder_pan_joint, shoulder_lift_joint, elbow_joint, wrist_1_joint, wrist_2_joint,","[1.4488868713378906, -1.1274388472186487, 2.3706445693969727, -2.7973631064044397, -1.5679166952716272, 2.7630579471588135]","[0.12172137945890427, 0.10656053572893143, -0.24882447719573975, 0.14534468948841095, -7.669904152862728e-05, 0.12438666820526123]","[0.9933472871780396, -3.021240472793579, -2.08488392829895, -0.1143951565027237, 0.0381317175924778, 0.3319702446460724]"
1584376715841383450,,563363,,1584376715,841024450,'',"[shoulder_pan_joint, shoulder_lift_joint, elbow_joint, wrist_1_joint, wrist_2_joint,","[1.4627646207809448, -1.1150782744037073, 2.342073678970337, -2.7813923994647425, -1.5678685347186487, 2.7771036624908447]","[0.1300048679113388, 0.10496263951063156, -0.26332059502601624, 0.14716628193855286, -7.669904152862728e-05, 0.1295446753501892]","[0.9475709199905396, -3.067016839981079, -1.9324406385421753, -0.1233673244714737, 0.0403747595846653, 0.3072967827320099]"
1584376715953367562,,563377,,1584376715,952981170,'',"[shoulder_pan_joint, shoulder_lift_joint, elbow_joint, wrist_1_joint, wrist_2_joint,","[1.478154182434082, -1.1021178404437464, 2.3109214305877686, -2.763961140309469, -1.5679047743426722, 2.792203187942505]","[0.13950277864933014, 0.12209209054708481, -0.2955853343009949, 0.16371409595012665, -7.669904152862728e-05, 0.1432354599237442]","[0.8239746689796448, -3.149414300918579, -2.0422894954681396, -0.1839294582605362, 0.0358886756002903, 0.2781372368335724]"
1584376716065305115,,563391,,1584376716,64933221,'',"[shoulder_pan_joint, shoulder_lift_joint, elbow_joint, wrist_1_joint, wrist_2_joint,","[1.4930273294448853, -1.0878027121173304, 2.2778124809265137, -2.7463744322406214, -1.5678685347186487, 2.807278633117676]","[0.13119371235370636, 0.12426523119211197, -0.29539358615875244, 0.15663862228393555, -5.752428114647046e-05, 0.13144297897815704]","[0.7415772080421448, -3.428650140762329, -1.8965717554092407, -0.1547699123620987, 0.0717773512005806, 0.3409424126148224]"
1584376716177346052,,563405,,1584376716,176952908,'',"[shoulder_pan_joint, shoulder_lift_joint, elbow_joint, wrist_1_joint, wrist_2_joint,","[1.507948875427246, -1.0739553610431116, 2.244821548461914, -2.728560272847311, -1.5679047743426722, 2.8217554092407227]","[0.12850923836231232, 0.12489160150289536, -0.29359114170074463, 0.1604543924331665, -3.834952076431364e-05, 0.13426166772842407]","[1.0025025606155396, -3.327942132949829, -1.9503751993179321, -0.1099090725183487, 0.0628051832318306, 0.3925323784351349]"
1584376716289495873,,563419,,1584376716,289036535,'',"[shoulder_pan_joint, shoulder_lift_joint, elbow_joint, wrist_1_joint, wrist_2_joint,","[1.5220422744750977, -1.0594967047320765, 2.2117700576782227, -2.710914436970846, -1.5679047743426722, 2.8361728191375732]","[0.12397121638059616, 0.1298898309469223, -0.29839763045310974, 0.16106799244880676, -3.834952076431364e-05, 0.1235046312212944]","[0.8834840059280396, -3.364563226699829, -2.0490148067474365, -0.1502838283777237, 0.0358886756002903, 0.4530945420265198]"
1584376716401269320,,563433,,1584376716,400950155,'',"[shoulder_pan_joint, shoulder_lift_joint, elbow_joint, wrist_1_joint, wrist_2_joint,","[1.536520004272461, -1.0451820532428187, 2.1787290573120117, -2.6928489843951624, -1.5679286162005823, 2.8504583835601807]","[0.13061846792697906, 0.131219282746315, -0.2946265935897827, 0.15426094830036163, -3.834952076431364e-05, 0.13215245306491852]","[0.9475709199905396, -3.506469964981079, -1.9817605018615723, -0.0403747595846653, 0.0515899695456028, 0.4441223740577698]"
1584376716513284619,,563447,,1584376716,512936880,'',"[shoulder_pan_joint, shoulder_lift_joint, elbow_joint, wrist_1_joint, wrist_2_joint,","[1.5510692596435547, -1.03033954301943, 2.1457228660583496, -2.675358597432272, -1.5679047743426722, 2.86531925201416]","[0.12964694201946259, 0.13539937138557434, -0.2927602529525757, 0.15765488147735596, -1.917476038215682e-05, 0.12674516439437866]","[1.1764527559280396, -3.895569324493408, -2.111785650253296, -0.0605621412396431, 0.0426178015768528, 0.4306641221046448]"
1584376716625360632,,563461,,1584376716,624964923,'',"[shoulder_pan_joint, shoulder_lift_joint, elbow_joint, wrist_1_joint, wrist_2_joint,","[1.5652469396591187, -1.0154860655414026, 2.1126198768615723, -2.6571977774249476, -1.5679047743426722, 2.879389524459839]","[0.12476377189159393, 0.12847089767456055, -0.29977819323539734, 0.1607995331287384, -1.917476038215682e-05, 0.12152963131666183]","[0.8743286728858948, -3.845215320587158, -2.3247575759887695, -0.1211242824792862, 0.0471038855612278, 0.4127197563648224]"
1584376716737251018,,563475,,1584376716,736927304,'',"[shoulder_pan_joint, shoulder_lift_joint, elbow_joint, wrist_1_joint, wrist_2_joint,","[1.5783565044403076, -1.000380818043844, 2.0787835121154785, -2.6389058271991175, -1.567892853413717, 2.892993211746216]","[0.11015260964632034, 0.1385568231344223, -0.30301234126091003, 0.16448108851909637, -1.917476038215682e-05, 0.11035074293613434]","[1.0208131074905396, -4.069519519805908, -2.1386873722076416, -0.2063598781824112, 0.0336456336081028, 0.4957123398780823]"
1584376716849279321,,563489,,1584376716,848923257,'',"[shoulder_pan_joint, shoulder_lift_joint, elbow_joint, wrist_1_joint, wrist_2_joint,","[1.5899194478988647, -0.9849756399737757, 2.0444183349609375, -2.6208890120135706, -1.5679286162005823, 2.9050161838531494]","[0.10593415796756744, 0.134734645485878, -0.3053644597530365, 0.15972575545310974, -1.917476038215682e-05, 0.10296846181154251]","[0.8056641221046448, -3.785706043243408, -2.282163143157959, -0.1929016262292862, 0.02243042178452015, 0.3521576225757599]"
1584376716961253233,,563503,,1584376716,960912527,'',"[shoulder_pan_joint, shoulder_lift_joint, elbow_joint, wrist_1_joint, wrist_2_joint,","[1.6019856929779053, -0.9692347685443323, 2.009812355041504, -2.6023576895343226, -1.5679166952716272, 2.9169199466705322]","[0.10786441713571548, 0.14657187461853027, -0.3105032742023468, 0.1663793921470642, -1.917476038215682e-05, 0.10998642444610596]","[0.9017945528030396, -4.362488269805908, -2.2395687103271484, -0.1570129543542862, 0.01794433780014515, 0.2646789848804474]"
1584376717073269884,,563517,,1584376717,72930561,'',"[shoulder_pan_joint, shoulder_lift_joint, elbow_joint, wrist_1_joint, wrist_2_joint,","[1.6134523153305054, -0.9534466902362269, 1.974916934967041, -2.584161106740133, -1.5679762999164026, 2.9286320209503174]","[0.10153675079345703, 0.13772590458393097, -0.31601282954216003, 0.16841192543506622, -1.917476038215682e-05, 0.09587380290031433]","[1.1260987520217896, -4.229736804962158, -2.371835470199585, -0.0986938551068306, 0.01345825381577015, 0.4037475883960724]"
1584376717185176090,,563531,,1584376717,184897791,'',"[shoulder_pan_joint, shoulder_lift_joint, elbow_joint, wrist_1_joint, wrist_2_joint,","[1.6244868040084839, -0.9374302069293421, 1.9395041465759277, -2.565354649220602, -1.5679166952716272, 2.939469337463379]","[0.09766344726085663, 0.14732608199119568, -0.32208484411239624, 0.16246774792671204, -1.917476038215682e-05, 0.09109928458929062]","[0.9979249238967896, -4.417419910430908, -2.439089775085449, -0.02467346377670765, 0.0022430422250181437, 0.3588867485523224]"
1584376717297215114,,563545,,1584376717,296896599,'',"[shoulder_pan_joint, shoulder_lift_joint, elbow_joint, wrist_1_joint, wrist_2_joint,","[1.6352699995040894, -0.9209831396685999, 1.9037909507751465, -2.5466678778277796, -1.5679166952716272, 2.950570821762085]","[0.0901341587305069, 0.14586879312992096, -0.3278883993625641, 0.16960075497627258, -1.917476038215682e-05, 0.09947865456342697]","[0.9521485567092896, -4.302978992462158, -2.3426921367645264, -0.1435547024011612, -0.006729126907885075, 0.3544006645679474]"
1584376717409281178,,563559,,1584376717,408920885,'',"[shoulder_pan_joint, shoulder_lift_joint, elbow_joint, wrist_1_joint, wrist_2_joint,","[1.6446136236190796, -0.9043563047992151, 1.8673453330993652, -2.527597729359762, -1.5679405371295374, 2.960355043411255]","[0.07340098172426224, 0.1505218744277954, -0.32613709568977356, 0.16965827345848083, -5.752428114647046e-05, 0.07876991480588913]","[1.0894776582717896, -4.820251941680908, -2.371835470199585, -0.1906585842370987, -0.0314025916159153, 0.4015045464038849]"
1584376717521217138,,563573,,1584376717,520906378,'',"[shoulder_pan_joint, shoulder_lift_joint, elbow_joint, wrist_1_joint, wrist_2_joint,","[1.6525415182113647, -0.8874414602862757, 1.8309826850891113, -2.5080254713641565, -1.568000618611471, 2.968653917312622]","[0.07015405595302582, 0.15145504474639893, -0.3228646218776703, 0.17184419929981232, -0.0004410194815136492, 0.07006457448005676]","[0.8605957627296448, -4.637146472930908, -2.5758402347564697, -0.0740203931927681, -0.0426178015768528, 0.3454284965991974]"
1584376717633316134,,563587,,1584376717,632909775,'',"[shoulder_pan_joint, shoulder_lift_joint, elbow_joint, wrist_1_joint, wrist_2_joint,","[1.6597739458084106, -0.8699515501605433, 1.7939229011535645, -2.488847557698385, -1.568000618611471, 2.976187229156494]","[0.05861084908246994, 0.16012203693389893, -0.33052173256874084, 0.1725344955921173, -0.0003067961661145091, 0.06235631927847862]","[0.9475709199905396, -4.989624500274658, -2.5870494842529297, -0.0762634351849556, -0.0605621412396431, 0.3656158745288849]"
1584376717745227569,,563601,,1584376717,744903033,'',"[shoulder_pan_joint, shoulder_lift_joint, elbow_joint, wrist_1_joint, wrist_2_joint,","[1.6663705110549927, -0.8525098005877894, 1.756850242614746, -2.4689882437335413, -1.5680483023272913, 2.9829773902893066]","[0.05434127151966095, 0.1558908075094223, -0.32937124371528625, 0.17671458423137665, -0.00036432043998502195, 0.05898156389594078]","[0.9841920137405396, -5.007935047149658, -2.7013816833496094, -0.1749572902917862, -0.0829925611615181, 0.3072967827320099]"
1584376717857231177,,563615,,1584376717,856907062,'',"[shoulder_pan_joint, shoulder_lift_joint, elbow_joint, wrist_1_joint, wrist_2_joint,","[1.671768307685852, -0.8343852202044886, 1.719165325164795, -2.448888603840963, -1.5681803862201136, 2.9887375831604004]","[0.04279806464910507, 0.16090179979801178, -0.33526429533958435, 0.1804153174161911, -0.0012655341997742653, 0.046728890389204025]","[1.0437012910842896, -4.998779773712158, -2.7955377101898193, -0.1704712063074112, -0.0942077711224556, 0.4037475883960724]"
1584376717969225506,,563629,,1584376717,968858351,'',"[shoulder_pan_joint, shoulder_lift_joint, elbow_joint, wrist_1_joint, wrist_2_joint,","[1.6765778064727783, -0.8164647261248987, 1.681612491607666, -2.429232422505514, -1.5681803862201136, 2.993659734725952]","[0.04677363112568855, 0.16012203693389893, -0.3282974660396576, 0.178593710064888, -0.00046019424917176366, 0.044082771986722946]","[0.9796143770217896, -5.305481433868408, -3.089215040206909, -0.1345825344324112, -0.1256103664636612, 0.3028106987476349]"
1584376718081227200,,563643,,1584376718,80861848,'',"[shoulder_pan_joint, shoulder_lift_joint, elbow_joint, wrist_1_joint, wrist_2_joint,","[1.6813392639160156, -0.7983048597918909, 1.6442384719848633, -2.4090731779681605, -1.5682161490069788, 2.998689889907837]","[0.038413435220718384, 0.16087624430656433, -0.32781168818473816, 0.17502720654010773, -0.0003451456723269075, 0.041743453592061996]","[1.1169434785842896, -5.332947254180908, -3.1564693450927734, -0.1457977443933487, -0.1413116604089737, 0.3162689507007599]"
1584376718193355941,,563657,,1584376718,192950614,'',"[shoulder_pan_joint, shoulder_lift_joint, elbow_joint, wrist_1_joint, wrist_2_joint,","[1.685645341873169, -0.7803843657123011, 1.6066012382507324, -2.38953668275942, -1.5682881514178675, 3.0029296875]","[0.04361618682742119, 0.1628192812204361, -0.34306201338768005, 0.18116313219070435, -0.000690291344653815, 0.040286172181367874]","[0.7827759385108948, -5.690002918243408, -3.091456651687622, -0.1570129543542862, -0.1525268703699112, 0.4015045464038849]"
1584376718305236709,,563671,,1584376718,304883229,'',"[shoulder_pan_joint, shoulder_lift_joint, elbow_joint, wrist_1_joint, wrist_2_joint,","[1.6916064023971558, -0.761756722127096, 1.5669102668762207, -2.3688986937152308, -1.5683239142047327, 3.008378744125366]","[0.056182049214839935, 0.17060422897338867, -0.3674139678478241, 0.1849789172410965, -0.0004410194815136492, 0.058578893542289734]","[0.7873535752296448, -5.506897449493408, -3.3089122772216797, -0.0852356031537056, -0.1794433742761612, 0.3521576225757599]"
1584376718417209078,,563685,,1584376718,416849486,'',"[shoulder_pan_joint, shoulder_lift_joint, elbow_joint, wrist_1_joint, wrist_2_joint,","[1.697795033454895, -0.7417996565448206, 1.525503158569336, -2.3471720854388636, -1.5683839956866663, 3.0147976875305176]","[0.05306295305490494, 0.1785425841808319, -0.37338370084762573, 0.19573594629764557, -0.0003067961661145091, 0.05495486408472061]","[0.9109498262405396, -5.873108386993408, -3.4254865646362305, -0.0807495191693306, -0.2063598781824112, 0.3454284965991974]"
1584376718529137344,,563699,,1584376718,528863533,'',"[shoulder_pan_joint, shoulder_lift_joint, elbow_joint, wrist_1_joint, wrist_2_joint,","[1.704055666923523, -0.7218545118915003, 1.484395980834961, -2.3255165258990687, -1.5685156027423304, 3.020965576171875]","[0.05757541209459305, 0.17608821392059326, -0.36451220512390137, 0.19073134660720825, -0.0009587380336597562, 0.05980607867240906]","[0.8331299424171448, -5.836487293243408, -3.465839147567749, -0.1884155422449112, -0.1637420803308487, 0.3947754204273224]"
1584376718641165768,,563713,,1584376718,640870657,'',"[shoulder_pan_joint, shoulder_lift_joint, elbow_joint, wrist_1_joint, wrist_2_joint,","[1.7102692127227783, -0.7019932905780237, 1.4428563117980957, -2.3038857618915003, -1.5685752073871058, 3.027432918548584]","[0.05999143421649933, 0.17932236194610596, -0.3744702935218811, 0.19782599806785583, -0.0005560680292546749, 0.0588473379611969]","[0.7919312119483948, -6.088257312774658, -3.721405506134033, -0.0269165076315403, -0.1906585842370987, 0.2960815727710724]"
1584376718753166580,,563727,,1584376718,752852204,'',"[shoulder_pan_joint, shoulder_lift_joint, elbow_joint, wrist_1_joint, wrist_2_joint,","[1.7178730964660645, -0.681197468434469, 1.3990249633789062, -2.281116787587301, -1.5687311331378382, 3.0346784591674805]","[0.0728001743555069, 0.1923484057188034, -0.41257691383361816, 0.21431629359722137, -0.0011504855938255787, 0.07177112996578217]","[0.7415772080421448, -6.198120594024658, -3.5375771522521973, -0.1951446682214737, -0.1704712063074112, 0.4530945420265198]"
1584376718865188091,,563741,,1584376718,864856783,'',"[shoulder_pan_joint, shoulder_lift_joint, elbow_joint, wrist_1_joint, wrist_2_joint,","[1.7266643047332764, -0.6593592802630823, 1.3519892692565918, -2.256564442311422, -1.568815056477682, 3.043565034866333]","[0.0821063220500946, 0.20081087946891785, -0.42915669083595276, 0.21901410818099976, -0.001208009896799922, 0.08358278125524521]","[0.8102417588233948, -5.996704578399658, -3.557753324508667, -0.0874786451458931, -0.1682281643152237, 0.3274841606616974]"
1584376718977154609,,563755,,1584376718,976824152,'',"[shoulder_pan_joint, shoulder_lift_joint, elbow_joint, wrist_1_joint, wrist_2_joint,","[1.7351199388504028, -0.6364548842059534, 1.3044252395629883, -2.2319520155536097, -1.568826977406637, 3.052487850189209]","[0.06487460434436798, 0.20688287913799286, -0.4257691502571106, 0.22748935222625732, -0.00026844663079828024, 0.07288326323032379]","[1.0849000215530396, -6.408691883087158, -4.001631736755371, -0.1839294582605362, -0.1839294582605362, 0.4329071640968323]"
1584376719089159238,,563769,,1584376719,88832849,'',"[shoulder_pan_joint, shoulder_lift_joint, elbow_joint, wrist_1_joint, wrist_2_joint,","[1.7414048910140991, -0.613478962575094, 1.2573671340942383, -2.207423512135641, -1.568826977406637, 3.0593385696411133]","[0.047336090356111526, 0.2066783457994461, -0.4120272397994995, 0.2202221155166626, -0.00015339808305725455, 0.05399612337350845]","[0.9017945528030396, -6.573486804962158, -4.015082836151123, -0.01345825381577015, -0.2041168361902237, 0.3499145805835724]"
1584376719201289162,,563783,,1584376719,200902720,'',"[shoulder_pan_joint, shoulder_lift_joint, elbow_joint, wrist_1_joint, wrist_2_joint,","[1.745398998260498, -0.5912464300738733, 1.2118701934814453, -2.1832783857928675, -1.5688632170306605, 3.0639615058898926]","[0.024748224765062332, 0.19481556117534637, -0.4007524847984314, 0.21151678264141083, -0.0004218447138555348, 0.030468694865703583]","[0.9429932832717896, -6.761169910430908, -4.017324447631836, -0.1816864162683487, -0.2018737941980362, 0.3476715385913849]"
1584376719313136788,,563797,,1584376719,312831378,'',"[shoulder_pan_joint, shoulder_lift_joint, elbow_joint, wrist_1_joint, wrist_2_joint,","[1.747497797012329, -0.5696972052203577, 1.1676359176635742, -2.1601503531085413, -1.5690186659442347, 3.066608190536499]","[0.01865065097808838, 0.18572673201560974, -0.3933638036251068, 0.20028036832809448, -0.0011313108261674643, 0.019884226843714714]","[0.8239746689796448, -6.761169910430908, -4.185460090637207, -0.0762634351849556, -0.1861725002527237, 0.3319702446460724]"
1584376719425142959,,563811,,1584376719,424818123,'',"[shoulder_pan_joint, shoulder_lift_joint, elbow_joint, wrist_1_joint, wrist_2_joint,","[1.7500287294387817, -0.548675839100973, 1.1235580444335938, -2.1372249762164515, -1.569162670766012, 3.0692672729492188]","[0.027394341304898262, 0.18815553188323975, -0.3918681740760803, 0.2098294049501419, -0.0014572817599400878, 0.025770878419280052]","[1.2268067598342896, -6.628418445587158, -4.082336902618408, -0.1727142482995987, -0.1727142482995987, 0.3431854546070099]"
1584376719537191761,,563825,,1584376719,536836989,'',"[shoulder_pan_joint, shoulder_lift_joint, elbow_joint, wrist_1_joint, wrist_2_joint,","[1.7529550790786743, -0.5276792685138147, 1.0802388191223145, -2.1149466673480433, -1.5691984335528772, 3.072357177734375]","[0.02285631373524666, 0.18515148758888245, -0.3784075081348419, 0.19692479074001312, -0.0007478156476281583, 0.028206072747707367]","[0.9292603731155396, -7.118226051330566, -4.476895809173584, -0.004486084450036287, -0.1906585842370987, 0.2467346489429474]"
1584376719649104529,,563839,,1584376719,648821401,'',"[shoulder_pan_joint, shoulder_lift_joint, elbow_joint, wrist_1_joint, wrist_2_joint,","[1.7551017999649048, -0.5078929106341761, 1.0395851135253906, -2.093613926564352, -1.569270435963766, 3.0748963356018066]","[0.013179452158510685, 0.16644969582557678, -0.3455163836479187, 0.17719395458698273, -0.001073786523193121, 0.01930898427963257]","[0.9796143770217896, -7.159424781799316, -4.2504730224609375, -0.1704712063074112, -0.1749572902917862, 0.3050537407398224]"
1584376719761093399,,563853,,1584376719,760799641,'',"[shoulder_pan_joint, shoulder_lift_joint, elbow_joint, wrist_1_joint, wrist_2_joint,","[1.7556654214859009, -0.4899042288409632, 1.0030980110168457, -2.0744479338275355, -1.569390122090475, 3.075890302658081]","[0.0004218447138555348, 0.1504579484462738, -0.30648937821388245, 0.1675298810005188, -0.0006327670998871326, 0.0009012137306854129]","[0.1922607570886612, -7.415772438049316, -4.423092365264893, -0.2243042290210724, -0.1772003322839737, 0.0672912672162056]"
1584376719873122003,,563867,,1584376719,872807976,'',"[shoulder_pan_joint, shoulder_lift_joint, elbow_joint, wrist_1_joint, wrist_2_joint,","[1.755521535873413, -0.4746959845172327, 0.9714851379394531, -2.058274571095602, -1.5695341269122522, 3.0758423805236816]","[-0.0005752427969127893, 0.1225522831082344, -0.2621573209762573, 0.13128958642482758, -0.0013038837350904942, -0.0005944175645709038]","[-0.0366210974752903, -7.273865699768066, -4.257198333740234, -0.1525268703699112, -0.1413116604089737, -0.0022430422250181437]"
1584376719985133966,,563881,,1584376719,984795424,'',"[shoulder_pan_joint, shoulder_lift_joint, elbow_joint, wrist_1_joint, wrist_2_joint,","[1.7555335760116577, -0.4615972677813929, 0.9443135261535645, -2.044351402913229, -1.5696776548968714, 3.0758304595947266]","[-0.0001917476038215682, 0.10722526162862778, -0.22743822634220123, 0.12208569794893265, -0.0013038837350904942, -0.0001917476038215682]","[0.0640869215130806, -7.273865699768066, -4.467928409576416, -0.1772003322839737, -0.1457977443933487, 0.01794433780014515]"
1584376720097098059,,563895,,1584376720,96817325,'',"[shoulder_pan_joint, shoulder_lift_joint, elbow_joint, wrist_1_joint, wrist_2_joint,","[1.755569577217102, -0.45100337663759404, 0.9216065406799316, -2.0325239340411585, -1.5697615782367151, 3.0758185386657715]","[-0.00010226538870483637, 0.07746603339910507, -0.18199403584003448, 0.09117598831653595, -0.0007478156476281583, -0.00011504856229294091]","[-0.0411987341940403, -7.250977516174316, -4.165284156799316, -0.2377624809741974, -0.1435547024011612, 0.01345825381577015]"
1584376720209119841,,563909,,1584376720,208801356,'',"[shoulder_pan_joint, shoulder_lift_joint, elbow_joint, wrist_1_joint, wrist_2_joint,","[1.755569577217102, -0.4427230993853968, 0.9036173820495605, -2.023496929799215, -1.5698211828814905, 3.0758185386657715]","[-6.391586794052273e-05, 0.06107800453901291, -0.13003043830394745, 0.06425461918115616, -0.0005752427969127893, -7.669904152862728e-05]","[0.009155274368822575, -7.580567359924316, -4.360321521759033, -0.0403747595846653, -0.1345825344324112, 0.011215210892260075]"
1584376720321098842,,563923,,1584376720,320771521,'',"[shoulder_pan_joint, shoulder_lift_joint, elbow_joint, wrist_1_joint, wrist_2_joint,","[1.7555814981460571, -0.437845532094137, 0.8949408531188965, -2.0188520590411585, -1.569857422505514, 3.0758423805236816]","[-5.1132694352418184e-05, 0.02491440437734127, -0.028314730152487755, 0.016931314021348953, -0.0001917476038215682, -5.752428114647046e-05]","[-0.0411987341940403, -8.065796852111816, -4.508281230926514, -0.1637420803308487, -0.1480407863855362, -0.006729126907885075]"
1584376720433039682,,563937,,1584376720,432742928,'',"[shoulder_pan_joint, shoulder_lift_joint, elbow_joint, wrist_1_joint, wrist_2_joint,","[1.7555814981460571, -0.4378097693072718, 0.8962011337280273, -2.0202048460589808, -1.5698931852923792, 3.0758185386657715]","[-3.834952076431364e-05, 0.010840130969882011, -0.018497252836823463, 0.028838839381933212, -0.0001917476038215682, -5.752428114647046e-05]","[0.1510620266199112, -7.987977027893066, -4.254956245422363, -0.3252411186695099, -0.1166381984949112, 0.0515899695456028]"
1584376720545102921,,563951,,1584376720,544793864,'',"[shoulder_pan_joint, shoulder_lift_joint, elbow_joint, wrist_1_joint, wrist_2_joint,","[1.7555456161499023, -0.4377501646624964, 0.896705150604248, -2.0206478277789515, -1.569857422505514, 3.0757944583892822]","[-8.948221511673182e-05, -0.007427023723721504, 0.016017315909266472, -0.017257284373044968, -0.00015339808305725455, -0.00024927189224399626]","[0.01373291201889515, -9.887696266174316, -3.109391212463379, -0.6684265732765198, -0.1278534084558487, 0.0]"
1584376720657126616,,563965,,1584376720,656789065,'',"[shoulder_pan_joint, shoulder_lift_joint, elbow_joint, wrist_1_joint, wrist_2_joint,","[1.7554975748062134, -0.4374144713031214, 0.8960928916931152, -2.0203126112567347, -1.5698331038104456, 3.0757944583892822]","[-0.0027483822777867317, -0.019328158348798752, 0.04103398695588112, -0.03188762813806534, -9.58738019107841e-05, 0.0]","[-0.0640869215130806, -9.700013160705566, -3.3178796768188477, -0.6078644394874573, -0.1256103664636612, -0.0448608435690403]"
1584376720769067766,,563979,,1584376720,768753750,'',"[shoulder_pan_joint, shoulder_lift_joint, elbow_joint, wrist_1_joint, wrist_2_joint,","[1.7554736137390137, -0.4370067755328577, 0.8950963020324707, -2.0194504896747034, -1.569857422505514, 3.075782537460327]","[0.0, 0.0019558256026357412, 0.0014317154418677092, -0.015684954822063446, -7.669904152862728e-05, 0.0]","[-0.0640869215130806, -8.866883277893066, -3.8514304161071777, -0.4194488823413849, -0.1323394924402237, -0.0291595496237278]"
1584376720881047499,,563993,,1584376720,880756996,'',"[shoulder_pan_joint, shoulder_lift_joint, elbow_joint, wrist_1_joint, wrist_2_joint,","[1.7554856538772583, -0.4371145407306116, 0.8956847190856934, -2.0198333899127405, -1.5698331038104456, 3.075758457183838]","[-0.0002556634717620909, 0.011811652220785618, -0.020619258284568787, 0.019845876842737198, -5.752428114647046e-05, -0.00023009712458588183]","[-0.009155274368822575, -7.850647926330566, -4.52397346496582, -0.1592559963464737, -0.1323394924402237, 0.01570129580795765]"
1584376720993085090,,564007,,1584376720,992750495,'',"[shoulder_pan_joint, shoulder_lift_joint, elbow_joint, wrist_1_joint, wrist_2_joint,","[1.7554377317428589, -0.4374740759478968, 0.8974847793579102, -2.020803753529684, -1.5698455015765589, 3.075747013092041]","[-0.00011504856229294091, 0.01594061776995659, -0.028544826433062553, 0.040286172181367874, -3.834952076431364e-05, -0.00015339808305725455]","[0.2334595024585724, -7.768250465393066, -4.591228008270264, -0.2018737941980362, -0.1211242824792862, 0.0807495191693306]"
1584376721105161984,,564021,,1584376721,104816499,'',"[shoulder_pan_joint, shoulder_lift_joint, elbow_joint, wrist_1_joint, wrist_2_joint,","[1.755449652671814, -0.4377978483783167, 0.8989009857177734, -2.0215933958636683, -1.569857422505514, 3.075747013092041]","[-7.669904152862728e-05, -0.012412461452186108, 0.03361974656581879, -0.02389175072312355, -3.834952076431364e-05, -0.00015339808305725455]","[0.004577637184411287, -9.979249000549316, -3.380650281906128, -0.5876770615577698, -0.1211242824792862, -0.011215210892260075]"
1584376721217091493,,564035,,1584376721,216722113,'',"[shoulder_pan_joint, shoulder_lift_joint, elbow_joint, wrist_1_joint, wrist_2_joint,","[1.7554017305374146, -0.4386842886554163, 0.90313720703125, -2.02407151857485, -1.5698331038104456, 3.075747013092041]","[-2.5566347176209092e-05, -0.00851359311491251, 0.038656316697597504, -0.02141820639371872, -3.834952076431364e-05, -0.00011504856229294091]","[0.0320434607565403, -10.189820289611816, -3.564478874206543, -0.5719757676124573, -0.1300964504480362, -0.006729126907885075]"
1584376721329041369,,564049,,1584376721,328733645,'',"[shoulder_pan_joint, shoulder_lift_joint, elbow_joint, wrist_1_joint, wrist_2_joint,","[1.755173683166504, -0.4402421156512659, 0.9076495170593262, -2.0268967787372034, -1.5698331038104456, 3.075747013092041]","[-0.00818123109638691, -0.017180584371089935, 0.03999854996800423, -0.023258984088897705, -1.917476038215682e-05, -1.917476038215682e-05]","[-0.2014160305261612, -10.194397926330566, -3.6025896072387695, -0.6078644394874573, -0.1413116604089737, -0.1413116604089737]"
1584376721441068982,,564063,,1584376721,440730169,'',"[shoulder_pan_joint, shoulder_lift_joint, elbow_joint, wrist_1_joint, wrist_2_joint,","[1.751923680305481, -0.44223148027528936, 0.9113941192626953, -2.028992001210348, -1.5698092619525355, 3.0733511447906494]","[-0.04445987567305565, -0.020005665719509125, 0.030666833743453026, -0.016816264018416405, -1.917476038215682e-05, -0.03591432422399521]","[-0.7186890244483948, -9.727478981018066, -3.5129170417785645, -0.6392670273780823, -0.1413116604089737, -0.4127197563648224]"
1584376721553186291,,564077,,1584376721,552835076,'',"[shoulder_pan_joint, shoulder_lift_joint, elbow_joint, wrist_1_joint, wrist_2_joint,","[1.7464903593063354, -0.44535953203310186, 0.9164586067199707, -2.031901184712545, -1.5698331038104456, 3.068249225616455]","[-0.04927913472056389, -0.03202185034751892, 0.06313609331846237, -0.032769665122032166, -1.917476038215682e-05, -0.049375008791685104]","[-0.9201050996780396, -9.686280250549316, -3.577929735183716, -0.5944061875343323, -0.1457977443933487, -0.3162689507007599]"
1584376721665004593,,564091,,1584376721,664715594,'',"[shoulder_pan_joint, shoulder_lift_joint, elbow_joint, wrist_1_joint, wrist_2_joint,","[1.7409131526947021, -0.4499133268939417, 0.9279074668884277, -2.0378268400775355, -1.5698331038104456, 3.0624287128448486]","[-0.049368616193532944, -0.06441441178321838, 0.1573352962732315, -0.08419637382030487, -1.917476038215682e-05, -0.05133083462715149]","[-0.9475709199905396, -10.112000465393066, -3.5106754302978516, -0.5316010117530823, -0.1525268703699112, -0.3499145805835724]"
1584376721776983624,,564105,,1584376721,776698963,'',"[shoulder_pan_joint, shoulder_lift_joint, elbow_joint, wrist_1_joint, wrist_2_joint,","[1.7363554239273071, -0.4606865088092249, 0.9524264335632324, -2.0503132979022425, -1.5698455015765589, 3.0574703216552734]","[-0.03327460214495659, -0.12692412734031677, 0.26477786898612976, -0.1370611935853958, -1.917476038215682e-05, -0.039921849966049194]","[-0.9384156465530396, -10.034180641174316, -3.575687885284424, -0.6011353135108948, -0.1233673244714737, -0.4104767143726349]"
1584376721889042224,,564119,,1584376721,888724471,'',"[shoulder_pan_joint, shoulder_lift_joint, elbow_joint, wrist_1_joint, wrist_2_joint,","[1.732229471206665, -0.47679359117616826, 0.986198902130127, -2.067420307789938, -1.5698092619525355, 3.0532660484313965]","[-0.04370567202568054, -0.16510747373104095, 0.33052173256874084, -0.17245779931545258, -1.917476038215682e-05, -0.04258714243769646]","[-0.9155274629592896, -9.855652809143066, -3.3223631381988525, -0.5787048935890198, -0.1009368970990181, -0.3274841606616974]"
1584376722000985429,,564133,,1584376722,698754,'',"[shoulder_pan_joint, shoulder_lift_joint, elbow_joint, wrist_1_joint, wrist_2_joint,","[1.7270601987838745, -0.4970944563495081, 1.0262627601623535, -2.08860952058901, -1.5698092619525355, 3.0478529930114746]","[-0.04481780529022217, -0.18907591700553894, 0.38623079657554626, -0.20062552392482758, -1.917476038215682e-05, -0.052078649401664734]","[-0.9979249238967896, -9.777832984924316, -3.369441270828247, -0.5697327256202698, -0.0986938551068306, -0.3140259087085724]"
1584376722113043017,,564147,,1584376722,112764687,'',"[shoulder_pan_joint, shoulder_lift_joint, elbow_joint, wrist_1_joint, wrist_2_joint,","[1.7222027778625488, -0.5197332541095179, 1.0712008476257324, -2.112157646809713, -1.5697854200946253, 3.0425589084625244]","[-0.04307929426431656, -0.21400310099124908, 0.4266895353794098, -0.21677066385746002, -1.917476038215682e-05, -0.04669054225087166]","[-0.9841920137405396, -9.580994606018066, -3.208030939102173, -0.7200165390968323, -0.0650482252240181, -0.3701019585132599]"
1584376722224975200,,564161,,1584376722,224711899,'',"[shoulder_pan_joint, shoulder_lift_joint, elbow_joint, wrist_1_joint, wrist_2_joint,","[1.7170214653015137, -0.544349495564596, 1.1222858428955078, -2.1387456099139612, -1.5698092619525355, 3.037229537963867]","[-0.047451138496398926, -0.23283271491527557, 0.4834468364715576, -0.24194712936878204, 0.0, -0.0477835014462471]","[-1.0757447481155396, -9.580994606018066, -3.104907512664795, -0.6280518174171448, -0.0448608435690403, -0.3005676567554474]"
1584376722336982735,,564175,,1584376722,336689287,'',"[shoulder_pan_joint, shoulder_lift_joint, elbow_joint, wrist_1_joint, wrist_2_joint,","[1.7116724252700806, -0.5704286734210413, 1.1762542724609375, -2.1663153807269495, -1.5697973410235804, 3.0315048694610596]","[-0.04601942375302315, -0.22939404845237732, 0.47190362215042114, -0.24219639599323273, 0.0, -0.048416268080472946]","[-0.9338380098342896, -9.178162574768066, -3.107149362564087, -0.6190796494483948, -0.0314025916159153, -0.3140259087085724]"
1584376722449179423,,564189,,1584376722,448777663,'',"[shoulder_pan_joint, shoulder_lift_joint, elbow_joint, wrist_1_joint, wrist_2_joint,","[1.7063828706741333, -0.5952017943011683, 1.2271275520324707, -2.1926873365985315, -1.5697973410235804, 3.026378631591797]","[-0.05284563824534416, -0.2089921087026596, 0.4368777275085449, -0.2232900857925415, 0.0, -0.048895638436079025]","[-0.6317139267921448, -9.347535133361816, -2.907628297805786, -0.5966492295265198, -0.011215210892260075, -0.3813171684741974]"
1584376722561113651,,564203,,1584376722,560768366,'',"[shoulder_pan_joint, shoulder_lift_joint, elbow_joint, wrist_1_joint, wrist_2_joint,","[1.6997979879379272, -0.6177814642535608, 1.2745575904846191, -2.217180077229635, -1.5697973410235804, 3.0202229022979736]","[-0.06647250056266785, -0.19527575373649597, 0.4137018322944641, -0.2086980938911438, 0.0, -0.06494491547346115]","[-0.5767822861671448, -9.104920387268066, -2.8941774368286133, -0.7648773789405823, -0.011215210892260075, -0.3140259087085724]"
1584376722672954515,,564217,,1584376722,672678910,'',"[shoulder_pan_joint, shoulder_lift_joint, elbow_joint, wrist_1_joint, wrist_2_joint,","[1.691090703010559, -0.6386960188495081, 1.3189873695373535, -2.2400205771075647, -1.5697854200946253, 3.0120551586151123]","[-0.08702784776687622, -0.1825181543827057, 0.3827154338359833, -0.19966678321361542, 0.0, -0.08498253673315048]","[-0.7965088486671448, -9.054566383361816, -2.8695175647735596, -0.6527252793312073, -0.01345825381577015, -0.3925323784351349]"
1584376722785119372,,564231,,1584376722,784738982,'',"[shoulder_pan_joint, shoulder_lift_joint, elbow_joint, wrist_1_joint, wrist_2_joint,","[1.680535912513733, -0.6587122122394007, 1.3608245849609375, -2.261592213307516, -1.5697854200946253, 3.0014443397521973]","[-0.10028399527072906, -0.1694665253162384, 0.3731280565261841, -0.1864553689956665, 0.0, -0.1026424914598465]","[-0.8972169160842896, -9.040833473205566, -2.903144598007202, -0.7491760849952698, -0.01794433780014515, -0.3566437065601349]"
1584376722897024005,,564245,,1584376722,896679652,'',"[shoulder_pan_joint, shoulder_lift_joint, elbow_joint, wrist_1_joint, wrist_2_joint,","[1.6694895029067993, -0.6778653303729456, 1.4013662338256836, -2.2827447096454065, -1.5697615782367151, 2.9900548458099365]","[-0.10294289886951447, -0.16982446610927582, 0.3582867980003357, -0.18367503583431244, 0.0, -0.1024123951792717]","[-0.7690430283546448, -8.843995094299316, -2.8560667037963867, -0.8209534287452698, -0.01345825381577015, -0.3229980766773224]"
1584376723009011482,,564259,,1584376723,8708367,'',"[shoulder_pan_joint, shoulder_lift_joint, elbow_joint, wrist_1_joint, wrist_2_joint,","[1.6576749086380005, -0.6970074812518519, 1.4417405128479004, -2.3036344687091272, -1.5697734991656702, 2.9781267642974854]","[-0.10718691349029541, -0.1665775328874588, 0.35969293117523193, -0.19151750206947327, 0.0, -0.10730195790529251]","[-0.9841920137405396, -8.720398902893066, -2.7843286991119385, -0.5899201035499573, -0.01794433780014515, -0.4194488823413849]"
1584376723120990975,,564273,,1584376723,120673913,'',"[shoulder_pan_joint, shoulder_lift_joint, elbow_joint, wrist_1_joint, wrist_2_joint,","[1.6457887887954712, -0.716196362172262, 1.4828948974609375, -2.3250020186053675, -1.5697615782367151, 2.9657680988311768]","[-0.1022142544388771, -0.1733398288488388, 0.37390783429145813, -0.1909039169549942, 0.0, -0.10312186181545258]","[-1.0437012910842896, -8.656311988830566, -2.539971351623535, -0.6527252793312073, -0.01345825381577015, -0.3925323784351349]"
1584376723233176341,,564287,,1584376723,232715050,'',"[shoulder_pan_joint, shoulder_lift_joint, elbow_joint, wrist_1_joint, wrist_2_joint,","[1.6348382234573364, -0.7360461393939417, 1.5250825881958008, -2.346717182789938, -1.5697615782367151, 2.9545347690582275]","[-0.09441652148962021, -0.17932236194610596, 0.3744575083255768, -0.19435536861419678, 0.0, -0.09800220280885696]","[-0.9475709199905396, -8.184815406799316, -2.6991398334503174, -0.6527252793312073, -0.006729126907885075, -0.3544006645679474]"
1584376723345057620,,564301,,1584376723,344669957,'',"[shoulder_pan_joint, shoulder_lift_joint, elbow_joint, wrist_1_joint, wrist_2_joint,","[1.623623251914978, -0.7557037512408655, 1.5666580200195312, -2.368168656026022, -1.5697734991656702, 2.943840742111206]","[-0.1008848026394844, -0.17579419910907745, 0.36322107911109924, -0.18950416147708893, 0.0, -0.10085923969745636]","[-0.9338380098342896, -8.267212867736816, -2.748459815979004, -0.6392670273780823, -0.004486084450036287, -0.3633728325366974]"
1584376723457190218,,564315,,1584376723,456641174,'',"[shoulder_pan_joint, shoulder_lift_joint, elbow_joint, wrist_1_joint, wrist_2_joint,","[1.6122647523880005, -0.7744029203998011, 1.607405662536621, -2.3890817801104944, -1.5697734991656702, 2.9323081970214844]","[-0.09497898072004318, -0.16655196249485016, 0.3604982793331146, -0.18340657651424408, 0.0, -0.1007058396935463]","[-0.6958008408546448, -8.198548316955566, -2.5848076343536377, -0.7155304551124573, 0.004486084450036287, -0.4508515000343323]"
1584376723569035100,,564329,,1584376723,568639992,'',"[shoulder_pan_joint, shoulder_lift_joint, elbow_joint, wrist_1_joint, wrist_2_joint,","[1.6016976833343506, -0.7927306334124964, 1.6477446556091309, -2.409360710774557, -1.5697973410235804, 2.9212069511413574]","[-0.094582699239254, -0.16192445158958435, 0.3690885603427887, -0.17849783599376678, 0.0, -0.09777209907770157]","[-0.7278442978858948, -8.152771949768066, -2.8829684257507324, -0.6729126572608948, 0.008972168900072575, -0.3992615044116974]"
1584376723681392797,,564343,,1584376723,680619854,'',"[shoulder_pan_joint, shoulder_lift_joint, elbow_joint, wrist_1_joint, wrist_2_joint,","[1.5909987688064575, -0.8105672041522425, 1.6874232292175293, -2.4295676390277308, -1.5697372595416468, 2.91047739982605]","[-0.09294645488262177, -0.15872865915298462, 0.3481241762638092, -0.18260124325752258, 1.917476038215682e-05, -0.09756118059158325]","[-0.8102417588233948, -7.946778297424316, -2.8740010261535645, -0.6459961533546448, 0.01794433780014515, -0.3072967827320099]"
1584376723792926417,,564357,,1584376723,792622841,'',"[shoulder_pan_joint, shoulder_lift_joint, elbow_joint, wrist_1_joint, wrist_2_joint,","[1.5813912153244019, -0.8280680815326136, 1.7259244918823242, -2.4491761366473597, -1.5697734991656702, 2.900465965270996]","[-0.0841260626912117, -0.15709242224693298, 0.33798709511756897, -0.17362745106220245, 1.917476038215682e-05, -0.08095584064722061]","[-0.7598877549171448, -8.116150856018066, -2.7663941383361816, -0.7155304551124573, 0.02467346377670765, -0.4104767143726349]"
1584376723904985739,,564371,,1584376723,904631247,'',"[shoulder_pan_joint, shoulder_lift_joint, elbow_joint, wrist_1_joint, wrist_2_joint,","[1.572863221168518, -0.8456772009478968, 1.7637534141540527, -2.46876031557192, -1.5697014967547815, 2.8915205001831055]","[-0.07136845588684082, -0.1523626446723938, 0.3300870954990387, -0.17353157699108124, 0.00013422331539914012, -0.07345850765705109]","[-0.9109498262405396, -7.818604469299316, -2.81795597076416, -0.7693634629249573, 0.0403747595846653, -0.3431854546070099]"
1584376724017046323,,564385,,1584376724,16678336,'',"[shoulder_pan_joint, shoulder_lift_joint, elbow_joint, wrist_1_joint, wrist_2_joint,","[1.5645151138305664, -0.8629754225360315, 1.8011136054992676, -2.488237206135885, -1.5697253386126917, 2.8836286067962646]","[-0.07310696691274643, -0.1550726741552353, 0.32209762930870056, -0.1720743030309677, 0.0003834952076431364, -0.0742446705698967]","[-0.7690430283546448, -7.557679176330566, -2.7753615379333496, -0.6011353135108948, 0.0403747595846653, -0.3566437065601349]"
1584376724128965923,,564399,,1584376724,128602876,'',"[shoulder_pan_joint, shoulder_lift_joint, elbow_joint, wrist_1_joint, wrist_2_joint,","[1.556646704673767, -0.8802006880389612, 1.8379454612731934, -2.5073187986956995, -1.5696657339679163, 2.875258207321167]","[-0.07235275954008102, -0.15442073345184326, 0.32319697737693787, -0.17441362142562866, 0.00024927189224399626, -0.07096578925848007]","[-0.6820679306983948, -7.511902809143066, -2.7708778381347656, -0.6415100693702698, 0.0650482252240181, -0.3678589165210724]"
1584376724241008453,,564413,,1584376724,240640656,'',"[shoulder_pan_joint, shoulder_lift_joint, elbow_joint, wrist_1_joint, wrist_2_joint,","[1.5491862297058105, -0.8970912138568323, 1.874380111694336, -2.5264247099505823, -1.5696294943438929, 2.867439031600952]","[-0.05988916754722595, -0.15399889647960663, 0.316051185131073, -0.16869954764842987, 0.0004026699753012508, -0.06599952280521393]","[-0.8514404892921448, -7.077027320861816, -2.6722381114959717, -0.7020722031593323, 0.0628051832318306, -0.3117828667163849]"
1584376724352943793,,564427,,1584376724,352599019,'',"[shoulder_pan_joint, shoulder_lift_joint, elbow_joint, wrist_1_joint, wrist_2_joint,","[1.5424095392227173, -0.9138501326190394, 1.9101414680480957, -2.5451234022723597, -1.5695937315570276, 2.8602657318115234]","[-0.06482347100973129, -0.14367008209228516, 0.31602561473846436, -0.1680859476327896, 0.0003834952076431364, -0.0668240413069725]","[-0.9109498262405396, -7.287598609924316, -2.667754650115967, -0.6684265732765198, 0.0695343092083931, -0.3364563286304474]"
1584376724464966456,,564441,,1584376724,464592969,'',"[shoulder_pan_joint, shoulder_lift_joint, elbow_joint, wrist_1_joint, wrist_2_joint,","[1.535200595855713, -0.9301655928241175, 1.9452905654907227, -2.563667122517721, -1.5695574919330042, 2.8528892993927]","[-0.0659867450594902, -0.14834873378276825, 0.3172655701637268, -0.1660342514514923, 0.0002109223569277674, -0.06724588572978973]","[-0.9429932832717896, -7.150269508361816, -2.6094675064086914, -0.6886139512062073, 0.0852356031537056, -0.3319702446460724]"
1584376724576942301,,564455,,1584376724,576642261,'',"[shoulder_pan_joint, shoulder_lift_joint, elbow_joint, wrist_1_joint, wrist_2_joint,","[1.527331829071045, -0.9463494459735315, 1.9798989295959473, -2.5822699705706995, -1.5695341269122522, 2.844902276992798]","[-0.06915696710348129, -0.14272412657737732, 0.30936557054519653, -0.1663793921470642, 0.0004218447138555348, -0.07223132252693176]","[-0.9063721895217896, -6.719971179962158, -2.378561019897461, -0.6953430771827698, 0.0874786451458931, -0.3342132866382599]"
1584376724688942572,,564469,,1584376724,688597067,'',"[shoulder_pan_joint, shoulder_lift_joint, elbow_joint, wrist_1_joint, wrist_2_joint,","[1.5202311277389526, -0.9622696081744593, 2.014470100402832, -2.6004422346698206, -1.569498364125387, 2.8377532958984375]","[-0.06042606011033058, -0.140410378575325, 0.3073969781398773, -0.16260196268558502, 0.00024927189224399626, -0.058214571326971054]","[-0.9750367403030396, -6.788635730743408, -2.6049838066101074, -0.7155304551124573, 0.1099090725183487, -0.3790741264820099]"
1584376724800960877,,564483,,1584376724,800597068,'',"[shoulder_pan_joint, shoulder_lift_joint, elbow_joint, wrist_1_joint, wrist_2_joint,","[1.5140420198440552, -0.977950398121969, 2.049111843109131, -2.618746582661764, -1.5694859663592737, 2.8314428329467773]","[-0.0495731458067894, -0.14157365262508392, 0.3033319115638733, -0.164116770029068, 0.0004026699753012508, -0.05355510488152504]","[-0.8010864853858948, -6.660461902618408, -2.46150803565979, -0.7289887070655823, 0.1076660305261612, -0.2669220268726349]"
1584376724912938055,,564497,,1584376724,912583363,'',"[shoulder_pan_joint, shoulder_lift_joint, elbow_joint, wrist_1_joint, wrist_2_joint,","[1.5090161561965942, -0.993774716054098, 2.0837769508361816, -2.6367748419391077, -1.569390122090475, 2.8261382579803467]","[-0.04433204606175423, -0.1420721858739853, 0.3080233633518219, -0.16166239976882935, 0.0008245147182606161, -0.03990267589688301]","[-1.0849000215530396, -6.427002429962158, -2.4256389141082764, -0.7760925889015198, 0.1300964504480362, -0.3678589165210724]"
1584376725024978431,,564511,,1584376725,24621655,'',"[shoulder_pan_joint, shoulder_lift_joint, elbow_joint, wrist_1_joint, wrist_2_joint,","[1.5035228729248047, -1.0093839804278772, 2.1178536415100098, -2.655079189931051, -1.569294277821676, 2.820964813232422]","[-0.054315704852342606, -0.13911928236484528, 0.3042139708995819, -0.16053108870983124, 0.0008820389630272985, -0.054072823375463486]","[-0.8972169160842896, -6.047058582305908, -2.291130304336548, -0.7828217148780823, 0.1188812404870987, -0.3117828667163849]"
1584376725136979112,,564525,,1584376725,136602279,'',"[shoulder_pan_joint, shoulder_lift_joint, elbow_joint, wrist_1_joint, wrist_2_joint,","[1.4973214864730835, -1.0248492399798792, 2.1514244079589844, -2.673347775136129, -1.5691984335528772, 2.8143911361694336]","[-0.05815065652132034, -0.13677996397018433, 0.29718321561813354, -0.16018594801425934, 0.002147573046386242, -0.05963350459933281]","[-0.9429932832717896, -6.193542957305908, -2.3292412757873535, -0.7043152451515198, 0.0942077711224556, -0.3252411186695099]"
1584376725248912168,,564539,,1584376725,248558268,'',"[shoulder_pan_joint, shoulder_lift_joint, elbow_joint, wrist_1_joint, wrist_2_joint,","[1.4901009798049927, -1.0399788061725062, 2.1843819618225098, -2.6911490599261683, -1.5691264311419886, 2.8073863983154297]","[-0.06792978197336197, -0.13487526774406433, 0.28603628277778625, -0.16574662923812866, 0.0004026699753012508, -0.06900995969772339]","[-0.8605957627296448, -6.083679676055908, -2.1274781227111816, -0.6549683213233948, 0.1076660305261612, -0.4351502060890198]"
1584376725360928059,,564553,,1584376725,360551255,'',"[shoulder_pan_joint, shoulder_lift_joint, elbow_joint, wrist_1_joint, wrist_2_joint,","[1.4825800657272339, -1.0550254026996058, 2.216702461242676, -2.709250275288717, -1.5691025892840784, 2.799363374710083]","[-0.0762644112110138, -0.13492639362812042, 0.29401299357414246, -0.15803837776184082, 0.0004026699753012508, -0.07888496667146683]","[-0.8331299424171448, -5.767822742462158, -1.9705514907836914, -0.7020722031593323, 0.1054229810833931, -0.3409424126148224]"
1584376725472926687,,564567,,1584376725,472560283,'',"[shoulder_pan_joint, shoulder_lift_joint, elbow_joint, wrist_1_joint, wrist_2_joint,","[1.473656415939331, -1.0697115103351038, 2.2490100860595703, -2.7269323507892054, -1.5690787474261683, 2.7902867794036865]","[-0.08219580352306366, -0.12899500131607056, 0.2824825644493103, -0.15893958508968353, 0.0004985437844879925, -0.08603715151548386]","[-1.0986329317092896, -5.598450183868408, -1.9010553359985352, -0.7200165390968323, 0.1009368970990181, -0.3185119926929474]"
1584376725584919363,,564581,,1584376725,584551086,'',"[shoulder_pan_joint, shoulder_lift_joint, elbow_joint, wrist_1_joint, wrist_2_joint,","[1.4635802507400513, -1.0838940779315394, 2.2812085151672363, -2.744758431111471, -1.5690305868731897, 2.7801926136016846]","[-0.08651652187108994, -0.12686021625995636, 0.2879026234149933, -0.15606337785720825, 0.0001917476038215682, -0.0857686996459961]","[-0.7186890244483948, -5.410767078399658, -1.7620631456375122, -0.6886139512062073, 0.0964508131146431, -0.3656158745288849]"
1584376725696900589,,564595,,1584376725,696556837,'',"[shoulder_pan_joint, shoulder_lift_joint, elbow_joint, wrist_1_joint, wrist_2_joint,","[1.4540085792541504, -1.0982454458819788, 2.3131535053253174, -2.762285057698385, -1.569042984639303, 2.7708048820495605]","[-0.08392153680324554, -0.12140180170536041, 0.2828788459300995, -0.15650439262390137, 0.00015339808305725455, -0.08810802549123764]","[-1.0070801973342896, -5.557251453399658, -1.8382846117019653, -0.8231964707374573, 0.0986938551068306, -0.3252411186695099]"
1584376725808871215,,564609,,1584376725,808544625,'',"[shoulder_pan_joint, shoulder_lift_joint, elbow_joint, wrist_1_joint, wrist_2_joint,","[1.445204257965088, -1.1119006315814417, 2.3448214530944824, -2.7801111380206507, -1.5690305868731897, 2.7615134716033936]","[-0.08122428506612778, -0.11924143880605698, 0.2838631570339203, -0.15842187404632568, 0.00015339808305725455, -0.07717841118574142]","[-0.8239746689796448, -5.534363269805908, -1.645488977432251, -0.7514191269874573, 0.0986938551068306, -0.4149627983570099]"
1584376725920875524,,564623,,1584376725,920567559,'',"[shoulder_pan_joint, shoulder_lift_joint, elbow_joint, wrist_1_joint, wrist_2_joint,","[1.4363164901733398, -1.125772778187887, 2.376068592071533, -2.797734085713522, -1.5690668264972132, 2.752053737640381]","[-0.06920810043811798, -0.11871733516454697, 0.2764105498790741, -0.1529187113046646, 0.00011504856229294091, -0.07913423329591751]","[-1.3641358613967896, -5.456543445587158, -1.6566979885101318, -0.7671204209327698, 0.1099090725183487, -0.3229980766773224]"
1584376726032908526,,564637,,1584376726,32546891,'',"[shoulder_pan_joint, shoulder_lift_joint, elbow_joint, wrist_1_joint, wrist_2_joint,","[1.4290837049484253, -1.1388533751117151, 2.4065699577331543, -2.8149736563311976, -1.569042984639303, 2.7445943355560303]","[-0.05878981575369835, -0.1126069724559784, 0.27093935012817383, -0.15713715553283691, 9.58738019107841e-05, -0.06157015636563301]","[-1.0711671113967896, -5.392456531524658, -1.4594186544418335, -0.7312317490577698, 0.1233673244714737, -0.3768310844898224]"
1584376726144880193,,564651,,1584376726,144585463,'',"[shoulder_pan_joint, shoulder_lift_joint, elbow_joint, wrist_1_joint, wrist_2_joint,","[1.423326015472412, -1.1515501181231897, 2.436230421066284, -2.8320940176593226, -1.5690067450152796, 2.738116502761841]","[-0.048601627349853516, -0.11311830580234528, 0.25956234335899353, -0.15195997059345245, 0.00032597093377262354, -0.05259636789560318]","[-1.0803223848342896, -5.213928699493408, -1.3406027555465698, -0.6796417832374573, 0.1749572902917862, -0.2377624809741974]"
1584376726256925799,,564665,,1584376726,256553243,'',"[shoulder_pan_joint, shoulder_lift_joint, elbow_joint, wrist_1_joint, wrist_2_joint,","[1.4170769453048706, -1.1636713186847132, 2.4650259017944336, -2.848532501851217, -1.568946663533346, 2.7320456504821777]","[-0.06396699696779251, -0.10271280258893967, 0.2585652470588684, -0.14806750416755676, 0.0005368932615965605, -0.06256724148988724]","[-1.0253907442092896, -5.094910144805908, -1.2217867374420166, -0.7267456650733948, 0.1143951565027237, -0.3386993706226349]"
1584376726368867250,,564679,,1584376726,368493372,'',"[shoulder_pan_joint, shoulder_lift_joint, elbow_joint, wrist_1_joint, wrist_2_joint,","[1.4095321893692017, -1.1752055327044886, 2.492920398712158, -2.864802662526266, -1.5689709822284144, 2.724442481994629]","[-0.07680130749940872, -0.09658966213464737, 0.24080942571163177, -0.14156726002693176, 0.00036432043998502195, -0.07244224101305008]","[-1.1901856660842896, -5.012512683868408, -1.085036277770996, -0.7895508408546448, 0.1278534084558487, -0.2736511528491974]"
1584376726480876889,,564693,,1584376726,480553175,'',"[shoulder_pan_joint, shoulder_lift_joint, elbow_joint, wrist_1_joint, wrist_2_joint,","[1.4000203609466553, -1.1859481970416468, 2.518282413482666, -2.879792038594381, -1.5689590612994593, 2.715162992477417]","[-0.08559612929821014, -0.08535324782133102, 0.21244356036186218, -0.13430002331733704, 0.00015339808305725455, -0.08730268478393555]","[-1.2954713106155396, -4.669189929962158, -0.9729457497596741, -0.7020722031593323, 0.1166381984949112, -0.3521576225757599]"
1584376726592827848,,564707,,1584376726,592518510,'',"[shoulder_pan_joint, shoulder_lift_joint, elbow_joint, wrist_1_joint, wrist_2_joint,","[1.3903285264968872, -1.1950610319720667, 2.540440320968628, -2.8933213392840784, -1.568946663533346, 2.705751657485962]","[-0.08659321814775467, -0.06874790787696838, 0.18499808013439178, -0.11765632778406143, 9.58738019107841e-05, -0.09117598831653595]","[-1.1810303926467896, -4.522705554962158, -0.8765479326248169, -0.7402039170265198, 0.0964508131146431, -0.3521576225757599]"
1584376726704780279,,564721,,1584376726,704490849,'',"[shoulder_pan_joint, shoulder_lift_joint, elbow_joint, wrist_1_joint, wrist_2_joint,","[1.38056480884552, -1.202158276234762, 2.5598623752593994, -2.904947106038229, -1.5689829031573694, 2.696256637573242]","[-0.09441652148962021, -0.06432493031024933, 0.16047996282577515, -0.09846239537000656, 7.669904152862728e-05, -0.09175122529268265]","[-1.1535645723342896, -4.595947742462158, -0.9953638911247253, -0.7289887070655823, 0.0964508131146431, -0.3229980766773224]"
1584376726816858967,,564735,,1584376726,816540052,'',"[shoulder_pan_joint, shoulder_lift_joint, elbow_joint, wrist_1_joint, wrist_2_joint,","[1.3701287508010864, -1.2087047735797327, 2.5766689777374268, -2.9152916113482874, -1.5689709822284144, 2.685636043548584]","[-0.09223059564828873, -0.048652756959199905, 0.13937494158744812, -0.08467574417591095, 0.0, -0.08908593654632568]","[-1.0116578340530396, -4.289246082305908, -0.8115354180335999, -0.8142243027687073, 0.0942077711224556, -0.3902893364429474]"
1584376726928836676,,564749,,1584376726,928532929,'',"[shoulder_pan_joint, shoulder_lift_joint, elbow_joint, wrist_1_joint, wrist_2_joint,","[1.3610248565673828, -1.2142680327044886, 2.5913281440734863, -2.924450699483053, -1.5689709822284144, 2.6759374141693115]","[-0.07001344114542007, -0.05170793831348419, 0.12082655727863312, -0.07503083348274231, 0.0, -0.07792622596025467]","[-1.1169434785842896, -4.312134265899658, -0.8025681972503662, -0.7828217148780823, 0.0942077711224556, -0.2400055229663849]"
1584376727040953805,,564763,,1584376727,40648866,'',"[shoulder_pan_joint, shoulder_lift_joint, elbow_joint, wrist_1_joint, wrist_2_joint,","[1.3536357879638672, -1.2192919890033167, 2.602940082550049, -2.9315741697894495, -1.5689228216754358, 2.668382406234741]","[-0.060157615691423416, -0.02863430790603161, 0.08677218109369278, -0.05482063814997673, 0.0, -0.06273981928825378]","[-1.1947633028030396, -4.133606433868408, -0.7666991949081421, -0.8501129746437073, 0.0807495191693306, -0.3566437065601349]"
1584376727152842127,,564777,,1584376727,152528953,'',"[shoulder_pan_joint, shoulder_lift_joint, elbow_joint, wrist_1_joint, wrist_2_joint,","[1.3477343320846558, -1.221882168446676, 2.611252546310425, -2.9369142691241663, -1.568934742604391, 2.6625876426696777]","[-0.04855049401521683, -0.0201079323887825, 0.05528722703456879, -0.0391165092587471, 0.0, -0.04571262747049332]","[-1.1947633028030396, -3.996277332305908, -0.8541297912597656, -0.7783356308937073, 0.0874786451458931, -0.3095398247241974]"
1584376727264779902,,564791,,1584376727,264470915,'',"[shoulder_pan_joint, shoulder_lift_joint, elbow_joint, wrist_1_joint, wrist_2_joint,","[1.3420848846435547, -1.2235482374774378, 2.6154747009277344, -2.9401829878436487, -1.5689228216754358, 2.6571996212005615]","[-0.04637735337018967, -0.009191101416945457, 0.025668611750006676, -0.023335684090852737, 0.0, -0.04559757933020592]","[-0.9933472871780396, -3.913879871368408, -0.7196211814880371, -0.6841278672218323, 0.0807495191693306, -0.3454284965991974]"
1584376727376766347,,564805,,1584376727,376449075,'',"[shoulder_pan_joint, shoulder_lift_joint, elbow_joint, wrist_1_joint, wrist_2_joint,","[1.3379466533660889, -1.2237885634051722, 2.616950273513794, -2.9415839354144495, -1.5688632170306605, 2.652985095977783]","[-0.02658900059759617, -0.0003579288604669273, 0.0024288028944283724, -0.0016490294365212321, 0.0, -0.030315296724438667]","[-1.1764527559280396, -3.305053949356079, -0.751006543636322, -0.5024414658546448, 0.0650482252240181, -0.3364563286304474]"
1584376727488788278,,564819,,1584376727,488469543,'',"[shoulder_pan_joint, shoulder_lift_joint, elbow_joint, wrist_1_joint, wrist_2_joint,","[1.3358235359191895, -1.2237404028521937, 2.616818428039551, -2.9414761702166956, -1.568695370350973, 2.6508536338806152]","[-0.012284629978239536, 6.391586794052273e-05, -0.0010993529576808214, 0.001418932224623859, 0.0012847089674323797, -0.009970875456929207]","[-0.9750367403030396, -2.966308832168579, -1.1679832935333252, -0.3364563286304474, 0.0358886756002903, -0.3072967827320099]"
1584376727600812334,,564833,,1584376727,600474964,'',"[shoulder_pan_joint, shoulder_lift_joint, elbow_joint, wrist_1_joint, wrist_2_joint,","[1.3356797695159912, -1.223764721547262, 2.6168065071105957, -2.94141656557192, -1.5686472097979944, 2.6507458686828613]","[0.000907605339307338, 6.391586794052273e-05, -0.0003451456723269075, 0.0004985437844879925, 0.0003834952076431364, 0.0009203884983435273]","[-0.0411987341940403, -3.048706293106079, -1.1388397216796875, -0.3499145805835724, 0.0336456336081028, -0.011215210892260075]"
1584376727712792057,,564847,,1584376727,712483571,'',"[shoulder_pan_joint, shoulder_lift_joint, elbow_joint, wrist_1_joint, wrist_2_joint,","[1.3356916904449463, -1.2237165609942835, 2.6166982650756836, -2.9412367979632776, -1.568695370350973, 2.6507458686828613]","[0.00043462790199555457, 8.948221511673182e-05, -0.0013038837350904942, 0.0006327670998871326, 0.00017257283616345376, 0.00023009712458588183]","[-0.0503540076315403, -3.007507562637329, -0.9639785289764404, -0.3723450005054474, -0.0291595496237278, 0.011215210892260075]"
1584376727824746192,,564861,,1584376727,824440892,'',"[shoulder_pan_joint, shoulder_lift_joint, elbow_joint, wrist_1_joint, wrist_2_joint,","[1.3357635736465454, -1.2237165609942835, 2.616650342941284, -2.9412124792682093, -1.568707291279928, 2.6507339477539062]","[0.00017896443023346364, 8.948221511673182e-05, -0.0003195793251506984, 0.00032597093377262354, -3.834952076431364e-05, 0.00013422331539914012]","[-0.0640869215130806, -2.998352289199829, -0.8765479326248169, -0.4553375840187073, -0.01794433780014515, 0.02243042178452015]"
1584376727936779695,,564875,,1584376727,936476509,'',"[shoulder_pan_joint, shoulder_lift_joint, elbow_joint, wrist_1_joint, wrist_2_joint,","[1.3357396125793457, -1.2237165609942835, 2.616650342941284, -2.9412248770343226, -1.5687430540667933, 2.6507577896118164]","[8.948221511673182e-05, 8.948221511673182e-05, -0.00015339808305725455, 0.00015339808305725455, -3.834952076431364e-05, 7.669904152862728e-05]","[-0.1190185695886612, -2.984619379043579, -0.7196211814880371, -0.5405731797218323, -0.01794433780014515, 0.02243042178452015]"
1584376728048761732,,564889,,1584376728,48466330,'',"[shoulder_pan_joint, shoulder_lift_joint, elbow_joint, wrist_1_joint, wrist_2_joint,","[1.3363032341003418, -1.2234767119037073, 2.6154987812042236, -2.9401114622699183, -1.568838898335592, 2.651177167892456]","[0.021756961941719055, 0.009497897699475288, -0.03405437245965004, 0.030066024512052536, -3.834952076431364e-05, 0.022913837805390358]","[0.5859375596046448, -2.517700433731079, -1.3092173337936401, -0.3252411186695099, -0.01794433780014515, 0.2041168361902237]"
1584376728160715205,,564903,,1584376728,160444410,'',"[shoulder_pan_joint, shoulder_lift_joint, elbow_joint, wrist_1_joint, wrist_2_joint,","[1.3414973020553589, -1.2211268583880823, 2.608229637145996, -2.9357412497149866, -1.5688751379596155, 2.65535569190979]","[0.06882460415363312, 0.031612787395715714, -0.10285341739654541, 0.0545138418674469, -3.834952076431364e-05, 0.05898156389594078]","[0.6088257431983948, -2.165222406387329, -1.360779047012329, -0.1973877102136612, 0.006729126907885075, 0.3723450005054474]"
1584376728272736125,,564917,,1584376728,272434051,'',"[shoulder_pan_joint, shoulder_lift_joint, elbow_joint, wrist_1_joint, wrist_2_joint,","[1.3502413034439087, -1.2161505858050745, 2.593811511993408, -2.92733604112734, -1.568838898335592, 2.6636292934417725]","[0.08334629237651825, 0.04917686805129051, -0.15087980031967163, 0.08966118097305298, -3.834952076431364e-05, 0.08365947753190994]","[0.8514404892921448, -2.407837152481079, -1.4011316299438477, -0.1300964504480362, 0.004486084450036287, 0.3835602104663849]"
1584376728384734854,,564931,,1584376728,384432810,'',"[shoulder_pan_joint, shoulder_lift_joint, elbow_joint, wrist_1_joint, wrist_2_joint,","[1.3600170612335205, -1.2101557890521448, 2.5763931274414062, -2.916572872792379, -1.568838898335592, 2.6737945079803467]","[0.08829338103532791, 0.06190890818834305, -0.16269144415855408, 0.0961422473192215, -3.834952076431364e-05, 0.0895269587635994]","[0.7598877549171448, -2.499389886856079, -1.3899224996566772, -0.1704712063074112, 0.02018737979233265, 0.3678589165210724]"
1584376728496728161,,564945,,1584376728,496423062,'',"[shoulder_pan_joint, shoulder_lift_joint, elbow_joint, wrist_1_joint, wrist_2_joint,","[1.371268391609192, -1.203033749257223, 2.556971549987793, -2.9051507155047815, -1.5688989798175257, 2.6848337650299072]","[0.11136700958013535, 0.06121861934661865, -0.18415439128875732, 0.10950705409049988, -3.834952076431364e-05, 0.11362963169813156]","[0.9475709199905396, -2.233886957168579, -1.5266729593276978, -0.1278534084558487, 0.0269165076315403, 0.3207550346851349]"
1584376728608702324,,564959,,1584376728,608421029,'',"[shoulder_pan_joint, shoulder_lift_joint, elbow_joint, wrist_1_joint, wrist_2_joint,","[1.3855187892913818, -1.1948450247394007, 2.5354018211364746, -2.892327610646383, -1.5689109007464808, 2.698842763900757]","[0.13215245306491852, 0.08505923300981522, -0.19765342772006989, 0.11959297955036163, -3.834952076431364e-05, 0.1385759860277176]","[0.7919312119483948, -2.577209711074829, -1.7665467262268066, -0.0493469275534153, 0.0358886756002903, 0.3095398247241974]"
1584376728720691544,,564973,,1584376728,720411812,'',"[shoulder_pan_joint, shoulder_lift_joint, elbow_joint, wrist_1_joint, wrist_2_joint,","[1.4011956453323364, -1.1856244246112269, 2.5130035877227783, -2.878798309956686, -1.5689228216754358, 2.7147319316864014]","[0.15287397801876068, 0.08403658121824265, -0.2048247903585434, 0.11756045371294022, -1.917476038215682e-05, 0.15059857070446014]","[1.1032105684280396, -2.609253168106079, -1.6544561386108398, -0.0358886756002903, 0.0740203931927681, 0.3431854546070099]"
1584376728832742670,,564987,,1584376728,832481182,'',"[shoulder_pan_joint, shoulder_lift_joint, elbow_joint, wrist_1_joint, wrist_2_joint,","[1.4194037914276123, -1.1762364546405237, 2.4892969131469727, -2.8648627440081995, -1.5689228216754358, 2.7327280044555664]","[0.16690990328788757, 0.0759192705154419, -0.21796588599681854, 0.12801070511341095, -1.917476038215682e-05, 0.17291799187660217]","[0.9979249238967896, -2.421570062637329, -1.721710443496704, -0.0897216871380806, 0.0829925611615181, 0.3992615044116974]"
1584376728944738422,,565001,,1584376728,944453992,'',"[shoulder_pan_joint, shoulder_lift_joint, elbow_joint, wrist_1_joint, wrist_2_joint,","[1.4382834434509277, -1.1660574118243616, 2.463873863220215, -2.849968735371725, -1.568946663533346, 2.751849889755249]","[0.1716013252735138, 0.09413529187440872, -0.23757527768611908, 0.13700366020202637, -1.917476038215682e-05, 0.17138400673866272]","[1.3504029512405396, -2.819824457168579, -1.723952293395996, -0.02018737979233265, 0.0986938551068306, 0.4441223740577698]"
1584376729056716402,,565015,,1584376729,56397747,'',"[shoulder_pan_joint, shoulder_lift_joint, elbow_joint, wrist_1_joint, wrist_2_joint,","[1.4572110176086426, -1.154703442250387, 2.4363622665405273, -2.8342130819903772, -1.568946663533346, 2.770960807800293]","[0.16725504398345947, 0.10739143937826157, -0.261096328496933, 0.15142308175563812, -1.917476038215682e-05, 0.16574662923812866]","[1.1260987520217896, -2.966308832168579, -1.8876044750213623, -0.1839294582605362, 0.1054229810833931, 0.5697327256202698]"
1584376729168721683,,565029,,1584376729,168385255,'',"[shoulder_pan_joint, shoulder_lift_joint, elbow_joint, wrist_1_joint, wrist_2_joint,","[1.4762232303619385, -1.1424139181720179, 2.4062938690185547, -2.81669789949526, -1.568934742604391, 2.7897837162017822]","[0.17124339938163757, 0.11512526124715805, -0.2789032757282257, 0.15861362218856812, -1.917476038215682e-05, 0.17161411046981812]","[1.3824464082717896, -2.938843011856079, -1.9548587799072266, -0.1099090725183487, 0.1099090725183487, 0.4979553818702698]"
1584376729280731071,,565043,,1584376729,280381919,'',"[shoulder_pan_joint, shoulder_lift_joint, elbow_joint, wrist_1_joint, wrist_2_joint,","[1.4943108558654785, -1.1289976278888147, 2.374196767807007, -2.798739735280172, -1.568934742604391, 2.8082845211029053]","[0.15725859999656677, 0.12292299419641495, -0.2944604158401489, 0.16302381455898285, -1.917476038215682e-05, 0.16139395534992218]","[1.0574342012405396, -3.227234125137329, -1.914506196975708, -0.0560760572552681, 0.1143951565027237, 0.3409424126148224]"
1584376729392785913,,565057,,1584376729,392379926,'',"[shoulder_pan_joint, shoulder_lift_joint, elbow_joint, wrist_1_joint, wrist_2_joint,","[1.5117628574371338, -1.11493426958193, 2.3418335914611816, -2.7805898825274866, -1.5689709822284144, 2.8257672786712646]","[0.15007445216178894, 0.11990616470575333, -0.28493693470954895, 0.16260196268558502, -1.917476038215682e-05, 0.15656191110610962]","[0.9750367403030396, -3.286743402481079, -1.8562191724777222, -0.1592559963464737, 0.0964508131146431, 0.3633728325366974]"
1584376729504776737,,565071,,1584376729,504396647,'',"[shoulder_pan_joint, shoulder_lift_joint, elbow_joint, wrist_1_joint, wrist_2_joint,","[1.5283756256103516, -1.101290527974264, 2.309577703475952, -2.76224929491152, -1.5689590612994593, 2.8423993587493896]","[0.1495886892080307, 0.12188755720853806, -0.2909705936908722, 0.16689711809158325, -1.917476038215682e-05, 0.14555560052394867]","[0.8605957627296448, -3.364563226699829, -1.9907277822494507, -0.2400055229663849, 0.0874786451458931, 0.4104767143726349]"
1584376729616794230,,565085,,1584376729,616389916,'',"[shoulder_pan_joint, shoulder_lift_joint, elbow_joint, wrist_1_joint, wrist_2_joint,","[1.5447962284088135, -1.0868199507342737, 2.2768521308898926, -2.744530979787008, -1.5689228216754358, 2.8588287830352783]","[0.13816054165363312, 0.12540292739868164, -0.29555976390838623, 0.1607995331287384, 0.0, 0.1473388522863388]","[1.1672974824905396, -3.465271234512329, -1.999695062637329, -0.1861725002527237, 0.1076660305261612, 0.3678589165210724]"
1584376729728750499,,565099,,1584376729,728371973,'',"[shoulder_pan_joint, shoulder_lift_joint, elbow_joint, wrist_1_joint, wrist_2_joint,","[1.5596693754196167, -1.07263690630068, 2.2435975074768066, -2.726154152547018, -1.5689228216754358, 2.8739891052246094]","[0.1293657124042511, 0.1301838457584381, -0.2969786822795868, 0.16139395534992218, 0.0, 0.1290844827890396]","[0.9292603731155396, -3.533936023712158, -1.9032971858978271, -0.1637420803308487, 0.0807495191693306, 0.3947754204273224]"
1584376729840754938,,565113,,1584376729,840375119,'',"[shoulder_pan_joint, shoulder_lift_joint, elbow_joint, wrist_1_joint, wrist_2_joint,","[1.5744463205337524, -1.0578420797931116, 2.2102456092834473, -2.7082207838641565, -1.568934742604391, 2.888502836227417]","[0.12743546068668365, 0.134734645485878, -0.2974644601345062, 0.16371409595012665, 0.0, 0.13111701607704163]","[0.9567261934280396, -3.717041492462158, -2.0557403564453125, -0.1480407863855362, 0.0785064771771431, 0.3970184624195099]"
1584376729952791046,,565127,,1584376729,952376362,'',"[shoulder_pan_joint, shoulder_lift_joint, elbow_joint, wrist_1_joint, wrist_2_joint,","[1.5879285335540771, -1.04309589067568, 2.1765928268432617, -2.6902154127704065, -1.5689228216754358, 2.902345657348633]","[0.121798075735569, 0.13500308990478516, -0.3066811263561249, 0.15437600016593933, 0.0, 0.11976554989814758]","[1.1764527559280396, -3.913879871368408, -1.9817605018615723, -0.0650482252240181, 0.0807495191693306, 0.3252411186695099]"
1584376730064759828,,565141,,1584376730,64353580,'',"[shoulder_pan_joint, shoulder_lift_joint, elbow_joint, wrist_1_joint, wrist_2_joint,","[1.6015897989273071, -1.0278943220721644, 2.1427345275878906, -2.672138516102926, -1.568946663533346, 2.9159016609191895]","[0.11924143880605698, 0.134734645485878, -0.29910069704055786, 0.16543982923030853, 0.0, 0.12319783121347427]","[1.0528565645217896, -4.216003894805908, -2.0669493675231934, -0.1929016262292862, 0.0829925611615181, 0.3297272026538849]"
1584376730176748117,,565155,,1584376730,176345436,'',"[shoulder_pan_joint, shoulder_lift_joint, elbow_joint, wrist_1_joint, wrist_2_joint,","[1.6141477823257446, -1.0127885977374476, 2.1088390350341797, -2.6537025610553187, -1.5689228216754358, 2.9288113117218018]","[0.10858027637004852, 0.136076882481575, -0.3008520007133484, 0.16710802912712097, 0.0, 0.10385049879550934]","[1.0253907442092896, -4.142761707305908, -2.1431708335876465, -0.3028106987476349, 0.0740203931927681, 0.3947754204273224]"
1584376730288752476,,565169,,1584376730,288342952,'',"[shoulder_pan_joint, shoulder_lift_joint, elbow_joint, wrist_1_joint, wrist_2_joint,","[1.6256743669509888, -0.9972036520587366, 2.07448673248291, -2.6352184454547327, -1.568934742604391, 2.9402835369110107]","[0.10248269885778427, 0.1407555192708969, -0.30719244480133057, 0.16566993296146393, 0.0, 0.09951700270175934]","[1.2725831270217896, -4.165649890899658, -2.3202738761901855, -0.2063598781824112, 0.0583190992474556, 0.5316010117530823]"
1584376730400641359,,565183,,1584376730,400332061,'',"[shoulder_pan_joint, shoulder_lift_joint, elbow_joint, wrist_1_joint, wrist_2_joint,","[1.636289358139038, -0.9814627806292933, 2.040313243865967, -2.6170342604266565, -1.5689109007464808, 2.9515528678894043]","[0.08659321814775467, 0.14503788948059082, -0.313622385263443, 0.16288958489894867, 0.0, 0.09447404742240906]","[1.0986329317092896, -4.421997547149658, -2.2104251384735107, -0.2512207329273224, 0.0493469275534153, 0.3431854546070099]"
1584376730512752747,,565197,,1584376730,512342492,'',"[shoulder_pan_joint, shoulder_lift_joint, elbow_joint, wrist_1_joint, wrist_2_joint,","[1.6449731588363647, -0.9652188459979456, 2.0058388710021973, -2.598311249409811, -1.5689109007464808, 2.960630178451538]","[0.06543706357479095, 0.14296701550483704, -0.30614420771598816, 0.16214177012443542, 0.0, 0.06998787820339203]","[1.0116578340530396, -4.719543933868408, -2.3247575759887695, -0.1592559963464737, 0.0291595496237278, 0.4172058403491974]"
1584376730624785479,,565211,,1584376730,624333896,'',"[shoulder_pan_joint, shoulder_lift_joint, elbow_joint, wrist_1_joint, wrist_2_joint,","[1.6517977714538574, -0.9493468443499964, 1.970991611480713, -2.579839531575338, -1.5689109007464808, 2.9677324295043945]","[0.06072007492184639, 0.14367008209228516, -0.31093791127204895, 0.1667437106370926, 0.0, 0.057792726904153824]","[0.9567261934280396, -4.531860828399658, -2.4794423580169678, -0.1929016262292862, 0.006729126907885075, 0.3409424126148224]"
1584376730736835894,,565225,,1584376730,736332705,'',"[shoulder_pan_joint, shoulder_lift_joint, elbow_joint, wrist_1_joint, wrist_2_joint,","[1.6580108404159546, -0.9327672163592737, 1.9358553886413574, -2.561164681111471, -1.568934742604391, 2.974055528640747]","[0.0507875494658947, 0.14963982999324799, -0.3165625035762787, 0.16944736242294312, 0.0, 0.05175267904996872]","[0.7369995713233948, -4.783630847930908, -2.5153114795684814, -0.2938385307788849, -0.01570129580795765, 0.3970184624195099]"
1584376730848680243,,565239,,1584376730,848310734,'',"[shoulder_pan_joint, shoulder_lift_joint, elbow_joint, wrist_1_joint, wrist_2_joint,","[1.66409170627594, -0.9163559118853968, 1.9000701904296875, -2.542262379323141, -1.568946663533346, 2.980211019515991]","[0.057626545429229736, 0.14517849683761597, -0.3248843550682068, 0.17314808070659637, 0.0, 0.0562203973531723]","[0.9704591035842896, -4.962158679962158, -2.643094539642334, -0.2444916069507599, -0.02018737979233265, 0.2758941948413849]"
1584376730960650088,,565253,,1584376730,960315493,'',"[shoulder_pan_joint, shoulder_lift_joint, elbow_joint, wrist_1_joint, wrist_2_joint,","[1.6703171730041504, -0.8995369116412562, 1.8638758659362793, -2.5233481566058558, -1.568934742604391, 2.986438274383545]","[0.05036570504307747, 0.15425455570220947, -0.3276582956314087, 0.17284129559993744, -0.00013422331539914012, 0.051062386482954025]","[0.8605957627296448, -5.172729969024658, -2.748459815979004, -0.1884155422449112, -0.0314025916159153, 0.4530945420265198]"
1584376731072608571,,565267,,1584376731,72300296,'',"[shoulder_pan_joint, shoulder_lift_joint, elbow_joint, wrist_1_joint, wrist_2_joint,","[1.6761579513549805, -0.8825266996966761, 1.827176570892334, -2.5041945616351526, -1.5689709822284144, 2.9921748638153076]","[0.059339489787817, 0.15557122230529785, -0.33734795451164246, 0.16384832561016083, -0.0005944175645709038, 0.05531918257474899]","[0.9704591035842896, -5.090332508087158, -2.750701427459717, -0.1233673244714737, -0.0403747595846653, 0.3970184624195099]"
1584376731184744706,,565281,,1584376731,184346733,'',"[shoulder_pan_joint, shoulder_lift_joint, elbow_joint, wrist_1_joint, wrist_2_joint,","[1.6827428340911865, -0.8650010267840784, 1.7902851104736328, -2.4847658316241663, -1.5690186659442347, 2.99896502494812]","[0.057128001004457474, 0.15379436314105988, -0.33594179153442383, 0.1782485693693161, -0.0007861651829443872, 0.05976772680878639]","[0.9017945528030396, -5.319214344024658, -2.927804470062256, -0.1861725002527237, -0.02018737979233265, 0.3544006645679474]"
1584376731296728196,,565295,,1584376731,296354388,'',"[shoulder_pan_joint, shoulder_lift_joint, elbow_joint, wrist_1_joint, wrist_2_joint,","[1.6898311376571655, -0.8474391142474573, 1.752924919128418, -2.4649179617511194, -1.569054905568258, 3.0058634281158447]","[0.06909305602312088, 0.16021151840686798, -0.34826478362083435, 0.17590925097465515, -0.00036432043998502195, 0.06920170783996582]","[0.8010864853858948, -5.108643054962158, -2.9748826026916504, -0.2287903130054474, -0.0493469275534153, 0.4172058403491974]"
1584376731408688191,,565309,,1584376731,408352274,'',"[shoulder_pan_joint, shoulder_lift_joint, elbow_joint, wrist_1_joint, wrist_2_joint,","[1.6972194910049438, -0.8291705290423792, 1.7143874168395996, -2.4443519751178187, -1.569054905568258, 3.0138397216796875]","[0.06118026748299599, 0.15903545916080475, -0.34995216131210327, 0.17982089519500732, -0.0001917476038215682, 0.06663229316473007]","[0.9658814668655396, -5.593872547149658, -3.00626802444458, -0.1794433742761612, -0.0493469275534153, 0.3319702446460724]"
1584376731520743816,,565323,,1584376731,520372403,'',"[shoulder_pan_joint, shoulder_lift_joint, elbow_joint, wrist_1_joint, wrist_2_joint,","[1.7039958238601685, -0.8109625021563929, 1.6749968528747559, -2.424311939870016, -1.569042984639303, 3.020761728286743]","[0.05655276030302048, 0.16712720692157745, -0.35716187953948975, 0.18402017652988434, -0.00011504856229294091, 0.060630593448877335]","[0.9887696504592896, -5.662537097930908, -2.9793663024902344, -0.2063598781824112, -0.0650482252240181, 0.3992615044116974]"
1584376731632782669,,565337,,1584376731,632371902,'',"[shoulder_pan_joint, shoulder_lift_joint, elbow_joint, wrist_1_joint, wrist_2_joint,","[1.7093216180801392, -0.7921913305865687, 1.635366439819336, -2.4034350554095667, -1.569042984639303, 3.0266542434692383]","[0.043603405356407166, 0.1651841700077057, -0.35612642765045166, 0.18570755422115326, -9.58738019107841e-05, 0.04592354968190193]","[0.9567261934280396, -5.772400379180908, -3.0555877685546875, -0.2691650688648224, -0.0762634351849556, 0.2960815727710724]"
1584376731744755689,,565351,,1584376731,744361454,'',"[shoulder_pan_joint, shoulder_lift_joint, elbow_joint, wrist_1_joint, wrist_2_joint,","[1.7143946886062622, -0.7731321493731897, 1.5950756072998047, -2.3824742476092737, -1.5690668264972132, 3.0317561626434326]","[0.04690146446228027, 0.17282851040363312, -0.35906654596328735, 0.18831531703472137, -0.0004410194815136492, 0.04571262747049332]","[0.9613038301467896, -5.992126941680908, -3.0600714683532715, -0.2175751030445099, -0.0762634351849556, 0.3386993706226349]"
1584376731856758966,,565365,,1584376731,856357246,'',"[shoulder_pan_joint, shoulder_lift_joint, elbow_joint, wrist_1_joint, wrist_2_joint,","[1.7191442251205444, -0.7539537588702601, 1.5540399551391602, -2.361417595540182, -1.5691025892840784, 3.036714553833008]","[0.03454013541340828, 0.17445196211338043, -0.37230992317199707, 0.19213110208511353, -0.00028762139845639467, 0.04066966474056244]","[1.1627198457717896, -5.955505847930908, -3.2528672218322754, -0.1502838283777237, -0.0874786451458931, 0.3633728325366974]"
1584376731968735783,,565379,,1584376731,968332200,'',"[shoulder_pan_joint, shoulder_lift_joint, elbow_joint, wrist_1_joint, wrist_2_joint,","[1.7228024005889893, -0.7339842955218714, 1.5122008323669434, -2.339498821889059, -1.569150749837057, 3.040822744369507]","[0.03291667252779007, 0.17722591757774353, -0.37720587849617004, 0.19533328711986542, -0.0010546118719503284, 0.03326820954680443]","[0.9338380098342896, -5.955505847930908, -3.2461416721343994, -0.2265472710132599, -0.0942077711224556, 0.2624359428882599]"
1584376732080737407,,565393,,1584376732,80332481,'',"[shoulder_pan_joint, shoulder_lift_joint, elbow_joint, wrist_1_joint, wrist_2_joint,","[1.7268444299697876, -0.7136796156512659, 1.4696173667907715, -2.3173044363604944, -1.5692103544818323, 3.0446908473968506]","[0.03802994266152382, 0.18632753193378448, -0.3775254487991333, 0.19542916119098663, -0.00036432043998502195, 0.037889327853918076]","[0.8972169160842896, -6.353760242462158, -3.369441270828247, -0.1076660305261612, -0.1076660305261612, 0.3252411186695099]"
1584376732192759328,,565407,,1584376732,192340016,'',"[shoulder_pan_joint, shoulder_lift_joint, elbow_joint, wrist_1_joint, wrist_2_joint,","[1.7308142185211182, -0.6929438749896448, 1.4263615608215332, -2.2947638670550745, -1.5692585150348108, 3.048715353012085]","[0.029861493036150932, 0.18623805046081543, -0.39563921093940735, 0.2093692123889923, -0.0004985437844879925, 0.032654616981744766]","[0.9796143770217896, -6.404114246368408, -3.555511474609375, -0.2175751030445099, -0.1054229810833931, 0.4284210503101349]"
1584376732304690630,,565421,,1584376732,304330498,'',"[shoulder_pan_joint, shoulder_lift_joint, elbow_joint, wrist_1_joint, wrist_2_joint,","[1.733548879623413, -0.6715968290912073, 1.382157802581787, -2.271683994923727, -1.569390122090475, 3.0519967079162598]","[0.022063758224248886, 0.19161976873874664, -0.3965851664543152, 0.20553424954414368, -0.0011121360585093498, 0.02527233399450779]","[0.9063721895217896, -6.147766590118408, -3.6160404682159424, -0.1570129543542862, -0.1054229810833931, 0.3409424126148224]"
1584376732416741877,,565435,,1584376732,416333665,'',"[shoulder_pan_joint, shoulder_lift_joint, elbow_joint, wrist_1_joint, wrist_2_joint,","[1.7362955808639526, -0.6497471968280237, 1.336634635925293, -2.247837845479147, -1.569510285054342, 3.054823160171509]","[0.030615700408816338, 0.20220424234867096, -0.4125002324581146, 0.21448886394500732, -0.001035437104292214, 0.02847451902925968]","[0.9841920137405396, -6.527710437774658, -3.6989874839782715, -0.2601929008960724, -0.1143951565027237, 0.3454284965991974]"
1584376732528747328,,565449,,1584376732,528342582,'',"[shoulder_pan_joint, shoulder_lift_joint, elbow_joint, wrist_1_joint, wrist_2_joint,","[1.7405056953430176, -0.6271422545062464, 1.289407730102539, -2.223333183919088, -1.5695937315570276, 3.0586435794830322]","[0.041494179517030716, 0.20591135323047638, -0.4236854910850525, 0.2235201746225357, -0.0008436894277110696, 0.040477920323610306]","[0.9201050996780396, -6.683350086212158, -3.8828158378601074, -0.0336456336081028, -0.1121521145105362, 0.3028106987476349]"
1584376732640603850,,565463,,1584376732,640297308,'',"[shoulder_pan_joint, shoulder_lift_joint, elbow_joint, wrist_1_joint, wrist_2_joint,","[1.744895339012146, -0.6038907209979456, 1.2410168647766113, -2.1980021635638636, -1.569641415272848, 3.0633387565612793]","[0.03488527983427048, 0.2084679901599884, -0.43874406814575195, 0.23212964832782745, -0.0004793690168298781, 0.03798520192503929]","[0.9704591035842896, -6.701660633087158, -4.077853202819824, -0.1727142482995987, -0.1323394924402237, 0.3386993706226349]"
1584376732752701312,,565477,,1584376732,752362560,'',"[shoulder_pan_joint, shoulder_lift_joint, elbow_joint, wrist_1_joint, wrist_2_joint,","[1.7491410970687866, -0.5795610586749476, 1.1916675567626953, -2.1723488012896937, -1.5698092619525355, 3.0676023960113525]","[0.04380793496966362, 0.21113967895507812, -0.448484867811203, 0.23372115194797516, -0.0012271846644580364, 0.04206942394375801]","[0.9841920137405396, -6.857300281524658, -4.122689723968506, -0.1816864162683487, -0.1233673244714737, 0.3790741264820099]"
1584376732864728314,,565491,,1584376732,864294314,'',"[shoulder_pan_joint, shoulder_lift_joint, elbow_joint, wrist_1_joint, wrist_2_joint,","[1.7543703317642212, -0.5555790106402796, 1.1417675018310547, -2.1464670340167444, -1.569869343434469, 3.072932004928589]","[0.04695259779691696, 0.21599727869033813, -0.4544929563999176, 0.23055732250213623, -0.0004793690168298781, 0.05186772719025612]","[0.8651733994483948, -7.141114234924316, -4.28410005569458, -0.0493469275534153, -0.1502838283777237, 0.3028106987476349]"
1584376732976672670,,565505,,1584376732,976274367,'',"[shoulder_pan_joint, shoulder_lift_joint, elbow_joint, wrist_1_joint, wrist_2_joint,","[1.7593475580215454, -0.5311539808856409, 1.0915217399597168, -2.1199987570392054, -1.5699051062213343, 3.0782856941223145]","[0.0422356054186821, 0.2160867601633072, -0.4526905119419098, 0.23326095938682556, -0.0004218447138555348, 0.04295146465301514]","[0.8743286728858948, -7.209778785705566, -4.382739543914795, -0.1300964504480362, -0.1570129543542862, 0.3947754204273224]"
1584376733088624752,,565519,,1584376733,88241026,'',"[shoulder_pan_joint, shoulder_lift_joint, elbow_joint, wrist_1_joint, wrist_2_joint,","[1.7640610933303833, -0.5067780653582972, 1.0412178039550781, -2.09390098253359, -1.569977108632223, 3.0831127166748047]","[0.04217169061303139, 0.21034711599349976, -0.44677191972732544, 0.22677989304065704, -0.0006135923322290182, 0.041916027665138245]","[0.8560181260108948, -7.305909156799316, -4.243747234344482, -0.1682281643152237, -0.1570129543542862, 0.3880462944507599]"
1584376733200572124,,565533,,1584376733,200242359,'',"[shoulder_pan_joint, shoulder_lift_joint, elbow_joint, wrist_1_joint, wrist_2_joint,","[1.7680668830871582, -0.48282128969301397, 0.991612434387207, -2.068019215260641, -1.569989029561178, 3.0877716541290283]","[0.02809741534292698, 0.2106667011976242, -0.432237446308136, 0.2239803671836853, -0.00032597093377262354, 0.03760170564055443]","[1.0299683809280396, -7.333374977111816, -4.609162330627441, -0.0403747595846653, -0.1547699123620987, 0.2579498589038849]"
1584376733312622488,,565547,,1584376733,312292182,'',"[shoulder_pan_joint, shoulder_lift_joint, elbow_joint, wrist_1_joint, wrist_2_joint,","[1.7704895734786987, -0.4598000685321253, 0.9438815116882324, -2.0433457533465784, -1.5701091925250452, 3.0909574031829834]","[0.01877848245203495, 0.2057579606771469, -0.4308057427406311, 0.22223547101020813, -0.0010929612908512354, 0.02268374152481556]","[0.9063721895217896, -7.379151344299316, -4.562084674835205, -0.1906585842370987, -0.1637420803308487, 0.2938385307788849]"
1584376733424618081,,565561,,1584376733,424263198,'',"[shoulder_pan_joint, shoulder_lift_joint, elbow_joint, wrist_1_joint, wrist_2_joint,","[1.7722890377044678, -0.4374020735370081, 0.8975925445556641, -2.0194385687457483, -1.5701454321490687, 3.093125581741333]","[0.01293657161295414, 0.19751282036304474, -0.3944631814956665, 0.20089396834373474, -0.0004985437844879925, 0.01721893437206745]","[0.9704591035842896, -7.635499000549316, -4.566567897796631, -0.0695343092083931, -0.2220611870288849, 0.2579498589038849]"
1584376733536763022,,565575,,1584376733,536301400,'',"[shoulder_pan_joint, shoulder_lift_joint, elbow_joint, wrist_1_joint, wrist_2_joint,","[1.773740291595459, -0.41732961336244756, 0.8580994606018066, -1.9984644095050257, -1.5702293554889124, 3.094682455062866]","[0.015838351100683212, 0.15407559275627136, -0.3149518370628357, 0.1649029403924942, -0.0009395632660016418, 0.01359490491449833]","[0.8972169160842896, -7.768250465393066, -4.934225082397461, -0.1951446682214737, -0.1772003322839737, 0.3095398247241974]"
1584376733648676712,,565589,,1584376733,648247951,'',"[shoulder_pan_joint, shoulder_lift_joint, elbow_joint, wrist_1_joint, wrist_2_joint,","[1.776210904121399, -0.40231401125063115, 0.828218936920166, -1.9829848448382776, -1.5703008810626429, 3.0966947078704834]","[0.024236897006630898, 0.1116865873336792, -0.2203691303730011, 0.1126708909869194, -0.0004026699753012508, 0.022722091525793076]","[0.9063721895217896, -8.326722145080566, -4.6069207191467285, -0.1704712063074112, -0.1547699123620987, 0.3611297905445099]"
1584376733760632038,,565603,,1584376733,760263841,'',"[shoulder_pan_joint, shoulder_lift_joint, elbow_joint, wrist_1_joint, wrist_2_joint,","[1.7786575555801392, -0.3929670492755335, 0.8099794387817383, -1.9729283491717737, -1.5702889601336878, 3.0993411540985107]","[0.016720391809940338, 0.04313042759895325, -0.09432704001665115, 0.052078649401664734, -0.00017257283616345376, 0.02040194533765316]","[0.7827759385108948, -8.139039039611816, -4.745913028717041, -0.1996307522058487, -0.1570129543542862, 0.3207550346851349]"
1584376733872575423,,565617,,1584376733,872237022,'',"[shoulder_pan_joint, shoulder_lift_joint, elbow_joint, wrist_1_joint, wrist_2_joint,","[1.7799649238586426, -0.3924639860736292, 0.8079991340637207, -1.9726646582232874, -1.5702889601336878, 3.1009464263916016]","[0.006711165886372328, -0.01507136132568121, 0.030104374513030052, -0.021590780466794968, -9.58738019107841e-05, 0.007190535310655832]","[0.7736206650733948, -10.185242652893066, -3.8043525218963623, -0.7424469590187073, -0.1637420803308487, 0.2781372368335724]"
1584376733984461522,,565631,,1584376733,984196547,'',"[shoulder_pan_joint, shoulder_lift_joint, elbow_joint, wrist_1_joint, wrist_2_joint,","[1.7799888849258423, -0.39276343980898076, 0.807279109954834, -1.972724739705221, -1.5703132788287562, 3.1009583473205566]","[-0.0005752427969127893, -0.025438515469431877, 0.0434500053524971, -0.06323835998773575, -9.58738019107841e-05, -0.0009395632660016418]","[-0.3204346001148224, -10.748291969299316, -3.1519856452941895, -0.5854340195655823, -0.1614990383386612, -0.0448608435690403]"
1584376734096562290,,565645,,1584376734,96220703,'',"[shoulder_pan_joint, shoulder_lift_joint, elbow_joint, wrist_1_joint, wrist_2_joint,","[1.7799768447875977, -0.39325458208193, 0.8070392608642578, -1.9725812117206019, -1.5703371206866663, 3.1009104251861572]","[-0.00020453077740967274, 0.0039116512052714825, -0.012028966099023819, 0.01618349738419056, -9.58738019107841e-05, -0.0003067961661145091]","[-0.0595092847943306, -8.161927223205566, -4.788507461547852, -0.2175751030445099, -0.1592559963464737, 0.0269165076315403]"
1584376734208544507,,565659,,1584376734,208209742,'',"[shoulder_pan_joint, shoulder_lift_joint, elbow_joint, wrist_1_joint, wrist_2_joint,","[1.779952883720398, -0.39384156862367803, 0.8077473640441895, -1.9732754866229456, -1.5703008810626429, 3.100862503051758]","[-0.0001661812566453591, 0.013038837350904942, -0.034987546503543854, 0.017717478796839714, -9.58738019107841e-05, -0.0004218447138555348]","[0.0366210974752903, -8.258057594299316, -4.414124965667725, -0.2714081108570099, -0.1727142482995987, 0.0695343092083931]"
1584376734320696301,,565673,,1584376734,320230492,'',"[shoulder_pan_joint, shoulder_lift_joint, elbow_joint, wrist_1_joint, wrist_2_joint,","[1.779952883720398, -0.39450055757631475, 0.8092713356018066, -1.9742453734027308, -1.5703008810626429, 3.1008269786834717]","[-0.00017896443023346364, 0.016528643667697906, -0.03843900188803673, 0.0502953976392746, -7.669904152862728e-05, -0.00046019424917176366]","[0.2014160305261612, -7.942200660705566, -4.831101894378662, -0.2400055229663849, -0.1659851223230362, 0.1390686184167862]"
