PorkPy/robot-pulling-data/good_move_ztwist50/joint_states_throttle.csv
rosbagTimestamp,header,seq,stamp,secs,nsecs,frame_id,name,wrist_3_joint],position,velocity,effort
1584452840259446949,,1368556,,1584452840,259051421,'',"[shoulder_pan_joint, shoulder_lift_joint, elbow_joint, wrist_1_joint, wrist_2_joint,","[1.4047822952270508, -1.1718605200396937, 2.483058452606201, -2.8628271261798304, -1.5669577757464808, 2.7207064628601074]","[0.0, 0.0, -0.0, 0.0, 0.0, 0.0]","[-0.0869751051068306, -4.344177722930908, -1.0379582643508911, -0.4306641221046448, -0.0829925611615181, -0.1233673244714737]"
1584452840371571407,,1368570,,1584452840,371159027,'',"[shoulder_pan_joint, shoulder_lift_joint, elbow_joint, wrist_1_joint, wrist_2_joint,","[1.4047822952270508, -1.1718605200396937, 2.4830703735351562, -2.862863365803854, -1.566981617604391, 2.7206943035125732]","[0.0, 0.0, -0.0, 0.0, 0.0, 0.0]","[-0.1098632961511612, -4.289246082305908, -1.042441964149475, -0.4329071640968323, -0.0852356031537056, -0.1368255764245987]"
1584452840483677992,,1368584,,1584452840,483224395,'',"[shoulder_pan_joint, shoulder_lift_joint, elbow_joint, wrist_1_joint, wrist_2_joint,","[1.4047822952270508, -1.1718485991107386, 2.483058452606201, -2.862863365803854, -1.5669577757464808, 2.7207064628601074]","[0.0, 0.0, -0.0, 0.0, 0.0, 0.0]","[-0.0732421949505806, -4.302978992462158, -1.0289909839630127, -0.4329071640968323, -0.0852356031537056, -0.1256103664636612]"
1584452840595481001,,1368598,,1584452840,595101181,'',"[shoulder_pan_joint, shoulder_lift_joint, elbow_joint, wrist_1_joint, wrist_2_joint,","[1.4047702550888062, -1.1718485991107386, 2.4830822944641113, -2.8628271261798304, -1.566981617604391, 2.7207183837890625]","[0.0, 0.0, -0.0, 0.0, 0.0, 0.0]","[-0.1327514797449112, -4.335022449493408, -1.0357165336608887, -0.4306641221046448, -0.0919647291302681, -0.1278534084558487]"
1584452840707413129,,1368612,,1584452840,707047877,'',"[shoulder_pan_joint, shoulder_lift_joint, elbow_joint, wrist_1_joint, wrist_2_joint,","[1.4047942161560059, -1.1718605200396937, 2.483058452606201, -2.8628514448748987, -1.5669696966754358, 2.7207064628601074]","[0.0, 0.0, -0.0, 0.0, 0.0, 0.0]","[-0.0823974683880806, -4.367065906524658, -1.042441964149475, -0.4284210503101349, -0.0897216871380806, -0.1345825344324112]"
1584452840819579266,,1368626,,1584452840,819160313,'',"[shoulder_pan_joint, shoulder_lift_joint, elbow_joint, wrist_1_joint, wrist_2_joint,","[1.4047822952270508, -1.1718247572528284, 2.483034372329712, -2.8628390471087855, -1.5669696966754358, 2.7206943035125732]","[0.0, 0.0, -0.0, 0.0, 0.0, 0.0]","[-0.1052856519818306, -4.312134265899658, -1.040200114250183, -0.4306641221046448, -0.0919647291302681, -0.1300964504480362]"
1584452840931426846,,1368640,,1584452840,930981585,'',"[shoulder_pan_joint, shoulder_lift_joint, elbow_joint, wrist_1_joint, wrist_2_joint,","[1.4047942161560059, -1.1718123594867151, 2.483034372329712, -2.862863365803854, -1.5669458548175257, 2.7207183837890625]","[0.0, 0.0, -0.0, 0.0, 0.0, 0.0]","[-0.1007080152630806, -4.330444812774658, -1.0603764057159424, -0.4306641221046448, -0.0807495191693306, -0.1256103664636612]"
1584452841043454695,,1368654,,1584452841,43052283,'',"[shoulder_pan_joint, shoulder_lift_joint, elbow_joint, wrist_1_joint, wrist_2_joint,","[1.4047822952270508, -1.1718605200396937, 2.483058452606201, -2.862863365803854, -1.5669696966754358, 2.7207064628601074]","[0.0, 0.0, -0.0, 0.0, 0.0, 0.0]","[-0.0778198316693306, -4.399109363555908, -1.040200114250183, -0.4261780083179474, -0.0874786451458931, -0.1278534084558487]"
1584452841155491829,,1368668,,1584452841,155045596,'',"[shoulder_pan_joint, shoulder_lift_joint, elbow_joint, wrist_1_joint, wrist_2_joint,","[1.4047702550888062, -1.1718485991107386, 2.483046531677246, -2.8628514448748987, -1.566981617604391, 2.7207064628601074]","[0.0, 0.0, -0.0, 0.0, 0.0, 0.0]","[-0.0961303785443306, -4.408264636993408, -1.0491673946380615, -0.4306641221046448, -0.0829925611615181, -0.1345825344324112]"
1584452841267363315,,1368682,,1584452841,266981192,'',"[shoulder_pan_joint, shoulder_lift_joint, elbow_joint, wrist_1_joint, wrist_2_joint,","[1.4047822952270508, -1.1718485991107386, 2.483034372329712, -2.8628514448748987, -1.5669696966754358, 2.7206943035125732]","[0.0, 0.0, -0.0, 0.0, 0.0, 0.0]","[-0.1235962063074112, -4.330444812774658, -1.0379582643508911, -0.4373932480812073, -0.0829925611615181, -0.1300964504480362]"
1584452841379377537,,1368696,,1584452841,379017785,'',"[shoulder_pan_joint, shoulder_lift_joint, elbow_joint, wrist_1_joint, wrist_2_joint,","[1.4048181772232056, -1.1718362013446253, 2.483058452606201, -2.8628514448748987, -1.5669458548175257, 2.7206943035125732]","[0.0, 0.0, -0.0, 0.0, 0.0, 0.0]","[-0.0915527418255806, -4.357910633087158, -1.0603764057159424, -0.4306641221046448, -0.0807495191693306, -0.1256103664636612]"
1584452841491364659,,1368710,,1584452841,490979200,'',"[shoulder_pan_joint, shoulder_lift_joint, elbow_joint, wrist_1_joint, wrist_2_joint,","[1.4047822952270508, -1.1718362013446253, 2.483058452606201, -2.8628514448748987, -1.5669577757464808, 2.7207183837890625]","[0.0, 0.0, -0.0, 0.0, 0.0, 0.0]","[-0.1007080152630806, -4.376221179962158, -1.042441964149475, -0.4396362900733948, -0.0829925611615181, -0.1256103664636612]"
1584452841603383330,,1368724,,1584452841,603028958,'',"[shoulder_pan_joint, shoulder_lift_joint, elbow_joint, wrist_1_joint, wrist_2_joint,","[1.4047822952270508, -1.1718605200396937, 2.483046531677246, -2.8628152052508753, -1.5669696966754358, 2.7206943035125732]","[0.0, 0.0, -0.0, 0.0, 0.0, 0.0]","[-0.1007080152630806, -4.312134265899658, -1.0446836948394775, -0.4261780083179474, -0.0942077711224556, -0.1323394924402237]"
1584452841715271016,,1368738,,1584452841,714967970,'',"[shoulder_pan_joint, shoulder_lift_joint, elbow_joint, wrist_1_joint, wrist_2_joint,","[1.4048062562942505, -1.1718485991107386, 2.483058452606201, -2.8628514448748987, -1.5669458548175257, 2.7206943035125732]","[0.0, 0.0, -0.0, 0.0, 0.0, 0.0]","[-0.0549316480755806, -4.344177722930908, -1.0289909839630127, -0.4284210503101349, -0.0829925611615181, -0.1278534084558487]"
1584452841827622999,,1368752,,1584452841,827184580,'',"[shoulder_pan_joint, shoulder_lift_joint, elbow_joint, wrist_1_joint, wrist_2_joint,","[1.4047702550888062, -1.1718247572528284, 2.4830703735351562, -2.8628514448748987, -1.5669696966754358, 2.720682382583618]","[0.0, 0.0, -0.0, 0.0, 0.0, 0.0]","[-0.1327514797449112, -4.312134265899658, -1.040200114250183, -0.4396362900733948, -0.0942077711224556, -0.1323394924402237]"
1584452841939606003,,1368766,,1584452841,939119875,'',"[shoulder_pan_joint, shoulder_lift_joint, elbow_joint, wrist_1_joint, wrist_2_joint,","[1.4048062562942505, -1.1718247572528284, 2.483046531677246, -2.8628271261798304, -1.5669696966754358, 2.7207183837890625]","[0.0, 0.0, -0.0, 0.0, 0.0, 0.0]","[-0.0732421949505806, -4.307556629180908, -1.0222655534744263, -0.4351502060890198, -0.0897216871380806, -0.1278534084558487]"
1584452842051433587,,1368780,,1584452842,51007421,'',"[shoulder_pan_joint, shoulder_lift_joint, elbow_joint, wrist_1_joint, wrist_2_joint,","[1.4048062562942505, -1.1718362013446253, 2.4830944538116455, -2.8628271261798304, -1.5669940153705042, 2.720682382583618]","[0.0, 0.0, -0.0, 0.0, 0.0, 0.0]","[-0.0686645582318306, -4.312134265899658, -1.0357165336608887, -0.4306641221046448, -0.0807495191693306, -0.1278534084558487]"
1584452842163470011,,1368794,,1584452842,163019209,'',"[shoulder_pan_joint, shoulder_lift_joint, elbow_joint, wrist_1_joint, wrist_2_joint,","[1.4048302173614502, -1.1718485991107386, 2.4830822944641113, -2.8628514448748987, -1.566981617604391, 2.7207183837890625]","[0.0, 0.0, -0.0, 0.0, 0.0, 0.0]","[-0.0640869215130806, -4.312134265899658, -1.0334746837615967, -0.4306641221046448, -0.0762634351849556, -0.1300964504480362]"
1584452842275492118,,1368808,,1584452842,275079136,'',"[shoulder_pan_joint, shoulder_lift_joint, elbow_joint, wrist_1_joint, wrist_2_joint,","[1.4047942161560059, -1.1718605200396937, 2.483046531677246, -2.8628271261798304, -1.5669458548175257, 2.7207064628601074]","[0.0, 0.0, -0.0, 0.0, 0.0, 0.0]","[-0.004577637184411287, -4.389954090118408, -1.051409125328064, -0.4396362900733948, -0.0852356031537056, -0.1345825344324112]"
1584452842387522961,,1368822,,1584452842,386988723,'',"[shoulder_pan_joint, shoulder_lift_joint, elbow_joint, wrist_1_joint, wrist_2_joint,","[1.4047702550888062, -1.1718485991107386, 2.483058452606201, -2.8628390471087855, -1.5669696966754358, 2.7207064628601074]","[0.0, 0.0, -0.0, 0.0, 0.0, 0.0]","[-0.0640869215130806, -4.417419910430908, -1.0379582643508911, -0.4306641221046448, -0.0829925611615181, -0.1323394924402237]"
1584452842499355223,,1368836,,1584452842,498923477,'',"[shoulder_pan_joint, shoulder_lift_joint, elbow_joint, wrist_1_joint, wrist_2_joint,","[1.4048062562942505, -1.1718362013446253, 2.4830703735351562, -2.862863365803854, -1.5669339338885706, 2.7207064628601074]","[0.0, 0.0, -0.0, 0.0, 0.0, 0.0]","[-0.1235962063074112, -4.330444812774658, -1.0267492532730103, -0.4329071640968323, -0.0919647291302681, -0.1233673244714737]"
1584452842611293013,,1368850,,1584452842,610931518,'',"[shoulder_pan_joint, shoulder_lift_joint, elbow_joint, wrist_1_joint, wrist_2_joint,","[1.4048062562942505, -1.1718485991107386, 2.483046531677246, -2.862863365803854, -1.566981617604391, 2.7207183837890625]","[0.0, 0.0, -0.0, 0.0, 0.0, 0.0]","[-0.1007080152630806, -4.399109363555908, -1.0491673946380615, -0.4284210503101349, -0.0829925611615181, -0.1323394924402237]"
1584452842723432189,,1368864,,1584452842,723042411,'',"[shoulder_pan_joint, shoulder_lift_joint, elbow_joint, wrist_1_joint, wrist_2_joint,","[1.4047702550888062, -1.1718362013446253, 2.483034372329712, -2.862863365803854, -1.5669696966754358, 2.720682382583618]","[0.0, 0.0, -0.0, 0.0, 0.0, 0.0]","[-0.1098632961511612, -4.353332996368408, -1.0357165336608887, -0.4261780083179474, -0.0919647291302681, -0.1323394924402237]"
1584452842835359960,,1368878,,1584452842,834985611,'',"[shoulder_pan_joint, shoulder_lift_joint, elbow_joint, wrist_1_joint, wrist_2_joint,","[1.4047822952270508, -1.1718247572528284, 2.483034372329712, -2.86280328432192, -1.5669577757464808, 2.7207064628601074]","[0.0, 0.0, -0.0, 0.0, 0.0, 0.0]","[-0.1281738430261612, -4.371643543243408, -1.0267492532730103, -0.4373932480812073, -0.0919647291302681, -0.1300964504480362]"
1584452842947593632,,1368892,,1584452842,947073491,'',"[shoulder_pan_joint, shoulder_lift_joint, elbow_joint, wrist_1_joint, wrist_2_joint,","[1.4047942161560059, -1.1718605200396937, 2.483034372329712, -2.862863365803854, -1.5669696966754358, 2.720682382583618]","[0.0, 0.0, -0.0, 0.0, 0.0, 0.0]","[-0.1144409328699112, -4.335022449493408, -1.040200114250183, -0.4261780083179474, -0.0785064771771431, -0.1256103664636612]"
1584452843059393584,,1368906,,1584452843,58964924,'',"[shoulder_pan_joint, shoulder_lift_joint, elbow_joint, wrist_1_joint, wrist_2_joint,","[1.4047942161560059, -1.1718362013446253, 2.483046531677246, -2.8628390471087855, -1.5669940153705042, 2.7207064628601074]","[0.0, 0.0, -0.0, 0.0, 0.0, 0.0]","[-0.1098632961511612, -4.316711902618408, -1.0469255447387695, -0.4261780083179474, -0.0829925611615181, -0.1278534084558487]"
1584452843171530306,,1368920,,1584452843,171028138,'',"[shoulder_pan_joint, shoulder_lift_joint, elbow_joint, wrist_1_joint, wrist_2_joint,","[1.4047822952270508, -1.1718362013446253, 2.4830822944641113, -2.862863365803854, -1.5669577757464808, 2.720670461654663]","[0.0, 0.0, -0.0, 0.0, 0.0, 0.0]","[-0.1144409328699112, -4.362488269805908, -1.0267492532730103, -0.4329071640968323, -0.0852356031537056, -0.1300964504480362]"
1584452843283372917,,1368934,,1584452843,282980665,'',"[shoulder_pan_joint, shoulder_lift_joint, elbow_joint, wrist_1_joint, wrist_2_joint,","[1.4048062562942505, -1.1718362013446253, 2.483046531677246, -2.862863365803854, -1.5669696966754358, 2.7207064628601074]","[0.0, 0.0, -0.0, 0.0, 0.0, 0.0]","[-0.1007080152630806, -4.325867176055908, -1.040200114250183, -0.4261780083179474, -0.0919647291302681, -0.1300964504480362]"
1584452843395473140,,1368948,,1584452843,395056202,'',"[shoulder_pan_joint, shoulder_lift_joint, elbow_joint, wrist_1_joint, wrist_2_joint,","[1.4047822952270508, -1.1718605200396937, 2.483046531677246, -2.8628514448748987, -1.5669577757464808, 2.7207064628601074]","[0.0, 0.0, -0.0, 0.0, 0.0, 0.0]","[-0.1007080152630806, -4.330444812774658, -1.051409125328064, -0.4306641221046448, -0.0874786451458931, -0.1413116604089737]"
1584452843507408044,,1368962,,1584452843,506969646,'',"[shoulder_pan_joint, shoulder_lift_joint, elbow_joint, wrist_1_joint, wrist_2_joint,","[1.4048181772232056, -1.1718362013446253, 2.483034372329712, -2.8628271261798304, -1.566981617604391, 2.7207064628601074]","[0.0, 0.0, -0.0, 0.0, 0.0, 0.0]","[-0.1098632961511612, -4.357910633087158, -1.0334746837615967, -0.4284210503101349, -0.0785064771771431, -0.1323394924402237]"
1584452843619479935,,1368976,,1584452843,618996442,'',"[shoulder_pan_joint, shoulder_lift_joint, elbow_joint, wrist_1_joint, wrist_2_joint,","[1.4047942161560059, -1.1718247572528284, 2.483058452606201, -2.8628390471087855, -1.5669940153705042, 2.7206943035125732]","[0.0, 0.0, -0.0, 0.0, 0.0, 0.0]","[-0.0961303785443306, -4.339600086212158, -1.0446836948394775, -0.4329071640968323, -0.0897216871380806, -0.1323394924402237]"
1584452843731426340,,1368990,,1584452843,730981750,'',"[shoulder_pan_joint, shoulder_lift_joint, elbow_joint, wrist_1_joint, wrist_2_joint,","[1.4048181772232056, -1.1718485991107386, 2.483058452606201, -2.862863365803854, -1.5669696966754358, 2.7206943035125732]","[0.0, 0.0, -0.0, 0.0, 0.0, 0.0]","[-0.0320434607565403, -4.339600086212158, -1.0469255447387695, -0.4329071640968323, -0.0919647291302681, -0.1300964504480362]"
1584452843843411769,,1369004,,1584452843,843019546,'',"[shoulder_pan_joint, shoulder_lift_joint, elbow_joint, wrist_1_joint, wrist_2_joint,","[1.4047822952270508, -1.1718485991107386, 2.483046531677246, -2.8628514448748987, -1.566981617604391, 2.7207183837890625]","[0.0, 0.0, -0.0, 0.0, 0.0, 0.0]","[-0.0366210974752903, -4.325867176055908, -1.0267492532730103, -0.4329071640968323, -0.0897216871380806, -0.1300964504480362]"
1584452843955241066,,1369018,,1584452843,954918142,'',"[shoulder_pan_joint, shoulder_lift_joint, elbow_joint, wrist_1_joint, wrist_2_joint,","[1.4047822952270508, -1.1718485991107386, 2.483034372329712, -2.8628390471087855, -1.5669940153705042, 2.7207064628601074]","[0.0, 0.0, -0.0, 0.0, 0.0, 0.0]","[-0.1052856519818306, -4.357910633087158, -1.0379582643508911, -0.4284210503101349, -0.0874786451458931, -0.1300964504480362]"
1584452844067192621,,1369032,,1584452844,66898271,'',"[shoulder_pan_joint, shoulder_lift_joint, elbow_joint, wrist_1_joint, wrist_2_joint,","[1.4047702550888062, -1.1718843618976038, 2.483046531677246, -2.8628271261798304, -1.5669458548175257, 2.7207183837890625]","[0.0, 0.0, -0.0, 0.0, 0.0, 0.0]","[-0.0869751051068306, -4.270935535430908, -1.051409125328064, -0.4216919243335724, -0.0807495191693306, -0.1300964504480362]"
1584452844179446972,,1369046,,1584452844,179026025,'',"[shoulder_pan_joint, shoulder_lift_joint, elbow_joint, wrist_1_joint, wrist_2_joint,","[1.4047702550888062, -1.1718485991107386, 2.483046531677246, -2.862863365803854, -1.566981617604391, 2.720670461654663]","[0.0, 0.0, -0.0, 0.0, 0.0, 0.0]","[-0.0457763709127903, -4.376221179962158, -1.0469255447387695, -0.4396362900733948, -0.0740203931927681, -0.1300964504480362]"
1584452844291319149,,1369060,,1584452844,290921787,'',"[shoulder_pan_joint, shoulder_lift_joint, elbow_joint, wrist_1_joint, wrist_2_joint,","[1.4047942161560059, -1.1718724409686487, 2.483046531677246, -2.862863365803854, -1.5669577757464808, 2.720682382583618]","[0.0, 0.0, -0.0, 0.0, 0.0, 0.0]","[-0.1007080152630806, -4.339600086212158, -1.053650975227356, -0.4396362900733948, -0.0829925611615181, -0.1368255764245987]"
1584452844403172450,,1369074,,1584452844,402840811,'',"[shoulder_pan_joint, shoulder_lift_joint, elbow_joint, wrist_1_joint, wrist_2_joint,","[1.4047942161560059, -1.1718362013446253, 2.483046531677246, -2.8628271261798304, -1.5669940153705042, 2.7207303047180176]","[0.0, 0.0, -0.0, 0.0, 0.0, 0.0]","[-0.0915527418255806, -4.348755359649658, -1.0491673946380615, -0.4329071640968323, -0.0874786451458931, -0.1256103664636612]"
1584452844515165784,,1369088,,1584452844,514811262,'',"[shoulder_pan_joint, shoulder_lift_joint, elbow_joint, wrist_1_joint, wrist_2_joint,","[1.4047702550888062, -1.1718362013446253, 2.483046531677246, -2.8628271261798304, -1.5669940153705042, 2.7207064628601074]","[0.0, 0.0, -0.0, 0.0, 0.0, 0.0]","[-0.1190185695886612, -4.325867176055908, -1.0379582643508911, -0.4373932480812073, -0.0829925611615181, -0.1278534084558487]"
1584452844627269303,,1369102,,1584452844,626847425,'',"[shoulder_pan_joint, shoulder_lift_joint, elbow_joint, wrist_1_joint, wrist_2_joint,","[1.4047822952270508, -1.1718362013446253, 2.483034372329712, -2.8628514448748987, -1.566981617604391, 2.7207064628601074]","[0.0, 0.0, -0.0, 0.0, 0.0, 0.0]","[-0.0778198316693306, -4.348755359649658, -1.0334746837615967, -0.4284210503101349, -0.0874786451458931, -0.1256103664636612]"
1584452844739247088,,1369116,,1584452844,738835920,'',"[shoulder_pan_joint, shoulder_lift_joint, elbow_joint, wrist_1_joint, wrist_2_joint,","[1.4047942161560059, -1.1718724409686487, 2.483058452606201, -2.8628271261798304, -1.5669940153705042, 2.720670461654663]","[0.0, 0.0, -0.0, 0.0, 0.0, 0.0]","[-0.1098632961511612, -4.325867176055908, -1.051409125328064, -0.4306641221046448, -0.0897216871380806, -0.1323394924402237]"
1584452844851263665,,1369130,,1584452844,850855282,'',"[shoulder_pan_joint, shoulder_lift_joint, elbow_joint, wrist_1_joint, wrist_2_joint,","[1.4047822952270508, -1.1718485991107386, 2.483046531677246, -2.8628390471087855, -1.566981617604391, 2.7207064628601074]","[0.0, 0.0, -0.0, 0.0, 0.0, 0.0]","[-0.0823974683880806, -4.284668445587158, -1.0379582643508911, -0.4329071640968323, -0.0897216871380806, -0.1300964504480362]"
1584452844963151901,,1369144,,1584452844,962779476,'',"[shoulder_pan_joint, shoulder_lift_joint, elbow_joint, wrist_1_joint, wrist_2_joint,","[1.4048181772232056, -1.1718123594867151, 2.4830703735351562, -2.8628152052508753, -1.5669696966754358, 2.7206943035125732]","[0.0, 0.0, -0.0, 0.0, 0.0, 0.0]","[-0.1098632961511612, -4.367065906524658, -1.0357165336608887, -0.4373932480812073, -0.0874786451458931, -0.1256103664636612]"
1584452845075218913,,1369158,,1584452845,74815499,'',"[shoulder_pan_joint, shoulder_lift_joint, elbow_joint, wrist_1_joint, wrist_2_joint,","[1.4047942161560059, -1.1718362013446253, 2.483058452606201, -2.8628514448748987, -1.5669577757464808, 2.720682382583618]","[0.0, 0.0, -0.0, 0.0, 0.0, 0.0]","[-0.0549316480755806, -4.353332996368408, -1.0446836948394775, -0.4261780083179474, -0.0807495191693306, -0.1323394924402237]"
1584452845187510733,,1369172,,1584452845,186958041,'',"[shoulder_pan_joint, shoulder_lift_joint, elbow_joint, wrist_1_joint, wrist_2_joint,","[1.4048062562942505, -1.1718485991107386, 2.4830703735351562, -2.8628514448748987, -1.5669696966754358, 2.7207064628601074]","[0.0, 0.0, -0.0, 0.0, 0.0, 0.0]","[-0.1098632961511612, -4.367065906524658, -1.0469255447387695, -0.4373932480812073, -0.0829925611615181, -0.1233673244714737]"
1584452845299260722,,1369186,,1584452845,298859202,'',"[shoulder_pan_joint, shoulder_lift_joint, elbow_joint, wrist_1_joint, wrist_2_joint,","[1.4047942161560059, -1.1718247572528284, 2.4830703735351562, -2.8628514448748987, -1.5669940153705042, 2.7206943035125732]","[0.0, 0.0, -0.0, 0.0, 0.0, 0.0]","[-0.0915527418255806, -4.376221179962158, -1.0357165336608887, -0.4284210503101349, -0.0874786451458931, -0.1345825344324112]"
1584452845411507138,,1369200,,1584452845,410940479,'',"[shoulder_pan_joint, shoulder_lift_joint, elbow_joint, wrist_1_joint, wrist_2_joint,","[1.4047942161560059, -1.1718362013446253, 2.4830822944641113, -2.8628514448748987, -1.5669577757464808, 2.7207064628601074]","[0.0, 0.0, -0.0, 0.0, 0.0, 0.0]","[-0.0686645582318306, -4.344177722930908, -1.053650975227356, -0.4329071640968323, -0.0942077711224556, -0.1323394924402237]"
1584452845523382361,,1369214,,1584452845,522884561,'',"[shoulder_pan_joint, shoulder_lift_joint, elbow_joint, wrist_1_joint, wrist_2_joint,","[1.4047942161560059, -1.1718247572528284, 2.483058452606201, -2.8628514448748987, -1.566981617604391, 2.7206943035125732]","[0.0, 0.0, -0.0, 0.0, 0.0, 0.0]","[-0.0823974683880806, -4.380798816680908, -1.0446836948394775, -0.4373932480812073, -0.0897216871380806, -0.1323394924402237]"
1584452845635310242,,1369228,,1584452845,634846546,'',"[shoulder_pan_joint, shoulder_lift_joint, elbow_joint, wrist_1_joint, wrist_2_joint,","[1.4048062562942505, -1.1718485991107386, 2.483046531677246, -2.862863365803854, -1.566981617604391, 2.7206943035125732]","[0.0, 0.0, -0.0, 0.0, 0.0, 0.0]","[-0.1098632961511612, -4.321289539337158, -1.0379582643508911, -0.4329071640968323, -0.0852356031537056, -0.1323394924402237]"
1584452845747216563,,1369242,,1584452845,746831604,'',"[shoulder_pan_joint, shoulder_lift_joint, elbow_joint, wrist_1_joint, wrist_2_joint,","[1.4047822952270508, -1.1718485991107386, 2.483034372329712, -2.8628514448748987, -1.5669696966754358, 2.7207303047180176]","[0.0, 0.0, -0.0, 0.0, 0.0, 0.0]","[-0.004577637184411287, -4.321289539337158, -1.0289909839630127, -0.4351502060890198, -0.0897216871380806, -0.1278534084558487]"
1584452845859262805,,1369256,,1584452845,858812944,'',"[shoulder_pan_joint, shoulder_lift_joint, elbow_joint, wrist_1_joint, wrist_2_joint,","[1.4048181772232056, -1.1718247572528284, 2.483058452606201, -2.8628152052508753, -1.566981617604391, 2.7206943035125732]","[0.0, 0.0, -0.0, 0.0, 0.0, 0.0]","[-0.0640869215130806, -4.353332996368408, -1.042441964149475, -0.4284210503101349, -0.0852356031537056, -0.1345825344324112]"
1584452845971378377,,1369270,,1584452845,970873524,'',"[shoulder_pan_joint, shoulder_lift_joint, elbow_joint, wrist_1_joint, wrist_2_joint,","[1.4047942161560059, -1.1718485991107386, 2.4830822944641113, -2.8628152052508753, -1.5669577757464808, 2.7206943035125732]","[0.0, 0.0, -0.0, 0.0, 0.0, 0.0]","[-0.0961303785443306, -4.307556629180908, -1.0379582643508911, -0.4284210503101349, -0.0829925611615181, -0.1345825344324112]"
1584452846083285308,,1369284,,1584452846,82795593,'',"[shoulder_pan_joint, shoulder_lift_joint, elbow_joint, wrist_1_joint, wrist_2_joint,","[1.4047942161560059, -1.1718485991107386, 2.483058452606201, -2.8628390471087855, -1.566981617604391, 2.720682382583618]","[0.0, 0.0, -0.0, 0.0, 0.0, 0.0]","[-0.1052856519818306, -4.335022449493408, -1.0334746837615967, -0.4306641221046448, -0.0874786451458931, -0.1345825344324112]"
1584452846195418723,,1369298,,1584452846,194884025,'',"[shoulder_pan_joint, shoulder_lift_joint, elbow_joint, wrist_1_joint, wrist_2_joint,","[1.4047702550888062, -1.1718605200396937, 2.483046531677246, -2.8628390471087855, -1.5670059362994593, 2.7206943035125732]","[0.0, 0.0, -0.0, 0.0, 0.0, 0.0]","[-0.0778198316693306, -4.335022449493408, -1.0491673946380615, -0.4239349663257599, -0.0897216871380806, -0.1256103664636612]"
1584452846307335443,,1369312,,1584452846,306862791,'',"[shoulder_pan_joint, shoulder_lift_joint, elbow_joint, wrist_1_joint, wrist_2_joint,","[1.4048062562942505, -1.1718485991107386, 2.483046531677246, -2.8628514448748987, -1.5670178572284144, 2.7207064628601074]","[0.0, 0.0, -0.0, 0.0, 0.0, 0.0]","[-0.0823974683880806, -4.335022449493408, -1.040200114250183, -0.4351502060890198, -0.0919647291302681, -0.1323394924402237]"
1584452846419599022,,1369326,,1584452846,419177655,'',"[shoulder_pan_joint, shoulder_lift_joint, elbow_joint, wrist_1_joint, wrist_2_joint,","[1.4049979448318481, -1.1717045942889612, 2.482590675354004, -2.862300697957174, -1.5669696966754358, 2.7214250564575195]","[0.015851134434342384, 0.007184143643826246, -0.02419854700565338, 0.024045148864388466, 0.0, 0.03760170564055443]","[0.6683350205421448, -2.915954828262329, -1.8248337507247925, -0.2691650688648224, 0.0426178015768528, 0.3050537407398224]"
1584452846531169345,,1369340,,1584452846,530786279,'',"[shoulder_pan_joint, shoulder_lift_joint, elbow_joint, wrist_1_joint, wrist_2_joint,","[1.4065814018249512, -1.170577351246969, 2.479987144470215, -2.8599661032306116, -1.5669940153705042, 2.7241787910461426]","[0.009242234751582146, 0.005905826110392809, -0.013089969754219055, 0.011639079079031944, 0.0, 0.014745390973985195]","[0.8789063692092896, -3.044128656387329, -1.9795187711715698, -0.1929016262292862, 0.0381317175924778, 0.3409424126148224]"
1584452846643379293,,1369354,,1584452846,642853170,'',"[shoulder_pan_joint, shoulder_lift_joint, elbow_joint, wrist_1_joint, wrist_2_joint,","[1.4056339263916016, -1.1705296675311487, 2.479987144470215, -2.8602173964129847, -1.5670059362994593, 2.720551013946533]","[-0.024748224765062332, -8.948221511673182e-05, 0.0046786414459347725, -0.00515801040455699, 0.0, -0.06529005616903305]","[-1.0070801973342896, -3.945923328399658, -1.0693436861038208, -0.5764618515968323, 0.0381317175924778, -0.3476715385913849]"
1584452846755357999,,1369368,,1584452846,754898681,'',"[shoulder_pan_joint, shoulder_lift_joint, elbow_joint, wrist_1_joint, wrist_2_joint,","[1.4040265083312988, -1.1705053488360804, 2.4799511432647705, -2.86025315919985, -1.566981617604391, 2.7154860496520996]","[-0.003847735235467553, -0.00029401297797448933, -0.0006647250265814364, -0.0004410194815136492, 0.0, -0.02979757823050022]","[-0.7873535752296448, -3.570557117462158, -1.46614408493042, -0.4216919243335724, 0.0403747595846653, -0.3162689507007599]"
1584452846867231017,,1369382,,1584452846,866795504,'',"[shoulder_pan_joint, shoulder_lift_joint, elbow_joint, wrist_1_joint, wrist_2_joint,","[1.4060057401657104, -1.1704934279071253, 2.479578971862793, -2.8600500265704554, -1.5670178572284144, 2.7164077758789062]","[0.034335605800151825, -0.00011504856229294091, -0.003962783608585596, 0.0029529130551964045, 0.0, 0.060266271233558655]","[0.7965088486671448, -3.442383050918579, -1.688083291053772, -0.3454284965991974, 0.0628051832318306, 0.3028106987476349]"
1584452846979358381,,1369396,,1584452846,978855462,'',"[shoulder_pan_joint, shoulder_lift_joint, elbow_joint, wrist_1_joint, wrist_2_joint,","[1.4100958108901978, -1.1705296675311487, 2.4794230461120605, -2.860013786946432, -1.5670178572284144, 2.722898006439209]","[0.03739078342914581, -7.669904152862728e-05, -0.00048576059634797275, 0.00026844663079828024, 0.0, 0.048953164368867874]","[0.8102417588233948, -3.625488758087158, -1.5378820896148682, -0.3992615044116974, 0.0785064771771431, 0.4082336723804474]"
1584452847091300419,,1369410,,1584452847,90801948,'',"[shoulder_pan_joint, shoulder_lift_joint, elbow_joint, wrist_1_joint, wrist_2_joint,","[1.414401888847351, -1.1704934279071253, 2.478607416152954, -2.859546963368551, -1.567101780568258, 2.7274959087371826]","[0.036022983491420746, 5.1132694352418184e-05, -0.021987058222293854, 0.01464951690286398, 0.0, 0.031139811500906944]","[1.0711671113967896, -3.153991937637329, -1.721710443496704, -0.3140259087085724, 0.0605621412396431, 0.3185119926929474]"
1584452847203348695,,1369424,,1584452847,202931906,'',"[shoulder_pan_joint, shoulder_lift_joint, elbow_joint, wrist_1_joint, wrist_2_joint,","[1.4178566932678223, -1.1681435743915003, 2.4709887504577637, -2.8556559721576136, -1.5670178572284144, 2.731459140777588]","[0.02804628200829029, 0.03910372778773308, -0.1157899871468544, 0.057447582483291626, 0.0, 0.045156560838222504]","[0.9796143770217896, -2.682495355606079, -1.6208289861679077, -0.1749572902917862, 0.0628051832318306, 0.2669220268726349]"
1584452847315313715,,1369438,,1584452847,314934056,'',"[shoulder_pan_joint, shoulder_lift_joint, elbow_joint, wrist_1_joint, wrist_2_joint,","[1.4205553531646729, -1.162520710621969, 2.455319404602051, -2.846987549458639, -1.5670178572284144, 2.737062692642212]","[0.02153964713215828, 0.06316166371107101, -0.15289953351020813, 0.08373618125915527, 0.0, 0.04707403481006622]","[0.9155274629592896, -2.723694086074829, -1.8741536140441895, -0.02018737979233265, 0.0358886756002903, 0.3633728325366974]"
1584452847427565501,,1369452,,1584452847,427056561,'',"[shoulder_pan_joint, shoulder_lift_joint, elbow_joint, wrist_1_joint, wrist_2_joint,","[1.4238899946212769, -1.1545470396624964, 2.4385221004486084, -2.8370512167560022, -1.5670297781573694, 2.742187261581421]","[0.04301537945866585, 0.06628075242042542, -0.13045229017734528, 0.08557695150375366, 0.0, 0.043239083141088486]","[0.7919312119483948, -3.227234125137329, -2.176798105239868, -0.1973877102136612, 0.0314025916159153, 0.3229980766773224]"
1584452847539276527,,1369466,,1584452847,538893572,'',"[shoulder_pan_joint, shoulder_lift_joint, elbow_joint, wrist_1_joint, wrist_2_joint,","[1.4305588006973267, -1.1491158644305628, 2.4274356365203857, -2.8296521345721644, -1.5670297781573694, 2.747300148010254]","[0.07216101139783859, 0.03551165759563446, -0.061295315623283386, 0.04924078285694122, 0.0, 0.05186772719025612]","[0.6729126572608948, -3.291321039199829, -2.203699827194214, -0.1300964504480362, 0.0515899695456028, 0.2915954887866974]"
1584452847651183830,,1369480,,1584452847,650771911,'',"[shoulder_pan_joint, shoulder_lift_joint, elbow_joint, wrist_1_joint, wrist_2_joint,","[1.4404784440994263, -1.1465743223773401, 2.4220123291015625, -2.8262036482440394, -1.5670178572284144, 2.753706455230713]","[0.09899289906024933, 0.014700649306178093, -0.044677190482616425, 0.02160995453596115, 0.0, 0.0521169975399971]","[0.7278442978858948, -3.080749750137329, -2.1386873722076416, -0.1884155422449112, 0.1054229810833931, 0.3588867485523224]"
1584452847763302217,,1369494,,1584452847,762827350,'',"[shoulder_pan_joint, shoulder_lift_joint, elbow_joint, wrist_1_joint, wrist_2_joint,","[1.4515855312347412, -1.1449797789203089, 2.4181125164031982, -2.8240369001971644, -1.5670297781573694, 2.7586874961853027]","[0.10037347674369812, 0.010085923597216606, -0.019123626872897148, 0.010373544879257679, 1.917476038215682e-05, 0.03815777227282524]","[1.2039185762405396, -3.300476312637329, -2.2193925380706787, -0.1390686184167862, 0.1143951565027237, 0.3409424126148224]"
1584452847875340324,,1369508,,1584452847,874816145,'',"[shoulder_pan_joint, shoulder_lift_joint, elbow_joint, wrist_1_joint, wrist_2_joint,","[1.4627286195755005, -1.1448958555804651, 2.417656421661377, -2.8237856070147913, -1.5670655409442347, 2.762985944747925]","[0.10719969123601913, -0.00015339808305725455, 0.00029401297797448933, -0.0009203884983435273, 1.917476038215682e-05, 0.04747670516371727]","[0.9887696504592896, -4.252624988555908, -1.773272156715393, -0.4082336723804474, 0.1816864162683487, 0.3005676567554474]"
1584452847987132140,,1369522,,1584452847,986707848,'',"[shoulder_pan_joint, shoulder_lift_joint, elbow_joint, wrist_1_joint, wrist_2_joint,","[1.4755873680114746, -1.1448958555804651, 2.4176926612854004, -2.8238094488727015, -1.5670536200152796, 2.7685298919677734]","[0.11897299438714981, -0.00029401297797448933, 0.00048576059634797275, -0.0004410194815136492, 1.917476038215682e-05, 0.047515057027339935]","[1.2176514863967896, -4.348755359649658, -1.7530958652496338, -0.4194488823413849, 0.2108459621667862, 0.4149627983570099]"
1584452848099173965,,1369536,,1584452848,98739072,'',"[shoulder_pan_joint, shoulder_lift_joint, elbow_joint, wrist_1_joint, wrist_2_joint,","[1.4883617162704468, -1.1449196974383753, 2.4176688194274902, -2.8237856070147913, -1.5670416990863245, 2.7726614475250244]","[0.11338675022125244, -0.00020453077740967274, 0.0001917476038215682, 0.0, 1.917476038215682e-05, 0.029203159734606743]","[1.3366700410842896, -4.367065906524658, -1.721710443496704, -0.4127197563648224, 0.1951446682214737, 0.3431854546070099]"
1584452848211095794,,1369550,,1584452848,210702500,'',"[shoulder_pan_joint, shoulder_lift_joint, elbow_joint, wrist_1_joint, wrist_2_joint,","[1.5008841753005981, -1.1448958555804651, 2.417752742767334, -2.823749844227926, -1.5671256224261683, 2.7752113342285156]","[0.11325892060995102, -0.00012783173588104546, 0.00011504856229294091, 0.0, 1.917476038215682e-05, 0.017851701006293297]","[1.3000489473342896, -4.353332996368408, -1.833801031112671, -0.3454284965991974, 0.1839294582605362, 0.3229980766773224]"
1584452848323102924,,1369564,,1584452848,322677479,'',"[shoulder_pan_joint, shoulder_lift_joint, elbow_joint, wrist_1_joint, wrist_2_joint,","[1.5128065347671509, -1.1448834578143519, 2.417980670928955, -2.8236659208880823, -1.567197624837057, 2.77713942527771]","[0.0968964546918869, -7.669904152862728e-05, 0.0015467640478163958, 3.834952076431364e-05, 3.834952076431364e-05, 0.021993450820446014]","[1.2588502168655396, -4.531860828399658, -1.7060178518295288, -0.4127197563648224, 0.2377624809741974, 0.3072967827320099]"
1584452848435096427,,1369578,,1584452848,434680821,'',"[shoulder_pan_joint, shoulder_lift_joint, elbow_joint, wrist_1_joint, wrist_2_joint,","[1.5218145847320557, -1.1455429236041468, 2.419708728790283, -2.824132744465963, -1.567221466694967, 2.779031276702881]","[0.06670259684324265, -0.01686100661754608, 0.027036411687731743, -0.012233496643602848, -0.00028762139845639467, 0.012866264209151268]","[0.9475709199905396, -4.980469226837158, -1.2980083227157593, -0.7873077988624573, 0.2669220268726349, 0.3386993706226349]"
1584452848547064854,,1369592,,1584452848,546672171,'',"[shoulder_pan_joint, shoulder_lift_joint, elbow_joint, wrist_1_joint, wrist_2_joint,","[1.5282313823699951, -1.1470664183246058, 2.4217002391815186, -2.824838940297262, -1.5672333876239222, 2.7774624824523926]","[0.04497120529413223, -0.006289321463555098, 0.01091683004051447, -0.002646117005497217, -0.00017257283616345376, -0.054437145590782166]","[0.9246827363967896, -4.692078113555908, -1.3159427642822266, -0.7469330430030823, 0.2355194389820099, -0.2803802788257599]"
1584452848659189442,,1369606,,1584452848,658735795,'',"[shoulder_pan_joint, shoulder_lift_joint, elbow_joint, wrist_1_joint, wrist_2_joint,","[1.5320817232131958, -1.1471503416644495, 2.422048330307007, -2.824803177510397, -1.5672696272479456, 2.7719902992248535]","[0.01937929168343544, -0.0002556634717620909, -0.0, 0.0009779128013178706, -0.00011504856229294091, -0.05349758267402649]","[1.0757447481155396, -4.316711902618408, -1.7060178518295288, -0.5158997178077698, 0.2198181450366974, -0.2534637749195099]"
1584452848771267995,,1369620,,1584452848,770803197,'',"[shoulder_pan_joint, shoulder_lift_joint, elbow_joint, wrist_1_joint, wrist_2_joint,","[1.532225489616394, -1.1471861044513147, 2.422072172164917, -2.824815098439352, -1.5672696272479456, 2.764338970184326]","[-0.02431359514594078, -0.00011504856229294091, -0.0, 0.00023009712458588183, -0.00011504856229294091, -0.0780029222369194]","[-0.6729126572608948, -4.266357898712158, -1.688083291053772, -0.6235657334327698, 0.1973877102136612, -0.3701019585132599]"
1584452848883198561,,1369634,,1584452848,882731979,'',"[shoulder_pan_joint, shoulder_lift_joint, elbow_joint, wrist_1_joint, wrist_2_joint,","[1.5277875661849976, -1.1471617857562464, 2.4219043254852295, -2.8248632589923304, -1.5671613852130335, 2.7560291290283203]","[-0.047208260744810104, -6.391586794052273e-05, -0.000945954816415906, -1.917476038215682e-05, -0.00011504856229294091, -0.07468569278717041]","[-0.9841920137405396, -4.106140613555908, -1.7015341520309448, -0.5809479355812073, 0.1502838283777237, -0.3050537407398224]"
1584452848995126723,,1369648,,1584452848,994710385,'',"[shoulder_pan_joint, shoulder_lift_joint, elbow_joint, wrist_1_joint, wrist_2_joint,","[1.5223662853240967, -1.1470540205584925, 2.420872211456299, -2.8246477285968226, -1.5671256224261683, 2.7463061809539795]","[-0.04994386062026024, 0.0031830102670937777, -0.0201079323887825, 0.011217234656214714, 1.917476038215682e-05, -0.08596044778823853]","[-0.9796143770217896, -3.259277582168579, -2.0333220958709717, -0.2287903130054474, 0.1413116604089737, -0.3925323784351349]"
1584452849107222017,,1369662,,1584452849,106742231,'',"[shoulder_pan_joint, shoulder_lift_joint, elbow_joint, wrist_1_joint, wrist_2_joint,","[1.516932487487793, -1.1467421690570276, 2.4194324016571045, -2.824120823537008, -1.5671137014972132, 2.7372303009033203]","[-0.046735282987356186, 0.0006008091731928289, -0.0017896442441269755, -0.0002109223569277674, 1.917476038215682e-05, -0.08068738877773285]","[-0.8193970322608948, -3.584290027618408, -1.9010553359985352, -0.4037475883960724, 0.1457977443933487, -0.2669220268726349]"
1584452849219008443,,1369676,,1584452849,218667737,'',"[shoulder_pan_joint, shoulder_lift_joint, elbow_joint, wrist_1_joint, wrist_2_joint,","[1.5141019821166992, -1.1467540899859827, 2.4194681644439697, -2.824503723775045, -1.5670416990863245, 2.733015775680542]","[-0.0019174760673195124, -8.948221511673182e-05, 0.0003962783666793257, -0.0009395632660016418, 0.00011504856229294091, -0.0044293696992099285]","[0.004577637184411287, -3.977966785430908, -1.6387635469436646, -0.4822540879249573, 0.1457977443933487, -0.0628051832318306]"
1584452849331273865,,1369690,,1584452849,330856966,'',"[shoulder_pan_joint, shoulder_lift_joint, elbow_joint, wrist_1_joint, wrist_2_joint,","[1.514185905456543, -1.146778408681051, 2.4194681644439697, -2.8245161215411585, -1.567089859639303, 2.7330992221832275]","[0.0003195793251506984, -8.948221511673182e-05, -0.0, -0.00023009712458588183, -7.669904152862728e-05, 0.0003834952076431364]","[0.0366210974752903, -3.918457508087158, -1.643247127532959, -0.4373932480812073, 0.0358886756002903, -0.01794433780014515]"
1584452849443194943,,1369704,,1584452849,442798663,'',"[shoulder_pan_joint, shoulder_lift_joint, elbow_joint, wrist_1_joint, wrist_2_joint,","[1.5141738653182983, -1.1467903296100062, 2.419504165649414, -2.82449180284609, -1.567101780568258, 2.7330992221832275]","[0.00012783173588104546, -7.669904152862728e-05, -0.0, -0.00013422331539914012, -7.669904152862728e-05, 0.00017257283616345376]","[0.0778198316693306, -3.872681140899658, -1.643247127532959, -0.4351502060890198, 0.0381317175924778, -0.01570129580795765]"
1584452849555216960,,1369718,,1584452849,554780866,'',"[shoulder_pan_joint, shoulder_lift_joint, elbow_joint, wrist_1_joint, wrist_2_joint,","[1.5141499042510986, -1.1467903296100062, 2.4194324016571045, -2.824503723775045, -1.567077938710348, 2.7330751419067383]","[7.669904152862728e-05, -5.1132694352418184e-05, -0.0, -7.669904152862728e-05, -7.669904152862728e-05, 9.58738019107841e-05]","[0.0411987341940403, -3.941345691680908, -1.641005277633667, -0.4261780083179474, 0.0403747595846653, -0.006729126907885075]"
1584452849667385871,,1369732,,1584452849,666814644,'',"[shoulder_pan_joint, shoulder_lift_joint, elbow_joint, wrist_1_joint, wrist_2_joint,","[1.5141619443893433, -1.1467660109149378, 2.4194681644439697, -2.824503723775045, -1.567077938710348, 2.7330751419067383]","[5.1132694352418184e-05, -3.834952076431364e-05, -0.0, -5.752428114647046e-05, -7.669904152862728e-05, 7.669904152862728e-05]","[0.0686645582318306, -3.890991687774658, -1.6566979885101318, -0.4127197563648224, 0.0448608435690403, -0.01570129580795765]"
1584452849779079084,,1369746,,1584452849,778656335,'',"[shoulder_pan_joint, shoulder_lift_joint, elbow_joint, wrist_1_joint, wrist_2_joint,","[1.5141619443893433, -1.146778408681051, 2.4194681644439697, -2.82449180284609, -1.5670536200152796, 2.7330873012542725]","[3.834952076431364e-05, -3.834952076431364e-05, -0.0, -5.752428114647046e-05, -5.752428114647046e-05, 5.752428114647046e-05]","[0.0457763709127903, -3.927612781524658, -1.645488977432251, -0.4172058403491974, 0.0471038855612278, -0.01345825381577015]"
1584452849891129985,,1369760,,1584452849,890627567,'',"[shoulder_pan_joint, shoulder_lift_joint, elbow_joint, wrist_1_joint, wrist_2_joint,","[1.5141738653182983, -1.1467421690570276, 2.4194324016571045, -2.82449180284609, -1.567077938710348, 2.7330992221832275]","[3.834952076431364e-05, -2.5566347176209092e-05, -0.0, -3.834952076431364e-05, -5.752428114647046e-05, 3.834952076431364e-05]","[0.0411987341940403, -3.918457508087158, -1.6387635469436646, -0.4261780083179474, 0.0426178015768528, -0.008972168900072575]"
1584452850003072424,,1369774,,1584452850,2677776,'',"[shoulder_pan_joint, shoulder_lift_joint, elbow_joint, wrist_1_joint, wrist_2_joint,","[1.5141499042510986, -1.1467660109149378, 2.419492244720459, -2.82449180284609, -1.567089859639303, 2.7331111431121826]","[2.5566347176209092e-05, -2.5566347176209092e-05, -0.0, -3.834952076431364e-05, -3.834952076431364e-05, 3.834952076431364e-05]","[0.0961303785443306, -3.932190418243408, -1.6589398384094238, -0.4239349663257599, 0.0471038855612278, -0.008972168900072575]"
1584452850115026623,,1369788,,1584452850,114632648,'',"[shoulder_pan_joint, shoulder_lift_joint, elbow_joint, wrist_1_joint, wrist_2_joint,","[1.5141379833221436, -1.1467540899859827, 2.4194443225860596, -2.8245161215411585, -1.567089859639303, 2.7330992221832275]","[2.5566347176209092e-05, -1.2783173588104546e-05, -0.0, -1.917476038215682e-05, -3.834952076431364e-05, 3.834952076431364e-05]","[0.1052856519818306, -3.872681140899658, -1.6477307081222534, -0.4059906303882599, 0.0538330152630806, -0.008972168900072575]"
1584452850227120014,,1369802,,1584452850,226681234,'',"[shoulder_pan_joint, shoulder_lift_joint, elbow_joint, wrist_1_joint, wrist_2_joint,","[1.514185905456543, -1.1467903296100062, 2.419504165649414, -2.82449180284609, -1.567077938710348, 2.7330751419067383]","[2.5566347176209092e-05, -1.2783173588104546e-05, -0.0, -1.917476038215682e-05, -1.917476038215682e-05, 1.917476038215682e-05]","[0.02288818545639515, -3.945923328399658, -1.641005277633667, -0.4306641221046448, 0.0358886756002903, -0.02018737979233265]"
1584452850339152901,,1369816,,1584452850,338751351,'',"[shoulder_pan_joint, shoulder_lift_joint, elbow_joint, wrist_1_joint, wrist_2_joint,","[1.514185905456543, -1.146778408681051, 2.4194681644439697, -2.824503723775045, -1.5670655409442347, 2.7330751419067383]","[1.2783173588104546e-05, -1.2783173588104546e-05, -0.0, -1.917476038215682e-05, -1.917476038215682e-05, 1.917476038215682e-05]","[0.0274658240377903, -3.941345691680908, -1.6522144079208374, -0.4463654160499573, 0.0403747595846653, -0.01345825381577015]"
1584452850451005021,,1369830,,1584452850,450636623,'',"[shoulder_pan_joint, shoulder_lift_joint, elbow_joint, wrist_1_joint, wrist_2_joint,","[1.514185905456543, -1.146778408681051, 2.4194681644439697, -2.824503723775045, -1.5670536200152796, 2.7330873012542725]","[1.2783173588104546e-05, -1.2783173588104546e-05, -0.0, -1.917476038215682e-05, -1.917476038215682e-05, 1.917476038215682e-05]","[0.0366210974752903, -3.923035144805908, -1.643247127532959, -0.4351502060890198, 0.0426178015768528, -0.011215210892260075]"
1584452850563002582,,1369844,,1584452850,562632060,'',"[shoulder_pan_joint, shoulder_lift_joint, elbow_joint, wrist_1_joint, wrist_2_joint,","[1.5141738653182983, -1.1467421690570276, 2.419480323791504, -2.824479881917135, -1.5671137014972132, 2.7330751419067383]","[1.2783173588104546e-05, -1.2783173588104546e-05, -0.0, -1.917476038215682e-05, -1.917476038215682e-05, 1.917476038215682e-05]","[0.1052856519818306, -3.918457508087158, -1.6566979885101318, -0.4037475883960724, 0.0403747595846653, -0.008972168900072575]"
1584452850675303510,,1369858,,1584452850,674820938,'',"[shoulder_pan_joint, shoulder_lift_joint, elbow_joint, wrist_1_joint, wrist_2_joint,","[1.5141499042510986, -1.1467183271991175, 2.419480323791504, -2.824503723775045, -1.5670416990863245, 2.7330992221832275]","[1.2783173588104546e-05, -1.2783173588104546e-05, -0.0, -1.917476038215682e-05, -1.917476038215682e-05, 1.917476038215682e-05]","[0.0503540076315403, -3.918457508087158, -1.6477307081222534, -0.4149627983570099, 0.0426178015768528, -0.01345825381577015]"
1584452850787028391,,1369872,,1584452850,786617464,'',"[shoulder_pan_joint, shoulder_lift_joint, elbow_joint, wrist_1_joint, wrist_2_joint,","[1.5141619443893433, -1.146778408681051, 2.4194681644439697, -2.82449180284609, -1.567077938710348, 2.7330636978149414]","[1.2783173588104546e-05, -1.2783173588104546e-05, -0.0, -1.917476038215682e-05, -1.917476038215682e-05, 1.917476038215682e-05]","[0.0732421949505806, -3.936768054962158, -1.643247127532959, -0.4172058403491974, 0.0358886756002903, -0.006729126907885075]"
1584452850899134175,,1369886,,1584452850,898657936,'',"[shoulder_pan_joint, shoulder_lift_joint, elbow_joint, wrist_1_joint, wrist_2_joint,","[1.5141499042510986, -1.1467903296100062, 2.419480323791504, -2.824479881917135, -1.567089859639303, 2.7330873012542725]","[1.2783173588104546e-05, -1.2783173588104546e-05, -0.0, -1.917476038215682e-05, -1.917476038215682e-05, 1.917476038215682e-05]","[0.0503540076315403, -3.959656238555908, -1.643247127532959, -0.4216919243335724, 0.0448608435690403, -0.011215210892260075]"
1584452851011069259,,1369900,,1584452851,10626923,'',"[shoulder_pan_joint, shoulder_lift_joint, elbow_joint, wrist_1_joint, wrist_2_joint,","[1.5141738653182983, -1.1467540899859827, 2.4194562435150146, -2.8245161215411585, -1.5670655409442347, 2.7330873012542725]","[1.2783173588104546e-05, -1.2783173588104546e-05, -0.0, -1.917476038215682e-05, -1.917476038215682e-05, 1.917476038215682e-05]","[0.1190185695886612, -3.854370594024658, -1.6365216970443726, -0.4306641221046448, 0.0471038855612278, -0.01345825381577015]"
1584452851123066490,,1369914,,1584452851,122660141,'',"[shoulder_pan_joint, shoulder_lift_joint, elbow_joint, wrist_1_joint, wrist_2_joint,","[1.5141499042510986, -1.1467660109149378, 2.4194681644439697, -2.8245280424701136, -1.567089859639303, 2.7330873012542725]","[1.2783173588104546e-05, 0.0, -0.0, 0.0, -1.917476038215682e-05, 0.0]","[0.1007080152630806, -3.959656238555908, -1.6499725580215454, -0.4306641221046448, 0.0358886756002903, -0.01570129580795765]"
1584452851235063992,,1369928,,1584452851,234723716,'',"[shoulder_pan_joint, shoulder_lift_joint, elbow_joint, wrist_1_joint, wrist_2_joint,","[1.5141738653182983, -1.1467903296100062, 2.419492244720459, -2.824503723775045, -1.5670297781573694, 2.7330751419067383]","[0.0, 0.0, -0.0, 0.0, 0.0, 0.0]","[0.0686645582318306, -3.932190418243408, -1.6566979885101318, -0.4373932480812073, 0.0538330152630806, -0.011215210892260075]"
1584452851346935788,,1369942,,1584452851,346599960,'',"[shoulder_pan_joint, shoulder_lift_joint, elbow_joint, wrist_1_joint, wrist_2_joint,","[1.5141619443893433, -1.1467660109149378, 2.4194562435150146, -2.8245280424701136, -1.567077938710348, 2.733039617538452]","[0.0, 0.0, -0.0, 0.0, 0.0, -0.00697961263358593]","[0.0961303785443306, -3.904724597930908, -1.6522144079208374, -0.4261780083179474, 0.0403747595846653, -0.1614990383386612]"
1584452851459107414,,1369956,,1584452851,458612640,'',"[shoulder_pan_joint, shoulder_lift_joint, elbow_joint, wrist_1_joint, wrist_2_joint,","[1.5141738653182983, -1.1467540899859827, 2.419480323791504, -2.8245161215411585, -1.5670655409442347, 2.7270045280456543]","[0.0, 0.0, -0.0, 0.0, 0.0, -0.13155803084373474]","[0.0503540076315403, -3.895569324493408, -1.6544561386108398, -0.4441223740577698, 0.0448608435690403, -0.3297272026538849]"
1584452851571016800,,1369970,,1584452851,570687906,'',"[shoulder_pan_joint, shoulder_lift_joint, elbow_joint, wrist_1_joint, wrist_2_joint,","[1.5141738653182983, -1.146778408681051, 2.4194562435150146, -2.8245280424701136, -1.567077938710348, 2.7059314250946045]","[0.0, 0.0, -0.0, 0.0, 0.0, -0.20271556079387665]","[0.0778198316693306, -3.900146961212158, -1.645488977432251, -0.4239349663257599, 0.0358886756002903, -0.3835602104663849]"
1584452851683061049,,1369984,,1584452851,682589899,'',"[shoulder_pan_joint, shoulder_lift_joint, elbow_joint, wrist_1_joint, wrist_2_joint,","[1.5141379833221436, -1.1467421690570276, 2.4194562435150146, -2.82449180284609, -1.5670297781573694, 2.6833133697509766]","[0.0, 0.0, -0.0, 0.0, 0.0, -0.20041459798812866]","[0.01831054873764515, -3.872681140899658, -1.643247127532959, -0.4486084580421448, 0.0471038855612278, -0.4553375840187073]"
1584452851795256329,,1369998,,1584452851,794758299,'',"[shoulder_pan_joint, shoulder_lift_joint, elbow_joint, wrist_1_joint, wrist_2_joint,","[1.5141499042510986, -1.146778408681051, 2.4194562435150146, -2.82449180284609, -1.5670297781573694, 2.6608033180236816]","[0.0, 0.0, -0.0, 0.0, 0.0, -0.20227454602718353]","[-0.0869751051068306, -3.845215320587158, -1.6566979885101318, -0.4418793320655823, 0.0426178015768528, -0.3588867485523224]"
1584452851907038308,,1370012,,1584452851,906611721,'',"[shoulder_pan_joint, shoulder_lift_joint, elbow_joint, wrist_1_joint, wrist_2_joint,","[1.5141499042510986, -1.146778408681051, 2.419480323791504, -2.824503723775045, -1.5670416990863245, 2.6384856700897217]","[0.0, 0.0, -0.0, 0.0, 0.0, -0.2007022202014923]","[-0.2288818657398224, -3.886414051055908, -1.6365216970443726, -0.4172058403491974, 0.0336456336081028, -0.4889832139015198]"
1584452852019143390,,1370026,,1584452852,18663013,'',"[shoulder_pan_joint, shoulder_lift_joint, elbow_joint, wrist_1_joint, wrist_2_joint,","[1.5141619443893433, -1.1467903296100062, 2.419480323791504, -2.824479881917135, -1.5670416990863245, 2.6160120964050293]","[0.0, 0.0, -0.0, 0.0, 0.0, -0.2013925015926361]","[-0.2563476860523224, -3.913879871368408, -1.643247127532959, -0.4530945420265198, 0.0314025916159153, -0.4015045464038849]"
1584452852131111346,,1370040,,1584452852,130667096,'',"[shoulder_pan_joint, shoulder_lift_joint, elbow_joint, wrist_1_joint, wrist_2_joint,","[1.5141499042510986, -1.1467540899859827, 2.4194681644439697, -2.824503723775045, -1.5670178572284144, 2.59352707862854]","[0.0, 0.0, -0.0, 0.0, 0.0, -0.19692479074001312]","[-0.1876831203699112, -3.872681140899658, -1.6365216970443726, -0.4104767143726349, 0.02018737979233265, -0.4822540879249573]"
1584452852243074403,,1370054,,1584452852,242709060,'',"[shoulder_pan_joint, shoulder_lift_joint, elbow_joint, wrist_1_joint, wrist_2_joint,","[1.5141619443893433, -1.1467660109149378, 2.419492244720459, -2.824503723775045, -1.5670059362994593, 2.5712461471557617]","[0.0, 0.0, -0.0, 0.0, 0.0, -0.2013925015926361]","[-0.1281738430261612, -3.945923328399658, -1.643247127532959, -0.4194488823413849, -0.01570129580795765, -0.4441223740577698]"
1584452852354940739,,1370068,,1584452852,354536274,'',"[shoulder_pan_joint, shoulder_lift_joint, elbow_joint, wrist_1_joint, wrist_2_joint,","[1.5141619443893433, -1.1467660109149378, 2.419480323791504, -2.82449180284609, -1.5669577757464808, 2.548785448074341]","[0.0, 0.0, -0.0, 0.0, 0.0, -0.19895730912685394]","[-0.1876831203699112, -3.904724597930908, -1.643247127532959, -0.4329071640968323, -0.0605621412396431, -0.4441223740577698]"
1584452852467186604,,1370082,,1584452852,466639883,'',"[shoulder_pan_joint, shoulder_lift_joint, elbow_joint, wrist_1_joint, wrist_2_joint,","[1.5141379833221436, -1.1467903296100062, 2.419492244720459, -2.8245161215411585, -1.5670297781573694, 2.5263493061065674]","[0.0, 0.0, -0.0, 0.0, 0.0, -0.19959008693695068]","[-0.1876831203699112, -3.868103504180908, -1.643247127532959, -0.4239349663257599, -0.1413116604089737, -0.4844971299171448]"
1584452852579255328,,1370096,,1584452852,578736700,'',"[shoulder_pan_joint, shoulder_lift_joint, elbow_joint, wrist_1_joint, wrist_2_joint,","[1.5141619443893433, -1.146778408681051, 2.4194562435150146, -2.8245280424701136, -1.5671375433551233, 2.5039491653442383]","[0.0, 0.0, -0.0, 0.0, -0.0005560680292546749, -0.20194856822490692]","[-0.1693725734949112, -3.932190418243408, -1.6342798471450806, -0.4172058403491974, -0.1211242824792862, -0.4127197563648224]"
1584452852691190843,,1370110,,1584452852,690630567,'',"[shoulder_pan_joint, shoulder_lift_joint, elbow_joint, wrist_1_joint, wrist_2_joint,","[1.5141499042510986, -1.1467903296100062, 2.4194562435150146, -2.824503723775045, -1.5671256224261683, 2.481621026992798]","[0.0, 0.0, -0.0, 0.0, -0.0001917476038215682, -0.19895730912685394]","[-0.1785278469324112, -3.890991687774658, -1.643247127532959, -0.4194488823413849, -0.1278534084558487, -0.5046845078468323]"
1584452852802926866,,1370124,,1584452852,802541827,'',"[shoulder_pan_joint, shoulder_lift_joint, elbow_joint, wrist_1_joint, wrist_2_joint,","[1.514185905456543, -1.1467421690570276, 2.4194681644439697, -2.82449180284609, -1.567101780568258, 2.4592807292938232]","[0.0, 0.0, -0.0, 0.0, -0.00011504856229294091, -0.20112405717372894]","[-0.0915527418255806, -3.900146961212158, -1.643247127532959, -0.4351502060890198, -0.1233673244714737, -0.3947754204273224]"
1584452852914859225,,1370138,,1584452852,914493562,'',"[shoulder_pan_joint, shoulder_lift_joint, elbow_joint, wrist_1_joint, wrist_2_joint,","[1.5141738653182983, -1.1467660109149378, 2.4194562435150146, -2.82449180284609, -1.5671137014972132, 2.4367854595184326]","[0.0, 0.0, -0.0, 0.0, -7.669904152862728e-05, -0.19951337575912476]","[-0.2014160305261612, -3.868103504180908, -1.6566979885101318, -0.4194488823413849, -0.1233673244714737, -0.4239349663257599]"
1584452853026930214,,1370152,,1584452853,26569721,'',"[shoulder_pan_joint, shoulder_lift_joint, elbow_joint, wrist_1_joint, wrist_2_joint,","[1.5141499042510986, -1.1467302481280726, 2.419480323791504, -2.824479881917135, -1.5671256224261683, 2.4144697189331055]","[0.0, 0.0, -0.0, 0.0, -5.752428114647046e-05, -0.1995709091424942]","[-0.2380371391773224, -3.918457508087158, -1.6387635469436646, -0.4373932480812073, -0.1300964504480362, -0.3992615044116974]"
1584452853138867793,,1370166,,1584452853,138532747,'',"[shoulder_pan_joint, shoulder_lift_joint, elbow_joint, wrist_1_joint, wrist_2_joint,","[1.5141619443893433, -1.146778408681051, 2.4194562435150146, -2.82449180284609, -1.567089859639303, 2.392106294631958]","[0.0, 0.0, -0.0, 0.0, -3.834952076431364e-05, -0.19822867214679718]","[-0.1876831203699112, -3.881836414337158, -1.641005277633667, -0.4172058403491974, -0.1300964504480362, -0.4620667099952698]"
1584452853251168541,,1370180,,1584452853,250548332,'',"[shoulder_pan_joint, shoulder_lift_joint, elbow_joint, wrist_1_joint, wrist_2_joint,","[1.514185905456543, -1.1467660109149378, 2.419492244720459, -2.824479881917135, -1.567077938710348, 2.369671583175659]","[0.0, 0.0, -0.0, 0.0, -3.834952076431364e-05, -0.2008172571659088]","[-0.1876831203699112, -3.881836414337158, -1.6589398384094238, -0.4418793320655823, -0.1188812404870987, -0.4172058403491974]"
1584452853362891950,,1370194,,1584452853,362480181,'',"[shoulder_pan_joint, shoulder_lift_joint, elbow_joint, wrist_1_joint, wrist_2_joint,","[1.5141499042510986, -1.1467540899859827, 2.4195163249969482, -2.824503723775045, -1.5671137014972132, 2.3472366333007812]","[0.0, 0.0, -0.0, 0.0, -3.834952076431364e-05, -0.1994558572769165]","[-0.2334595024585724, -3.909302234649658, -1.6499725580215454, -0.4261780083179474, -0.1323394924402237, -0.4418793320655823]"
1584452853475211863,,1370208,,1584452853,474617713,'',"[shoulder_pan_joint, shoulder_lift_joint, elbow_joint, wrist_1_joint, wrist_2_joint,","[1.5141619443893433, -1.1468022505389612, 2.419480323791504, -2.824479881917135, -1.5671256224261683, 2.3249573707580566]","[0.0, 0.0, -0.0, 0.0, -1.917476038215682e-05, -0.20131580531597137]","[-0.2517700493335724, -3.932190418243408, -1.641005277633667, -0.4351502060890198, -0.1256103664636612, -0.5495453476905823]"
1584452853586996808,,1370222,,1584452853,586555954,'',"[shoulder_pan_joint, shoulder_lift_joint, elbow_joint, wrist_1_joint, wrist_2_joint,","[1.5141619443893433, -1.1467660109149378, 2.419480323791504, -2.82444411913027, -1.5671256224261683, 2.302414894104004]","[0.0, 0.0, -0.0, 0.0, -1.917476038215682e-05, -0.20194856822490692]","[-0.2059936672449112, -3.977966785430908, -1.6499725580215454, -0.4396362900733948, -0.1233673244714737, -0.3521576225757599]"
1584452853698896586,,1370236,,1584452853,698480038,'',"[shoulder_pan_joint, shoulder_lift_joint, elbow_joint, wrist_1_joint, wrist_2_joint,","[1.514185905456543, -1.1467540899859827, 2.419504165649414, -2.82446796098818, -1.5671137014972132, 2.280064105987549]","[0.0, 0.0, -0.0, 0.0, -1.917476038215682e-05, -0.1986505091190338]","[-0.2288818657398224, -3.927612781524658, -1.645488977432251, -0.4329071640968323, -0.1300964504480362, -0.5271149277687073]"
1584452853810899517,,1370250,,1584452853,810442514,'',"[shoulder_pan_joint, shoulder_lift_joint, elbow_joint, wrist_1_joint, wrist_2_joint,","[1.5141499042510986, -1.1467540899859827, 2.4195401668548584, -2.8245280424701136, -1.567077938710348, 2.257736921310425]","[0.0, 0.0, -0.0, 0.0, -1.917476038215682e-05, -0.20258134603500366]","[-0.2426147758960724, -3.909302234649658, -1.6544561386108398, -0.4598236680030823, -0.1233673244714737, -0.4261780083179474]"
1584452853922984431,,1370264,,1584452853,922510977,'',"[shoulder_pan_joint, shoulder_lift_joint, elbow_joint, wrist_1_joint, wrist_2_joint,","[1.5141738653182983, -1.1467660109149378, 2.4195163249969482, -2.82446796098818, -1.5671137014972132, 2.235266923904419]","[0.0, 0.0, -0.0, 0.0, -1.917476038215682e-05, -0.198094442486763]","[-0.2105713039636612, -3.895569324493408, -1.6387635469436646, -0.4239349663257599, -0.1323394924402237, -0.5383301377296448]"
1584452854034828687,,1370278,,1584452854,34426155,'',"[shoulder_pan_joint, shoulder_lift_joint, elbow_joint, wrist_1_joint, wrist_2_joint,","[1.5141379833221436, -1.1467903296100062, 2.419504165649414, -2.824456040059225, -1.567101780568258, 2.2128684520721436]","[0.0, 0.0, -0.0, 0.0, -1.917476038215682e-05, -0.1995709091424942]","[-0.2563476860523224, -3.895569324493408, -1.645488977432251, -0.4239349663257599, -0.1323394924402237, -0.4463654160499573]"
1584452854146869388,,1370292,,1584452854,146477857,'',"[shoulder_pan_joint, shoulder_lift_joint, elbow_joint, wrist_1_joint, wrist_2_joint,","[1.5141738653182983, -1.1467540899859827, 2.419480323791504, -2.82444411913027, -1.567101780568258, 2.190446376800537]","[0.0, 0.0, -0.0, 0.0, -1.917476038215682e-05, -0.1992449313402176]","[-0.1739502102136612, -3.877258777618408, -1.6522144079208374, -0.4575806260108948, -0.1323394924402237, -0.5069275498390198]"
1584452854258974491,,1370306,,1584452854,258466181,'',"[shoulder_pan_joint, shoulder_lift_joint, elbow_joint, wrist_1_joint, wrist_2_joint,","[1.5141379833221436, -1.1467302481280726, 2.419504165649414, -2.82449180284609, -1.5671256224261683, 2.168107748031616]","[0.0, 0.0, -0.0, 0.0, -1.917476038215682e-05, -0.20097066462039948]","[-0.2334595024585724, -3.904724597930908, -1.645488977432251, -0.3813171684741974, -0.1345825344324112, -0.4261780083179474]"
1584452854370973745,,1370320,,1584452854,370524536,'',"[shoulder_pan_joint, shoulder_lift_joint, elbow_joint, wrist_1_joint, wrist_2_joint,","[1.514185905456543, -1.1467540899859827, 2.4195282459259033, -2.82446796098818, -1.567101780568258, 2.145721673965454]","[0.0, 0.0, -0.0, 0.0, 0.0, -0.19993522763252258]","[-0.2609253227710724, -3.918457508087158, -1.6566979885101318, -0.4284210503101349, -0.1323394924402237, -0.4800110459327698]"
1584452854482931792,,1370334,,1584452854,482576579,'',"[shoulder_pan_joint, shoulder_lift_joint, elbow_joint, wrist_1_joint, wrist_2_joint,","[1.5141738653182983, -1.1468022505389612, 2.419504165649414, -2.82449180284609, -1.5671375433551233, 2.123215675354004]","[0.0, 0.0, -0.0, 0.0, 0.0, -0.20089396834373474]","[-0.3021240532398224, -3.959656238555908, -1.6522144079208374, -0.4059906303882599, -0.1300964504480362, -0.5001984238624573]"
1584452854594882456,,1370348,,1584452854,594523265,'',"[shoulder_pan_joint, shoulder_lift_joint, elbow_joint, wrist_1_joint, wrist_2_joint,","[1.5141738653182983, -1.146778408681051, 2.419504165649414, -2.82446796098818, -1.567089859639303, 2.100745439529419]","[0.0, 0.0, -0.0, 0.0, 0.0, -0.20229372382164001]","[-0.4028320610523224, -3.913879871368408, -1.6477307081222534, -0.4553375840187073, -0.1256103664636612, -0.4104767143726349]"
1584452854706910334,,1370362,,1584452854,706453831,'',"[shoulder_pan_joint, shoulder_lift_joint, elbow_joint, wrist_1_joint, wrist_2_joint,","[1.5141499042510986, -1.1467903296100062, 2.4195282459259033, -2.82444411913027, -1.567101780568258, 2.07846736907959]","[0.0, 0.0, -0.0, 0.0, 0.0, -0.19773012399673462]","[-0.2883911430835724, -3.918457508087158, -1.6589398384094238, -0.4553375840187073, -0.1256103664636612, -0.5585175156593323]"
1584452854818777501,,1370376,,1584452854,818427588,'',"[shoulder_pan_joint, shoulder_lift_joint, elbow_joint, wrist_1_joint, wrist_2_joint,","[1.5141499042510986, -1.1467660109149378, 2.4195163249969482, -2.82446796098818, -1.567089859639303, 2.0559017658233643]","[0.0, 0.0, -0.0, 0.0, 0.0, -0.20089396834373474]","[-0.3387451469898224, -3.982544422149658, -1.6522144079208374, -0.4373932480812073, -0.1300964504480362, -0.4396362900733948]"
1584452854930988912,,1370390,,1584452854,930648216,'',"[shoulder_pan_joint, shoulder_lift_joint, elbow_joint, wrist_1_joint, wrist_2_joint,","[1.5141499042510986, -1.1467302481280726, 2.4195163249969482, -2.824456040059225, -1.567077938710348, 2.033622980117798]","[0.0, 0.0, -0.0, 0.0, 0.0, -0.19642624258995056]","[-0.3112793266773224, -3.955078601837158, -1.6522144079208374, -0.4620667099952698, -0.1300964504480362, -0.5293579697608948]"
1584452855042762635,,1370404,,1584452855,42425866,'',"[shoulder_pan_joint, shoulder_lift_joint, elbow_joint, wrist_1_joint, wrist_2_joint,","[1.5141499042510986, -1.1467660109149378, 2.4195282459259033, -2.82446796098818, -1.567101780568258, 2.0112485885620117]","[0.0, 0.0, -0.0, 0.0, 0.0, -0.20062552392482758]","[-0.3341675102710724, -3.877258777618408, -1.6679069995880127, -0.5136566758155823, -0.1368255764245987, -0.5069275498390198]"
1584452855154737093,,1370418,,1584452855,154422586,'',"[shoulder_pan_joint, shoulder_lift_joint, elbow_joint, wrist_1_joint, wrist_2_joint,","[1.5141499042510986, -1.1467421690570276, 2.4195401668548584, -2.824456040059225, -1.567077938710348, 1.9887300729751587]","[0.0, 0.0, -0.0, 0.0, 0.0, -0.19884225726127625]","[-0.2838135063648224, -3.868103504180908, -1.6679069995880127, -0.5764618515968323, -0.1233673244714737, -0.5091705918312073]"
1584452855266993808,,1370432,,1584452855,266500116,'',"[shoulder_pan_joint, shoulder_lift_joint, elbow_joint, wrist_1_joint, wrist_2_joint,","[1.514125943183899, -1.1467540899859827, 2.4195163249969482, -2.824479881917135, -1.5671137014972132, 1.9663679599761963]","[0.0, 0.0, -0.0, 0.0, 0.0, -0.19895730912685394]","[-0.3067016899585724, -3.881836414337158, -1.679116129875183, -0.5226288437843323, -0.1323394924402237, -0.5001984238624573]"
1584452855379007810,,1370446,,1584452855,378539015,'',"[shoulder_pan_joint, shoulder_lift_joint, elbow_joint, wrist_1_joint, wrist_2_joint,","[1.5141738653182983, -1.1467421690570276, 2.4195163249969482, -2.82446796098818, -1.5671137014972132, 1.9440053701400757]","[0.0, 0.0, -0.0, 0.0, 0.0, -0.20210197567939758]","[-0.3433227837085724, -3.872681140899658, -1.692566990852356, -0.5271149277687073, -0.1323394924402237, -0.4530945420265198]"
1584452855490837619,,1370460,,1584452855,490445326,'',"[shoulder_pan_joint, shoulder_lift_joint, elbow_joint, wrist_1_joint, wrist_2_joint,","[1.5141379833221436, -1.146778408681051, 2.4195401668548584, -2.82449180284609, -1.567077938710348, 1.921570897102356]","[0.0, 0.0, -0.0, 0.0, 0.0, -0.1984395980834961]","[-0.3204346001148224, -3.890991687774658, -1.679116129875183, -0.5540314316749573, -0.1233673244714737, -0.5854340195655823]"
1584452855602849116,,1370474,,1584452855,602450832,'',"[shoulder_pan_joint, shoulder_lift_joint, elbow_joint, wrist_1_joint, wrist_2_joint,","[1.5141738653182983, -1.146778408681051, 2.4195282459259033, -2.82444411913027, -1.567101780568258, 1.899183988571167]","[0.0, 0.0, -0.0, 0.0, 0.0, -0.1992449313402176]","[-0.3250122368335724, -3.877258777618408, -1.6858415603637695, -0.5899201035499573, -0.1233673244714737, -0.4665527939796448]"
1584452855714769102,,1370488,,1584452855,714367572,'',"[shoulder_pan_joint, shoulder_lift_joint, elbow_joint, wrist_1_joint, wrist_2_joint,","[1.5141738653182983, -1.1467660109149378, 2.4195401668548584, -2.82446796098818, -1.567101780568258, 1.876773476600647]","[0.0, 0.0, -0.0, 0.0, 0.0, -0.19976265728473663]","[-0.2746582329273224, -3.872681140899658, -1.7194687128067017, -0.5360870957374573, -0.1188812404870987, -0.6325379014015198]"
1584452855826851802,,1370502,,1584452855,826430726,'',"[shoulder_pan_joint, shoulder_lift_joint, elbow_joint, wrist_1_joint, wrist_2_joint,","[1.5141738653182983, -1.1467540899859827, 2.4195163249969482, -2.82446796098818, -1.567101780568258, 1.854386568069458]","[0.0, 0.0, -0.0, 0.0, 0.0, -0.19966678321361542]","[-0.3433227837085724, -3.913879871368408, -1.7530958652496338, -0.5809479355812073, -0.1166381984949112, -0.4867401719093323]"
1584452855938949170,,1370516,,1584452855,938412698,'',"[shoulder_pan_joint, shoulder_lift_joint, elbow_joint, wrist_1_joint, wrist_2_joint,","[1.514185905456543, -1.1467540899859827, 2.4195282459259033, -2.824456040059225, -1.5670655409442347, 1.8320116996765137]","[0.0, 0.0, -0.0, 0.0, 0.0, -0.19822867214679718]","[-0.3021240532398224, -3.909302234649658, -1.8562191724777222, -0.5854340195655823, -0.1323394924402237, -0.5114136338233948]"
1584452856050777124,,1370530,,1584452856,50371637,'',"[shoulder_pan_joint, shoulder_lift_joint, elbow_joint, wrist_1_joint, wrist_2_joint,","[1.5141738653182983, -1.1467660109149378, 2.4195401668548584, -2.82446796098818, -1.567101780568258, 1.8096363544464111]","[0.0, 0.0, -0.0, 0.0, 0.0, -0.20100900530815125]","[-0.3067016899585724, -3.913879871368408, -1.9727933406829834, -0.5069275498390198, -0.1300964504480362, -0.4822540879249573]"
1584452856162735122,,1370544,,1584452856,162346065,'',"[shoulder_pan_joint, shoulder_lift_joint, elbow_joint, wrist_1_joint, wrist_2_joint,","[1.5141619443893433, -1.1467903296100062, 2.4195642471313477, -2.82444411913027, -1.567077938710348, 1.7872730493545532]","[0.0, 0.0, -0.0, 0.0, 0.0, -0.1991107165813446]","[-0.3295898735523224, -3.909302234649658, -1.9884859323501587, -0.5203858017921448, -0.1256103664636612, -0.4912262558937073]"
1584452856274793687,,1370558,,1584452856,274400302,'',"[shoulder_pan_joint, shoulder_lift_joint, elbow_joint, wrist_1_joint, wrist_2_joint,","[1.5141499042510986, -1.146778408681051, 2.4195282459259033, -2.824479881917135, -1.567089859639303, 1.7649333477020264]","[0.0, 0.0, -0.0, 0.0, 0.0, -0.2007022202014923]","[-0.2883911430835724, -3.909302234649658, -1.9862442016601562, -0.5360870957374573, -0.1278534084558487, -0.4844971299171448]"
1584452856386926431,,1370572,,1584452856,386467163,'',"[shoulder_pan_joint, shoulder_lift_joint, elbow_joint, wrist_1_joint, wrist_2_joint,","[1.5141499042510986, -1.1467540899859827, 2.4195163249969482, -2.82446796098818, -1.567089859639303, 1.742425799369812]","[0.0, 0.0, -0.0, 0.0, 0.0, -0.20206362009048462]","[-0.3158569633960724, -3.959656238555908, -2.015387773513794, -0.6415100693702698, -0.1233673244714737, -0.4261780083179474]"
1584452856498762961,,1370586,,1584452856,498411514,'',"[shoulder_pan_joint, shoulder_lift_joint, elbow_joint, wrist_1_joint, wrist_2_joint,","[1.5141379833221436, -1.1467660109149378, 2.4195163249969482, -2.82444411913027, -1.567077938710348, 1.7201097011566162]","[0.0, 0.0, -0.0, 0.0, 0.0, -0.19813279807567596]","[-0.2975464165210724, -3.918457508087158, -2.017629384994507, -0.5809479355812073, -0.1323394924402237, -0.5114136338233948]"
1584452856610796860,,1370600,,1584452856,610395040,'',"[shoulder_pan_joint, shoulder_lift_joint, elbow_joint, wrist_1_joint, wrist_2_joint,","[1.5141738653182983, -1.1467421690570276, 2.4195163249969482, -2.82444411913027, -1.567089859639303, 1.697685718536377]","[0.0, 0.0, -0.0, 0.0, 0.0, -0.20248547196388245]","[-0.3250122368335724, -3.927612781524658, -2.001936912536621, -0.6302948594093323, -0.1211242824792862, -0.4575806260108948]"
1584452856722764916,,1370614,,1584452856,722364087,'',"[shoulder_pan_joint, shoulder_lift_joint, elbow_joint, wrist_1_joint, wrist_2_joint,","[1.5141738653182983, -1.1467421690570276, 2.4195163249969482, -2.8244321982013147, -1.567077938710348, 1.6752737760543823]","[0.0, 0.0, -0.0, 0.0, 0.0, -0.19742333889007568]","[-0.3295898735523224, -3.923035144805908, -2.0355639457702637, -0.6415100693702698, -0.1300964504480362, -0.5607605576515198]"
1584452856834811389,,1370628,,1584452856,834405331,'',"[shoulder_pan_joint, shoulder_lift_joint, elbow_joint, wrist_1_joint, wrist_2_joint,","[1.5141379833221436, -1.1467903296100062, 2.4195282459259033, -2.824456040059225, -1.5670655409442347, 1.6528968811035156]","[0.0, 0.0, -0.0, 0.0, 0.0, -0.1991107165813446]","[-0.3295898735523224, -3.895569324493408, -2.0467729568481445, -0.5787048935890198, -0.1323394924402237, -0.4643097519874573]"
1584452856946856278,,1370642,,1584452856,946452444,'',"[shoulder_pan_joint, shoulder_lift_joint, elbow_joint, wrist_1_joint, wrist_2_joint,","[1.5141738653182983, -1.1467660109149378, 2.4195401668548584, -2.824479881917135, -1.5670655409442347, 1.630472183227539]","[0.0, 0.0, -0.0, 0.0, 0.0, -0.1984395980834961]","[-0.3341675102710724, -3.900146961212158, -2.0422894954681396, -0.6370239853858948, -0.1233673244714737, -0.5383301377296448]"
1584452857058668864,,1370656,,1584452857,58304464,'',"[shoulder_pan_joint, shoulder_lift_joint, elbow_joint, wrist_1_joint, wrist_2_joint,","[1.514185905456543, -1.1467540899859827, 2.4195282459259033, -2.824456040059225, -1.5670655409442347, 1.6080471277236938]","[0.0, 0.0, -0.0, 0.0, 0.0, -0.20020367205142975]","[-0.3250122368335724, -3.913879871368408, -2.028838634490967, -0.6594544053077698, -0.1345825344324112, -0.5001984238624573]"
1584452857170797881,,1370670,,1584452857,170366665,'',"[shoulder_pan_joint, shoulder_lift_joint, elbow_joint, wrist_1_joint, wrist_2_joint,","[1.5141499042510986, -1.1467183271991175, 2.4195163249969482, -2.824456040059225, -1.5670655409442347, 1.5856579542160034]","[0.0, 0.0, -0.0, 0.0, 0.0, -0.19895730912685394]","[-0.3112793266773224, -3.877258777618408, -2.026596784591675, -0.6011353135108948, -0.1278534084558487, -0.4934692978858948]"
1584452857282796775,,1370684,,1584452857,282403560,'',"[shoulder_pan_joint, shoulder_lift_joint, elbow_joint, wrist_1_joint, wrist_2_joint,","[1.5141499042510986, -1.1467540899859827, 2.4195520877838135, -2.82446796098818, -1.567077938710348, 1.5633163452148438]","[0.0, 0.0, -0.0, 0.0, 0.0, -0.19993522763252258]","[-0.3936767876148224, -3.941345691680908, -2.0714330673217773, -0.5876770615577698, -0.1323394924402237, -0.5360870957374573]"
1584452857394735115,,1370698,,1584452857,394364252,'',"[shoulder_pan_joint, shoulder_lift_joint, elbow_joint, wrist_1_joint, wrist_2_joint,","[1.5141619443893433, -1.1467903296100062, 2.419504165649414, -2.824479881917135, -1.5670655409442347, 1.5409024953842163]","[0.0, 0.0, -0.0, 0.0, 0.0, -0.20281143486499786]","[-0.3295898735523224, -3.913879871368408, -2.0467729568481445, -0.6302948594093323, -0.1323394924402237, -0.4194488823413849]"
1584452857506984687,,1370712,,1584452857,506476228,'',"[shoulder_pan_joint, shoulder_lift_joint, elbow_joint, wrist_1_joint, wrist_2_joint,","[1.5141499042510986, -1.1467660109149378, 2.4195520877838135, -2.82446796098818, -1.567077938710348, 1.5185362100601196]","[0.0, 0.0, -0.0, 0.0, 0.0, -0.19822867214679718]","[-0.3204346001148224, -3.895569324493408, -2.0490148067474365, -0.6347809433937073, -0.1233673244714737, -0.7334747910499573]"
1584452857618822661,,1370726,,1584452857,618390774,'',"[shoulder_pan_joint, shoulder_lift_joint, elbow_joint, wrist_1_joint, wrist_2_joint,","[1.5141738653182983, -1.1467302481280726, 2.4195401668548584, -2.824456040059225, -1.567077938710348, 1.496002435684204]","[0.0, 0.0, -0.0, 0.0, 0.0, -0.20110487937927246]","[-0.3890991508960724, -3.918457508087158, -2.0602238178253174, -0.6504822373390198, -0.1345825344324112, -0.4777680039405823]"
1584452857730780808,,1370740,,1584452857,730374619,'',"[shoulder_pan_joint, shoulder_lift_joint, elbow_joint, wrist_1_joint, wrist_2_joint,","[1.5141738653182983, -1.1467540899859827, 2.4195282459259033, -2.82446796098818, -1.5670416990863245, 1.4736469984054565]","[0.0, 0.0, -0.0, 0.0, 0.0, -0.19692479074001312]","[-0.2975464165210724, -3.890991687774658, -2.0512566566467285, -0.6123505234718323, -0.1323394924402237, -0.5495453476905823]"
1584452857842718578,,1370754,,1584452857,842348457,'',"[shoulder_pan_joint, shoulder_lift_joint, elbow_joint, wrist_1_joint, wrist_2_joint,","[1.5141738653182983, -1.1467540899859827, 2.4195163249969482, -2.8244321982013147, -1.5670655409442347, 1.4512563943862915]","[0.0, 0.0, -0.0, 0.0, 0.0, -0.20131580531597137]","[-0.3616333305835724, -3.904724597930908, -2.0557403564453125, -0.6213226914405823, -0.1256103664636612, -0.5316010117530823]"
1584452857954758227,,1370768,,1584452857,954368840,'',"[shoulder_pan_joint, shoulder_lift_joint, elbow_joint, wrist_1_joint, wrist_2_joint,","[1.5141619443893433, -1.1467302481280726, 2.4195642471313477, -2.82446796098818, -1.567101780568258, 1.428745150566101]","[0.0, 0.0, -0.0, 0.0, 0.0, -0.1992449313402176]","[-0.3341675102710724, -3.890991687774658, -2.0624656677246094, -0.6123505234718323, -0.1233673244714737, -0.5495453476905823]"
1584452858066828164,,1370782,,1584452858,66321388,'',"[shoulder_pan_joint, shoulder_lift_joint, elbow_joint, wrist_1_joint, wrist_2_joint,","[1.5141738653182983, -1.1467660109149378, 2.4195520877838135, -2.824479881917135, -1.567101780568258, 1.406461238861084]","[0.0, 0.0, -0.0, 0.0, 0.0, -0.19966678321361542]","[-0.3662109673023224, -3.927612781524658, -2.080400228500366, -0.6302948594093323, -0.1323394924402237, -0.5158997178077698]"
1584452858178890847,,1370796,,1584452858,178391424,'',"[shoulder_pan_joint, shoulder_lift_joint, elbow_joint, wrist_1_joint, wrist_2_joint,","[1.5141619443893433, -1.1467302481280726, 2.4195163249969482, -2.824456040059225, -1.5670655409442347, 1.3839612007141113]","[0.0, 0.0, -0.0, 0.0, 0.0, -0.20237042009830475]","[-0.3982544243335724, -3.886414051055908, -2.080400228500366, -0.6325379014015198, -0.1233673244714737, -0.4979553818702698]"
1584452858290736715,,1370810,,1584452858,290328342,'',"[shoulder_pan_joint, shoulder_lift_joint, elbow_joint, wrist_1_joint, wrist_2_joint,","[1.5141619443893433, -1.1467540899859827, 2.419504165649414, -2.824456040059225, -1.567077938710348, 1.3615570068359375]","[0.0, 0.0, -0.0, 0.0, 0.0, -0.20035706460475922]","[-0.4531860947608948, -3.904724597930908, -2.0602238178253174, -0.6549683213233948, -0.1345825344324112, -0.5742188096046448]"
1584452858402877072,,1370824,,1584452858,402419017,'',"[shoulder_pan_joint, shoulder_lift_joint, elbow_joint, wrist_1_joint, wrist_2_joint,","[1.5141499042510986, -1.1467421690570276, 2.4195163249969482, -2.824456040059225, -1.5670297781573694, 1.3392120599746704]","[0.0, 0.0, -0.0, 0.0, 0.0, -0.20168012380599976]","[-0.4577637314796448, -3.886414051055908, -2.0669493675231934, -0.6661835312843323, -0.1300964504480362, -0.4755249619483948]"
1584452858514754991,,1370838,,1584452858,514351357,'',"[shoulder_pan_joint, shoulder_lift_joint, elbow_joint, wrist_1_joint, wrist_2_joint,","[1.5141499042510986, -1.1467540899859827, 2.419504165649414, -2.824456040059225, -1.5670416990863245, 1.3167709112167358]","[0.0, 0.0, -0.0, 0.0, 0.0, -0.20001192390918732]","[-0.4074096977710724, -3.868103504180908, -2.0579819679260254, -0.6347809433937073, -0.1300964504480362, -0.5652466416358948]"
1584452858626797686,,1370852,,1584452858,626363725,'',"[shoulder_pan_joint, shoulder_lift_joint, elbow_joint, wrist_1_joint, wrist_2_joint,","[1.514185905456543, -1.1467540899859827, 2.4195282459259033, -2.82449180284609, -1.5670655409442347, 1.294389247894287]","[0.0, 0.0, -0.0, 0.0, 0.0, -0.19966678321361542]","[-0.5172730088233948, -3.904724597930908, -2.0691912174224854, -0.6235657334327698, -0.1278534084558487, -0.5091705918312073]"
1584452858738919840,,1370866,,1584452858,738495628,'',"[shoulder_pan_joint, shoulder_lift_joint, elbow_joint, wrist_1_joint, wrist_2_joint,","[1.5141619443893433, -1.146778408681051, 2.4195642471313477, -2.824456040059225, -1.5670655409442347, 1.2719472646713257]","[0.0, 0.0, -0.0, 0.0, 0.0, -0.19761507213115692]","[-0.4760742783546448, -3.964233875274658, -2.080400228500366, -0.6280518174171448, -0.1233673244714737, -0.5674896836280823]"
1584452858850630715,,1370880,,1584452858,850289067,'',"[shoulder_pan_joint, shoulder_lift_joint, elbow_joint, wrist_1_joint, wrist_2_joint,","[1.5141738653182983, -1.1467540899859827, 2.4195282459259033, -2.8244078795062464, -1.5670297781573694, 1.249529242515564]","[0.0, 0.0, -0.0, 0.0, 0.0, -0.2008172571659088]","[-0.4714966416358948, -3.886414051055908, -2.08488392829895, -0.6078644394874573, -0.1278534084558487, -0.4867401719093323]"
1584452858962818061,,1370894,,1584452858,962346410,'',"[shoulder_pan_joint, shoulder_lift_joint, elbow_joint, wrist_1_joint, wrist_2_joint,","[1.5141619443893433, -1.146778408681051, 2.4195401668548584, -2.8244321982013147, -1.5670536200152796, 1.2270625829696655]","[0.0, 0.0, -0.0, 0.0, 0.0, -0.19761507213115692]","[-0.4074096977710724, -3.932190418243408, -2.089367389678955, -0.6190796494483948, -0.1390686184167862, -0.5517883896827698]"
1584452859074691390,,1370908,,1584452859,74284941,'',"[shoulder_pan_joint, shoulder_lift_joint, elbow_joint, wrist_1_joint, wrist_2_joint,","[1.5141619443893433, -1.1467540899859827, 2.4195282459259033, -2.824479881917135, -1.5670416990863245, 1.2051221132278442]","[0.0, 0.0, -0.0, 0.0, 0.0, -0.1710580289363861]","[-0.4623413681983948, -3.904724597930908, -2.100576400756836, -0.6437531113624573, -0.1345825344324112, -0.5652466416358948]"
1584452859186648817,,1370922,,1584452859,186299524,'',"[shoulder_pan_joint, shoulder_lift_joint, elbow_joint, wrist_1_joint, wrist_2_joint,","[1.5141619443893433, -1.1467540899859827, 2.419504165649414, -2.824456040059225, -1.5670536200152796, 1.195769190788269]","[0.0, 0.0, -0.0, 0.0, 0.0, -0.005062136799097061]","[-0.4531860947608948, -3.900146961212158, -2.087125539779663, -0.6325379014015198, -0.1323394924402237, -0.2063598781824112]"
1584452859298507328,,1370936,,1584452859,298175388,'',"[shoulder_pan_joint, shoulder_lift_joint, elbow_joint, wrist_1_joint, wrist_2_joint,","[1.5141738653182983, -1.1467540899859827, 2.4195401668548584, -2.824479881917135, -1.5670536200152796, 1.1959844827651978]","[0.0, 0.0, -0.0, 0.0, 0.0, 0.0013997574569657445]","[-0.4348755180835724, -3.886414051055908, -2.091609239578247, -0.6056213974952698, -0.1256103664636612, -0.008972168900072575]"
1584452859410739969,,1370950,,1584452859,410279609,'',"[shoulder_pan_joint, shoulder_lift_joint, elbow_joint, wrist_1_joint, wrist_2_joint,","[1.5141499042510986, -1.1467540899859827, 2.419504165649414, -2.824479881917135, -1.5670416990863245, 1.196211814880371]","[0.0, 0.0, -0.0, 0.0, 0.0, 0.0008245147182606161]","[-0.4486084580421448, -3.918457508087158, -2.0736746788024902, -0.6415100693702698, -0.1278534084558487, 0.0]"
1584452859522736898,,1370964,,1584452859,522260869,'',"[shoulder_pan_joint, shoulder_lift_joint, elbow_joint, wrist_1_joint, wrist_2_joint,","[1.5141619443893433, -1.1467540899859827, 2.4195163249969482, -2.82449180284609, -1.5670297781573694, 1.1962237358093262]","[0.0, 0.0, -0.0, 0.0, 0.0, 0.00024927189224399626]","[-0.4074096977710724, -3.909302234649658, -2.080400228500366, -0.6011353135108948, -0.1323394924402237, 0.004486084450036287]"
1584452859634856137,,1370978,,1584452859,634348830,'',"[shoulder_pan_joint, shoulder_lift_joint, elbow_joint, wrist_1_joint, wrist_2_joint,","[1.5141499042510986, -1.1467660109149378, 2.419504165649414, -2.824479881917135, -1.5670536200152796, 1.1962357759475708]","[0.0, 0.0, -0.0, 0.0, 0.0, 0.00024927189224399626]","[-0.3662109673023224, -3.881836414337158, -2.109543800354004, -0.6168366074562073, -0.1345825344324112, 0.004486084450036287]"
1584452859746607779,,1370992,,1584452859,746225125,'',"[shoulder_pan_joint, shoulder_lift_joint, elbow_joint, wrist_1_joint, wrist_2_joint,","[1.5141499042510986, -1.1467660109149378, 2.4195163249969482, -2.824456040059225, -1.5670536200152796, 1.1962478160858154]","[0.0, 0.0, -0.0, 0.0, 0.0, 0.00013422331539914012]","[-0.4440308213233948, -3.877258777618408, -2.091609239578247, -0.5988922715187073, -0.1323394924402237, 0.008972168900072575]"
1584452859858656746,,1371006,,1584452859,858241851,'',"[shoulder_pan_joint, shoulder_lift_joint, elbow_joint, wrist_1_joint, wrist_2_joint,","[1.5141738653182983, -1.1467660109149378, 2.4195163249969482, -2.82449180284609, -1.5670416990863245, 1.1962478160858154]","[0.0, 0.0, -0.0, 0.0, 0.0, 9.58738019107841e-05]","[-0.3982544243335724, -3.913879871368408, -2.091609239578247, -0.6123505234718323, -0.1278534084558487, 0.004486084450036287]"
1584452859970668805,,1371020,,1584452859,970234003,'',"[shoulder_pan_joint, shoulder_lift_joint, elbow_joint, wrist_1_joint, wrist_2_joint,","[1.5141619443893433, -1.1467421690570276, 2.419504165649414, -2.824503723775045, -1.5670536200152796, 1.1962478160858154]","[0.0, 0.0, -0.0, 0.0, 0.0, 5.752428114647046e-05]","[-0.4028320610523224, -3.913879871368408, -2.100576400756836, -0.6168366074562073, -0.1256103664636612, 0.0022430422250181437]"
1584452860082750864,,1371034,,1584452860,82254456,'',"[shoulder_pan_joint, shoulder_lift_joint, elbow_joint, wrist_1_joint, wrist_2_joint,","[1.5141738653182983, -1.1467421690570276, 2.419492244720459, -2.82449180284609, -1.5670655409442347, 1.1962237358093262]","[0.0, 0.0, -0.0, 0.0, 0.0, 5.752428114647046e-05]","[-0.4028320610523224, -3.872681140899658, -2.098334789276123, -0.5809479355812073, -0.1278534084558487, 0.004486084450036287]"
1584452860194662805,,1371048,,1584452860,194264702,'',"[shoulder_pan_joint, shoulder_lift_joint, elbow_joint, wrist_1_joint, wrist_2_joint,","[1.5141738653182983, -1.1467421690570276, 2.419492244720459, -2.82446796098818, -1.5670416990863245, 1.1962237358093262]","[0.0, 0.0, -0.0, 0.0, 0.0, 3.834952076431364e-05]","[-0.4440308213233948, -3.858948230743408, -2.100576400756836, -0.6886139512062073, -0.1368255764245987, -0.0022430422250181437]"
1584452860306660496,,1371062,,1584452860,306256993,'',"[shoulder_pan_joint, shoulder_lift_joint, elbow_joint, wrist_1_joint, wrist_2_joint,","[1.5141499042510986, -1.1467903296100062, 2.419504165649414, -2.824503723775045, -1.5670416990863245, 1.1962478160858154]","[0.0, 0.0, -0.0, 0.0, 0.0, 3.834952076431364e-05]","[-0.4257202446460724, -3.909302234649658, -2.098334789276123, -0.6078644394874573, -0.1300964504480362, 0.0]"
1584452860418575454,,1371076,,1584452860,418169505,'',"[shoulder_pan_joint, shoulder_lift_joint, elbow_joint, wrist_1_joint, wrist_2_joint,","[1.5141499042510986, -1.1467903296100062, 2.4195163249969482, -2.82446796098818, -1.5670655409442347, 1.1962357759475708]","[0.0, 0.0, -0.0, 0.0, 0.0, 3.834952076431364e-05]","[-0.3890991508960724, -3.918457508087158, -2.100576400756836, -0.6280518174171448, -0.1345825344324112, 0.006729126907885075]"
1584452860530636323,,1371090,,1584452860,530197263,'',"[shoulder_pan_joint, shoulder_lift_joint, elbow_joint, wrist_1_joint, wrist_2_joint,","[1.5141379833221436, -1.146778408681051, 2.419492244720459, -2.824479881917135, -1.5670655409442347, 1.196211814880371]","[0.0, 0.0, -0.0, 0.0, 0.0, 1.917476038215682e-05]","[-0.4257202446460724, -3.886414051055908, -2.102818250656128, -0.6258087754249573, -0.1278534084558487, 0.006729126907885075]"
1584452860642687885,,1371104,,1584452860,642301043,'',"[shoulder_pan_joint, shoulder_lift_joint, elbow_joint, wrist_1_joint, wrist_2_joint,","[1.5141499042510986, -1.1467660109149378, 2.4195163249969482, -2.82446796098818, -1.5670416990863245, 1.196211814880371]","[0.0, 0.0, -0.0, 0.0, 0.0, 1.917476038215682e-05]","[-0.4348755180835724, -3.895569324493408, -2.096092939376831, -0.6415100693702698, -0.1188812404870987, 0.008972168900072575]"
1584452860754765105,,1371118,,1584452860,754245043,'',"[shoulder_pan_joint, shoulder_lift_joint, elbow_joint, wrist_1_joint, wrist_2_joint,","[1.5141499042510986, -1.1467540899859827, 2.419480323791504, -2.824456040059225, -1.567077938710348, 1.1962357759475708]","[0.0, 0.0, -0.0, 0.0, 0.0, 1.917476038215682e-05]","[-0.4165649712085724, -3.900146961212158, -2.107301950454712, -0.6706696152687073, -0.1211242824792862, 0.0]"
1584452860866778987,,1371132,,1584452860,866232506,'',"[shoulder_pan_joint, shoulder_lift_joint, elbow_joint, wrist_1_joint, wrist_2_joint,","[1.5141619443893433, -1.1467540899859827, 2.4195401668548584, -2.824479881917135, -1.5670536200152796, 1.1962357759475708]","[0.0, 0.0, -0.0, 0.0, 0.0, 1.917476038215682e-05]","[-0.4028320610523224, -3.941345691680908, -2.102818250656128, -0.6572113633155823, -0.1345825344324112, 0.011215210892260075]"
1584452860978567868,,1371146,,1584452860,978169474,'',"[shoulder_pan_joint, shoulder_lift_joint, elbow_joint, wrist_1_joint, wrist_2_joint,","[1.5141738653182983, -1.1467540899859827, 2.4195163249969482, -2.824479881917135, -1.5670655409442347, 1.1962597370147705]","[0.0, 0.0, -0.0, 0.0, 0.0, 1.917476038215682e-05]","[-0.4714966416358948, -3.877258777618408, -2.093851089477539, -0.6302948594093323, -0.1368255764245987, 0.0022430422250181437]"
1584452861090547897,,1371160,,1584452861,90159702,'',"[shoulder_pan_joint, shoulder_lift_joint, elbow_joint, wrist_1_joint, wrist_2_joint,","[1.5141619443893433, -1.1467540899859827, 2.4195282459259033, -2.8245161215411585, -1.567077938710348, 1.1962597370147705]","[0.0, 0.0, -0.0, 0.0, 0.0, 1.917476038215682e-05]","[-0.4623413681983948, -3.872681140899658, -2.091609239578247, -0.6504822373390198, -0.1278534084558487, 0.006729126907885075]"
1584452861202651416,,1371174,,1584452861,202207847,'',"[shoulder_pan_joint, shoulder_lift_joint, elbow_joint, wrist_1_joint, wrist_2_joint,","[1.5141619443893433, -1.1467421690570276, 2.4195520877838135, -2.82449180284609, -1.5670536200152796, 1.1962237358093262]","[0.0, 0.0, -0.0, 0.0, 0.0, 1.917476038215682e-05]","[-0.4302978813648224, -3.877258777618408, -2.093851089477539, -0.6482391953468323, -0.1300964504480362, 0.004486084450036287]"
1584452861314551054,,1371188,,1584452861,314195370,'',"[shoulder_pan_joint, shoulder_lift_joint, elbow_joint, wrist_1_joint, wrist_2_joint,","[1.5141499042510986, -1.146778408681051, 2.4195401668548584, -2.824479881917135, -1.5670655409442347, 1.1962237358093262]","[0.0, 0.0, -0.0, 0.0, 0.0, 1.917476038215682e-05]","[-0.3890991508960724, -3.895569324493408, -2.100576400756836, -0.6213226914405823, -0.1256103664636612, 0.011215210892260075]"
1584452861426382505,,1371202,,1584452861,426126847,'',"[shoulder_pan_joint, shoulder_lift_joint, elbow_joint, wrist_1_joint, wrist_2_joint,","[1.5147255659103394, -1.1467903296100062, 2.4198644161224365, -2.82449180284609, -1.566861931477682, 1.1986910104751587]","[0.013205017894506454, 0.0, 0.0031318773981183767, 9.58738019107841e-05, 0.0011696603614836931, 0.05012282356619835]","[0.8468628525733948, -4.302978992462158, -1.2733484506607056, -0.5988922715187073, 0.02467346377670765, 0.3386993706226349]"
1584452861538491905,,1371216,,1584452861,538107447,'',"[shoulder_pan_joint, shoulder_lift_joint, elbow_joint, wrist_1_joint, wrist_2_joint,","[1.516537070274353, -1.1467903296100062, 2.4198286533355713, -2.824479881917135, -1.566885773335592, 1.2046910524368286]","[0.01666925847530365, 0.0, -0.0, 0.0, 0.00024927189224399626, 0.057083260267972946]","[0.9201050996780396, -3.945923328399658, -1.6073781251907349, -0.4306641221046448, 0.0448608435690403, 0.2691650688648224]"
1584452861650483575,,1371230,,1584452861,650163808,'',"[shoulder_pan_joint, shoulder_lift_joint, elbow_joint, wrist_1_joint, wrist_2_joint,","[1.5186717510223389, -1.146778408681051, 2.4198405742645264, -2.82446796098818, -1.566873852406637, 1.2133020162582397]","[0.02220437303185463, 0.0, -0.0, 0.0, 0.00013422331539914012, 0.0889517143368721]","[0.8285523056983948, -3.996277332305908, -1.6297962665557861, -0.4172058403491974, 0.0448608435690403, 0.3521576225757599]"
1584452861762430462,,1371244,,1584452861,762123399,'',"[shoulder_pan_joint, shoulder_lift_joint, elbow_joint, wrist_1_joint, wrist_2_joint,","[1.5211187601089478, -1.1467660109149378, 2.4198405742645264, -2.824479881917135, -1.566873852406637, 1.223193883895874]","[0.025323467329144478, 0.0, -0.0, 0.0, 0.00011504856229294091, 0.09809807687997818]","[0.8102417588233948, -3.941345691680908, -1.7105014324188232, -0.4149627983570099, 0.0493469275534153, 0.2512207329273224]"
1584452861874687879,,1371258,,1584452861,874199908,'',"[shoulder_pan_joint, shoulder_lift_joint, elbow_joint, wrist_1_joint, wrist_2_joint,","[1.5246092081069946, -1.1467903296100062, 2.4198644161224365, -2.8243959585772913, -1.5668981711017054, 1.2347029447555542]","[0.03754417970776558, 0.0, -0.0, 0.0, 0.00011504856229294091, 0.09821312129497528]","[0.9155274629592896, -3.977966785430908, -1.6611815690994263, -0.4059906303882599, 0.0672912672162056, 0.3970184624195099]"
1584452861986743548,,1371272,,1584452861,986225531,'',"[shoulder_pan_joint, shoulder_lift_joint, elbow_joint, wrist_1_joint, wrist_2_joint,","[1.529407024383545, -1.1467903296100062, 2.4198644161224365, -2.8244321982013147, -1.566861931477682, 1.2459725141525269]","[0.046850331127643585, 0.0, -0.0, 0.0, 0.00011504856229294091, 0.10208642482757568]","[0.7507324814796448, -4.055786609649658, -1.6679069995880127, -0.3970184624195099, 0.0672912672162056, 0.3880462944507599]"
1584452862098429127,,1371286,,1584452862,98082079,'',"[shoulder_pan_joint, shoulder_lift_joint, elbow_joint, wrist_1_joint, wrist_2_joint,","[1.534972906112671, -1.146778408681051, 2.4198524951934814, -2.82444411913027, -1.5668261686908167, 1.257696509361267]","[0.05108156055212021, 0.0, -0.0, 0.0, 0.0008245147182606161, 0.11445414274930954]","[0.8834840059280396, -4.051208972930908, -1.7441285848617554, -0.3835602104663849, 0.0672912672162056, 0.3140259087085724]"
1584452862210745473,,1371300,,1584452862,210247002,'',"[shoulder_pan_joint, shoulder_lift_joint, elbow_joint, wrist_1_joint, wrist_2_joint,","[1.5408260822296143, -1.1468022505389612, 2.4198644161224365, -2.8244078795062464, -1.5668018499957483, 1.2701151371002197]","[0.04844822734594345, 0.0, -0.0, 0.0, 0.0004218447138555348, 0.10985220223665237]","[0.9613038301467896, -4.028320789337158, -1.721710443496704, -0.3678589165210724, 0.0986938551068306, 0.2938385307788849]"
1584452862322792958,,1371314,,1584452862,322176467,'',"[shoulder_pan_joint, shoulder_lift_joint, elbow_joint, wrist_1_joint, wrist_2_joint,","[1.5457916259765625, -1.146778408681051, 2.4198405742645264, -2.82444411913027, -1.5667899290667933, 1.2821866273880005]","[0.03967897221446037, 0.0, -0.0, 0.0, 0.0002109223569277674, 0.10055243968963623]","[0.7553101181983948, -4.161072254180908, -1.6342798471450806, -0.3902893364429474, 0.0897216871380806, 0.3229980766773224]"
1584452862434525043,,1371328,,1584452862,434101232,'',"[shoulder_pan_joint, shoulder_lift_joint, elbow_joint, wrist_1_joint, wrist_2_joint,","[1.549989938735962, -1.1468022505389612, 2.4198286533355713, -2.82444411913027, -1.5668261686908167, 1.2939221858978271]","[0.03670049086213112, 0.0, -0.0, 0.0, 0.0002109223569277674, 0.10055243968963623]","[1.0803223848342896, -4.060364246368408, -1.6522144079208374, -0.4194488823413849, 0.0942077711224556, 0.3768310844898224]"
1584452862546535178,,1371342,,1584452862,546096168,'',"[shoulder_pan_joint, shoulder_lift_joint, elbow_joint, wrist_1_joint, wrist_2_joint,","[1.5537558794021606, -1.146778408681051, 2.419816493988037, -2.8244202772723597, -1.5668261686908167, 1.3045443296432495]","[0.03128042444586754, 0.0, -0.0, 0.0, 0.00013422331539914012, 0.09961287677288055]","[0.8605957627296448, -4.151916980743408, -1.6499725580215454, -0.4059906303882599, 0.1166381984949112, 0.2938385307788849]"
1584452862658497063,,1371356,,1584452862,658090664,'',"[shoulder_pan_joint, shoulder_lift_joint, elbow_joint, wrist_1_joint, wrist_2_joint,","[1.557006597518921, -1.1467903296100062, 2.4198405742645264, -2.824456040059225, -1.5667899290667933, 1.3155611753463745]","[0.027547739446163177, 0.0, -0.0, 0.0, 9.58738019107841e-05, 0.10103181004524231]","[1.0528565645217896, -4.147339344024658, -1.6566979885101318, -0.3925323784351349, 0.0942077711224556, 0.2444916069507599]"
1584452862770480838,,1371370,,1584452862,770069731,'',"[shoulder_pan_joint, shoulder_lift_joint, elbow_joint, wrist_1_joint, wrist_2_joint,","[1.560137152671814, -1.1467660109149378, 2.4198524951934814, -2.824456040059225, -1.5668261686908167, 1.3271772861480713]","[0.029209552332758904, 0.0, -0.0, 0.0, 5.752428114647046e-05, 0.09790632873773575]","[0.9109498262405396, -4.174805164337158, -1.645488977432251, -0.4194488823413849, 0.1188812404870987, 0.3768310844898224]"
1584452862882635222,,1371384,,1584452862,882117625,'',"[shoulder_pan_joint, shoulder_lift_joint, elbow_joint, wrist_1_joint, wrist_2_joint,","[1.5641672611236572, -1.1467903296100062, 2.4198644161224365, -2.82446796098818, -1.5668142477618616, 1.3387930393218994]","[0.03971732035279274, 0.0, -0.0, 0.0, 5.752428114647046e-05, 0.1014920026063919]","[0.8331299424171448, -4.248047351837158, -1.5872018337249756, -0.4059906303882599, 0.1099090725183487, 0.3813171684741974]"
1584452862994581147,,1371398,,1584452862,994113283,'',"[shoulder_pan_joint, shoulder_lift_joint, elbow_joint, wrist_1_joint, wrist_2_joint,","[1.568857192993164, -1.1467660109149378, 2.4198524951934814, -2.82444411913027, -1.5668261686908167, 1.3497259616851807]","[0.043897416442632675, 0.0, -0.0, 0.0, 5.752428114647046e-05, 0.10559540241956711]","[0.9750367403030396, -4.147339344024658, -1.7598212957382202, -0.3521576225757599, 0.1323394924402237, 0.3297272026538849]"
1584452863106456019,,1371412,,1584452863,106069056,'',"[shoulder_pan_joint, shoulder_lift_joint, elbow_joint, wrist_1_joint, wrist_2_joint,","[1.573774814605713, -1.1467903296100062, 2.4198524951934814, -2.8244321982013147, -1.5668380896197718, 1.3609222173690796]","[0.0448945052921772, 0.0, -0.0, 0.0, 5.752428114647046e-05, 0.09731190651655197]","[0.8697510361671448, -4.179382801055908, -1.6970505714416504, -0.3701019585132599, 0.1278534084558487, 0.2669220268726349]"
1584452863218530825,,1371426,,1584452863,218130657,'',"[shoulder_pan_joint, shoulder_lift_joint, elbow_joint, wrist_1_joint, wrist_2_joint,","[1.5786325931549072, -1.1467903296100062, 2.4198405742645264, -2.82446796098818, -1.5668261686908167, 1.3725855350494385]","[0.04181376099586487, 0.0, -0.0, 0.0, 5.752428114647046e-05, 0.10306433588266373]","[1.0162354707717896, -4.174805164337158, -1.7620631456375122, -0.3409424126148224, 0.1659851223230362, 0.3678589165210724]"
1584452863330423550,,1371440,,1584452863,330049491,'',"[shoulder_pan_joint, shoulder_lift_joint, elbow_joint, wrist_1_joint, wrist_2_joint,","[1.5830224752426147, -1.1468022505389612, 2.4198286533355713, -2.824456040059225, -1.5668261686908167, 1.384380578994751]","[0.0391165092587471, 0.0, -0.0, 1.917476038215682e-05, 5.752428114647046e-05, 0.10975632816553116]","[0.8010864853858948, -4.293823719024658, -1.6611815690994263, -0.3925323784351349, 0.1368255764245987, 0.3858032524585724]"
1584452863442418376,,1371454,,1584452863,442046742,'',"[shoulder_pan_joint, shoulder_lift_joint, elbow_joint, wrist_1_joint, wrist_2_joint,","[1.5876165628433228, -1.146778408681051, 2.419816493988037, -2.82444411913027, -1.5668018499957483, 1.3966540098190308]","[0.04592994228005409, 0.0, -0.0, 0.0, 5.752428114647046e-05, 0.11539370566606522]","[1.2039185762405396, -4.216003894805908, -1.7777557373046875, -0.3072967827320099, 0.1704712063074112, 0.3319702446460724]"
1584452863554426317,,1371468,,1584452863,554029185,'',"[shoulder_pan_joint, shoulder_lift_joint, elbow_joint, wrist_1_joint, wrist_2_joint,","[1.592570185661316, -1.1468022505389612, 2.4198405742645264, -2.82446796098818, -1.5667780081378382, 1.4077543020248413]","[0.04169871285557747, 0.0, -0.0, 0.0, 5.752428114647046e-05, 0.08945025503635406]","[0.7598877549171448, -4.248047351837158, -1.7194687128067017, -0.3364563286304474, 0.1480407863855362, 0.2893524467945099]"
1584452863666391758,,1371482,,1584452863,666013081,'',"[shoulder_pan_joint, shoulder_lift_joint, elbow_joint, wrist_1_joint, wrist_2_joint,","[1.5971399545669556, -1.1468022505389612, 2.4198405742645264, -2.824456040059225, -1.566754166279928, 1.418100118637085]","[0.03935939073562622, 0.0, -0.0, 0.0, 5.752428114647046e-05, 0.08540438115596771]","[0.8285523056983948, -4.197693347930908, -1.8001738786697388, -0.3028106987476349, 0.1592559963464737, 0.3745880424976349]"
1584452863778434443,,1371496,,1584452863,778034737,'',"[shoulder_pan_joint, shoulder_lift_joint, elbow_joint, wrist_1_joint, wrist_2_joint,","[1.6015658378601074, -1.1467903296100062, 2.4198405742645264, -2.82444411913027, -1.566766087208883, 1.4278470277786255]","[0.03419499099254608, 0.0, -0.0, 0.0, 7.669904152862728e-05, 0.08816554397344589]","[0.9979249238967896, -4.330444812774658, -1.6477307081222534, -0.4261780083179474, 0.1794433742761612, 0.2960815727710724]"
1584452863890459146,,1371510,,1584452863,890035544,'',"[shoulder_pan_joint, shoulder_lift_joint, elbow_joint, wrist_1_joint, wrist_2_joint,","[1.6046724319458008, -1.1467903296100062, 2.419816493988037, -2.824503723775045, -1.566754166279928, 1.437366247177124]","[0.02095162123441696, 0.0, -0.0, 0.0, 7.669904152862728e-05, 0.08346772938966751]","[0.9109498262405396, -4.234314441680908, -1.72843599319458, -0.3229980766773224, 0.1884155422449112, 0.3207550346851349]"
1584452864002457208,,1371524,,1584452864,2022576,'',"[shoulder_pan_joint, shoulder_lift_joint, elbow_joint, wrist_1_joint, wrist_2_joint,","[1.6063038110733032, -1.1468260923968714, 2.419804573059082, -2.82446796098818, -1.566754166279928, 1.4459878206253052]","[0.004627509042620659, 0.0, -0.0, 0.0, 0.00023009712458588183, 0.04295146465301514]","[0.6591797471046448, -4.183960437774658, -1.7149850130081177, -0.3297272026538849, 0.1525268703699112, 0.2512207329273224]"
1584452864114601814,,1371538,,1584452864,114085950,'',"[shoulder_pan_joint, shoulder_lift_joint, elbow_joint, wrist_1_joint, wrist_2_joint,","[1.6062318086624146, -1.1468022505389612, 2.419804573059082, -2.824456040059225, -1.566766087208883, 1.4470772743225098]","[-0.0003451456723269075, 0.0, -0.0, 0.0, 0.00017257283616345376, -0.0011504855938255787]","[-0.0503540076315403, -3.868103504180908, -1.6477307081222534, -0.4261780083179474, 0.0538330152630806, 0.0717773512005806]"
1584452864226561865,,1371552,,1584452864,226041984,'',"[shoulder_pan_joint, shoulder_lift_joint, elbow_joint, wrist_1_joint, wrist_2_joint,","[1.6062438488006592, -1.1468022505389612, 2.419816493988037, -2.8244321982013147, -1.566754166279928, 1.4470652341842651]","[-0.00012783173588104546, 0.0, -0.0, 0.0, 9.58738019107841e-05, -0.00023009712458588183]","[-0.0823974683880806, -3.904724597930908, -1.6275544166564941, -0.4284210503101349, 0.0583190992474556, 0.0560760572552681]"
1584452864338384880,,1371566,,1584452864,338052289,'',"[shoulder_pan_joint, shoulder_lift_joint, elbow_joint, wrist_1_joint, wrist_2_joint,","[1.6062678098678589, -1.1467903296100062, 2.419816493988037, -2.82444411913027, -1.566754166279928, 1.4470531940460205]","[-7.669904152862728e-05, 0.0, -0.0, 0.0, 7.669904152862728e-05, -0.00013422331539914012]","[-0.1144409328699112, -3.932190418243408, -1.6275544166564941, -0.4284210503101349, 0.0672912672162056, 0.0650482252240181]"
1584452864450360871,,1371580,,1584452864,450032167,'',"[shoulder_pan_joint, shoulder_lift_joint, elbow_joint, wrist_1_joint, wrist_2_joint,","[1.6062557697296143, -1.1468022505389612, 2.419804573059082, -2.82446796098818, -1.5667780081378382, 1.4470652341842651]","[-5.1132694352418184e-05, 0.0, -0.0, 0.0, 5.752428114647046e-05, -9.58738019107841e-05]","[-0.0640869215130806, -3.900146961212158, -1.6253126859664917, -0.4194488823413849, 0.0650482252240181, 0.0740203931927681]"
