PorkPy/robot-pulling-data/single_traj_700mm/joint_states_throttle.csv
rosbagTimestamp,header,seq,stamp,secs,nsecs,frame_id,name,wrist_3_joint],position,velocity,effort
1584460889805357284,,2374793,,1584460889,804997832,'',"[shoulder_pan_joint, shoulder_lift_joint, elbow_joint, wrist_1_joint, wrist_2_joint,","[1.4047702550888062, -1.1718485991107386, 2.4829981327056885, -2.862791363392965, -1.5670059362994593, 2.7205989360809326]","[0.0, 0.0, -0.0, 0.0, 0.0, 0.0]","[-0.6774902939796448, -2.687072992324829, -1.6768742799758911, -0.6437531113624573, 0.1413116604089737, 0.0314025916159153]"
1584460889917147560,,2374807,,1584460889,916825187,'',"[shoulder_pan_joint, shoulder_lift_joint, elbow_joint, wrist_1_joint, wrist_2_joint,","[1.4060657024383545, -1.1718605200396937, 2.483790159225464, -2.8626959959613245, -1.5670059362994593, 2.7212212085723877]","[0.01495631318539381, 0.0, 0.01404870767146349, 0.0003834952076431364, 0.0, 0.0015723303658887744]","[0.8102417588233948, -3.671265125274658, -0.7285884022712708, -0.5540314316749573, 0.0538330152630806, 0.1009368970990181]"
1584460890029350525,,2374821,,1584460890,28886218,'',"[shoulder_pan_joint, shoulder_lift_joint, elbow_joint, wrist_1_joint, wrist_2_joint,","[1.4073491096496582, -1.1718843618976038, 2.4851579666137695, -2.8628152052508753, -1.5669940153705042, 2.7181918621063232]","[0.008654208853840828, -0.0003834952076431364, 0.006864564027637243, -0.0004026699753012508, 0.0, -0.01764077879488468]","[0.9475709199905396, -3.616333484649658, -0.7375556826591492, -0.5316010117530823, 0.0583190992474556, -0.3678589165210724]"
1584460890141130131,,2374835,,1584460890,140818268,'',"[shoulder_pan_joint, shoulder_lift_joint, elbow_joint, wrist_1_joint, wrist_2_joint,","[1.4062094688415527, -1.1718724409686487, 2.485313653945923, -2.8627551237689417, -1.5670059362994593, 2.716384172439575]","[-0.024505343288183212, -0.00020453077740967274, 0.0005624596378766, 0.00032597093377262354, 0.0, -0.01248276885598898]","[-1.0894776582717896, -3.140259027481079, -1.147807002067566, -0.3454284965991974, 0.0403747595846653, -0.3678589165210724]"
1584460890253377870,,2374849,,1584460890,252989575,'',"[shoulder_pan_joint, shoulder_lift_joint, elbow_joint, wrist_1_joint, wrist_2_joint,","[1.404170274734497, -1.1718843618976038, 2.4853017330169678, -2.8627432028399866, -1.5670059362994593, 2.7191858291625977]","[-0.013946441933512688, -0.00012783173588104546, -0.0004985437844879925, 0.0008820389630272985, 0.0, 0.03913568705320358]","[-0.9933472871780396, -3.089905023574829, -1.1433234214782715, -0.3431854546070099, 0.0448608435690403, 0.3162689507007599]"
1584460890365305221,,2374863,,1584460890,364887781,'',"[shoulder_pan_joint, shoulder_lift_joint, elbow_joint, wrist_1_joint, wrist_2_joint,","[1.4032827615737915, -1.1718724409686487, 2.4852898120880127, -2.8626835981952112, -1.5670178572284144, 2.7221672534942627]","[-0.0010098706698045135, -7.669904152862728e-05, -0.00020453077740967274, 0.0004218447138555348, 0.0, 0.014802915044128895]","[-0.1968383938074112, -3.094482660293579, -1.2486884593963623, -0.3185119926929474, 0.0426178015768528, 0.3745880424976349]"
1584460890477185034,,2374877,,1584460890,476853765,'',"[shoulder_pan_joint, shoulder_lift_joint, elbow_joint, wrist_1_joint, wrist_2_joint,","[1.4034748077392578, -1.1718962828265589, 2.485313653945923, -2.862671677266256, -1.5669940153705042, 2.720526933670044]","[-0.00021731395099777728, -5.1132694352418184e-05, -0.00010226538870483637, 0.00023009712458588183, 0.0, -0.05378520116209984]","[-0.1739502102136612, -3.181457757949829, -1.1253888607025146, -0.3701019585132599, 0.0426178015768528, -0.3095398247241974]"
1584460890589253779,,2374891,,1584460890,588885591,'',"[shoulder_pan_joint, shoulder_lift_joint, elbow_joint, wrist_1_joint, wrist_2_joint,","[1.4036905765533447, -1.1718605200396937, 2.4853017330169678, -2.862647835408346, -1.5670297781573694, 2.71649169921875]","[0.0007669904152862728, -3.834952076431364e-05, -0.00015339808305725455, 0.0001917476038215682, 0.0, -0.027285683900117874]","[-0.0366210974752903, -3.167724847793579, -1.145565152168274, -0.3678589165210724, 0.0493469275534153, -0.4037475883960724]"
1584460890701097354,,2374905,,1584460890,700796893,'',"[shoulder_pan_joint, shoulder_lift_joint, elbow_joint, wrist_1_joint, wrist_2_joint,","[1.403822422027588, -1.1718724409686487, 2.4852538108825684, -2.8626001516925257, -1.5670297781573694, 2.7155699729919434]","[0.005905826110392809, 2.5566347176209092e-05, -0.00026844663079828024, 0.00017257283616345376, 0.0, 0.03528155758976936]","[0.5996704697608948, -3.053283929824829, -1.2867993116378784, -0.3005676567554474, 0.0560760572552681, 0.1435547024011612]"
1584460890813384637,,2374919,,1584460890,812853114,'',"[shoulder_pan_joint, shoulder_lift_joint, elbow_joint, wrist_1_joint, wrist_2_joint,","[1.4040145874023438, -1.1718843618976038, 2.4852776527404785, -2.8626120726214808, -1.5670059362994593, 2.720072031021118]","[-0.0006391586503013968, 2.5566347176209092e-05, -0.00026844663079828024, 0.00017257283616345376, 0.0, 0.03280801326036453]","[-0.0915527418255806, -3.149414300918579, -1.197126865386963, -0.3431854546070099, 0.0403747595846653, 0.3297272026538849]"
1584460890925212883,,2374933,,1584460890,924937178,'',"[shoulder_pan_joint, shoulder_lift_joint, elbow_joint, wrist_1_joint, wrist_2_joint,","[1.403942584991455, -1.1718962828265589, 2.4852657318115234, -2.8626001516925257, -1.5670178572284144, 2.721951723098755]","[-0.0062637547962367535, 2.5566347176209092e-05, -0.00014061490946915, 0.00013422331539914012, 0.0, -0.029279859736561775]","[-0.5996704697608948, -3.195190668106079, -1.055892825126648, -0.3992615044116974, 0.0358886756002903, -0.0919647291302681]"
1584460891037149983,,2374947,,1584460891,36788688,'',"[shoulder_pan_joint, shoulder_lift_joint, elbow_joint, wrist_1_joint, wrist_2_joint,","[1.40300714969635, -1.1718724409686487, 2.4852776527404785, -2.8625877539264124, -1.5670059362994593, 2.71695876121521]","[-0.0016106799012050033, 2.5566347176209092e-05, -0.00010226538870483637, 9.58738019107841e-05, 0.0, -0.031504131853580475]","[-0.3753662407398224, -3.121948480606079, -1.2150613069534302, -0.3319702446460724, 0.0426178015768528, -0.3297272026538849]"
1584460891149193280,,2374961,,1584460891,148799254,'',"[shoulder_pan_joint, shoulder_lift_joint, elbow_joint, wrist_1_joint, wrist_2_joint,","[1.4045542478561401, -1.1718724409686487, 2.4852898120880127, -2.8626120726214808, -1.5670297781573694, 2.7163121700286865]","[0.022127673029899597, 2.5566347176209092e-05, -0.0, 7.669904152862728e-05, 0.0, 0.0435650534927845]","[0.9658814668655396, -3.158569574356079, -1.2442048788070679, -0.3252411186695099, 0.0560760572552681, 0.2063598781824112]"
1584460891261249181,,2374975,,1584460891,260790885,'',"[shoulder_pan_joint, shoulder_lift_joint, elbow_joint, wrist_1_joint, wrist_2_joint,","[1.4070371389389038, -1.1718843618976038, 2.485325813293457, -2.8625877539264124, -1.5670297781573694, 2.7215206623077393]","[0.020363595336675644, 2.5566347176209092e-05, -0.0, 5.752428114647046e-05, 0.0, 0.040957286953926086]","[0.9658814668655396, -3.186035394668579, -1.2060940265655518, -0.3252411186695099, 0.0560760572552681, 0.3880462944507599]"
1584460891373196540,,2374989,,1584460891,372789209,'',"[shoulder_pan_joint, shoulder_lift_joint, elbow_joint, wrist_1_joint, wrist_2_joint,","[1.4085487127304077, -1.1718962828265589, 2.4852898120880127, -2.8625877539264124, -1.5670416990863245, 2.724466323852539]","[0.006800648290663958, 2.5566347176209092e-05, -0.0, 3.834952076431364e-05, 0.0, 0.017659954726696014]","[0.7690430283546448, -3.218078851699829, -1.1769505739212036, -0.3476715385913849, 0.0762634351849556, 0.3252411186695099]"
1584460891485179085,,2375003,,1584460891,484802872,'',"[shoulder_pan_joint, shoulder_lift_joint, elbow_joint, wrist_1_joint, wrist_2_joint,","[1.4085606336593628, -1.1718843618976038, 2.4852898120880127, -2.8625877539264124, -1.5670416990863245, 2.7261784076690674]","[-0.0006775081856176257, 2.5566347176209092e-05, -0.0, 3.834952076431364e-05, 0.0, 0.014361895620822906]","[-0.0915527418255806, -3.103637933731079, -1.1993685960769653, -0.3454284965991974, 0.0560760572552681, 0.2871094048023224]"
1584460891597233122,,2375017,,1584460891,596799783,'',"[shoulder_pan_joint, shoulder_lift_joint, elbow_joint, wrist_1_joint, wrist_2_joint,","[1.408320665359497, -1.1718962828265589, 2.4852898120880127, -2.862551991139547, -1.5670416990863245, 2.7277591228485107]","[-0.00586747657507658, 2.5566347176209092e-05, 1.2783173588104546e-05, 3.834952076431364e-05, 0.0, 0.011965050362050533]","[-0.4440308213233948, -3.149414300918579, -1.147807002067566, -0.3521576225757599, 0.0605621412396431, 0.2893524467945099]"
1584460891709158610,,2375031,,1584460891,708754104,'',"[shoulder_pan_joint, shoulder_lift_joint, elbow_joint, wrist_1_joint, wrist_2_joint,","[1.4064615964889526, -1.1718724409686487, 2.4852418899536133, -2.862540070210592, -1.5670536200152796, 2.724909543991089]","[-0.02238333597779274, 1.2783173588104546e-05, -5.1132694352418184e-05, 1.917476038215682e-05, 0.0, -0.051733504980802536]","[-1.0574342012405396, -3.021240472793579, -1.2845574617385864, -0.3140259087085724, 0.0269165076315403, -0.3185119926929474]"
1584460891821138389,,2375045,,1584460891,820755384,'',"[shoulder_pan_joint, shoulder_lift_joint, elbow_joint, wrist_1_joint, wrist_2_joint,","[1.4045661687850952, -1.1718605200396937, 2.484653949737549, -2.8621090094195765, -1.5670297781573694, 2.719233751296997]","[-0.010852914303541183, 0.0004985437844879925, -0.013639646582305431, 0.011926701292395592, 0.0, -0.04279806464910507]","[-0.9613038301467896, -2.709961175918579, -1.4437259435653687, -0.2983246147632599, 0.0426178015768528, -0.3386993706226349]"
1584460891933194270,,2375059,,1584460891,932772903,'',"[shoulder_pan_joint, shoulder_lift_joint, elbow_joint, wrist_1_joint, wrist_2_joint,","[1.404986023902893, -1.1705053488360804, 2.4818224906921387, -2.8595827261554163, -1.567089859639303, 2.7163121700286865]","[0.027944017201662064, 0.022702915593981743, -0.033555831760168076, 0.023201460018754005, -0.0003834952076431364, -0.0054456316865980625]","[0.6912232041358948, -2.622986078262329, -1.454935073852539, -0.1884155422449112, 0.0538330152630806, -0.2489776909351349]"
1584460892045112745,,2375073,,1584460892,44753604,'',"[shoulder_pan_joint, shoulder_lift_joint, elbow_joint, wrist_1_joint, wrist_2_joint,","[1.4098920822143555, -1.1679156462298792, 2.47719144821167, -2.856877152119772, -1.567101780568258, 2.721113443374634]","[0.05362541228532791, 0.01960938796401024, -0.052078649401664734, 0.028206072747707367, -0.00028762139845639467, 0.051714327186346054]","[0.8377075791358948, -2.659607172012329, -1.40337336063385, -0.1682281643152237, 0.0785064771771431, 0.3409424126148224]"
1584460892157262621,,2375087,,1584460892,156808353,'',"[shoulder_pan_joint, shoulder_lift_joint, elbow_joint, wrist_1_joint, wrist_2_joint,","[1.4172087907791138, -1.1652782599078577, 2.468121290206909, -2.852351490651266, -1.5671137014972132, 2.726393938064575]","[0.07204596698284149, 0.03209855034947395, -0.1033647432923317, 0.0583871454000473, -0.00013422331539914012, 0.03978762775659561]","[0.9567261934280396, -2.330017328262329, -1.5221893787384033, -0.0964508131146431, 0.0852356031537056, 0.3319702446460724]"
1584460892269249895,,2375101,,1584460892,268879754,'',"[shoulder_pan_joint, shoulder_lift_joint, elbow_joint, wrist_1_joint, wrist_2_joint,","[1.4253652095794678, -1.1599906126605433, 2.454923629760742, -2.844856564198629, -1.567101780568258, 2.731279134750366]","[0.07387395948171616, 0.06261198222637177, -0.13281717896461487, 0.0795944333076477, -9.58738019107841e-05, 0.05083229020237923]","[1.0894776582717896, -2.687072992324829, -1.5446075201034546, -0.0358886756002903, 0.0695343092083931, 0.2781372368335724]"
1584460892381262044,,2375115,,1584460892,380770586,'',"[shoulder_pan_joint, shoulder_lift_joint, elbow_joint, wrist_1_joint, wrist_2_joint,","[1.433809518814087, -1.1524131933795374, 2.438581943511963, -2.835087601338522, -1.5671137014972132, 2.7371344566345215]","[0.07699305564165115, 0.06354515254497528, -0.1577954888343811, 0.09771458059549332, -7.669904152862728e-05, 0.04807112365961075]","[0.9338380098342896, -2.737426996231079, -1.679116129875183, -0.1188812404870987, 0.0672912672162056, 0.3880462944507599]"
1584460892493172614,,2375129,,1584460892,492814986,'',"[shoulder_pan_joint, shoulder_lift_joint, elbow_joint, wrist_1_joint, wrist_2_joint,","[1.4433093070983887, -1.1442964712726038, 2.4193005561828613, -2.8237255255328577, -1.5671256224261683, 2.7418041229248047]","[0.08586457371711731, 0.08110923320055008, -0.18328514695167542, 0.10154952853918076, -5.752428114647046e-05, 0.03392015025019646]","[0.9521485567092896, -2.906799554824829, -1.6141035556793213, -0.1211242824792862, 0.0560760572552681, 0.3409424126148224]"
1584460892605353198,,2375143,,1584460892,604883050,'',"[shoulder_pan_joint, shoulder_lift_joint, elbow_joint, wrist_1_joint, wrist_2_joint,","[1.452641248703003, -1.1353877226458948, 2.398782730102539, -2.81199294725527, -1.5671256224261683, 2.745156764984131]","[0.0814671665430069, 0.08347412198781967, -0.18337462842464447, 0.10818399488925934, -3.834952076431364e-05, 0.024524519219994545]","[0.8926392793655396, -2.787781000137329, -1.8965717554092407, -0.0852356031537056, 0.0605621412396431, 0.2736511528491974]"
1584460892717457961,,2375157,,1584460892,716991429,'',"[shoulder_pan_joint, shoulder_lift_joint, elbow_joint, wrist_1_joint, wrist_2_joint,","[1.461097240447998, -1.1263001600848597, 2.3787319660186768, -2.8003442923175257, -1.5671137014972132, 2.7486774921417236]","[0.07584256678819656, 0.07148350775241852, -0.17266231775283813, 0.09702428430318832, -3.834952076431364e-05, 0.03508980944752693]","[0.9841920137405396, -2.920532464981079, -1.7934484481811523, -0.0471038855612278, 0.0605621412396431, 0.3431854546070099]"
1584460892829156444,,2375171,,1584460892,828808454,'',"[shoulder_pan_joint, shoulder_lift_joint, elbow_joint, wrist_1_joint, wrist_2_joint,","[1.4701539278030396, -1.1177881399737757, 2.359821319580078, -2.7893059889422815, -1.5671137014972132, 2.7522809505462646]","[0.08420276641845703, 0.07336263358592987, -0.16399532556533813, 0.09234564751386642, -3.834952076431364e-05, 0.03206019848585129]","[1.0894776582717896, -3.254699945449829, -1.9907277822494507, -0.1143951565027237, 0.0605621412396431, 0.3274841606616974]"
1584460892941174224,,2375185,,1584460892,940737529,'',"[shoulder_pan_joint, shoulder_lift_joint, elbow_joint, wrist_1_joint, wrist_2_joint,","[1.4801573753356934, -1.110798184071676, 2.3418335914611816, -2.779440704976217, -1.5671137014972132, 2.7550830841064453]","[0.09060713648796082, 0.06570551544427872, -0.15410116314888, 0.0895269587635994, -1.917476038215682e-05, 0.0218400526791811]","[0.8972169160842896, -3.071594476699829, -1.8517354726791382, -0.1300964504480362, 0.0538330152630806, 0.3117828667163849]"
1584460893053297893,,2375199,,1584460893,52787770,'',"[shoulder_pan_joint, shoulder_lift_joint, elbow_joint, wrist_1_joint, wrist_2_joint,","[1.490148901939392, -1.1033285299884241, 2.325897693634033, -2.769959274922506, -1.5671375433551233, 2.7574422359466553]","[0.09182153642177582, 0.05505712702870369, -0.12949354946613312, 0.07884661108255386, -1.917476038215682e-05, 0.016087623313069344]","[0.9201050996780396, -3.231811761856079, -2.2440524101257324, -0.0426178015768528, 0.0605621412396431, 0.3185119926929474]"
1584460893165308509,,2375213,,1584460893,164771957,'',"[shoulder_pan_joint, shoulder_lift_joint, elbow_joint, wrist_1_joint, wrist_2_joint,","[1.5001763105392456, -1.0975497404681605, 2.3123254776000977, -2.7619736830340784, -1.5671256224261683, 2.7592382431030273]","[0.09085001051425934, 0.05278172343969345, -0.11424322426319122, 0.06187695264816284, -1.917476038215682e-05, 0.015167235396802425]","[1.0528565645217896, -3.273010492324829, -2.093851089477539, -0.1121521145105362, 0.0762634351849556, 0.3072967827320099]"
1584460893277277448,,2375227,,1584460893,276801519,'',"[shoulder_pan_joint, shoulder_lift_joint, elbow_joint, wrist_1_joint, wrist_2_joint,","[1.5105756521224976, -1.0918429533587855, 2.300433397293091, -2.755425278340475, -1.5671256224261683, 2.761190176010132]","[0.09229451417922974, 0.04080389067530632, -0.09933803975582123, 0.05669976770877838, -1.917476038215682e-05, 0.025138109922409058]","[0.9521485567092896, -3.488159418106079, -2.2597451210021973, -0.0538330152630806, 0.0964508131146431, 0.2714081108570099]"
1584460893389064798,,2375241,,1584460893,388727768,'',"[shoulder_pan_joint, shoulder_lift_joint, elbow_joint, wrist_1_joint, wrist_2_joint,","[1.5211308002471924, -1.0878623167621058, 2.2892847061157227, -2.7493913809405726, -1.5671375433551233, 2.764207124710083]","[0.09671749174594879, 0.03693058714270592, -0.09673027694225311, 0.05514661222696304, -1.917476038215682e-05, 0.027170635759830475]","[0.7598877549171448, -3.282165765762329, -2.188007116317749, -0.0785064771771431, 0.1076660305261612, 0.3521576225757599]"
1584460893501143031,,2375255,,1584460893,500748714,'',"[shoulder_pan_joint, shoulder_lift_joint, elbow_joint, wrist_1_joint, wrist_2_joint,","[1.532213568687439, -1.0831869284259241, 2.278172016143799, -2.7431662718402308, -1.5671375433551233, 2.7669732570648193]","[0.09675583988428116, 0.04555923119187355, -0.09201328456401825, 0.055875252932310104, -1.917476038215682e-05, 0.023700004443526268]","[1.1260987520217896, -3.213501214981079, -2.1207528114318848, -0.1435547024011612, 0.1211242824792862, 0.3611297905445099]"
1584460893613172232,,2375269,,1584460893,612787724,'',"[shoulder_pan_joint, shoulder_lift_joint, elbow_joint, wrist_1_joint, wrist_2_joint,","[1.5429611206054688, -1.0787513891803187, 2.2679476737976074, -2.737311665211813, -1.5671137014972132, 2.768781900405884]","[0.08819111436605453, 0.03188123553991318, -0.08009936660528183, 0.04862719029188156, -1.917476038215682e-05, 0.0035473306197673082]","[0.8377075791358948, -3.359985589981079, -2.2149088382720947, -0.01570129580795765, 0.1143951565027237, 0.2444916069507599]"
1584460893725298264,,2375283,,1584460893,724871056,'',"[shoulder_pan_joint, shoulder_lift_joint, elbow_joint, wrist_1_joint, wrist_2_joint,","[1.5520291328430176, -1.0756576696978968, 2.2600512504577637, -2.732535187398092, -1.5671256224261683, 2.7651774883270264]","[0.07727428525686264, 0.028621524572372437, -0.0697961300611496, 0.03658544272184372, -1.917476038215682e-05, -0.031676702201366425]","[0.9796143770217896, -3.446960687637329, -2.078158378601074, -0.1457977443933487, 0.1323394924402237, -0.3319702446460724]"
1584460893837111161,,2375297,,1584460893,836697599,'',"[shoulder_pan_joint, shoulder_lift_joint, elbow_joint, wrist_1_joint, wrist_2_joint,","[1.5603888034820557, -1.0723126570331019, 2.2536067962646484, -2.728907887135641, -1.5671613852130335, 2.762770652770996]","[0.0735543817281723, 0.026512302458286285, -0.04297702759504318, 0.026940537616610527, 0.0, -0.015838351100683212]","[0.8468628525733948, -3.511047601699829, -2.17903995513916, -0.0829925611615181, 0.1323394924402237, -0.3633728325366974]"
1584460893949033824,,2375311,,1584460893,948717634,'',"[shoulder_pan_joint, shoulder_lift_joint, elbow_joint, wrist_1_joint, wrist_2_joint,","[1.5690968036651611, -1.069855038319723, 2.24893856048584, -2.7263339201556605, -1.5671256224261683, 2.764650344848633]","[0.050161171704530716, 0.020299678668379784, -0.04334774240851402, 0.023374032229185104, 0.0, 0.0481286495923996]","[1.0665894746780396, -3.611755847930908, -2.2216341495513916, -0.0740203931927681, 0.1592559963464737, 0.3409424126148224]"
1584460894061094565,,2375325,,1584460894,60667878,'',"[shoulder_pan_joint, shoulder_lift_joint, elbow_joint, wrist_1_joint, wrist_2_joint,","[1.5765334367752075, -1.0680325667010706, 2.2458295822143555, -2.7242987791644495, -1.5671256224261683, 2.7688653469085693]","[0.05729418247938156, 0.00586747657507658, -0.0065961177460849285, 0.009779127314686775, 0.0, 0.022127673029899597]","[1.0437012910842896, -3.890991687774658, -2.3382084369659424, -0.0897216871380806, 0.1749572902917862, 0.3768310844898224]"
1584460894173119638,,2375339,,1584460894,172715724,'',"[shoulder_pan_joint, shoulder_lift_joint, elbow_joint, wrist_1_joint, wrist_2_joint,","[1.5812230110168457, -1.0681288878070276, 2.2461657524108887, -2.724478546773092, -1.5671137014972132, 2.767524242401123]","[0.029158418998122215, -0.0007797735743224621, 0.0017896442441269755, -0.0009779128013178706, 0.0, -0.047380831092596054]","[0.9613038301467896, -4.737854480743408, -1.6387635469436646, -0.4329071640968323, 0.1704712063074112, -0.3072967827320099]"
1584460894285223339,,2375353,,1584460894,284796782,'',"[shoulder_pan_joint, shoulder_lift_joint, elbow_joint, wrist_1_joint, wrist_2_joint,","[1.5831782817840576, -1.0681527296649378, 2.2461538314819336, -2.724490467702047, -1.567089859639303, 2.7639200687408447]","[0.004448544234037399, -0.0001661812566453591, 0.0002812298189383, -0.00023009712458588183, 0.0, -0.010296845808625221]","[0.5264282822608948, -4.486084461212158, -1.8517354726791382, -0.3566437065601349, 0.1188812404870987, -0.2669220268726349]"
1584460894397115574,,2375367,,1584460894,396733510,'',"[shoulder_pan_joint, shoulder_lift_joint, elbow_joint, wrist_1_joint, wrist_2_joint,","[1.583154320716858, -1.0681408087359827, 2.2461776733398438, -2.7244423071490687, -1.567101780568258, 2.7638840675354004]","[-0.00015339808305725455, 2.5566347176209092e-05, 0.00015339808305725455, 0.0023584954906255007, 0.0, 0.0005560680292546749]","[-0.1007080152630806, -3.923035144805908, -1.5558165311813354, -0.2310333549976349, 0.0560760572552681, 0.01794433780014515]"
1584460894509094341,,2375381,,1584460894,508679957,'',"[shoulder_pan_joint, shoulder_lift_joint, elbow_joint, wrist_1_joint, wrist_2_joint,","[1.5831423997879028, -1.0680807272540491, 2.246201992034912, -2.7244423071490687, -1.5671256224261683, 2.7638721466064453]","[-0.00012783173588104546, 2.5566347176209092e-05, 0.00015339808305725455, 0.00026844663079828024, 0.0, 0.0001917476038215682]","[-0.0915527418255806, -3.945923328399658, -1.5872018337249756, -0.2175751030445099, 0.0493469275534153, 0.02467346377670765]"
1584460894621109818,,2375395,,1584460894,620612218,'',"[shoulder_pan_joint, shoulder_lift_joint, elbow_joint, wrist_1_joint, wrist_2_joint,","[1.5831423997879028, -1.0680926481830042, 2.2461776733398438, -2.7244303862201136, -1.567101780568258, 2.763859987258911]","[-7.669904152862728e-05, 2.5566347176209092e-05, 0.00015339808305725455, 0.00013422331539914012, 0.0, 0.00011504856229294091]","[-0.1052856519818306, -3.977966785430908, -1.5759928226470947, -0.2265472710132599, 0.0493469275534153, 0.02467346377670765]"
1584460894733239196,,2375409,,1584460894,732620009,'',"[shoulder_pan_joint, shoulder_lift_joint, elbow_joint, wrist_1_joint, wrist_2_joint,","[1.5831782817840576, -1.0681164900409144, 2.246201992034912, -2.7244303862201136, -1.567101780568258, 2.7638959884643555]","[-5.1132694352418184e-05, 2.5566347176209092e-05, 0.00011504856229294091, 7.669904152862728e-05, 0.0, 7.669904152862728e-05]","[-0.1144409328699112, -3.982544422149658, -1.5692673921585083, -0.2736511528491974, 0.0560760572552681, 0.01345825381577015]"
1584460894845082700,,2375423,,1584460894,844708081,'',"[shoulder_pan_joint, shoulder_lift_joint, elbow_joint, wrist_1_joint, wrist_2_joint,","[1.583154320716858, -1.0681050459491175, 2.246213912963867, -2.7244423071490687, -1.567089859639303, 2.763848066329956]","[-3.834952076431364e-05, 2.5566347176209092e-05, 0.00011504856229294091, 7.669904152862728e-05, 0.0, 5.752428114647046e-05]","[-0.1190185695886612, -3.982544422149658, -1.5759928226470947, -0.3319702446460724, 0.0560760572552681, 0.02018737979233265]"
1584460894957163388,,2375437,,1584460894,956584507,'',"[shoulder_pan_joint, shoulder_lift_joint, elbow_joint, wrist_1_joint, wrist_2_joint,","[1.5831782817840576, -1.0680926481830042, 2.246201992034912, -2.7244542280780237, -1.567101780568258, 2.7638959884643555]","[-3.834952076431364e-05, 2.5566347176209092e-05, 0.00011504856229294091, -0.00013422331539914012, 0.0, 3.834952076431364e-05]","[-0.1144409328699112, -3.955078601837158, -1.5737509727478027, -0.4059906303882599, 0.0515899695456028, 0.02018737979233265]"
1584460895069300190,,2375451,,1584460895,68790107,'',"[shoulder_pan_joint, shoulder_lift_joint, elbow_joint, wrist_1_joint, wrist_2_joint,","[1.583154320716858, -1.0680807272540491, 2.246213912963867, -2.724490467702047, -1.567101780568258, 2.763859987258911]","[-2.5566347176209092e-05, 2.5566347176209092e-05, 8.948221511673182e-05, -0.00013422331539914012, 0.0, 3.834952076431364e-05]","[-0.0961303785443306, -4.000854969024658, -1.5715092420578003, -0.4015045464038849, 0.0471038855612278, 0.01570129580795765]"
1584460895181063715,,2375465,,1584460895,180633742,'',"[shoulder_pan_joint, shoulder_lift_joint, elbow_joint, wrist_1_joint, wrist_2_joint,","[1.5831423997879028, -1.0680926481830042, 2.2461776733398438, -2.724466149006979, -1.5671137014972132, 2.7638721466064453]","[-2.5566347176209092e-05, 2.5566347176209092e-05, 7.669904152862728e-05, -0.00013422331539914012, 0.0, 3.834952076431364e-05]","[-0.1098632961511612, -3.973389148712158, -1.5849601030349731, -0.4037475883960724, 0.0471038855612278, 0.01570129580795765]"
1584460895292958916,,2375479,,1584460895,292624201,'',"[shoulder_pan_joint, shoulder_lift_joint, elbow_joint, wrist_1_joint, wrist_2_joint,","[1.5831663608551025, -1.0681408087359827, 2.246201992034912, -2.724490467702047, -1.5671375433551233, 2.7638959884643555]","[-2.5566347176209092e-05, 2.5566347176209092e-05, 5.1132694352418184e-05, -9.58738019107841e-05, 0.0, 1.917476038215682e-05]","[-0.1098632961511612, -4.037476062774658, -1.5849601030349731, -0.3947754204273224, 0.0695343092083931, 0.01794433780014515]"
1584460895404978309,,2375493,,1584460895,404665204,'',"[shoulder_pan_joint, shoulder_lift_joint, elbow_joint, wrist_1_joint, wrist_2_joint,","[1.5831663608551025, -1.0680926481830042, 2.2462258338928223, -2.724490467702047, -1.5671137014972132, 2.7639079093933105]","[-1.2783173588104546e-05, 1.2783173588104546e-05, 5.1132694352418184e-05, -5.752428114647046e-05, 0.0, 1.917476038215682e-05]","[-0.1098632961511612, -3.982544422149658, -1.5827182531356812, -0.4015045464038849, 0.0471038855612278, 0.01794433780014515]"
1584460895517034401,,2375507,,1584460895,516668258,'',"[shoulder_pan_joint, shoulder_lift_joint, elbow_joint, wrist_1_joint, wrist_2_joint,","[1.583154320716858, -1.0680807272540491, 2.246213912963867, -2.724466149006979, -1.5671137014972132, 2.7638721466064453]","[-1.2783173588104546e-05, 1.2783173588104546e-05, 3.834952076431364e-05, -5.752428114647046e-05, 0.0, 1.917476038215682e-05]","[-0.1098632961511612, -4.028320789337158, -1.5827182531356812, -0.4015045464038849, 0.0493469275534153, 0.02018737979233265]"
1584460895628943318,,2375521,,1584460895,628639621,'',"[shoulder_pan_joint, shoulder_lift_joint, elbow_joint, wrist_1_joint, wrist_2_joint,","[1.5831423997879028, -1.0681164900409144, 2.2462258338928223, -2.7245143095599573, -1.5671375433551233, 2.7638120651245117]","[-1.2783173588104546e-05, 1.2783173588104546e-05, 3.834952076431364e-05, -3.834952076431364e-05, 0.0, -0.009855826385319233]","[-0.0915527418255806, -4.019165515899658, -1.5804764032363892, -0.3970184624195099, 0.0493469275534153, -0.2310333549976349]"
1584460895740923167,,2375535,,1584460895,740584845,'',"[shoulder_pan_joint, shoulder_lift_joint, elbow_joint, wrist_1_joint, wrist_2_joint,","[1.5831303596496582, -1.0680807272540491, 2.2462258338928223, -2.724478546773092, -1.5671256224261683, 2.7567477226257324]","[-1.2783173588104546e-05, 1.2783173588104546e-05, 2.5566347176209092e-05, -3.834952076431364e-05, 0.0, -0.14367647469043732]","[-0.1235962063074112, -4.000854969024658, -1.5872018337249756, -0.4015045464038849, 0.0583190992474556, -0.3768310844898224]"
1584460895852919207,,2375549,,1584460895,852560186,'',"[shoulder_pan_joint, shoulder_lift_joint, elbow_joint, wrist_1_joint, wrist_2_joint,","[1.583154320716858, -1.0681164900409144, 2.246201992034912, -2.7244542280780237, -1.567101780568258, 2.7349908351898193]","[-1.2783173588104546e-05, 1.2783173588104546e-05, 2.5566347176209092e-05, -3.834952076431364e-05, 0.0, -0.20062552392482758]","[-0.0961303785443306, -3.982544422149658, -1.5737509727478027, -0.3925323784351349, 0.0515899695456028, -0.4710388779640198]"
1584460895965126511,,2375563,,1584460895,964809809,'',"[shoulder_pan_joint, shoulder_lift_joint, elbow_joint, wrist_1_joint, wrist_2_joint,","[1.5831782817840576, -1.0680926481830042, 2.2462258338928223, -2.724490467702047, -1.567089859639303, 2.7124927043914795]","[-1.2783173588104546e-05, 1.2783173588104546e-05, 2.5566347176209092e-05, -1.917476038215682e-05, 0.0, -0.19905318319797516]","[-0.1144409328699112, -4.037476062774658, -1.5804764032363892, -0.4015045464038849, 0.0493469275534153, -0.3970184624195099]"
1584460896077060805,,2375577,,1584460896,76698217,'',"[shoulder_pan_joint, shoulder_lift_joint, elbow_joint, wrist_1_joint, wrist_2_joint,","[1.5831782817840576, -1.0680807272540491, 2.246213912963867, -2.7244542280780237, -1.5671375433551233, 2.690042018890381]","[-1.2783173588104546e-05, 1.2783173588104546e-05, 2.5566347176209092e-05, -1.917476038215682e-05, 0.0, -0.20143085718154907]","[-0.1373291164636612, -4.092407703399658, -1.5849601030349731, -0.3992615044116974, 0.0605621412396431, -0.4059906303882599]"
1584460896188875886,,2375591,,1584460896,188524369,'',"[shoulder_pan_joint, shoulder_lift_joint, elbow_joint, wrist_1_joint, wrist_2_joint,","[1.5831303596496582, -1.0680926481830042, 2.2461776733398438, -2.724478546773092, -1.567089859639303, 2.6677122116088867]","[-1.2783173588104546e-05, 1.2783173588104546e-05, 1.2783173588104546e-05, -1.917476038215682e-05, 0.0, -0.19914905726909637]","[-0.1098632961511612, -4.046631336212158, -1.5894436836242676, -0.4037475883960724, 0.0605621412396431, -0.4777680039405823]"
1584460896300890671,,2375605,,1584460896,300542360,'',"[shoulder_pan_joint, shoulder_lift_joint, elbow_joint, wrist_1_joint, wrist_2_joint,","[1.5831663608551025, -1.0680807272540491, 2.2462258338928223, -2.724478546773092, -1.567101780568258, 2.645346164703369]","[0.0, 1.2783173588104546e-05, 1.2783173588104546e-05, -1.917476038215682e-05, 0.0, -0.20028036832809448]","[-0.1235962063074112, -4.115295886993408, -1.5737509727478027, -0.3992615044116974, 0.0403747595846653, -0.3858032524585724]"
1584460896412882382,,2375619,,1584460896,412524604,'',"[shoulder_pan_joint, shoulder_lift_joint, elbow_joint, wrist_1_joint, wrist_2_joint,","[1.5831423997879028, -1.068056885396139, 2.246213912963867, -2.7245143095599573, -1.567089859639303, 2.622860908508301]","[0.0, 0.0, 1.2783173588104546e-05, -1.917476038215682e-05, 0.0, -0.20018449425697327]","[-0.0961303785443306, -4.142761707305908, -1.5827182531356812, -0.4015045464038849, 0.0538330152630806, -0.4732819199562073]"
1584460896524916443,,2375633,,1584460896,524585064,'',"[shoulder_pan_joint, shoulder_lift_joint, elbow_joint, wrist_1_joint, wrist_2_joint,","[1.5831663608551025, -1.0681164900409144, 2.2462377548217773, -2.724478546773092, -1.567089859639303, 2.6005072593688965]","[0.0, 0.0, 1.2783173588104546e-05, -1.917476038215682e-05, 0.0, -0.20121993124485016]","[-0.1510620266199112, -4.257202625274658, -1.5804764032363892, -0.4015045464038849, 0.0538330152630806, -0.3902893364429474]"
1584460896637019843,,2375647,,1584460896,636624194,'',"[shoulder_pan_joint, shoulder_lift_joint, elbow_joint, wrist_1_joint, wrist_2_joint,","[1.5831663608551025, -1.0681288878070276, 2.246201992034912, -2.724490467702047, -1.5671256224261683, 2.578202247619629]","[0.0, 0.0, 1.2783173588104546e-05, -1.917476038215682e-05, 0.0, -0.19742333889007568]","[-0.1510620266199112, -4.357910633087158, -1.5715092420578003, -0.3947754204273224, 0.0515899695456028, -0.4463654160499573]"
1584460896748833932,,2375661,,1584460896,748491763,'',"[shoulder_pan_joint, shoulder_lift_joint, elbow_joint, wrist_1_joint, wrist_2_joint,","[1.5831782817840576, -1.0681050459491175, 2.246201992034912, -2.7244542280780237, -1.567089859639303, 2.5556936264038086]","[0.0, 0.0, 1.2783173588104546e-05, -1.917476038215682e-05, 0.0, -0.20085561275482178]","[-0.0778198316693306, -4.298401355743408, -1.5894436836242676, -0.4104767143726349, 0.0426178015768528, -0.4104767143726349]"
1584460896860842004,,2375675,,1584460896,860485157,'',"[shoulder_pan_joint, shoulder_lift_joint, elbow_joint, wrist_1_joint, wrist_2_joint,","[1.5831782817840576, -1.068068806325094, 2.2462735176086426, -2.724490467702047, -1.567077938710348, 2.533233404159546]","[0.0, 0.0, 1.2783173588104546e-05, 0.0, 0.0, -0.19884225726127625]","[-0.1235962063074112, -4.229736804962158, -1.593927264213562, -0.4059906303882599, 0.0538330152630806, -0.4329071640968323]"
1584460896972837863,,2375689,,1584460896,972499972,'',"[shoulder_pan_joint, shoulder_lift_joint, elbow_joint, wrist_1_joint, wrist_2_joint,","[1.583154320716858, -1.0681164900409144, 2.2462258338928223, -2.7244542280780237, -1.567101780568258, 2.510976791381836]","[0.0, 0.0, 1.2783173588104546e-05, 0.0, 0.0, -0.2017376571893692]","[-0.1098632961511612, -4.257202625274658, -1.6096199750900269, -0.4127197563648224, 0.0515899695456028, -0.4665527939796448]"
1584460897084888906,,2375703,,1584460897,84507203,'',"[shoulder_pan_joint, shoulder_lift_joint, elbow_joint, wrist_1_joint, wrist_2_joint,","[1.5831423997879028, -1.0681288878070276, 2.2462258338928223, -2.7244542280780237, -1.567101780568258, 2.4883971214294434]","[0.0, 0.0, 1.2783173588104546e-05, 0.0, 0.0, -0.2007022202014923]","[-0.1098632961511612, -4.229736804962158, -1.6230708360671997, -0.4508515000343323, 0.0471038855612278, -0.4104767143726349]"
1584460897197040125,,2375717,,1584460897,196668140,'',"[shoulder_pan_joint, shoulder_lift_joint, elbow_joint, wrist_1_joint, wrist_2_joint,","[1.5831663608551025, -1.0681164900409144, 2.2462377548217773, -2.724478546773092, -1.567101780568258, 2.466080904006958]","[0.0, 0.0, 1.2783173588104546e-05, 0.0, 0.0, -0.19863134622573853]","[-0.0961303785443306, -4.280090808868408, -1.6118618249893188, -0.4575806260108948, 0.0560760572552681, -0.5203858017921448]"
1584460897308848594,,2375731,,1584460897,308527504,'',"[shoulder_pan_joint, shoulder_lift_joint, elbow_joint, wrist_1_joint, wrist_2_joint,","[1.5831782817840576, -1.0680807272540491, 2.2462377548217773, -2.724490467702047, -1.5671137014972132, 2.443681240081787]","[0.0, 0.0, -0.0, 0.0, 0.0, -0.2018526941537857]","[-0.1007080152630806, -4.339600086212158, -1.6835997104644775, -0.4598236680030823, 0.0583190992474556, -0.3813171684741974]"
1584460897420864110,,2375745,,1584460897,420535807,'',"[shoulder_pan_joint, shoulder_lift_joint, elbow_joint, wrist_1_joint, wrist_2_joint,","[1.5831782817840576, -1.0680807272540491, 2.2462496757507324, -2.724490467702047, -1.567077938710348, 2.421233654022217]","[0.0, 0.0, -0.0, 0.0, 0.0, -0.2015267312526703]","[-0.0823974683880806, -4.344177722930908, -1.7799975872039795, -0.4530945420265198, 0.0471038855612278, -0.5450592637062073]"
1584460897532839070,,2375759,,1584460897,532479348,'',"[shoulder_pan_joint, shoulder_lift_joint, elbow_joint, wrist_1_joint, wrist_2_joint,","[1.583154320716858, -1.0681050459491175, 2.2462258338928223, -2.724478546773092, -1.5670655409442347, 2.398930311203003]","[0.0, 0.0, -0.0, 0.0, 0.0, -0.19794104993343353]","[-0.1235962063074112, -4.298401355743408, -1.788964867591858, -0.4620667099952698, 0.0628051832318306, -0.4284210503101349]"
1584460897644837223,,2375773,,1584460897,644496647,'',"[shoulder_pan_joint, shoulder_lift_joint, elbow_joint, wrist_1_joint, wrist_2_joint,","[1.5831903219223022, -1.0680926481830042, 2.2462377548217773, -2.724490467702047, -1.567077938710348, 2.376471519470215]","[0.0, 0.0, -0.0, 0.0, 0.0, -0.19985853135585785]","[-0.1052856519818306, -4.367065906524658, -1.8001738786697388, -0.4508515000343323, 0.0583190992474556, -0.4979553818702698]"
1584460897756987541,,2375787,,1584460897,756565282,'',"[shoulder_pan_joint, shoulder_lift_joint, elbow_joint, wrist_1_joint, wrist_2_joint,","[1.5831663608551025, -1.0681164900409144, 2.2462258338928223, -2.724490467702047, -1.567089859639303, 2.3540842533111572]","[0.0, 0.0, -0.0, 0.0, 0.0, -0.20039542019367218]","[-0.1098632961511612, -4.302978992462158, -1.8024157285690308, -0.4575806260108948, 0.0448608435690403, -0.4261780083179474]"
1584460897868792554,,2375801,,1584460897,868482204,'',"[shoulder_pan_joint, shoulder_lift_joint, elbow_joint, wrist_1_joint, wrist_2_joint,","[1.5831663608551025, -1.0681288878070276, 2.2462258338928223, -2.7244542280780237, -1.567077938710348, 2.331745147705078]","[0.0, 0.0, -0.0, 0.0, 0.0, -0.20006944239139557]","[-0.1052856519818306, -4.312134265899658, -1.8001738786697388, -0.4665527939796448, 0.0583190992474556, -0.4329071640968323]"
1584460897980847904,,2375815,,1584460897,980526864,'',"[shoulder_pan_joint, shoulder_lift_joint, elbow_joint, wrist_1_joint, wrist_2_joint,","[1.5831663608551025, -1.0680926481830042, 2.2462377548217773, -2.724478546773092, -1.567077938710348, 2.309238910675049]","[0.0, 0.0, -0.0, 0.0, 0.0, -0.20018449425697327]","[-0.1190185695886612, -4.335022449493408, -1.7956902980804443, -0.4665527939796448, 0.0471038855612278, -0.4575806260108948]"
1584460898092761329,,2375829,,1584460898,92415804,'',"[shoulder_pan_joint, shoulder_lift_joint, elbow_joint, wrist_1_joint, wrist_2_joint,","[1.5831663608551025, -1.0681164900409144, 2.246213912963867, -2.724478546773092, -1.567077938710348, 2.2868995666503906]","[0.0, 0.0, -0.0, 0.0, 0.0, -0.20258134603500366]","[-0.1052856519818306, -4.234314441680908, -1.8024157285690308, -0.4665527939796448, 0.0583190992474556, -0.3454284965991974]"
1584460898204806270,,2375843,,1584460898,204465513,'',"[shoulder_pan_joint, shoulder_lift_joint, elbow_joint, wrist_1_joint, wrist_2_joint,","[1.5831663608551025, -1.0680926481830042, 2.2462615966796875, -2.7245023886310022, -1.5670655409442347, 2.2645609378814697]","[0.0, 0.0, -0.0, 0.0, 0.0, -0.19874638319015503]","[-0.1098632961511612, -4.330444812774658, -1.8270756006240845, -0.4575806260108948, 0.0583190992474556, -0.6056213974952698]"
1584460898317106057,,2375857,,1584460898,316684179,'',"[shoulder_pan_joint, shoulder_lift_joint, elbow_joint, wrist_1_joint, wrist_2_joint,","[1.5831423997879028, -1.0680807272540491, 2.2462496757507324, -2.724478546773092, -1.567089859639303, 2.242018938064575]","[0.0, 0.0, -0.0, 0.0, 0.0, -0.2007022202014923]","[-0.0823974683880806, -4.330444812774658, -1.833801031112671, -0.4553375840187073, 0.0628051832318306, -0.4149627983570099]"
1584460898428756100,,2375871,,1584460898,428450409,'',"[shoulder_pan_joint, shoulder_lift_joint, elbow_joint, wrist_1_joint, wrist_2_joint,","[1.5831782817840576, -1.0680926481830042, 2.246201992034912, -2.724490467702047, -1.567077938710348, 2.219656467437744]","[0.0, 0.0, -0.0, 0.0, 0.0, -0.19794104993343353]","[-0.0961303785443306, -4.321289539337158, -1.9010553359985352, -0.4620667099952698, 0.0515899695456028, -0.5338440537452698]"
1584460898540817631,,2375885,,1584460898,540436600,'',"[shoulder_pan_joint, shoulder_lift_joint, elbow_joint, wrist_1_joint, wrist_2_joint,","[1.5831663608551025, -1.0681050459491175, 2.2462377548217773, -2.724490467702047, -1.5670536200152796, 2.197258234024048]","[0.0, 0.0, -0.0, 0.0, 0.0, -0.19985853135585785]","[-0.0915527418255806, -4.362488269805908, -2.008662223815918, -0.4620667099952698, 0.0560760572552681, -0.4575806260108948]"
1584460898652749411,,2375899,,1584460898,652414436,'',"[shoulder_pan_joint, shoulder_lift_joint, elbow_joint, wrist_1_joint, wrist_2_joint,","[1.5831663608551025, -1.0680807272540491, 2.246213912963867, -2.724478546773092, -1.567077938710348, 2.1793251037597656]","[0.0, 0.0, -0.0, 0.0, 0.0, -0.08630559593439102]","[-0.1007080152630806, -4.353332996368408, -2.022113084793091, -0.4687958359718323, 0.0650482252240181, -0.3678589165210724]"
1584460898764715395,,2375913,,1584460898,764389917,'',"[shoulder_pan_joint, shoulder_lift_joint, elbow_joint, wrist_1_joint, wrist_2_joint,","[1.583154320716858, -1.068068806325094, 2.246201992034912, -2.724490467702047, -1.5670655409442347, 2.177110433578491]","[0.0, 0.0, -0.0, 0.0, 0.0, 0.0009203884983435273]","[-0.0961303785443306, -4.362488269805908, -2.015387773513794, -0.4643097519874573, 0.0538330152630806, -0.004486084450036287]"
1584460898876986328,,2375927,,1584460898,876584808,'',"[shoulder_pan_joint, shoulder_lift_joint, elbow_joint, wrist_1_joint, wrist_2_joint,","[1.5831663608551025, -1.0680807272540491, 2.2462258338928223, -2.724490467702047, -1.5670416990863245, 2.1773617267608643]","[0.0, 0.0, -0.0, 0.0, 0.0, 0.0030871364288032055]","[-0.0732421949505806, -4.234314441680908, -2.028838634490967, -0.4620667099952698, 0.0471038855612278, 0.0807495191693306]"
1584460898989068147,,2375941,,1584460898,988731719,'',"[shoulder_pan_joint, shoulder_lift_joint, elbow_joint, wrist_1_joint, wrist_2_joint,","[1.583154320716858, -1.0681050459491175, 2.246201992034912, -2.724478546773092, -1.567089859639303, 2.1774096488952637]","[0.0, 0.0, -0.0, 0.0, 0.0, 0.0003834952076431364]","[-0.1052856519818306, -4.339600086212158, -2.026596784591675, -0.4687958359718323, 0.0560760572552681, 0.0717773512005806]"
1584460899100675751,,2375955,,1584460899,100357717,'',"[shoulder_pan_joint, shoulder_lift_joint, elbow_joint, wrist_1_joint, wrist_2_joint,","[1.5831663608551025, -1.0681288878070276, 2.246201992034912, -2.724478546773092, -1.567077938710348, 2.177421808242798]","[0.0, 0.0, -0.0, 0.0, 0.0, 0.00028762139845639467]","[-0.1098632961511612, -4.412842273712158, -2.022113084793091, -0.4687958359718323, 0.0515899695456028, 0.0650482252240181]"
1584460899212717085,,2375969,,1584460899,212382029,'',"[shoulder_pan_joint, shoulder_lift_joint, elbow_joint, wrist_1_joint, wrist_2_joint,","[1.583154320716858, -1.0680926481830042, 2.2462258338928223, -2.7244542280780237, -1.567101780568258, 2.177445650100708]","[0.0, 0.0, -0.0, 0.0, 0.0, 0.00013422331539914012]","[-0.1144409328699112, -4.476929187774658, -2.024354934692383, -0.4620667099952698, 0.0538330152630806, 0.0717773512005806]"
1584460899324765532,,2375983,,1584460899,324409908,'',"[shoulder_pan_joint, shoulder_lift_joint, elbow_joint, wrist_1_joint, wrist_2_joint,","[1.583154320716858, -1.0681050459491175, 2.246213912963867, -2.7245023886310022, -1.567077938710348, 2.177445650100708]","[0.0, 0.0, -0.0, 0.0, 0.0, 9.58738019107841e-05]","[-0.0961303785443306, -4.444885730743408, -2.0422894954681396, -0.4665527939796448, 0.0515899695456028, 0.0695343092083931]"
1584460899437047116,,2375997,,1584460899,436638352,'',"[shoulder_pan_joint, shoulder_lift_joint, elbow_joint, wrist_1_joint, wrist_2_joint,","[1.583154320716858, -1.0680807272540491, 2.2462496757507324, -2.7245023886310022, -1.5670536200152796, 2.177445650100708]","[0.0, 0.0, -0.0, 0.0, 0.0, 7.669904152862728e-05]","[-0.1052856519818306, -4.412842273712158, -2.0378057956695557, -0.4665527939796448, 0.0426178015768528, 0.0717773512005806]"
1584460899548731583,,2376011,,1584460899,548359758,'',"[shoulder_pan_joint, shoulder_lift_joint, elbow_joint, wrist_1_joint, wrist_2_joint,","[1.583154320716858, -1.0681164900409144, 2.246213912963867, -2.724466149006979, -1.567089859639303, 2.1774096488952637]","[0.0, 0.0, -0.0, 0.0, 0.0, 5.752428114647046e-05]","[-0.1235962063074112, -4.371643543243408, -2.0333220958709717, -0.4620667099952698, 0.0672912672162056, 0.0605621412396431]"
1584460899660761225,,2376025,,1584460899,660418415,'',"[shoulder_pan_joint, shoulder_lift_joint, elbow_joint, wrist_1_joint, wrist_2_joint,","[1.5831663608551025, -1.0681050459491175, 2.2462258338928223, -2.724478546773092, -1.567089859639303, 2.177457809448242]","[0.0, 0.0, -0.0, 0.0, 0.0, 3.834952076431364e-05]","[-0.1007080152630806, -4.335022449493408, -2.0445311069488525, -0.4732819199562073, 0.0538330152630806, 0.0740203931927681]"
1584460899773096228,,2376039,,1584460899,772571317,'',"[shoulder_pan_joint, shoulder_lift_joint, elbow_joint, wrist_1_joint, wrist_2_joint,","[1.5831423997879028, -1.0680926481830042, 2.2462377548217773, -2.724466149006979, -1.5670297781573694, 2.177457809448242]","[0.0, 0.0, -0.0, 0.0, 0.0, 3.834952076431364e-05]","[-0.1144409328699112, -4.431152820587158, -2.0333220958709717, -0.4732819199562073, 0.0717773512005806, 0.0717773512005806]"
1584460899885053495,,2376053,,1584460899,884628441,'',"[shoulder_pan_joint, shoulder_lift_joint, elbow_joint, wrist_1_joint, wrist_2_joint,","[1.583154320716858, -1.0680926481830042, 2.2462377548217773, -2.724478546773092, -1.567077938710348, 2.177433729171753]","[0.0, 0.0, -0.0, 0.0, 0.0, 3.834952076431364e-05]","[-0.1373291164636612, -4.421997547149658, -2.0400476455688477, -0.4687958359718323, 0.0426178015768528, 0.0695343092083931]"
1584460899996826267,,2376067,,1584460899,996483206,'',"[shoulder_pan_joint, shoulder_lift_joint, elbow_joint, wrist_1_joint, wrist_2_joint,","[1.5831423997879028, -1.0681164900409144, 2.2462258338928223, -2.7245023886310022, -1.567077938710348, 2.177457809448242]","[0.0, 0.0, -0.0, 0.0, 0.0, 1.917476038215682e-05]","[-0.1327514797449112, -4.399109363555908, -2.0333220958709717, -0.4665527939796448, 0.0493469275534153, 0.0762634351849556]"
1584460900108909058,,2376081,,1584460900,108447777,'',"[shoulder_pan_joint, shoulder_lift_joint, elbow_joint, wrist_1_joint, wrist_2_joint,","[1.583154320716858, -1.0680926481830042, 2.2462258338928223, -2.7245023886310022, -1.5670655409442347, 2.177433729171753]","[0.0, 0.0, -0.0, 0.0, 0.0, 1.917476038215682e-05]","[-0.0869751051068306, -4.421997547149658, -2.0378057956695557, -0.4665527939796448, 0.0650482252240181, 0.0717773512005806]"
1584460900220917581,,2376095,,1584460900,220538112,'',"[shoulder_pan_joint, shoulder_lift_joint, elbow_joint, wrist_1_joint, wrist_2_joint,","[1.583154320716858, -1.0681164900409144, 2.2462377548217773, -2.724490467702047, -1.5670536200152796, 2.177433729171753]","[0.0, 0.0, -0.0, 0.0, 0.0, 1.917476038215682e-05]","[-0.0823974683880806, -4.357910633087158, -2.0378057956695557, -0.4575806260108948, 0.0560760572552681, 0.0762634351849556]"
1584460900332740518,,2376109,,1584460900,332423135,'',"[shoulder_pan_joint, shoulder_lift_joint, elbow_joint, wrist_1_joint, wrist_2_joint,","[1.5831423997879028, -1.0680926481830042, 2.246213912963867, -2.7245023886310022, -1.5670655409442347, 2.177469253540039]","[0.0, 0.0, -0.0, 0.0, 0.0, 1.917476038215682e-05]","[-0.1327514797449112, -4.385376453399658, -2.0445311069488525, -0.4620667099952698, 0.0426178015768528, 0.0717773512005806]"
1584460900444723693,,2376123,,1584460900,444394108,'',"[shoulder_pan_joint, shoulder_lift_joint, elbow_joint, wrist_1_joint, wrist_2_joint,","[1.5831663608551025, -1.0680926481830042, 2.246201992034912, -2.724525753651754, -1.567077938710348, 2.177457809448242]","[0.0, 0.0, -0.0, 0.0, 0.0, 1.917476038215682e-05]","[-0.1098632961511612, -4.412842273712158, -2.0378057956695557, -0.4687958359718323, 0.0538330152630806, 0.0695343092083931]"
1584460900556762993,,2376137,,1584460900,556361042,'',"[shoulder_pan_joint, shoulder_lift_joint, elbow_joint, wrist_1_joint, wrist_2_joint,","[1.583154320716858, -1.0681164900409144, 2.2462258338928223, -2.724490467702047, -1.5670655409442347, 2.1774814128875732]","[0.0, 0.0, -0.0, 0.0, 0.0, 1.917476038215682e-05]","[-0.1098632961511612, -4.330444812774658, -2.026596784591675, -0.4620667099952698, 0.0583190992474556, 0.0695343092083931]"
1584460900668673583,,2376151,,1584460900,668356060,'',"[shoulder_pan_joint, shoulder_lift_joint, elbow_joint, wrist_1_joint, wrist_2_joint,","[1.5831423997879028, -1.0680926481830042, 2.2462377548217773, -2.7245143095599573, -1.5670536200152796, 2.177445650100708]","[0.0, 0.0, -0.0, 0.0, 0.0, 1.917476038215682e-05]","[-0.1007080152630806, -4.403687000274658, -2.0333220958709717, -0.4598236680030823, 0.0717773512005806, 0.0785064771771431]"
1584460900780737820,,2376165,,1584460900,780396943,'',"[shoulder_pan_joint, shoulder_lift_joint, elbow_joint, wrist_1_joint, wrist_2_joint,","[1.5831663608551025, -1.0681164900409144, 2.2462258338928223, -2.724525753651754, -1.567077938710348, 2.177469253540039]","[0.0, 0.0, -0.0, 0.0, 0.0, 1.917476038215682e-05]","[-0.1190185695886612, -4.312134265899658, -2.026596784591675, -0.4643097519874573, 0.0583190992474556, 0.0807495191693306]"
1584460900892677534,,2376179,,1584460900,892311180,'',"[shoulder_pan_joint, shoulder_lift_joint, elbow_joint, wrist_1_joint, wrist_2_joint,","[1.583154320716858, -1.0680926481830042, 2.246201992034912, -2.724490467702047, -1.567077938710348, 2.177457809448242]","[0.0, 0.0, -0.0, 0.0, 0.0, 0.0]","[-0.1007080152630806, -4.380798816680908, -2.0355639457702637, -0.4598236680030823, 0.0471038855612278, 0.0807495191693306]"
1584460901004748704,,2376193,,1584460901,4385395,'',"[shoulder_pan_joint, shoulder_lift_joint, elbow_joint, wrist_1_joint, wrist_2_joint,","[1.5831423997879028, -1.0681164900409144, 2.2462377548217773, -2.724478546773092, -1.567089859639303, 2.177445650100708]","[0.0, 0.0, -0.0, 0.0, 0.0, 0.0]","[-0.0961303785443306, -4.339600086212158, -2.0445311069488525, -0.4643097519874573, 0.0471038855612278, 0.0762634351849556]"
1584460901116637343,,2376207,,1584460901,116329228,'',"[shoulder_pan_joint, shoulder_lift_joint, elbow_joint, wrist_1_joint, wrist_2_joint,","[1.5831303596496582, -1.0680926481830042, 2.246190071105957, -2.724525753651754, -1.5670655409442347, 2.177433729171753]","[0.0, 0.0, -0.0, 0.0, 0.0, 0.0]","[-0.1052856519818306, -4.412842273712158, -2.0310802459716797, -0.4665527939796448, 0.0583190992474556, 0.0785064771771431]"
1584460901228760270,,2376221,,1584460901,228420405,'',"[shoulder_pan_joint, shoulder_lift_joint, elbow_joint, wrist_1_joint, wrist_2_joint,","[1.5831663608551025, -1.0681288878070276, 2.2462258338928223, -2.724478546773092, -1.567101780568258, 2.177457809448242]","[0.0, 0.0, -0.0, 0.0, 0.0, 0.0]","[-0.1373291164636612, -4.357910633087158, -2.0445311069488525, -0.4620667099952698, 0.0560760572552681, 0.0762634351849556]"
1584460901340609966,,2376235,,1584460901,340337627,'',"[shoulder_pan_joint, shoulder_lift_joint, elbow_joint, wrist_1_joint, wrist_2_joint,","[1.5831903219223022, -1.0681527296649378, 2.2462377548217773, -2.724478546773092, -1.567089859639303, 2.177469253540039]","[0.0, 0.0, -0.0, 0.0, 0.0, 0.0]","[-0.1098632961511612, -4.339600086212158, -2.0422894954681396, -0.4687958359718323, 0.0583190992474556, 0.0762634351849556]"
1584460901452571571,,2376249,,1584460901,452313759,'',"[shoulder_pan_joint, shoulder_lift_joint, elbow_joint, wrist_1_joint, wrist_2_joint,","[1.5831303596496582, -1.0681164900409144, 2.246213912963867, -2.7245023886310022, -1.5670655409442347, 2.177433729171753]","[0.0, 0.0, -0.0, 0.0, 0.0, 0.0]","[-0.1098632961511612, -4.417419910430908, -2.0355639457702637, -0.4643097519874573, 0.0493469275534153, 0.0740203931927681]"
1584460901564576917,,2376263,,1584460901,564312263,'',"[shoulder_pan_joint, shoulder_lift_joint, elbow_joint, wrist_1_joint, wrist_2_joint,","[1.583154320716858, -1.0681164900409144, 2.2462258338928223, -2.724478546773092, -1.5670655409442347, 2.177445650100708]","[0.0, 0.0, -0.0, 0.0, 0.0, 0.0]","[-0.0961303785443306, -4.454041004180908, -2.0378057956695557, -0.4643097519874573, 0.0807495191693306, 0.0717773512005806]"
1584460901676619614,,2376277,,1584460901,676334421,'',"[shoulder_pan_joint, shoulder_lift_joint, elbow_joint, wrist_1_joint, wrist_2_joint,","[1.5831782817840576, -1.0681288878070276, 2.246213912963867, -2.7245023886310022, -1.567089859639303, 2.177469253540039]","[0.0, 0.0, -0.0, 0.0, 0.0, 0.0]","[-0.1052856519818306, -4.325867176055908, -2.0378057956695557, -0.4710388779640198, 0.0538330152630806, 0.0717773512005806]"
1584460901788582030,,2376291,,1584460901,788298260,'',"[shoulder_pan_joint, shoulder_lift_joint, elbow_joint, wrist_1_joint, wrist_2_joint,","[1.5831663608551025, -1.0680926481830042, 2.246201992034912, -2.7245023886310022, -1.5670655409442347, 2.177457809448242]","[0.0, 0.0, -0.0, 0.0, 0.0, 0.0]","[-0.1144409328699112, -4.325867176055908, -2.0422894954681396, -0.4665527939796448, 0.0515899695456028, 0.0740203931927681]"
1584460901900586236,,2376305,,1584460901,900302135,'',"[shoulder_pan_joint, shoulder_lift_joint, elbow_joint, wrist_1_joint, wrist_2_joint,","[1.5831663608551025, -1.0681408087359827, 2.2462258338928223, -2.724466149006979, -1.5670655409442347, 2.1774814128875732]","[0.0, 0.0, -0.0, 0.0, 0.0, 0.0]","[-0.1098632961511612, -4.312134265899658, -2.0400476455688477, -0.4687958359718323, 0.0493469275534153, 0.0695343092083931]"
1584460902012723068,,2376319,,1584460902,12473582,'',"[shoulder_pan_joint, shoulder_lift_joint, elbow_joint, wrist_1_joint, wrist_2_joint,","[1.5831423997879028, -1.0680926481830042, 2.2462496757507324, -2.724490467702047, -1.567089859639303, 2.177445650100708]","[0.0, 0.0, -0.0, 0.0, 0.0, 0.0]","[-0.1327514797449112, -4.307556629180908, -2.0378057956695557, -0.4598236680030823, 0.0515899695456028, 0.0717773512005806]"
1584460902124557676,,2376333,,1584460902,124267173,'',"[shoulder_pan_joint, shoulder_lift_joint, elbow_joint, wrist_1_joint, wrist_2_joint,","[1.5831663608551025, -1.0681050459491175, 2.2462258338928223, -2.724478546773092, -1.567077938710348, 2.177445650100708]","[0.0, 0.0, -0.0, 0.0, 0.0, 0.0]","[-0.1098632961511612, -4.440308094024658, -2.0310802459716797, -0.4620667099952698, 0.0560760572552681, 0.0762634351849556]"
1584460902236775139,,2376347,,1584460902,236362037,'',"[shoulder_pan_joint, shoulder_lift_joint, elbow_joint, wrist_1_joint, wrist_2_joint,","[1.5831782817840576, -1.0681050459491175, 2.2462615966796875, -2.7245023886310022, -1.567077938710348, 2.177457809448242]","[0.0, 0.0, -0.0, 0.0, 0.0, 0.0]","[-0.1098632961511612, -4.394531726837158, -2.0378057956695557, -0.4643097519874573, 0.0448608435690403, 0.0717773512005806]"
1584460902348595801,,2376361,,1584460902,348293526,'',"[shoulder_pan_joint, shoulder_lift_joint, elbow_joint, wrist_1_joint, wrist_2_joint,","[1.5831782817840576, -1.0681164900409144, 2.246213912963867, -2.7245023886310022, -1.5671256224261683, 2.177445650100708]","[0.0, 0.0, -0.0, 0.0, 0.0, 0.0]","[-0.1007080152630806, -4.344177722930908, -2.0400476455688477, -0.4710388779640198, 0.0583190992474556, 0.0762634351849556]"
1584460902460586240,,2376375,,1584460902,460275660,'',"[shoulder_pan_joint, shoulder_lift_joint, elbow_joint, wrist_1_joint, wrist_2_joint,","[1.5831663608551025, -1.0681288878070276, 2.2462377548217773, -2.724478546773092, -1.567077938710348, 2.177469253540039]","[0.0, 0.0, -0.0, 0.0, 0.0, 0.0]","[-0.1098632961511612, -4.362488269805908, -2.028838634490967, -0.4665527939796448, 0.0560760572552681, 0.0717773512005806]"
1584460902572768156,,2376389,,1584460902,572459029,'',"[shoulder_pan_joint, shoulder_lift_joint, elbow_joint, wrist_1_joint, wrist_2_joint,","[1.5831303596496582, -1.0681288878070276, 2.246201992034912, -2.7245023886310022, -1.567101780568258, 2.177457809448242]","[0.0, 0.0, -0.0, 0.0, 0.0, 0.0]","[-0.1098632961511612, -4.440308094024658, -2.0355639457702637, -0.4643097519874573, 0.0448608435690403, 0.0695343092083931]"
1584460902684698944,,2376403,,1584460902,684367525,'',"[shoulder_pan_joint, shoulder_lift_joint, elbow_joint, wrist_1_joint, wrist_2_joint,","[1.5831303596496582, -1.0681164900409144, 2.2462377548217773, -2.724490467702047, -1.5671137014972132, 2.177433729171753]","[0.0, 0.0, -0.0, 0.0, 0.0, 0.0]","[-0.1144409328699112, -4.412842273712158, -2.0467729568481445, -0.4598236680030823, 0.0538330152630806, 0.0807495191693306]"
1584460902796621597,,2376417,,1584460902,796309373,'',"[shoulder_pan_joint, shoulder_lift_joint, elbow_joint, wrist_1_joint, wrist_2_joint,","[1.5831782817840576, -1.0680449644671839, 2.2462496757507324, -2.724525753651754, -1.5670655409442347, 2.1774814128875732]","[0.0, 0.0, -0.0, 0.0, 0.0, 0.0]","[-0.1556396633386612, -4.412842273712158, -2.0355639457702637, -0.4598236680030823, 0.0515899695456028, 0.0785064771771431]"
1584460902908619339,,2376431,,1584460902,908276328,'',"[shoulder_pan_joint, shoulder_lift_joint, elbow_joint, wrist_1_joint, wrist_2_joint,","[1.5831782817840576, -1.0680807272540491, 2.246201992034912, -2.724490467702047, -1.5670655409442347, 2.177445650100708]","[0.0, 0.0, -0.0, 0.0, 0.0, 0.0]","[-0.1968383938074112, -4.412842273712158, -2.026596784591675, -0.4710388779640198, 0.0583190992474556, 0.0740203931927681]"
1584460903020745532,,2376445,,1584460903,20322692,'',"[shoulder_pan_joint, shoulder_lift_joint, elbow_joint, wrist_1_joint, wrist_2_joint,","[1.5831663608551025, -1.0681164900409144, 2.246213912963867, -2.7245023886310022, -1.567077938710348, 2.177445650100708]","[0.0, 0.0, -0.0, 0.0, 0.0, 0.0]","[-0.1510620266199112, -4.330444812774658, -2.0422894954681396, -0.4643097519874573, 0.0381317175924778, 0.0785064771771431]"
1584460903132692259,,2376459,,1584460903,132380396,'',"[shoulder_pan_joint, shoulder_lift_joint, elbow_joint, wrist_1_joint, wrist_2_joint,","[1.583154320716858, -1.0681288878070276, 2.2462258338928223, -2.7245023886310022, -1.567101780568258, 2.177433729171753]","[0.0, 0.0, -0.0, 0.0, 0.0, 0.0]","[-0.1098632961511612, -4.467773914337158, -2.0355639457702637, -0.4620667099952698, 0.0538330152630806, 0.0785064771771431]"
1584460903244854629,,2376473,,1584460903,244424315,'',"[shoulder_pan_joint, shoulder_lift_joint, elbow_joint, wrist_1_joint, wrist_2_joint,","[1.5831423997879028, -1.0680807272540491, 2.246213912963867, -2.724466149006979, -1.567077938710348, 2.1774814128875732]","[0.0, 0.0, -0.0, 0.0, 0.0, 0.0]","[-0.1281738430261612, -4.380798816680908, -2.0422894954681396, -0.4643097519874573, 0.0560760572552681, 0.0717773512005806]"
1584460903356704776,,2376487,,1584460903,356352959,'',"[shoulder_pan_joint, shoulder_lift_joint, elbow_joint, wrist_1_joint, wrist_2_joint,","[1.5831663608551025, -1.0680807272540491, 2.2462377548217773, -2.7245143095599573, -1.5670416990863245, 2.177421808242798]","[0.0, 0.0, -0.0, 0.0, 0.0, 0.0]","[-0.0961303785443306, -4.399109363555908, -2.0333220958709717, -0.4732819199562073, 0.0471038855612278, -0.1839294582605362]"
1584460903469004543,,2376501,,1584460903,468523865,'',"[shoulder_pan_joint, shoulder_lift_joint, elbow_joint, wrist_1_joint, wrist_2_joint,","[1.5831663608551025, -1.0680926481830042, 2.2462377548217773, -2.7245023886310022, -1.567089859639303, 2.1715915203094482]","[0.0, 0.0, -0.0, 0.0, 0.0, -0.13040754199028015]","[-0.0778198316693306, -4.426575183868408, -2.0422894954681396, -0.4620667099952698, 0.0426178015768528, -0.4441223740577698]"
1584460903580769140,,2376515,,1584460903,580382869,'',"[shoulder_pan_joint, shoulder_lift_joint, elbow_joint, wrist_1_joint, wrist_2_joint,","[1.583154320716858, -1.0681164900409144, 2.2462496757507324, -2.724478546773092, -1.567089859639303, 2.1503546237945557]","[0.0, 0.0, -0.0, 0.0, 0.0, -0.2007022202014923]","[-0.1007080152630806, -4.421997547149658, -2.0400476455688477, -0.4777680039405823, 0.0448608435690403, -0.4373932480812073]"
1584460903692597987,,2376529,,1584460903,692269594,'',"[shoulder_pan_joint, shoulder_lift_joint, elbow_joint, wrist_1_joint, wrist_2_joint,","[1.5831782817840576, -1.0681050459491175, 2.2462258338928223, -2.724490467702047, -1.5670536200152796, 2.127776622772217]","[0.0, 0.0, -0.0, 0.0, 0.0, -0.20018449425697327]","[-0.1007080152630806, -4.376221179962158, -2.0400476455688477, -0.4598236680030823, 0.0650482252240181, -0.4575806260108948]"
1584460903804621879,,2376543,,1584460903,804294367,'',"[shoulder_pan_joint, shoulder_lift_joint, elbow_joint, wrist_1_joint, wrist_2_joint,","[1.5831663608551025, -1.0680807272540491, 2.2462377548217773, -2.7245023886310022, -1.567101780568258, 2.105306625366211]","[0.0, 0.0, -0.0, 0.0, 0.0, -0.2008172571659088]","[-0.0961303785443306, -4.321289539337158, -2.0355639457702637, -0.4687958359718323, 0.0628051832318306, -0.4172058403491974]"
1584460903916839572,,2376557,,1584460903,916332916,'',"[shoulder_pan_joint, shoulder_lift_joint, elbow_joint, wrist_1_joint, wrist_2_joint,","[1.5831782817840576, -1.0681164900409144, 2.2462258338928223, -2.7245023886310022, -1.5670536200152796, 2.082920551300049]","[0.0, 0.0, -0.0, 0.0, 0.0, -0.19914905726909637]","[-0.1373291164636612, -4.380798816680908, -2.0512566566467285, -0.4665527939796448, 0.0515899695456028, -0.4486084580421448]"
1584460904028993977,,2376571,,1584460904,28624016,'',"[shoulder_pan_joint, shoulder_lift_joint, elbow_joint, wrist_1_joint, wrist_2_joint,","[1.5831782817840576, -1.0681288878070276, 2.2462258338928223, -2.7245023886310022, -1.567077938710348, 2.060462474822998]","[0.0, 0.0, -0.0, 0.0, 0.0, -0.20121993124485016]","[-0.1052856519818306, -4.371643543243408, -2.0467729568481445, -0.4598236680030823, 0.0515899695456028, -0.5136566758155823]"
1584460904140915047,,2376585,,1584460904,140541198,'',"[shoulder_pan_joint, shoulder_lift_joint, elbow_joint, wrist_1_joint, wrist_2_joint,","[1.5831782817840576, -1.0680926481830042, 2.2462377548217773, -2.724490467702047, -1.5670655409442347, 2.038100242614746]","[0.0, 0.0, -0.0, 0.0, 0.0, -0.20206362009048462]","[-0.1602173000574112, -4.426575183868408, -2.0624656677246094, -0.4530945420265198, 0.0471038855612278, -0.3521576225757599]"
1584460904252704520,,2376599,,1584460904,252349006,'',"[shoulder_pan_joint, shoulder_lift_joint, elbow_joint, wrist_1_joint, wrist_2_joint,","[1.583154320716858, -1.0681164900409144, 2.2462496757507324, -2.7244542280780237, -1.567077938710348, 2.0157976150512695]","[0.0, 0.0, -0.0, 0.0, 0.0, -0.19895730912685394]","[-0.1327514797449112, -4.440308094024658, -2.0333220958709717, -0.4643097519874573, 0.0560760572552681, -0.5652466416358948]"
1584460904364791671,,2376613,,1584460904,364316182,'',"[shoulder_pan_joint, shoulder_lift_joint, elbow_joint, wrist_1_joint, wrist_2_joint,","[1.5831663608551025, -1.0681408087359827, 2.2462377548217773, -2.724478546773092, -1.5670655409442347, 1.99324369430542]","[0.0, 0.0, -0.0, 0.0, 0.0, -0.2018526941537857]","[-0.1281738430261612, -4.421997547149658, -2.0669493675231934, -0.4665527939796448, 0.0583190992474556, -0.4306641221046448]"
1584460904476642659,,2376627,,1584460904,476266516,'',"[shoulder_pan_joint, shoulder_lift_joint, elbow_joint, wrist_1_joint, wrist_2_joint,","[1.5831423997879028, -1.0681164900409144, 2.2462258338928223, -2.724478546773092, -1.567077938710348, 1.9709047079086304]","[0.0, 0.0, -0.0, 0.0, 0.0, -0.19822867214679718]","[-0.1190185695886612, -4.394531726837158, -2.0759165287017822, -0.4620667099952698, 0.0538330152630806, -0.5809479355812073]"
1584460904588986979,,2376641,,1584460904,588476155,'',"[shoulder_pan_joint, shoulder_lift_joint, elbow_joint, wrist_1_joint, wrist_2_joint,","[1.5831663608551025, -1.068068806325094, 2.2462377548217773, -2.7244542280780237, -1.567089859639303, 1.9485305547714233]","[0.0, 0.0, -0.0, 0.0, 0.0, -0.20089396834373474]","[-0.1235962063074112, -4.321289539337158, -2.0624656677246094, -0.4710388779640198, 0.0560760572552681, -0.4598236680030823]"
1584460904700818521,,2376655,,1584460904,700507580,'',"[shoulder_pan_joint, shoulder_lift_joint, elbow_joint, wrist_1_joint, wrist_2_joint,","[1.583154320716858, -1.0681164900409144, 2.246213912963867, -2.7245023886310022, -1.5670536200152796, 1.9260245561599731]","[0.0, 0.0, -0.0, 0.0, 0.0, -0.19788353145122528]","[-0.1190185695886612, -4.371643543243408, -2.0669493675231934, -0.4620667099952698, 0.0538330152630806, -0.5091705918312073]"
1584460904812580684,,2376669,,1584460904,812190114,'',"[shoulder_pan_joint, shoulder_lift_joint, elbow_joint, wrist_1_joint, wrist_2_joint,","[1.583154320716858, -1.0680926481830042, 2.2462377548217773, -2.724525753651754, -1.567077938710348, 1.9036376476287842]","[0.0, 0.0, -0.0, 0.0, 0.0, -0.19905318319797516]","[-0.0595092847943306, -4.426575183868408, -2.080400228500366, -0.4665527939796448, 0.0381317175924778, -0.5226288437843323]"
1584460904924738756,,2376683,,1584460904,924292893,'',"[shoulder_pan_joint, shoulder_lift_joint, elbow_joint, wrist_1_joint, wrist_2_joint,","[1.5831782817840576, -1.0681050459491175, 2.2462377548217773, -2.7244542280780237, -1.5670655409442347, 1.8812626600265503]","[0.0, 0.0, -0.0, 0.0, 0.0, -0.2018526941537857]","[-0.1235962063074112, -4.454041004180908, -2.089367389678955, -0.4687958359718323, 0.0538330152630806, -0.4463654160499573]"
1584460905036596617,,2376697,,1584460905,36210736,'',"[shoulder_pan_joint, shoulder_lift_joint, elbow_joint, wrist_1_joint, wrist_2_joint,","[1.5831423997879028, -1.0680926481830042, 2.246213912963867, -2.7244423071490687, -1.567077938710348, 1.8589117527008057]","[0.0, 0.0, -0.0, 0.0, 0.0, -0.19966678321361542]","[-0.0732421949505806, -4.362488269805908, -2.080400228500366, -0.4553375840187073, 0.0471038855612278, -0.5585175156593323]"
1584460905148784605,,2376711,,1584460905,148233887,'',"[shoulder_pan_joint, shoulder_lift_joint, elbow_joint, wrist_1_joint, wrist_2_joint,","[1.583154320716858, -1.0680926481830042, 2.2462496757507324, -2.724478546773092, -1.567089859639303, 1.836512804031372]","[0.0, 0.0, -0.0, 0.0, 0.0, -0.2017376571893692]","[-0.1007080152630806, -4.399109363555908, -2.087125539779663, -0.4710388779640198, 0.0403747595846653, -0.4037475883960724]"
1584460905260681570,,2376725,,1584460905,260264871,'',"[shoulder_pan_joint, shoulder_lift_joint, elbow_joint, wrist_1_joint, wrist_2_joint,","[1.5831782817840576, -1.0681164900409144, 2.2462377548217773, -2.724478546773092, -1.567077938710348, 1.8140896558761597]","[0.0, 0.0, -0.0, 0.0, 0.0, -0.19997356832027435]","[-0.1052856519818306, -4.385376453399658, -2.0602238178253174, -0.4665527939796448, 0.0471038855612278, -0.5697327256202698]"
1584460905372538810,,2376739,,1584460905,372190199,'',"[shoulder_pan_joint, shoulder_lift_joint, elbow_joint, wrist_1_joint, wrist_2_joint,","[1.5831663608551025, -1.0681050459491175, 2.2462258338928223, -2.7245023886310022, -1.5670416990863245, 1.7917622327804565]","[0.0, 0.0, -0.0, 0.0, 0.0, -0.2006063461303711]","[-0.0640869215130806, -4.385376453399658, -2.091609239578247, -0.4598236680030823, 0.0515899695456028, -0.4620667099952698]"
1584460905484673178,,2376753,,1584460905,484296344,'',"[shoulder_pan_joint, shoulder_lift_joint, elbow_joint, wrist_1_joint, wrist_2_joint,","[1.5831663608551025, -1.0680807272540491, 2.2462496757507324, -2.724490467702047, -1.5670416990863245, 1.7693630456924438]","[0.0, 0.0, -0.0, 0.0, 0.0, -0.1984395980834961]","[-0.0961303785443306, -4.335022449493408, -2.1229946613311768, -0.4620667099952698, 0.0628051832318306, -0.5069275498390198]"
1584460905596881634,,2376767,,1584460905,596408981,'',"[shoulder_pan_joint, shoulder_lift_joint, elbow_joint, wrist_1_joint, wrist_2_joint,","[1.583154320716858, -1.0680807272540491, 2.2462377548217773, -2.724490467702047, -1.5670536200152796, 1.7468794584274292]","[0.0, 0.0, -0.0, 0.0, 0.0, -0.2010473608970642]","[-0.0915527418255806, -4.417419910430908, -2.107301950454712, -0.4643097519874573, 0.0538330152630806, -0.4530945420265198]"
1584460905708772767,,2376781,,1584460905,708387658,'',"[shoulder_pan_joint, shoulder_lift_joint, elbow_joint, wrist_1_joint, wrist_2_joint,","[1.5831782817840576, -1.068068806325094, 2.2462496757507324, -2.724478546773092, -1.567077938710348, 1.7244558334350586]","[0.0, 0.0, -0.0, 0.0, 0.0, -0.19863134622573853]","[-0.1235962063074112, -4.389954090118408, -2.091609239578247, -0.4665527939796448, 0.0471038855612278, -0.4800110459327698]"
1584460905820929066,,2376795,,1584460905,820162644,'',"[shoulder_pan_joint, shoulder_lift_joint, elbow_joint, wrist_1_joint, wrist_2_joint,","[1.5831782817840576, -1.0680926481830042, 2.2462258338928223, -2.724478546773092, -1.5670297781573694, 1.7021512985229492]","[0.0, 0.0, -0.0, 0.0, 0.0, -0.19997356832027435]","[-0.1327514797449112, -4.376221179962158, -2.114027261734009, -0.4665527939796448, 0.0628051832318306, -0.5091705918312073]"
1584460905932710816,,2376809,,1584460905,932234907,'',"[shoulder_pan_joint, shoulder_lift_joint, elbow_joint, wrist_1_joint, wrist_2_joint,","[1.5831663608551025, -1.0680807272540491, 2.2462258338928223, -2.7244542280780237, -1.5670297781573694, 1.690047264099121]","[0.0, 0.0, -0.0, 0.0, 0.0, -0.024025974795222282]","[-0.1144409328699112, -4.394531726837158, -2.10506010055542, -0.4755249619483948, 0.0538330152630806, -0.4127197563648224]"
1584460906044696045,,2376823,,1584460906,44295927,'',"[shoulder_pan_joint, shoulder_lift_joint, elbow_joint, wrist_1_joint, wrist_2_joint,","[1.5831663608551025, -1.0681288878070276, 2.2462258338928223, -2.724466149006979, -1.5670297781573694, 1.6899633407592773]","[0.0, 0.0, -0.0, 0.0, 0.0, 0.0005560680292546749]","[-0.1235962063074112, -4.408264636993408, -2.1319618225097656, -0.4620667099952698, 0.0515899695456028, -0.02467346377670765]"
1584460906156787913,,2376837,,1584460906,156186029,'',"[shoulder_pan_joint, shoulder_lift_joint, elbow_joint, wrist_1_joint, wrist_2_joint,","[1.5831663608551025, -1.0681050459491175, 2.246213912963867, -2.724490467702047, -1.5670536200152796, 1.6902390718460083]","[0.0, 0.0, -0.0, 0.0, 0.0, 0.002416019793599844]","[-0.1007080152630806, -4.403687000274658, -2.116269111633301, -0.4687958359718323, 0.0650482252240181, 0.0022430422250181437]"
1584460906268877427,,2376851,,1584460906,268426425,'',"[shoulder_pan_joint, shoulder_lift_joint, elbow_joint, wrist_1_joint, wrist_2_joint,","[1.583154320716858, -1.0680807272540491, 2.2462377548217773, -2.7244542280780237, -1.5670536200152796, 1.6902151107788086]","[0.0, 0.0, -0.0, 0.0, 0.0, 0.00028762139845639467]","[-0.1007080152630806, -4.399109363555908, -2.1342036724090576, -0.4598236680030823, 0.0515899695456028, 0.006729126907885075]"
1584460906380506792,,2376865,,1584460906,380135658,'',"[shoulder_pan_joint, shoulder_lift_joint, elbow_joint, wrist_1_joint, wrist_2_joint,","[1.5831663608551025, -1.0681164900409144, 2.2462496757507324, -2.724466149006979, -1.567077938710348, 1.6902151107788086]","[0.0, 0.0, -0.0, 0.0, 0.0, 0.00013422331539914012]","[-0.1190185695886612, -4.444885730743408, -2.111785650253296, -0.4665527939796448, 0.0538330152630806, 0.011215210892260075]"
1584460906492648603,,2376879,,1584460906,492221415,'',"[shoulder_pan_joint, shoulder_lift_joint, elbow_joint, wrist_1_joint, wrist_2_joint,","[1.5831423997879028, -1.0680926481830042, 2.246213912963867, -2.724478546773092, -1.5670416990863245, 1.690263032913208]","[0.0, 0.0, -0.0, 0.0, 0.0, 9.58738019107841e-05]","[-0.1190185695886612, -4.412842273712158, -2.107301950454712, -0.4643097519874573, 0.0560760572552681, 0.01570129580795765]"
1584460906604623974,,2376893,,1584460906,604210021,'',"[shoulder_pan_joint, shoulder_lift_joint, elbow_joint, wrist_1_joint, wrist_2_joint,","[1.5831663608551025, -1.0681164900409144, 2.246213912963867, -2.724490467702047, -1.5670416990863245, 1.690263032913208]","[0.0, 0.0, -0.0, 0.0, 0.0, 7.669904152862728e-05]","[-0.1235962063074112, -4.449463367462158, -2.1274781227111816, -0.4687958359718323, 0.0515899695456028, 0.011215210892260075]"
1584460906716731011,,2376907,,1584460906,716282664,'',"[shoulder_pan_joint, shoulder_lift_joint, elbow_joint, wrist_1_joint, wrist_2_joint,","[1.5831663608551025, -1.0681050459491175, 2.2462496757507324, -2.724478546773092, -1.5670416990863245, 1.6902509927749634]","[0.0, 0.0, -0.0, 0.0, 0.0, 5.752428114647046e-05]","[-0.1007080152630806, -4.426575183868408, -2.1229946613311768, -0.4687958359718323, 0.0538330152630806, 0.01345825381577015]"
1584460906828763289,,2376921,,1584460906,828262453,'',"[shoulder_pan_joint, shoulder_lift_joint, elbow_joint, wrist_1_joint, wrist_2_joint,","[1.583154320716858, -1.0681408087359827, 2.2462496757507324, -2.724466149006979, -1.567101780568258, 1.6902509927749634]","[0.0, 0.0, -0.0, 0.0, 0.0, 3.834952076431364e-05]","[-0.0778198316693306, -4.431152820587158, -2.1207528114318848, -0.4620667099952698, 0.0448608435690403, 0.008972168900072575]"
1584460906940454789,,2376935,,1584460906,940098343,'',"[shoulder_pan_joint, shoulder_lift_joint, elbow_joint, wrist_1_joint, wrist_2_joint,","[1.5831663608551025, -1.0681050459491175, 2.246213912963867, -2.7245023886310022, -1.5670536200152796, 1.6902390718460083]","[0.0, 0.0, -0.0, 0.0, 0.0, 3.834952076431364e-05]","[-0.0961303785443306, -4.380798816680908, -2.1274781227111816, -0.4687958359718323, 0.0471038855612278, 0.01345825381577015]"
1584460907052548801,,2376949,,1584460907,52198086,'',"[shoulder_pan_joint, shoulder_lift_joint, elbow_joint, wrist_1_joint, wrist_2_joint,","[1.583154320716858, -1.0680926481830042, 2.246213912963867, -2.724466149006979, -1.5670416990863245, 1.6902270317077637]","[0.0, 0.0, -0.0, 0.0, 0.0, 3.834952076431364e-05]","[-0.1052856519818306, -4.385376453399658, -2.1185109615325928, -0.4687958359718323, 0.0583190992474556, 0.008972168900072575]"
1584460907164602378,,2376963,,1584460907,164186602,'',"[shoulder_pan_joint, shoulder_lift_joint, elbow_joint, wrist_1_joint, wrist_2_joint,","[1.5831663608551025, -1.0681050459491175, 2.246213912963867, -2.724478546773092, -1.5670536200152796, 1.6902270317077637]","[0.0, 0.0, -0.0, 0.0, 0.0, 1.917476038215682e-05]","[-0.1602173000574112, -4.440308094024658, -2.1319618225097656, -0.4665527939796448, 0.0493469275534153, 0.008972168900072575]"
1584460907276847373,,2376977,,1584460907,276442967,'',"[shoulder_pan_joint, shoulder_lift_joint, elbow_joint, wrist_1_joint, wrist_2_joint,","[1.583154320716858, -1.0680926481830042, 2.246190071105957, -2.724466149006979, -1.5670297781573694, 1.6902390718460083]","[0.0, 0.0, -0.0, 0.0, 0.0, 1.917476038215682e-05]","[-0.1327514797449112, -4.408264636993408, -2.1409289836883545, -0.4643097519874573, 0.0583190992474556, 0.011215210892260075]"
1584460907388696267,,2376991,,1584460907,388236478,'',"[shoulder_pan_joint, shoulder_lift_joint, elbow_joint, wrist_1_joint, wrist_2_joint,","[1.5831663608551025, -1.0681408087359827, 2.2462258338928223, -2.724490467702047, -1.5670536200152796, 1.6902390718460083]","[0.0, 0.0, -0.0, 0.0, 0.0, 1.917476038215682e-05]","[-0.1144409328699112, -4.431152820587158, -2.1229946613311768, -0.4575806260108948, 0.0448608435690403, 0.008972168900072575]"
1584460907500531527,,2377005,,1584460907,500103598,'',"[shoulder_pan_joint, shoulder_lift_joint, elbow_joint, wrist_1_joint, wrist_2_joint,","[1.5831303596496582, -1.0680807272540491, 2.2462377548217773, -2.724478546773092, -1.5670536200152796, 1.6902390718460083]","[0.0, 0.0, -0.0, 0.0, 0.0, 1.917476038215682e-05]","[-0.1007080152630806, -4.444885730743408, -2.1252365112304688, -0.4643097519874573, 0.0538330152630806, 0.011215210892260075]"
1584460907612613246,,2377019,,1584460907,612175879,'',"[shoulder_pan_joint, shoulder_lift_joint, elbow_joint, wrist_1_joint, wrist_2_joint,","[1.5831782817840576, -1.0680926481830042, 2.246213912963867, -2.7245023886310022, -1.5670416990863245, 1.6902390718460083]","[0.0, 0.0, -0.0, 0.0, 0.0, 1.917476038215682e-05]","[-0.1052856519818306, -4.353332996368408, -2.1252365112304688, -0.4665527939796448, 0.0538330152630806, 0.011215210892260075]"
1584460907724687732,,2377033,,1584460907,724194972,'',"[shoulder_pan_joint, shoulder_lift_joint, elbow_joint, wrist_1_joint, wrist_2_joint,","[1.5831663608551025, -1.0681050459491175, 2.24650239944458, -2.724478546773092, -1.5670178572284144, 1.6903585195541382]","[0.0, 0.0, 0.014879614114761353, -0.0004218447138555348, 0.0, 0.024179372936487198]","[0.1602173000574112, -4.431152820587158, -1.192643165588379, -0.4396362900733948, 0.0672912672162056, 0.1300964504480362]"
1584460907836541105,,2377047,,1584460907,836150956,'',"[shoulder_pan_joint, shoulder_lift_joint, elbow_joint, wrist_1_joint, wrist_2_joint,","[1.5831423997879028, -1.068308178578512, 2.2482662200927734, -2.7252805868731897, -1.5670178572284144, 1.6947765350341797]","[0.0, -0.0006391586503013968, 0.008615858852863312, -0.0014381069922819734, 0.0, 0.045405831187963486]","[0.0869751051068306, -4.650879383087158, -1.147807002067566, -0.4598236680030823, 0.0538330152630806, 0.3095398247241974]"
1584460907948496979,,2377061,,1584460907,948093576,'',"[shoulder_pan_joint, shoulder_lift_joint, elbow_joint, wrist_1_joint, wrist_2_joint,","[1.5831903219223022, -1.0682128111468714, 2.2483978271484375, -2.7252324263202112, -1.5670178572284144, 1.6995893716812134]","[0.0, -0.0002556634717620909, -0.0003067961661145091, 0.00011504856229294091, 0.0, 0.04237622022628784]","[-0.0823974683880806, -4.115295886993408, -1.5625419616699219, -0.2512207329273224, 0.0471038855612278, 0.3028106987476349]"
1584460908060482920,,2377075,,1584460908,60098241,'',"[shoulder_pan_joint, shoulder_lift_joint, elbow_joint, wrist_1_joint, wrist_2_joint,","[1.5831782817840576, -1.0682724157916468, 2.248350143432617, -2.725196663533346, -1.5670297781573694, 1.704809546470642]","[0.0, -0.00012783173588104546, -0.00021731395099777728, 0.00011504856229294091, 0.0, 0.05675728991627693]","[0.0595092847943306, -4.138184070587158, -1.6051363945007324, -0.2624359428882599, 0.0538330152630806, 0.2512207329273224]"
1584460908172633738,,2377089,,1584460908,172182936,'',"[shoulder_pan_joint, shoulder_lift_joint, elbow_joint, wrist_1_joint, wrist_2_joint,","[1.583286166191101, -1.0682366530047815, 2.248325824737549, -2.725208584462301, -1.567077938710348, 1.712076187133789]","[0.0011121360585093498, -7.669904152862728e-05, -0.0003962783666793257, 0.00017257283616345376, 0.0, 0.0644271969795227]","[-0.02288818545639515, -4.083252429962158, -1.593927264213562, -0.2377624809741974, 0.0515899695456028, 0.3319702446460724]"
1584460908284754290,,2377103,,1584460908,284251151,'',"[shoulder_pan_joint, shoulder_lift_joint, elbow_joint, wrist_1_joint, wrist_2_joint,","[1.5839940309524536, -1.0682366530047815, 2.2483019828796387, -2.725184742604391, -1.567089859639303, 1.7187925577163696]","[0.026435602456331253, -5.1132694352418184e-05, -0.0, 0.00017257283616345376, 0.0, 0.06429297477006912]","[0.6042481064796448, -4.087830066680908, -1.6813578605651855, -0.2243042290210724, 0.0560760572552681, 0.2714081108570099]"
1584460908396648671,,2377117,,1584460908,396091670,'',"[shoulder_pan_joint, shoulder_lift_joint, elbow_joint, wrist_1_joint, wrist_2_joint,","[1.589895486831665, -1.0682247320758265, 2.248325824737549, -2.7250168959247034, -1.567089859639303, 1.7274848222732544]","[0.07630275934934616, -3.834952076431364e-05, -0.00015339808305725455, 0.005062136799097061, 0.0, 0.0812051072716713]","[0.6134033799171448, -4.348755359649658, -1.551332950592041, -0.3229980766773224, 0.1054229810833931, 0.3342132866382599]"
1584460908508590970,,2377131,,1584460908,508189269,'',"[shoulder_pan_joint, shoulder_lift_joint, elbow_joint, wrist_1_joint, wrist_2_joint,","[1.5997188091278076, -1.0682724157916468, 2.248338222503662, -2.7248013655291956, -1.567077938710348, 1.7371939420700073]","[0.0965513065457344, -3.834952076431364e-05, -0.0, 0.0035473306197673082, 0.0, 0.09692841023206711]","[1.1444092988967896, -4.312134265899658, -1.7463704347610474, -0.2108459621667862, 0.1525268703699112, 0.3140259087085724]"
1584460908620444453,,2377145,,1584460908,620060245,'',"[shoulder_pan_joint, shoulder_lift_joint, elbow_joint, wrist_1_joint, wrist_2_joint,","[1.610393762588501, -1.0682247320758265, 2.248350143432617, -2.724705521260397, -1.5670536200152796, 1.74788498878479]","[0.09380292892456055, -2.5566347176209092e-05, -0.0, 0.0007861651829443872, 0.0, 0.0908883661031723]","[1.0345460176467896, -4.371643543243408, -1.6522144079208374, -0.2467346489429474, 0.2130890041589737, 0.3813171684741974]"
1584460908732642780,,2377159,,1584460908,732157974,'',"[shoulder_pan_joint, shoulder_lift_joint, elbow_joint, wrist_1_joint, wrist_2_joint,","[1.6212724447250366, -1.0682247320758265, 2.2482900619506836, -2.7246459166156214, -1.5670416990863245, 1.7584565877914429]","[0.09752283245325089, -2.5566347176209092e-05, -0.0, 0.001342233270406723, 0.0, 0.0960272029042244]","[0.7141113877296448, -4.348755359649658, -1.7172268629074097, -0.2130890041589737, 0.1772003322839737, 0.3947754204273224]"
1584460908844601720,,2377173,,1584460908,844117495,'',"[shoulder_pan_joint, shoulder_lift_joint, elbow_joint, wrist_1_joint, wrist_2_joint,","[1.6325234174728394, -1.0682366530047815, 2.2483139038085938, -2.7246578375445765, -1.567077938710348, 1.7688241004943848]","[0.09675583988428116, 1.2783173588104546e-05, -0.0, 0.00026844663079828024, 0.00011504856229294091, 0.10097428411245346]","[1.0208131074905396, -4.495239734649658, -1.7530958652496338, -0.1861725002527237, 0.1772003322839737, 0.3409424126148224]"
1584460908956632705,,2377187,,1584460908,956220705,'',"[shoulder_pan_joint, shoulder_lift_joint, elbow_joint, wrist_1_joint, wrist_2_joint,","[1.6430062055587769, -1.0682247320758265, 2.248338222503662, -2.7246339956866663, -1.5670297781573694, 1.77934730052948]","[0.08784596621990204, 1.2783173588104546e-05, -0.0, 0.0001917476038215682, 0.00011504856229294091, 0.08482913672924042]","[0.8422852158546448, -4.495239734649658, -1.7598212957382202, -0.1794433742761612, 0.2355194389820099, 0.3656158745288849]"
1584460909068533907,,2377201,,1584460909,68129532,'',"[shoulder_pan_joint, shoulder_lift_joint, elbow_joint, wrist_1_joint, wrist_2_joint,","[1.6529014110565186, -1.0682485739337366, 2.2483620643615723, -2.724585835133688, -1.5670416990863245, 1.7890684604644775]","[0.08835729211568832, 1.2783173588104546e-05, -0.0, 0.0001917476038215682, 0.00011504856229294091, 0.08454151451587677]","[0.8468628525733948, -4.591370105743408, -1.6611815690994263, -0.1973877102136612, 0.2983246147632599, 0.3880462944507599]"
1584460909180396287,,2377215,,1584460909,180063726,'',"[shoulder_pan_joint, shoulder_lift_joint, elbow_joint, wrist_1_joint, wrist_2_joint,","[1.6627962589263916, -1.0682247320758265, 2.248350143432617, -2.7245500723468226, -1.5670416990863245, 1.7976645231246948]","[0.08953334391117096, 1.2783173588104546e-05, -0.0, 0.00011504856229294091, 0.00013422331539914012, 0.07729345560073853]","[1.2496949434280396, -4.554749011993408, -1.7956902980804443, -0.1547699123620987, 0.2332763969898224, 0.2669220268726349]"
1584460909292494588,,2377229,,1584460909,292103637,'',"[shoulder_pan_joint, shoulder_lift_joint, elbow_joint, wrist_1_joint, wrist_2_joint,","[1.6723319292068481, -1.0682485739337366, 2.248338222503662, -2.7245500723468226, -1.5670416990863245, 1.8068230152130127]","[0.07999709993600845, 1.2783173588104546e-05, -0.0, 7.669904152862728e-05, 0.00013422331539914012, 0.07855899631977081]","[1.0299683809280396, -4.605103015899658, -1.7687885761260986, -0.1570129543542862, 0.2422485649585724, 0.3925323784351349]"
1584460909404508641,,2377243,,1584460909,404093195,'',"[shoulder_pan_joint, shoulder_lift_joint, elbow_joint, wrist_1_joint, wrist_2_joint,","[1.6810156106948853, -1.0682366530047815, 2.2483859062194824, -2.7245739142047327, -1.5670059362994593, 1.8149876594543457]","[0.07407849282026291, 1.2783173588104546e-05, -0.0, 5.752428114647046e-05, 0.00013422331539914012, 0.08018884807825089]","[0.9429932832717896, -4.486084461212158, -1.869670033454895, -0.1278534084558487, 0.2489776909351349, 0.3544006645679474]"
1584460909516560574,,2377257,,1584460909,516061582,'',"[shoulder_pan_joint, shoulder_lift_joint, elbow_joint, wrist_1_joint, wrist_2_joint,","[1.6888717412948608, -1.0682843367206019, 2.2483859062194824, -2.7245619932757776, -1.5669940153705042, 1.8233799934387207]","[0.06345567107200623, 1.2783173588104546e-05, -0.0, 5.752428114647046e-05, 0.00013422331539914012, 0.06114831194281578]","[0.8789063692092896, -4.632568836212158, -1.6768742799758911, -0.1794433742761612, 0.2624359428882599, 0.3185119926929474]"
1584460909628305344,,2377271,,1584460909,627963746,'',"[shoulder_pan_joint, shoulder_lift_joint, elbow_joint, wrist_1_joint, wrist_2_joint,","[1.694832682609558, -1.0682366530047815, 2.248338222503662, -2.7245739142047327, -1.5669577757464808, 1.8296769857406616]","[0.03905259445309639, 1.2783173588104546e-05, -0.0, 5.752428114647046e-05, 0.00017257283616345376, 0.05733253434300423]","[0.9384156465530396, -4.623413562774658, -1.773272156715393, -0.1704712063074112, 0.2467346489429474, 0.2646789848804474]"
1584460909740398525,,2377285,,1584460909,740015239,'',"[shoulder_pan_joint, shoulder_lift_joint, elbow_joint, wrist_1_joint, wrist_2_joint,","[1.6982628107070923, -1.0682485739337366, 2.248350143432617, -2.7245619932757776, -1.5669577757464808, 1.8360342979431152]","[0.02293301373720169, 1.2783173588104546e-05, -0.0, 5.752428114647046e-05, 0.00015339808305725455, 0.04674806445837021]","[1.0162354707717896, -4.614258289337158, -1.7351614236831665, -0.1749572902917862, 0.2467346489429474, 0.4127197563648224]"
1584460909852432896,,2377299,,1584460909,852008774,'',"[shoulder_pan_joint, shoulder_lift_joint, elbow_joint, wrist_1_joint, wrist_2_joint,","[1.7000139951705933, -1.0682485739337366, 2.248338222503662, -2.7245619932757776, -1.5669577757464808, 1.8393861055374146]","[0.008858739398419857, 1.2783173588104546e-05, -0.0, 5.752428114647046e-05, 9.58738019107841e-05, 0.01840776950120926]","[1.1032105684280396, -4.527283191680908, -1.7127432823181152, -0.1951446682214737, 0.2534637749195099, 0.2983246147632599]"
1584460909964529013,,2377313,,1584460909,964071629,'',"[shoulder_pan_joint, shoulder_lift_joint, elbow_joint, wrist_1_joint, wrist_2_joint,","[1.699102520942688, -1.0682485739337366, 2.2483620643615723, -2.724597756062643, -1.5669458548175257, 1.838117241859436]","[-0.022613434121012688, 1.2783173588104546e-05, -0.0, 5.752428114647046e-05, 7.669904152862728e-05, -0.045041512697935104]","[-0.9704591035842896, -4.440308094024658, -1.8248337507247925, -0.1772003322839737, 0.2063598781824112, -0.3050537407398224]"
1584460910076330018,,2377327,,1584460910,75991095,'',"[shoulder_pan_joint, shoulder_lift_joint, elbow_joint, wrist_1_joint, wrist_2_joint,","[1.697363257408142, -1.0682128111468714, 2.248350143432617, -2.724621597920553, -1.5669940153705042, 1.8351961374282837]","[-0.0031318773981183767, 1.2783173588104546e-05, -0.0, 3.834952076431364e-05, 5.752428114647046e-05, -0.0030871364288032055]","[-0.4211426079273224, -4.495239734649658, -1.7575794458389282, -0.1839294582605362, 0.2444916069507599, -0.1996307522058487]"
1584460910188328091,,2377341,,1584460910,188018323,'',"[shoulder_pan_joint, shoulder_lift_joint, elbow_joint, wrist_1_joint, wrist_2_joint,","[1.697459101676941, -1.068200413380758, 2.2483859062194824, -2.724585835133688, -1.5670178572284144, 1.8352320194244385]","[0.0003195793251506984, 0.0007797735743224621, -0.0, 3.834952076431364e-05, -0.000862864195369184, 0.00015339808305725455]","[-0.0549316480755806, -4.000854969024658, -1.6028945446014404, -0.2265472710132599, 0.0493469275534153, 0.02243042178452015]"
1584460910300408939,,2377355,,1584460910,300020303,'',"[shoulder_pan_joint, shoulder_lift_joint, elbow_joint, wrist_1_joint, wrist_2_joint,","[1.697459101676941, -1.0682247320758265, 2.2483739852905273, -2.724585835133688, -1.5670416990863245, 1.835244059562683]","[0.00012783173588104546, 0.0001917476038215682, -0.0, 3.834952076431364e-05, -0.00023009712458588183, 0.00015339808305725455]","[-0.0411987341940403, -3.909302234649658, -1.596169114112854, -0.2243042290210724, 0.0560760572552681, 0.02467346377670765]"
1584460910412317806,,2377369,,1584460910,411961931,'',"[shoulder_pan_joint, shoulder_lift_joint, elbow_joint, wrist_1_joint, wrist_2_joint,","[1.6974232196807861, -1.0681889692889612, 2.248350143432617, -2.724597756062643, -1.5670297781573694, 1.8352919816970825]","[7.669904152862728e-05, 0.00010226538870483637, -0.0, 1.917476038215682e-05, -0.00011504856229294091, 0.00013422331539914012]","[-0.0915527418255806, -3.982544422149658, -1.5894436836242676, -0.2220611870288849, 0.0583190992474556, 0.0314025916159153]"
1584460910524574412,,2377383,,1584460910,524070972,'',"[shoulder_pan_joint, shoulder_lift_joint, elbow_joint, wrist_1_joint, wrist_2_joint,","[1.6974471807479858, -1.068176571522848, 2.2483620643615723, -2.724597756062643, -1.5670297781573694, 1.8352559804916382]","[5.1132694352418184e-05, 6.391586794052273e-05, -0.0, 1.917476038215682e-05, -7.669904152862728e-05, 9.58738019107841e-05]","[-0.0366210974752903, -4.005432605743408, -1.5872018337249756, -0.2265472710132599, 0.0583190992474556, 0.01570129580795765]"
1584460910636311888,,2377397,,1584460910,635996409,'',"[shoulder_pan_joint, shoulder_lift_joint, elbow_joint, wrist_1_joint, wrist_2_joint,","[1.6974351406097412, -1.0682247320758265, 2.248350143432617, -2.724609676991598, -1.5670536200152796, 1.8352559804916382]","[3.834952076431364e-05, 5.1132694352418184e-05, -0.0, 1.917476038215682e-05, -5.752428114647046e-05, 5.752428114647046e-05]","[-0.0823974683880806, -4.032898426055908, -1.5737509727478027, -0.2310333549976349, 0.0515899695456028, 0.0291595496237278]"
1584460910748324409,,2377411,,1584460910,747988472,'',"[shoulder_pan_joint, shoulder_lift_joint, elbow_joint, wrist_1_joint, wrist_2_joint,","[1.697459101676941, -1.0681889692889612, 2.2483620643615723, -2.724609676991598, -1.5670536200152796, 1.835244059562683]","[3.834952076431364e-05, 3.834952076431364e-05, -0.0, 1.917476038215682e-05, -5.752428114647046e-05, 5.752428114647046e-05]","[-0.0503540076315403, -4.092407703399658, -1.5692673921585083, -0.2265472710132599, 0.0628051832318306, 0.02467346377670765]"
1584460910860691722,,2377425,,1584460910,860241391,'',"[shoulder_pan_joint, shoulder_lift_joint, elbow_joint, wrist_1_joint, wrist_2_joint,","[1.697459101676941, -1.0682247320758265, 2.2483859062194824, -2.7245619932757776, -1.5670416990863245, 1.835279941558838]","[2.5566347176209092e-05, 2.5566347176209092e-05, -0.0, 1.917476038215682e-05, -3.834952076431364e-05, 3.834952076431364e-05]","[-0.0823974683880806, -4.202270984649658, -1.6118618249893188, -0.2243042290210724, 0.0560760572552681, 0.02243042178452015]"
1584460910972689114,,2377439,,1584460910,972213676,'',"[shoulder_pan_joint, shoulder_lift_joint, elbow_joint, wrist_1_joint, wrist_2_joint,","[1.6974830627441406, -1.068200413380758, 2.2483739852905273, -2.7245739142047327, -1.5670297781573694, 1.8352680206298828]","[2.5566347176209092e-05, 2.5566347176209092e-05, -0.0, 1.917476038215682e-05, -3.834952076431364e-05, 3.834952076431364e-05]","[-0.0686645582318306, -4.298401355743408, -1.5872018337249756, -0.2243042290210724, 0.0381317175924778, 0.0269165076315403]"
1584460911084282130,,2377453,,1584460911,83967633,'',"[shoulder_pan_joint, shoulder_lift_joint, elbow_joint, wrist_1_joint, wrist_2_joint,","[1.6974351406097412, -1.0681527296649378, 2.2483620643615723, -2.724585835133688, -1.5670178572284144, 1.8351961374282837]","[2.5566347176209092e-05, 2.5566347176209092e-05, -0.0, 1.917476038215682e-05, -1.917476038215682e-05, -0.007880826480686665]","[-0.0366210974752903, -4.280090808868408, -1.6118618249893188, -0.2198181450366974, 0.0560760572552681, -0.2175751030445099]"
1584460911196411108,,2377467,,1584460911,196042480,'',"[shoulder_pan_joint, shoulder_lift_joint, elbow_joint, wrist_1_joint, wrist_2_joint,","[1.6974711418151855, -1.068200413380758, 2.2483739852905273, -2.7245619932757776, -1.5670536200152796, 1.8281209468841553]","[1.2783173588104546e-05, 2.5566347176209092e-05, -0.0, 1.917476038215682e-05, -1.917476038215682e-05, -0.14421337842941284]","[-0.02288818545639515, -4.270935535430908, -1.5759928226470947, -0.2265472710132599, 0.0560760572552681, -0.4463654160499573]"
1584460911308305798,,2377481,,1584460911,307984187,'',"[shoulder_pan_joint, shoulder_lift_joint, elbow_joint, wrist_1_joint, wrist_2_joint,","[1.6974471807479858, -1.0681646505938929, 2.248338222503662, -2.724585835133688, -1.5670655409442347, 1.8062602281570435]","[1.2783173588104546e-05, 2.5566347176209092e-05, -0.0, 0.0, -1.917476038215682e-05, -0.2033291608095169]","[-0.0549316480755806, -4.211426258087158, -1.6185872554779053, -0.2243042290210724, 0.0538330152630806, -0.3768310844898224]"
1584460911420646341,,2377495,,1584460911,420204406,'',"[shoulder_pan_joint, shoulder_lift_joint, elbow_joint, wrist_1_joint, wrist_2_joint,","[1.6974471807479858, -1.068176571522848, 2.248338222503662, -2.724585835133688, -1.5670536200152796, 1.7838728427886963]","[1.2783173588104546e-05, 2.5566347176209092e-05, -0.0, 0.0, -1.917476038215682e-05, -0.19937916100025177]","[-0.0823974683880806, -4.344177722930908, -1.5916855335235596, -0.2220611870288849, 0.0471038855612278, -0.5226288437843323]"
1584460911532399598,,2377509,,1584460911,532013015,'',"[shoulder_pan_joint, shoulder_lift_joint, elbow_joint, wrist_1_joint, wrist_2_joint,","[1.6974351406097412, -1.068176571522848, 2.2483620643615723, -2.7245619932757776, -1.5670416990863245, 1.761413335800171]","[1.2783173588104546e-05, 2.5566347176209092e-05, -0.0, 0.0, -1.917476038215682e-05, -0.20028036832809448]","[-0.0915527418255806, -4.449463367462158, -1.5782346725463867, -0.2265472710132599, 0.0605621412396431, -0.4261780083179474]"
1584460911644297484,,2377523,,1584460911,643947650,'',"[shoulder_pan_joint, shoulder_lift_joint, elbow_joint, wrist_1_joint, wrist_2_joint,","[1.697459101676941, -1.068200413380758, 2.2484097480773926, -2.7245619932757776, -1.5670416990863245, 1.7389417886734009]","[1.2783173588104546e-05, 2.5566347176209092e-05, -0.0, 0.0, -1.917476038215682e-05, -0.1977493017911911]","[-0.0823974683880806, -4.431152820587158, -1.5872018337249756, -0.2287903130054474, 0.0628051832318306, -0.4643097519874573]"
1584460911756502313,,2377537,,1584460911,756029860,'',"[shoulder_pan_joint, shoulder_lift_joint, elbow_joint, wrist_1_joint, wrist_2_joint,","[1.6974232196807861, -1.0681889692889612, 2.2483739852905273, -2.7245500723468226, -1.5670416990863245, 1.7165900468826294]","[1.2783173588104546e-05, 2.5566347176209092e-05, -0.0, 0.0, -1.917476038215682e-05, -0.20001192390918732]","[-0.0595092847943306, -4.389954090118408, -1.6185872554779053, -0.2243042290210724, 0.0583190992474556, -0.4284210503101349]"
1584460911868303438,,2377551,,1584460911,867967611,'',"[shoulder_pan_joint, shoulder_lift_joint, elbow_joint, wrist_1_joint, wrist_2_joint,","[1.6974471807479858, -1.0682128111468714, 2.2483739852905273, -2.7245619932757776, -1.5670655409442347, 1.694154143333435]","[1.2783173588104546e-05, 1.2783173588104546e-05, -0.0, 0.0, -1.917476038215682e-05, -0.20039542019367218]","[-0.0549316480755806, -4.376221179962158, -1.5782346725463867, -0.2220611870288849, 0.0515899695456028, -0.4373932480812073]"
1584460911980717098,,2377565,,1584460911,980269341,'',"[shoulder_pan_joint, shoulder_lift_joint, elbow_joint, wrist_1_joint, wrist_2_joint,","[1.697459101676941, -1.068200413380758, 2.2483859062194824, -2.7245739142047327, -1.5670416990863245, 1.6719090938568115]","[1.2783173588104546e-05, 1.2783173588104546e-05, -0.0, 0.0, -1.917476038215682e-05, -0.1998009979724884]","[-0.0503540076315403, -4.449463367462158, -1.5916855335235596, -0.2220611870288849, 0.0583190992474556, -0.5742188096046448]"
1584460912092500330,,2377579,,1584460912,92054617,'',"[shoulder_pan_joint, shoulder_lift_joint, elbow_joint, wrist_1_joint, wrist_2_joint,","[1.697459101676941, -1.0682247320758265, 2.2483859062194824, -2.7245619932757776, -1.5670416990863245, 1.649520754814148]","[0.0, 1.2783173588104546e-05, -0.0, 0.0, 0.0, -0.2011815905570984]","[-0.0869751051068306, -4.385376453399658, -1.5916855335235596, -0.2265472710132599, 0.0471038855612278, -0.3992615044116974]"
1584460912204346740,,2377593,,1584460912,203930151,'',"[shoulder_pan_joint, shoulder_lift_joint, elbow_joint, wrist_1_joint, wrist_2_joint,","[1.6974351406097412, -1.0681889692889612, 2.2483859062194824, -2.7245619932757776, -1.5670655409442347, 1.6270840167999268]","[0.0, 1.2783173588104546e-05, -0.0, 0.0, 0.0, -0.19801774621009827]","[-0.0915527418255806, -4.394531726837158, -1.6006526947021484, -0.2220611870288849, 0.0560760572552681, -0.5405731797218323]"
1584460912316482009,,2377607,,1584460912,316013464,'',"[shoulder_pan_joint, shoulder_lift_joint, elbow_joint, wrist_1_joint, wrist_2_joint,","[1.697459101676941, -1.068200413380758, 2.248350143432617, -2.7245619932757776, -1.5670536200152796, 1.6045869588851929]","[0.0, 1.2783173588104546e-05, -0.0, 0.0, 0.0, -0.20181435346603394]","[-0.0869751051068306, -4.435730457305908, -1.5827182531356812, -0.2265472710132599, 0.0403747595846653, -0.4329071640968323]"
1584460912428377982,,2377621,,1584460912,427981702,'',"[shoulder_pan_joint, shoulder_lift_joint, elbow_joint, wrist_1_joint, wrist_2_joint,","[1.6974232196807861, -1.0682247320758265, 2.2483620643615723, -2.7245619932757776, -1.5670416990863245, 1.5823173522949219]","[0.0, 1.2783173588104546e-05, -0.0, 0.0, 0.0, -0.19782599806785583]","[-0.0961303785443306, -4.376221179962158, -1.5894436836242676, -0.2265472710132599, 0.0538330152630806, -0.5338440537452698]"
1584460912540628447,,2377635,,1584460912,540131058,'',"[shoulder_pan_joint, shoulder_lift_joint, elbow_joint, wrist_1_joint, wrist_2_joint,","[1.697459101676941, -1.068176571522848, 2.2483859062194824, -2.7245739142047327, -1.5670536200152796, 1.5597959756851196]","[0.0, 1.2783173588104546e-05, -0.0, 0.0, 0.0, -0.20039542019367218]","[-0.0640869215130806, -4.435730457305908, -1.6051363945007324, -0.2153320610523224, 0.0471038855612278, -0.4508515000343323]"
1584460912652452585,,2377649,,1584460912,651964203,'',"[shoulder_pan_joint, shoulder_lift_joint, elbow_joint, wrist_1_joint, wrist_2_joint,","[1.6974471807479858, -1.0682128111468714, 2.2483739852905273, -2.724585835133688, -1.5670297781573694, 1.5374064445495605]","[0.0, 1.2783173588104546e-05, -0.0, 0.0, 0.0, -0.19830536842346191]","[-0.0366210974752903, -4.316711902618408, -1.5894436836242676, -0.2265472710132599, 0.0560760572552681, -0.5024414658546448]"
1584460912764471948,,2377663,,1584460912,763961274,'',"[shoulder_pan_joint, shoulder_lift_joint, elbow_joint, wrist_1_joint, wrist_2_joint,","[1.6974471807479858, -1.068200413380758, 2.248338222503662, -2.7245619932757776, -1.5670297781573694, 1.5150996446609497]","[0.0, 1.2783173588104546e-05, -0.0, 0.0, 0.0, -0.20006944239139557]","[-0.0503540076315403, -4.408264636993408, -1.6051363945007324, -0.2220611870288849, 0.0471038855612278, -0.4665527939796448]"
1584460912876494898,,2377677,,1584460912,875996867,'',"[shoulder_pan_joint, shoulder_lift_joint, elbow_joint, wrist_1_joint, wrist_2_joint,","[1.6974471807479858, -1.0682128111468714, 2.2483620643615723, -2.7245500723468226, -1.5670178572284144, 1.4925895929336548]","[0.0, 0.0, -0.0, 0.0, 0.0, -0.20097066462039948]","[-0.0640869215130806, -4.426575183868408, -1.5849601030349731, -0.2220611870288849, 0.0515899695456028, -0.4441223740577698]"
1584460912988734572,,2377691,,1584460912,988202107,'',"[shoulder_pan_joint, shoulder_lift_joint, elbow_joint, wrist_1_joint, wrist_2_joint,","[1.6974351406097412, -1.0682485739337366, 2.2483978271484375, -2.7245619932757776, -1.5670178572284144, 1.4703067541122437]","[0.0, 0.0, -0.0, 0.0, 0.0, -0.198094442486763]","[-0.0457763709127903, -4.454041004180908, -1.6051363945007324, -0.2243042290210724, 0.0538330152630806, -0.5787048935890198]"
1584460913100452652,,2377705,,1584460913,100012480,'',"[shoulder_pan_joint, shoulder_lift_joint, elbow_joint, wrist_1_joint, wrist_2_joint,","[1.697459101676941, -1.0682128111468714, 2.2483739852905273, -2.7245619932757776, -1.5670297781573694, 1.4478797912597656]","[0.0, 0.0, -0.0, 0.0, 0.0, -0.20168012380599976]","[-0.0595092847943306, -4.467773914337158, -1.5804764032363892, -0.2153320610523224, 0.0493469275534153, -0.4082336723804474]"
1584460913212395864,,2377719,,1584460913,211888245,'',"[shoulder_pan_joint, shoulder_lift_joint, elbow_joint, wrist_1_joint, wrist_2_joint,","[1.6974471807479858, -1.0681889692889612, 2.2483739852905273, -2.7245500723468226, -1.5670297781573694, 1.4254400730133057]","[0.0, 0.0, -0.0, 0.0, 0.0, -0.19834372401237488]","[-0.0778198316693306, -4.454041004180908, -1.593927264213562, -0.2265472710132599, 0.0426178015768528, -0.5787048935890198]"
