PorkPy/robot-pulling-data/less_45_deg_no_twist_2020-03-17-16-36-03/joint_states_throttle.csv
rosbagTimestamp,header,seq,stamp,secs,nsecs,frame_id,name,wrist_3_joint],position,velocity,effort
1584462963747117916,,2634047,,1584462963,746830329,'',"[shoulder_pan_joint, shoulder_lift_joint, elbow_joint, wrist_1_joint, wrist_2_joint,","[1.404758334159851, -1.17177659669985, 2.4831063747406006, -2.8627551237689417, -1.5668981711017054, 2.720646381378174]","[0.0, 0.0, -0.0, 0.0, 0.0, 0.0]","[-0.7324219346046448, -4.238892078399658, -0.8989660143852234, -0.5921631455421448, 0.0897216871380806, 0.004486084450036287]"
1584462963859097140,,2634061,,1584462963,858822247,'',"[shoulder_pan_joint, shoulder_lift_joint, elbow_joint, wrist_1_joint, wrist_2_joint,","[1.4047822952270508, -1.1717646757708948, 2.4831063747406006, -2.8627312819110315, -1.5668981711017054, 2.7206344604492188]","[0.0, 0.0, -0.0, 0.0, 0.0, 0.0]","[-0.7141113877296448, -4.238892078399658, -0.9034496545791626, -0.5854340195655823, 0.0740203931927681, 0.008972168900072575]"
1584462963971277279,,2634075,,1584462963,970844902,'',"[shoulder_pan_joint, shoulder_lift_joint, elbow_joint, wrist_1_joint, wrist_2_joint,","[1.4047702550888062, -1.17177659669985, 2.4830703735351562, -2.8627312819110315, -1.566873852406637, 2.720646381378174]","[0.0, 0.0, -0.0, 0.0, 0.0, 0.0]","[-0.7553101181983948, -4.220581531524658, -0.9169005155563354, -0.5742188096046448, 0.0897216871380806, 0.006729126907885075]"
1584462964083232349,,2634089,,1584462964,82840446,'',"[shoulder_pan_joint, shoulder_lift_joint, elbow_joint, wrist_1_joint, wrist_2_joint,","[1.4047822952270508, -1.1717646757708948, 2.48313045501709, -2.862767521535055, -1.5669100920306605, 2.7206225395202637]","[0.0, 0.0, -0.0, 0.0, 0.0, 0.0]","[-0.7507324814796448, -4.225159168243408, -0.9303513765335083, -0.5988922715187073, 0.0829925611615181, 0.008972168900072575]"
1584462964195191455,,2634103,,1584462964,194807358,'',"[shoulder_pan_joint, shoulder_lift_joint, elbow_joint, wrist_1_joint, wrist_2_joint,","[1.4047702550888062, -1.17180043855776, 2.4830944538116455, -2.8627432028399866, -1.566873852406637, 2.7206225395202637]","[0.0, 0.0, -0.0, 0.0, 0.0, 0.0]","[-0.7598877549171448, -4.183960437774658, -0.9034496545791626, -0.5831909775733948, 0.0807495191693306, 0.006729126907885075]"
1584462964307166792,,2634117,,1584462964,306799897,'',"[shoulder_pan_joint, shoulder_lift_joint, elbow_joint, wrist_1_joint, wrist_2_joint,","[1.4047702550888062, -1.1718123594867151, 2.4830944538116455, -2.8627551237689417, -1.566885773335592, 2.7206225395202637]","[0.0, 0.0, -0.0, 0.0, 0.0, 0.0]","[-0.7461548447608948, -4.243469715118408, -0.9303513765335083, -0.6033783555030823, 0.0807495191693306, 0.0022430422250181437]"
1584462964419151135,,2634131,,1584462964,418766056,'',"[shoulder_pan_joint, shoulder_lift_joint, elbow_joint, wrist_1_joint, wrist_2_joint,","[1.4047942161560059, -1.1717646757708948, 2.4831063747406006, -2.8627312819110315, -1.566885773335592, 2.7205989360809326]","[0.0, 0.0, -0.0, 0.0, 0.0, 0.0]","[-0.7324219346046448, -4.234314441680908, -0.9079332947731018, -0.5944061875343323, 0.0919647291302681, 0.006729126907885075]"
1584462964531121824,,2634145,,1584462964,530784053,'',"[shoulder_pan_joint, shoulder_lift_joint, elbow_joint, wrist_1_joint, wrist_2_joint,","[1.4047462940216064, -1.17180043855776, 2.4830944538116455, -2.8627432028399866, -1.5669220129596155, 2.720658540725708]","[0.0, 0.0, -0.0, 0.0, 0.0, 0.0]","[-0.7324219346046448, -4.270935535430908, -0.910175085067749, -0.5966492295265198, 0.0829925611615181, 0.011215210892260075]"
1584462964643393654,,2634159,,1584462964,643014606,'',"[shoulder_pan_joint, shoulder_lift_joint, elbow_joint, wrist_1_joint, wrist_2_joint,","[1.4047702550888062, -1.1718123594867151, 2.4830944538116455, -2.8627432028399866, -1.566885773335592, 2.7206225395202637]","[0.0, 0.0, -0.0, 0.0, 0.0, 0.0]","[-0.7553101181983948, -4.257202625274658, -0.9505276679992676, -0.5966492295265198, 0.0874786451458931, 0.006729126907885075]"
1584462964755249768,,2634173,,1584462964,754808434,'',"[shoulder_pan_joint, shoulder_lift_joint, elbow_joint, wrist_1_joint, wrist_2_joint,","[1.4047462940216064, -1.17180043855776, 2.4830822944641113, -2.8627432028399866, -1.566885773335592, 2.7206225395202637]","[0.0, 0.0, -0.0, 0.0, 0.0, 0.0]","[-0.7324219346046448, -4.275513172149658, -0.9056914448738098, -0.5899201035499573, 0.0852356031537056, 0.01570129580795765]"
1584462964867291569,,2634187,,1584462964,866835347,'',"[shoulder_pan_joint, shoulder_lift_joint, elbow_joint, wrist_1_joint, wrist_2_joint,","[1.4047702550888062, -1.17180043855776, 2.4830703735351562, -2.8627432028399866, -1.5669100920306605, 2.720646381378174]","[0.0, 0.0, -0.0, 0.0, 0.0, 0.0]","[-0.7415772080421448, -4.248047351837158, -0.9169005155563354, -0.5966492295265198, 0.0919647291302681, 0.004486084450036287]"
1584462964979254442,,2634201,,1584462964,978895813,'',"[shoulder_pan_joint, shoulder_lift_joint, elbow_joint, wrist_1_joint, wrist_2_joint,","[1.404758334159851, -1.17180043855776, 2.4830944538116455, -2.8627198378192347, -1.5668981711017054, 2.7206108570098877]","[0.0, 0.0, -0.0, 0.0, 0.0, 0.0]","[-0.7598877549171448, -4.275513172149658, -0.9213841557502747, -0.5944061875343323, 0.0807495191693306, 0.008972168900072575]"
1584462965091198912,,2634215,,1584462965,90784408,'',"[shoulder_pan_joint, shoulder_lift_joint, elbow_joint, wrist_1_joint, wrist_2_joint,","[1.4047822952270508, -1.1718247572528284, 2.4830822944641113, -2.8627312819110315, -1.5669100920306605, 2.7205748558044434]","[0.0, 0.0, -0.0, 0.0, 0.0, 0.0]","[-0.7415772080421448, -4.280090808868408, -0.9146587252616882, -0.5988922715187073, 0.0897216871380806, 0.004486084450036287]"
1584462965203272181,,2634229,,1584462965,202825146,'',"[shoulder_pan_joint, shoulder_lift_joint, elbow_joint, wrist_1_joint, wrist_2_joint,","[1.4047702550888062, -1.17180043855776, 2.4830944538116455, -2.8627312819110315, -1.5669100920306605, 2.720646381378174]","[0.0, 0.0, -0.0, 0.0, 0.0, 0.0]","[-0.7324219346046448, -4.229736804962158, -0.9191423058509827, -0.5921631455421448, 0.0897216871380806, 0.004486084450036287]"
1584462965315060900,,2634243,,1584462965,314757093,'',"[shoulder_pan_joint, shoulder_lift_joint, elbow_joint, wrist_1_joint, wrist_2_joint,","[1.4047702550888062, -1.1718247572528284, 2.4830703735351562, -2.8627312819110315, -1.5669100920306605, 2.7205989360809326]","[0.0, 0.0, -0.0, 0.0, 0.0, 0.0]","[-0.7690430283546448, -4.211426258087158, -0.9258677363395691, -0.5899201035499573, 0.0942077711224556, 0.0022430422250181437]"
1584462965427340906,,2634257,,1584462965,426910802,'',"[shoulder_pan_joint, shoulder_lift_joint, elbow_joint, wrist_1_joint, wrist_2_joint,","[1.4047942161560059, -1.1717646757708948, 2.4830822944641113, -2.8627312819110315, -1.5668981711017054, 2.7206344604492188]","[0.0, 0.0, -0.0, 0.0, 0.0, 0.0]","[-0.7415772080421448, -4.280090808868408, -0.9236259460449219, -0.5988922715187073, 0.1031799390912056, 0.006729126907885075]"
1584462965539043443,,2634271,,1584462965,538698589,'',"[shoulder_pan_joint, shoulder_lift_joint, elbow_joint, wrist_1_joint, wrist_2_joint,","[1.404758334159851, -1.17177659669985, 2.4830703735351562, -2.8627432028399866, -1.566885773335592, 2.7206344604492188]","[0.0, 0.0, -0.0, 0.0, 0.0, 0.0]","[-0.7415772080421448, -4.229736804962158, -0.9236259460449219, -0.5899201035499573, 0.0874786451458931, 0.004486084450036287]"
1584462965651202343,,2634285,,1584462965,650705254,'',"[shoulder_pan_joint, shoulder_lift_joint, elbow_joint, wrist_1_joint, wrist_2_joint,","[1.4047822952270508, -1.1718247572528284, 2.4831063747406006, -2.8627312819110315, -1.566885773335592, 2.7206344604492188]","[0.0, 0.0, -0.0, 0.0, 0.0, 0.0]","[-0.7461548447608948, -4.243469715118408, -0.9213841557502747, -0.6033783555030823, 0.0717773512005806, 0.01345825381577015]"
1584462965763302012,,2634299,,1584462965,762839338,'',"[shoulder_pan_joint, shoulder_lift_joint, elbow_joint, wrist_1_joint, wrist_2_joint,","[1.404758334159851, -1.17180043855776, 2.483058452606201, -2.862767521535055, -1.5668981711017054, 2.7206344604492188]","[0.0, 0.0, -0.0, 0.0, 0.0, 0.0]","[-0.7232666611671448, -4.248047351837158, -0.9191423058509827, -0.6078644394874573, 0.0829925611615181, 0.006729126907885075]"
1584462965875116428,,2634313,,1584462965,874755253,'',"[shoulder_pan_joint, shoulder_lift_joint, elbow_joint, wrist_1_joint, wrist_2_joint,","[1.4047702550888062, -1.17180043855776, 2.4830822944641113, -2.8627551237689417, -1.5668981711017054, 2.720646381378174]","[0.0, 0.0, -0.0, 0.0, 0.0, 0.0]","[-0.7232666611671448, -4.179382801055908, -0.9281095862388611, -0.5944061875343323, 0.0807495191693306, 0.011215210892260075]"
1584462965987236676,,2634327,,1584462965,986778380,'',"[shoulder_pan_joint, shoulder_lift_joint, elbow_joint, wrist_1_joint, wrist_2_joint,","[1.4047942161560059, -1.17177659669985, 2.4830944538116455, -2.8627432028399866, -1.5669100920306605, 2.7205989360809326]","[0.0, 0.0, -0.0, 0.0, 0.0, 0.0]","[-0.7003784775733948, -4.234314441680908, -0.9191423058509827, -0.6011353135108948, 0.0964508131146431, 0.004486084450036287]"
1584462966099043878,,2634341,,1584462966,98691390,'',"[shoulder_pan_joint, shoulder_lift_joint, elbow_joint, wrist_1_joint, wrist_2_joint,","[1.4047822952270508, -1.17177659669985, 2.4831063747406006, -2.8627312819110315, -1.5669100920306605, 2.7206108570098877]","[0.0, 0.0, -0.0, 0.0, 0.0, 0.0]","[-0.7369995713233948, -4.202270984649658, -0.9191423058509827, -0.5988922715187073, 0.0717773512005806, 0.008972168900072575]"
1584462966211276035,,2634355,,1584462966,210800397,'',"[shoulder_pan_joint, shoulder_lift_joint, elbow_joint, wrist_1_joint, wrist_2_joint,","[1.404866099357605, -1.1716926733600062, 2.4829742908477783, -2.8624442259417933, -1.5668981711017054, 2.7207303047180176]","[0.017704695463180542, 0.012233496643602848, -0.015173627063632011, 0.03347913175821304, 0.0, 0.025233983993530273]","[0.9796143770217896, -2.462768793106079, -1.5647838115692139, -0.1839294582605362, 0.0448608435690403, 0.3409424126148224]"
1584462966323200887,,2634369,,1584462966,322808745,'',"[shoulder_pan_joint, shoulder_lift_joint, elbow_joint, wrist_1_joint, wrist_2_joint,","[1.4068694114685059, -1.1710570494281214, 2.482734441757202, -2.8612592856036585, -1.5669100920306605, 2.7202157974243164]","[0.011006312444806099, -0.0011377024929970503, 0.011696604080498219, -0.0017065536230802536, 0.0, -0.04320073500275612]","[0.9201050996780396, -3.561401844024658, -0.685994029045105, -0.4284210503101349, 0.0471038855612278, -0.2579498589038849]"
1584462966435076558,,2634383,,1584462966,434682462,'',"[shoulder_pan_joint, shoulder_lift_joint, elbow_joint, wrist_1_joint, wrist_2_joint,","[1.4067975282669067, -1.1710689703570765, 2.4834306240081787, -2.861558262501852, -1.566861931477682, 2.7165515422821045]","[-0.020120715722441673, -0.00020453077740967274, 0.0013166668359190226, -0.0006135923322290182, 0.0, -0.023565780371427536]","[-0.8560181260108948, -3.240967035293579, -0.957253098487854, -0.3454284965991974, 0.0403747595846653, -0.3813171684741974]"
1584462966547338951,,2634397,,1584462966,546861459,'',"[shoulder_pan_joint, shoulder_lift_joint, elbow_joint, wrist_1_joint, wrist_2_joint,","[1.4045301675796509, -1.1710332075702112, 2.4833102226257324, -2.8615224997149866, -1.566885773335592, 2.7176411151885986]","[-0.01477734837681055, 2.5566347176209092e-05, -0.002032524673268199, 0.0004026699753012508, 0.0, 0.0545138418674469]","[-0.9017945528030396, -2.989197015762329, -1.1859177350997925, -0.2130890041589737, 0.0314025916159153, 0.2983246147632599]"
1584462966659232535,,2634411,,1584462966,658782925,'',"[shoulder_pan_joint, shoulder_lift_joint, elbow_joint, wrist_1_joint, wrist_2_joint,","[1.4032946825027466, -1.1710332075702112, 2.4833102226257324, -2.861546341572897, -1.5669100920306605, 2.7222988605499268]","[-0.006966829765588045, 2.5566347176209092e-05, -0.0002812298189383, 0.0002109223569277674, 0.0, 0.022185197100043297]","[-0.9704591035842896, -3.126526117324829, -1.087278127670288, -0.2624359428882599, 0.0314025916159153, 0.3925323784351349]"
1584462966771197172,,2634425,,1584462966,770726072,'',"[shoulder_pan_joint, shoulder_lift_joint, elbow_joint, wrist_1_joint, wrist_2_joint,","[1.4033546447753906, -1.1709969679461878, 2.4833223819732666, -2.8615224997149866, -1.5669458548175257, 2.723365068435669]","[0.007222493179142475, 2.5566347176209092e-05, -0.0, 0.00011504856229294091, 0.0, -0.016164323315024376]","[0.2883911430835724, -3.144836664199829, -1.0648599863052368, -0.2736511528491974, 0.0291595496237278, -0.0672912672162056]"
1584462966883162250,,2634439,,1584462966,882736003,'',"[shoulder_pan_joint, shoulder_lift_joint, elbow_joint, wrist_1_joint, wrist_2_joint,","[1.4035108089447021, -1.1710570494281214, 2.4833102226257324, -2.8615224997149866, -1.5668981711017054, 2.718515396118164]","[8.948221511673182e-05, 2.5566347176209092e-05, -0.0, 7.669904152862728e-05, 0.0, -0.03754417970776558]","[0.1876831203699112, -3.076172113418579, -1.136597990989685, -0.2444916069507599, 0.0314025916159153, -0.3499145805835724]"
1584462966995208389,,2634453,,1584462966,994735726,'',"[shoulder_pan_joint, shoulder_lift_joint, elbow_joint, wrist_1_joint, wrist_2_joint,","[1.4035468101501465, -1.1710212866412562, 2.4833223819732666, -2.861426655446188, -1.5669220129596155, 2.715629816055298]","[0.0004985437844879925, 2.5566347176209092e-05, -0.0007158577209338546, 0.001035437104292214, 0.0, -0.014055099338293076]","[0.0823974683880806, -3.172302484512329, -1.1141798496246338, -0.2512207329273224, 0.0314025916159153, -0.3454284965991974]"
1584462967107189917,,2634467,,1584462967,106715120,'',"[shoulder_pan_joint, shoulder_lift_joint, elbow_joint, wrist_1_joint, wrist_2_joint,","[1.4037505388259888, -1.1710689703570765, 2.4833102226257324, -2.8614028135882776, -1.5669100920306605, 2.7177250385284424]","[0.0028634308837354183, 2.5566347176209092e-05, -0.0, 0.0001917476038215682, 0.0, 0.050161171704530716]","[0.4119873344898224, -3.213501214981079, -1.0312328338623047, -0.2826233208179474, 0.0314025916159153, 0.3162689507007599]"
1584462967218985899,,2634481,,1584462967,218610307,'',"[shoulder_pan_joint, shoulder_lift_joint, elbow_joint, wrist_1_joint, wrist_2_joint,","[1.403726577758789, -1.1709969679461878, 2.4833102226257324, -2.8613904158221644, -1.566873852406637, 2.7219996452331543]","[-0.00029401297797448933, 2.5566347176209092e-05, -0.0, 0.00015339808305725455, 0.0, 0.02118811011314392]","[-0.5493164658546448, -3.172302484512329, -0.9594948887825012, -0.3117828667163849, 0.0358886756002903, 0.3566437065601349]"
1584462967331451261,,2634495,,1584462967,330974941,'',"[shoulder_pan_joint, shoulder_lift_joint, elbow_joint, wrist_1_joint, wrist_2_joint,","[1.4035587310791016, -1.171009365712301, 2.4832980632781982, -2.861366573964254, -1.5669220129596155, 2.7217483520507812]","[-0.003144660731777549, 2.5566347176209092e-05, -0.0, 9.58738019107841e-05, 0.0, -0.05140753090381622]","[-0.5630493760108948, -3.186035394668579, -1.055892825126648, -0.2871094048023224, 0.0426178015768528, -0.2377624809741974]"
1584462967443086673,,2634509,,1584462967,442627044,'',"[shoulder_pan_joint, shoulder_lift_joint, elbow_joint, wrist_1_joint, wrist_2_joint,","[1.4037744998931885, -1.1710570494281214, 2.483274221420288, -2.861342732106344, -1.5669339338885706, 2.717197895050049]","[0.0012144014472141862, 2.5566347176209092e-05, -0.0, 7.669904152862728e-05, 0.0, -0.028512869030237198]","[0.2059936672449112, -3.158569574356079, -1.0783108472824097, -0.2691650688648224, 0.0471038855612278, -0.3364563286304474]"
1584462967555315714,,2634523,,1584462967,554784111,'',"[shoulder_pan_joint, shoulder_lift_joint, elbow_joint, wrist_1_joint, wrist_2_joint,","[1.4038467407226562, -1.1709731260882776, 2.4829261302948, -2.861223045979635, -1.5669458548175257, 2.7148516178131104]","[0.0, 1.2783173588104546e-05, -0.008679774589836597, 0.014822090044617653, -1.917476038215682e-05, -0.009376457892358303]","[0.4989624619483948, -2.824402093887329, -1.275590181350708, -0.2063598781824112, 0.0291595496237278, -0.2848663628101349]"
1584462967667329071,,2634537,,1584462967,666882297,'',"[shoulder_pan_joint, shoulder_lift_joint, elbow_joint, wrist_1_joint, wrist_2_joint,","[1.4052859544754028, -1.1694138685809534, 2.480023145675659, -2.8588879744159144, -1.5670416990863245, 2.7191379070281982]","[0.025067802518606186, 0.020261330530047417, -0.030833015218377113, 0.021092236042022705, -0.000690291344653815, 0.059000737965106964]","[0.8056641221046448, -2.732849359512329, -1.6185872554779053, -0.0919647291302681, 0.0471038855612278, 0.3566437065601349]"
1584462967779135002,,2634551,,1584462967,778662880,'',"[shoulder_pan_joint, shoulder_lift_joint, elbow_joint, wrist_1_joint, wrist_2_joint,","[1.4088722467422485, -1.1676161924945276, 2.4764955043792725, -2.856553379689352, -1.567089859639303, 2.7245142459869385]","[0.03534547612071037, 0.013089969754219055, -0.04036926105618477, 0.021149760112166405, -0.0004026699753012508, 0.031389083713293076]","[0.7232666611671448, -2.645874261856079, -1.4751113653182983, -0.1457977443933487, 0.0583190992474556, 0.3745880424976349]"
1584462967891140986,,2634565,,1584462967,890635632,'',"[shoulder_pan_joint, shoulder_lift_joint, elbow_joint, wrist_1_joint, wrist_2_joint,","[1.41385018825531, -1.1653979460345667, 2.468984842300415, -2.8530100027667444, -1.567089859639303, 2.727435827255249]","[0.05152897164225578, 0.027765052393078804, -0.08837007731199265, 0.04868471622467041, -0.00023009712458588183, 0.017238110303878784]","[1.2817384004592896, -2.389526605606079, -1.5311566591262817, -0.0560760572552681, 0.0493469275534153, 0.3364563286304474]"
1584462968002986550,,2634579,,1584462968,2601561,'',"[shoulder_pan_joint, shoulder_lift_joint, elbow_joint, wrist_1_joint, wrist_2_joint,","[1.4190558195114136, -1.1614411512957972, 2.459339141845703, -2.84721547762026, -1.5670178572284144, 2.727303981781006]","[0.041200168430805206, 0.042325086891651154, -0.08860017359256744, 0.04904903843998909, -0.00013422331539914012, -0.03834952041506767]","[0.8651733994483948, -2.499389886856079, -1.6948087215423584, 0.0, 0.0583190992474556, -0.1996307522058487]"
1584462968115069258,,2634593,,1584462968,114597086,'',"[shoulder_pan_joint, shoulder_lift_joint, elbow_joint, wrist_1_joint, wrist_2_joint,","[1.4234821796417236, -1.1565611998187464, 2.450820207595825, -2.8417919317828577, -1.567089859639303, 2.723149299621582]","[0.042746931314468384, 0.040228646248579025, -0.07203318178653717, 0.04567427933216095, -7.669904152862728e-05, -0.031274035573005676]","[1.0116578340530396, -2.998352289199829, -1.6566979885101318, -0.1704712063074112, 0.0538330152630806, -0.2781372368335724]"
1584462968227177152,,2634607,,1584462968,226668382,'',"[shoulder_pan_joint, shoulder_lift_joint, elbow_joint, wrist_1_joint, wrist_2_joint,","[1.4288915395736694, -1.1528685728656214, 2.4416775703430176, -2.8363807837115687, -1.5670536200152796, 2.719437599182129]","[0.051963601261377335, 0.028327511623501778, -0.0793323740363121, 0.05060219392180443, -5.752428114647046e-05, -0.028742965310811996]","[0.9567261934280396, -2.751159906387329, -1.7060178518295288, -0.1592559963464737, 0.0605621412396431, -0.3297272026538849]"
1584462968339273024,,2634621,,1584462968,338735159,'',"[shoulder_pan_joint, shoulder_lift_joint, elbow_joint, wrist_1_joint, wrist_2_joint,","[1.4350091218948364, -1.1496432463275355, 2.4329426288604736, -2.8309806028949183, -1.5670416990863245, 2.717305898666382]","[0.05815065652132034, 0.03404159098863602, -0.08094305545091629, 0.04866554215550423, -5.752428114647046e-05, -0.013192235492169857]","[0.8285523056983948, -2.728271722793579, -1.7598212957382202, -0.0785064771771431, 0.0515899695456028, -0.2691650688648224]"
1584462968451022138,,2634635,,1584462968,450581706,'',"[shoulder_pan_joint, shoulder_lift_joint, elbow_joint, wrist_1_joint, wrist_2_joint,","[1.4420738220214844, -1.1457832495318812, 2.425311803817749, -2.8260124365436, -1.5670416990863245, 2.7177369594573975]","[0.06282930076122284, 0.030168289318680763, -0.06019596382975578, 0.036010198295116425, -3.834952076431364e-05, 0.044197823852300644]","[0.8834840059280396, -2.870178461074829, -1.8808790445327759, -0.1570129543542862, 0.0852356031537056, 0.2557068169116974]"
1584462968563300762,,2634649,,1584462968,562758228,'',"[shoulder_pan_joint, shoulder_lift_joint, elbow_joint, wrist_1_joint, wrist_2_joint,","[1.4489108324050903, -1.142641846333639, 2.4179089069366455, -2.8220494429217737, -1.5670655409442347, 2.7227063179016113]","[0.05962071940302849, 0.024083498865365982, -0.062369104474782944, 0.03746747970581055, -3.834952076431364e-05, 0.036988113075494766]","[0.8789063692092896, -2.911377191543579, -1.8988134860992432, -0.0650482252240181, 0.0762634351849556, 0.3745880424976349]"
1584462968675173747,,2634663,,1584462968,674641263,'',"[shoulder_pan_joint, shoulder_lift_joint, elbow_joint, wrist_1_joint, wrist_2_joint,","[1.4552081823349, -1.1404832045184534, 2.4114291667938232, -2.8181708494769495, -1.5670655409442347, 2.7254719734191895]","[0.05595194920897484, 0.015978967770934105, -0.06584613025188446, 0.034457042813301086, -1.917476038215682e-05, 0.014611166901886463]","[0.7965088486671448, -2.696228265762329, -1.9077807664871216, -0.1076660305261612, 0.0897216871380806, 0.3386993706226349]"
1584462968786980800,,2634677,,1584462968,786556938,'',"[shoulder_pan_joint, shoulder_lift_joint, elbow_joint, wrist_1_joint, wrist_2_joint,","[1.4617691040039062, -1.1378462950335901, 2.4033780097961426, -2.8138964811908167, -1.5670536200152796, 2.7267532348632812]","[0.0650024339556694, 0.03172783553600311, -0.06879904121160507, 0.041494179517030716, -1.917476038215682e-05, 0.010929613374173641]","[0.8102417588233948, -2.838135004043579, -1.7598212957382202, -0.0403747595846653, 0.1054229810833931, 0.3319702446460724]"
1584462968899061804,,2634691,,1584462968,898667978,'',"[shoulder_pan_joint, shoulder_lift_joint, elbow_joint, wrist_1_joint, wrist_2_joint,","[1.4696375131607056, -1.134045426045553, 2.3953986167907715, -2.8094189802752894, -1.567089859639303, 2.725412130355835]","[0.07216101139783859, 0.03736521676182747, -0.07559968531131744, 0.04126408323645592, -1.917476038215682e-05, -0.03963422775268555]","[0.9887696504592896, -2.861023187637329, -1.8248337507247925, -0.1099090725183487, 0.0919647291302681, -0.2601929008960724]"
1584462969010972290,,2634705,,1584462969,10549801,'',"[shoulder_pan_joint, shoulder_lift_joint, elbow_joint, wrist_1_joint, wrist_2_joint,","[1.4780583381652832, -1.130124870930807, 2.388415575027466, -2.8051207701312464, -1.5670536200152796, 2.720993995666504]","[0.0751139298081398, 0.02449255995452404, -0.05565793812274933, 0.03472549095749855, -1.917476038215682e-05, -0.04170510172843933]","[0.7507324814796448, -3.076172113418579, -1.9750350713729858, -0.1547699123620987, 0.1211242824792862, -0.3207550346851349]"
1584462969123158050,,2634719,,1584462969,122624774,'',"[shoulder_pan_joint, shoulder_lift_joint, elbow_joint, wrist_1_joint, wrist_2_joint,","[1.4860825538635254, -1.1278827826129358, 2.381455898284912, -2.8010624090777796, -1.5670655409442347, 2.717557191848755]","[0.07395065575838089, 0.019647737964987755, -0.05926279351115227, 0.0367196649312973, -1.917476038215682e-05, -0.022702915593981743]","[0.9475709199905396, -2.842712640762329, -2.001936912536621, -0.0560760572552681, 0.1099090725183487, -0.3095398247241974]"
1584462969235097179,,2634733,,1584462969,234507668,'',"[shoulder_pan_joint, shoulder_lift_joint, elbow_joint, wrist_1_joint, wrist_2_joint,","[1.4943591356277466, -1.1257365385638636, 2.376620054244995, -2.7976744810687464, -1.5670536200152796, 2.715306282043457]","[0.07381004095077515, 0.016477510333061218, -0.03539660573005676, 0.02268374152481556, 0.0, -0.009050486609339714]","[1.0894776582717896, -3.190613031387329, -2.013145923614502, -0.1099090725183487, 0.1256103664636612, -0.2422485649585724]"
1584462969347047198,,2634747,,1584462969,346630430,'',"[shoulder_pan_joint, shoulder_lift_joint, elbow_joint, wrist_1_joint, wrist_2_joint,","[1.5034146308898926, -1.1237824598895472, 2.3719167709350586, -2.7950881163226526, -1.5670655409442347, 2.718635320663452]","[0.08456069231033325, 0.018433336168527603, -0.04572541266679764, 0.023853402584791183, 0.0, 0.04993107542395592]","[0.8377075791358948, -3.099060297012329, -1.961584210395813, -0.1211242824792862, 0.1502838283777237, 0.3386993706226349]"
1584462969459135977,,2634761,,1584462969,458630733,'',"[shoulder_pan_joint, shoulder_lift_joint, elbow_joint, wrist_1_joint, wrist_2_joint,","[1.5123987197875977, -1.121540371571676, 2.3678364753723145, -2.792633835469381, -1.5670536200152796, 2.7230653762817383]","[0.07308140397071838, 0.015684954822063446, -0.020350812003016472, 0.01390170119702816, 0.0, 0.024121848866343498]","[0.9796143770217896, -3.144836664199829, -2.008662223815918, -0.0919647291302681, 0.1614990383386612, 0.3745880424976349]"
1584462969571073624,,2634775,,1584462969,570554474,'',"[shoulder_pan_joint, shoulder_lift_joint, elbow_joint, wrist_1_joint, wrist_2_joint,","[1.5194873809814453, -1.1210845152484339, 2.367344856262207, -2.7922986189471644, -1.567077938710348, 2.723496437072754]","[0.050161171704530716, 0.0005368932615965605, 0.00026844663079828024, -0.001208009896799922, 0.0, -0.04066966474056244]","[0.9613038301467896, -4.046631336212158, -1.5356402397155762, -0.3701019585132599, 0.1749572902917862, -0.1547699123620987]"
1584462969682977507,,2634789,,1584462969,682559777,'',"[shoulder_pan_joint, shoulder_lift_joint, elbow_joint, wrist_1_joint, wrist_2_joint,","[1.5250768661499023, -1.1210969130145472, 2.367332696914673, -2.7922986189471644, -1.567077938710348, 2.71791672706604]","[0.04869110882282257, 0.00015339808305725455, 0.0003707120195031166, -0.00028762139845639467, 0.0, -0.04164757952094078]","[0.9887696504592896, -3.964233875274658, -1.6230708360671997, -0.3678589165210724, 0.1435547024011612, -0.3386993706226349]"
1584462969795163868,,2634803,,1584462969,794650198,'',"[shoulder_pan_joint, shoulder_lift_joint, elbow_joint, wrist_1_joint, wrist_2_joint,","[1.5300185680389404, -1.1211088339435022, 2.367548942565918, -2.792358700429098, -1.5670655409442347, 2.7139058113098145]","[0.03762087970972061, 8.948221511673182e-05, 0.0010865697404369712, -0.0001917476038215682, 0.0, -0.02377670258283615]","[0.8010864853858948, -4.028320789337158, -1.5423656702041626, -0.3925323784351349, 0.1682281643152237, -0.3229980766773224]"
1584462969907050940,,2634817,,1584462969,906626237,'',"[shoulder_pan_joint, shoulder_lift_joint, elbow_joint, wrist_1_joint, wrist_2_joint,","[1.5334733724594116, -1.1210606733905237, 2.3675248622894287, -2.792394463215963, -1.567077938710348, 2.71195387840271]","[0.02389175072312355, 6.391586794052273e-05, 0.0002556634717620909, -0.0001917476038215682, 0.0, -0.017890051007270813]","[0.7690430283546448, -3.973389148712158, -1.6499725580215454, -0.3678589165210724, 0.1816864162683487, -0.2579498589038849]"
1584462970019334432,,2634831,,1584462970,18751152,'',"[shoulder_pan_joint, shoulder_lift_joint, elbow_joint, wrist_1_joint, wrist_2_joint,","[1.535800576210022, -1.121073071156637, 2.3675248622894287, -2.7923343817340296, -1.5670536200152796, 2.710301399230957]","[0.017167802900075912, 5.1132694352418184e-05, 0.00014061490946915, -0.00011504856229294091, 0.0, -0.006442719604820013]","[0.7461548447608948, -3.927612781524658, -1.6096199750900269, -0.3633728325366974, 0.1727142482995987, -0.2579498589038849]"
1584462970131163686,,2634845,,1584462970,130647372,'',"[shoulder_pan_joint, shoulder_lift_joint, elbow_joint, wrist_1_joint, wrist_2_joint,","[1.536460041999817, -1.1210969130145472, 2.3675010204315186, -2.792358700429098, -1.567089859639303, 2.7103493213653564]","[-0.0013166668359190226, 3.834952076431364e-05, 8.948221511673182e-05, -7.669904152862728e-05, 0.0, 0.00046019424917176366]","[0.0595092847943306, -3.927612781524658, -1.5647838115692139, -0.3790741264820099, 0.1525268703699112, 0.01570129580795765]"
1584462970243147508,,2634859,,1584462970,242741240,'',"[shoulder_pan_joint, shoulder_lift_joint, elbow_joint, wrist_1_joint, wrist_2_joint,","[1.536460041999817, -1.1210845152484339, 2.367656707763672, -2.792358700429098, -1.567089859639303, 2.7103614807128906]","[-0.00017896443023346364, 0.0, 0.0006135923322290182, -5.752428114647046e-05, 0.0, 0.00017257283616345376]","[0.1052856519818306, -3.446960687637329, -1.358537197113037, -0.2691650688648224, 0.0560760572552681, 0.0471038855612278]"
1584462970354973296,,2634873,,1584462970,354617432,'',"[shoulder_pan_joint, shoulder_lift_joint, elbow_joint, wrist_1_joint, wrist_2_joint,","[1.5364481210708618, -1.1210969130145472, 2.367680788040161, -2.792358700429098, -1.567089859639303, 2.7103614807128906]","[-0.00010226538870483637, 0.0, 0.00021731395099777728, -5.752428114647046e-05, 0.0, 0.00011504856229294091]","[0.0411987341940403, -3.451538324356079, -1.4482096433639526, -0.2579498589038849, 0.0560760572552681, 0.0448608435690403]"
1584462970467038621,,2634887,,1584462970,466549798,'',"[shoulder_pan_joint, shoulder_lift_joint, elbow_joint, wrist_1_joint, wrist_2_joint,","[1.5364481210708618, -1.1210845152484339, 2.367668628692627, -2.792358700429098, -1.567089859639303, 2.7103614807128906]","[-6.391586794052273e-05, 0.0, 0.00012783173588104546, -5.752428114647046e-05, 0.0, 7.669904152862728e-05]","[0.0595092847943306, -3.405761957168579, -1.6051363945007324, -0.2579498589038849, 0.0426178015768528, 0.0493469275534153]"
1584462970578923339,,2634901,,1584462970,578585057,'',"[shoulder_pan_joint, shoulder_lift_joint, elbow_joint, wrist_1_joint, wrist_2_joint,","[1.536460041999817, -1.121073071156637, 2.367692708969116, -2.792370621358053, -1.5671256224261683, 2.710397243499756]","[-5.1132694352418184e-05, 0.0, 6.391586794052273e-05, -5.752428114647046e-05, 0.0, 5.752428114647046e-05]","[0.0320434607565403, -3.382873773574829, -1.7329195737838745, -0.2871094048023224, 0.0672912672162056, 0.0448608435690403]"
1584462970691044067,,2634915,,1584462970,690663526,'',"[shoulder_pan_joint, shoulder_lift_joint, elbow_joint, wrist_1_joint, wrist_2_joint,","[1.5364481210708618, -1.121073071156637, 2.367668628692627, -2.792382542287008, -1.567101780568258, 2.7103614807128906]","[-3.834952076431364e-05, 0.0, 6.391586794052273e-05, -5.752428114647046e-05, 0.0, 3.834952076431364e-05]","[0.0503540076315403, -3.410339593887329, -1.8786371946334839, -0.2714081108570099, 0.0403747595846653, 0.0493469275534153]"
1584462970803013974,,2634929,,1584462970,802565516,'',"[shoulder_pan_joint, shoulder_lift_joint, elbow_joint, wrist_1_joint, wrist_2_joint,","[1.5364481210708618, -1.1211088339435022, 2.367644786834717, -2.792358700429098, -1.567077938710348, 2.7103734016418457]","[-2.5566347176209092e-05, 0.0, 6.391586794052273e-05, -3.834952076431364e-05, 0.0, 3.834952076431364e-05]","[0.0686645582318306, -3.359985589981079, -2.100576400756836, -0.2871094048023224, 0.0515899695456028, 0.0471038855612278]"
1584462970915001794,,2634943,,1584462970,914548828,'',"[shoulder_pan_joint, shoulder_lift_joint, elbow_joint, wrist_1_joint, wrist_2_joint,","[1.5364360809326172, -1.1210845152484339, 2.3675968647003174, -2.7923463026629847, -1.5671137014972132, 2.710397243499756]","[-2.5566347176209092e-05, 0.0, -0.007145794108510017, -3.834952076431364e-05, -3.834952076431364e-05, 3.834952076431364e-05]","[0.0411987341940403, -3.442383050918579, -2.172314405441284, -0.2736511528491974, 0.0493469275534153, 0.0493469275534153]"
1584462971026940472,,2634957,,1584462971,26562486,'',"[shoulder_pan_joint, shoulder_lift_joint, elbow_joint, wrist_1_joint, wrist_2_joint,","[1.5364481210708618, -1.1210969130145472, 2.3675010204315186, -2.7923463026629847, -1.5671137014972132, 2.7103614807128906]","[-2.5566347176209092e-05, 0.0, -0.0003323625132907182, -3.834952076431364e-05, -3.834952076431364e-05, 1.917476038215682e-05]","[0.0457763709127903, -3.424072504043579, -2.1386873722076416, -0.2960815727710724, 0.0628051832318306, 0.0493469275534153]"
1584462971138978456,,2634971,,1584462971,138621249,'',"[shoulder_pan_joint, shoulder_lift_joint, elbow_joint, wrist_1_joint, wrist_2_joint,","[1.5364481210708618, -1.1210969130145472, 2.3675129413604736, -2.7923463026629847, -1.5671375433551233, 2.7103734016418457]","[-1.2783173588104546e-05, 0.0, -0.0001661812566453591, -1.917476038215682e-05, -3.834952076431364e-05, 1.917476038215682e-05]","[0.0823974683880806, -3.382873773574829, -2.1342036724090576, -0.2758941948413849, 0.0560760572552681, 0.0448608435690403]"
1584462971250888912,,2634985,,1584462971,250493904,'',"[shoulder_pan_joint, shoulder_lift_joint, elbow_joint, wrist_1_joint, wrist_2_joint,","[1.5364481210708618, -1.1210487524615687, 2.3675010204315186, -2.7923343817340296, -1.5671375433551233, 2.7101340293884277]","[-1.2783173588104546e-05, 0.0, -0.00010226538870483637, -1.917476038215682e-05, -3.834952076431364e-05, -0.017794176936149597]","[0.0320434607565403, -3.405761957168579, -2.1274781227111816, -0.2736511528491974, 0.0605621412396431, -0.2041168361902237]"
1584462971363151054,,2634999,,1584462971,362643346,'',"[shoulder_pan_joint, shoulder_lift_joint, elbow_joint, wrist_1_joint, wrist_2_joint,","[1.5364481210708618, -1.1210969130145472, 2.3674888610839844, -2.792370621358053, -1.5671137014972132, 2.7007946968078613]","[-1.2783173588104546e-05, 0.0, -7.669904152862728e-05, -1.917476038215682e-05, -3.834952076431364e-05, -0.16733813285827637]","[0.0686645582318306, -3.460693597793579, -2.1297199726104736, -0.2646789848804474, 0.0538330152630806, -0.5136566758155823]"
1584462971475113467,,2635013,,1584462971,474631016,'',"[shoulder_pan_joint, shoulder_lift_joint, elbow_joint, wrist_1_joint, wrist_2_joint,","[1.5364481210708618, -1.1210606733905237, 2.3675248622894287, -2.792370621358053, -1.5671137014972132, 2.678452253341675]","[-1.2783173588104546e-05, 0.0, -6.391586794052273e-05, -1.917476038215682e-05, -3.834952076431364e-05, -0.2011815905570984]","[0.0503540076315403, -3.428650140762329, -2.1229946613311768, -0.2848663628101349, 0.0672912672162056, -0.4149627983570099]"
1584462971586794324,,2635027,,1584462971,586467814,'',"[shoulder_pan_joint, shoulder_lift_joint, elbow_joint, wrist_1_joint, wrist_2_joint,","[1.536460041999817, -1.1210606733905237, 2.3675010204315186, -2.792394463215963, -1.567101780568258, 2.655870199203491]","[-1.2783173588104546e-05, 0.0, -5.1132694352418184e-05, -1.917476038215682e-05, -3.834952076431364e-05, -0.19713571667671204]","[0.01373291201889515, -3.410339593887329, -2.1252365112304688, -0.2848663628101349, 0.0471038855612278, -0.4216919243335724]"
1584462971699043722,,2635041,,1584462971,698591979,'',"[shoulder_pan_joint, shoulder_lift_joint, elbow_joint, wrist_1_joint, wrist_2_joint,","[1.536460041999817, -1.121073071156637, 2.3675010204315186, -2.792394463215963, -1.5671137014972132, 2.6335644721984863]","[-1.2783173588104546e-05, 0.0, -5.1132694352418184e-05, -1.917476038215682e-05, -3.834952076431364e-05, -0.20200610160827637]","[-0.01373291201889515, -3.451538324356079, -2.1319618225097656, -0.2758941948413849, 0.0538330152630806, -0.4127197563648224]"
1584462971810863158,,2635055,,1584462971,810472558,'',"[shoulder_pan_joint, shoulder_lift_joint, elbow_joint, wrist_1_joint, wrist_2_joint,","[1.5364481210708618, -1.1210249106036585, 2.3675010204315186, -2.792370621358053, -1.5671137014972132, 2.6111154556274414]","[-1.2783173588104546e-05, 0.0, -5.1132694352418184e-05, -1.917476038215682e-05, -3.834952076431364e-05, -0.20020367205142975]","[0.0595092847943306, -3.419494867324829, -2.1252365112304688, -0.2646789848804474, 0.0515899695456028, -0.4755249619483948]"
1584462971922815532,,2635069,,1584462971,922438438,'',"[shoulder_pan_joint, shoulder_lift_joint, elbow_joint, wrist_1_joint, wrist_2_joint,","[1.5364481210708618, -1.1210606733905237, 2.3674769401550293, -2.792370621358053, -1.567101780568258, 2.5886783599853516]","[-1.2783173588104546e-05, 0.0, -5.1132694352418184e-05, -1.917476038215682e-05, -1.917476038215682e-05, -0.19920659065246582]","[0.0549316480755806, -3.442383050918579, -2.109543800354004, -0.2714081108570099, 0.0560760572552681, -0.4486084580421448]"
1584462972035160980,,2635083,,1584462972,34659744,'',"[shoulder_pan_joint, shoulder_lift_joint, elbow_joint, wrist_1_joint, wrist_2_joint,","[1.5364840030670166, -1.1210249106036585, 2.3674888610839844, -2.792358700429098, -1.567077938710348, 2.566253662109375]","[-1.2783173588104546e-05, 0.0, -5.1132694352418184e-05, 0.0, -1.917476038215682e-05, -0.20112405717372894]","[0.0549316480755806, -3.414917230606079, -2.1229946613311768, -0.2781372368335724, 0.0605621412396431, -0.4015045464038849]"
1584462972146983572,,2635097,,1584462972,146515347,'',"[shoulder_pan_joint, shoulder_lift_joint, elbow_joint, wrist_1_joint, wrist_2_joint,","[1.5364840030670166, -1.1210606733905237, 2.3675129413604736, -2.7923224608050745, -1.567101780568258, 2.5438649654388428]","[0.0, 0.0, -5.1132694352418184e-05, 0.0, -1.917476038215682e-05, -0.20215949416160583]","[0.02288818545639515, -3.405761957168579, -2.1409289836883545, -0.2848663628101349, 0.0515899695456028, -0.4575806260108948]"
1584462972258933791,,2635111,,1584462972,258452182,'',"[shoulder_pan_joint, shoulder_lift_joint, elbow_joint, wrist_1_joint, wrist_2_joint,","[1.536460041999817, -1.121073071156637, 2.3674769401550293, -2.7923463026629847, -1.5670655409442347, 2.521524429321289]","[0.0, 0.0, -5.1132694352418184e-05, 0.0, -1.917476038215682e-05, -0.2004912942647934]","[0.0732421949505806, -3.442383050918579, -2.1229946613311768, -0.2848663628101349, 0.0515899695456028, -0.3656158745288849]"
1584462972371047166,,2635125,,1584462972,370619808,'',"[shoulder_pan_joint, shoulder_lift_joint, elbow_joint, wrist_1_joint, wrist_2_joint,","[1.536424160003662, -1.121073071156637, 2.3675129413604736, -2.7923463026629847, -1.567089859639303, 2.499052047729492]","[0.0, 0.0, -3.834952076431364e-05, 0.0, -1.917476038215682e-05, -0.19870804250240326]","[0.0, -3.378296136856079, -2.1342036724090576, -0.2534637749195099, 0.0538330152630806, -0.4172058403491974]"
1584462972482866522,,2635139,,1584462972,482486702,'',"[shoulder_pan_joint, shoulder_lift_joint, elbow_joint, wrist_1_joint, wrist_2_joint,","[1.5364121198654175, -1.1211326758014124, 2.3675248622894287, -2.792370621358053, -1.567101780568258, 2.476640462875366]","[0.0, 0.0, -3.834952076431364e-05, 0.0, -1.917476038215682e-05, -0.19959008693695068]","[0.0640869215130806, -3.437805414199829, -2.1454126834869385, -0.2691650688648224, 0.0471038855612278, -0.3970184624195099]"
1584462972595178357,,2635153,,1584462972,594683753,'',"[shoulder_pan_joint, shoulder_lift_joint, elbow_joint, wrist_1_joint, wrist_2_joint,","[1.5364481210708618, -1.121073071156637, 2.3674888610839844, -2.792358700429098, -1.5670655409442347, 2.4542644023895264]","[0.0, 0.0, -2.5566347176209092e-05, 0.0, -1.917476038215682e-05, -0.19782599806785583]","[0.01373291201889515, -3.428650140762329, -2.1297199726104736, -0.2781372368335724, 0.0471038855612278, -0.4979553818702698]"
1584462972706789844,,2635167,,1584462972,706391109,'',"[shoulder_pan_joint, shoulder_lift_joint, elbow_joint, wrist_1_joint, wrist_2_joint,","[1.5364720821380615, -1.1210606733905237, 2.3675248622894287, -2.7923463026629847, -1.567089859639303, 2.431805372238159]","[0.0, 0.0, -2.5566347176209092e-05, 0.0, -1.917476038215682e-05, -0.20035706460475922]","[0.0320434607565403, -3.419494867324829, -2.1297199726104736, -0.2691650688648224, 0.0471038855612278, -0.4059906303882599]"
1584462972818916834,,2635181,,1584462972,818472685,'',"[shoulder_pan_joint, shoulder_lift_joint, elbow_joint, wrist_1_joint, wrist_2_joint,","[1.5364840030670166, -1.1210845152484339, 2.3674888610839844, -2.7923343817340296, -1.5670416990863245, 2.409489631652832]","[0.0, 0.0, -2.5566347176209092e-05, 0.0, 0.0, -0.19972430169582367]","[0.0778198316693306, -3.369140863418579, -2.116269111633301, -0.2915954887866974, 0.0605621412396431, -0.4127197563648224]"
1584462972930895988,,2635195,,1584462972,930477396,'',"[shoulder_pan_joint, shoulder_lift_joint, elbow_joint, wrist_1_joint, wrist_2_joint,","[1.5364481210708618, -1.1210845152484339, 2.3675129413604736, -2.7923463026629847, -1.5670655409442347, 2.3871982097625732]","[0.0, 0.0, -2.5566347176209092e-05, 0.0, 0.0, -0.2010665386915207]","[0.0595092847943306, -3.433227777481079, -2.1297199726104736, -0.2736511528491974, 0.0471038855612278, -0.5181427597999573]"
1584462973042854794,,2635209,,1584462973,42422717,'',"[shoulder_pan_joint, shoulder_lift_joint, elbow_joint, wrist_1_joint, wrist_2_joint,","[1.536460041999817, -1.1210368315326136, 2.3675010204315186, -2.7923463026629847, -1.5670536200152796, 2.3646669387817383]","[0.0, 0.0, -1.2783173588104546e-05, 0.0, 0.0, -0.20194856822490692]","[0.0320434607565403, -3.355407953262329, -2.1185109615325928, -0.2691650688648224, 0.0583190992474556, -0.3633728325366974]"
1584462973154910231,,2635223,,1584462973,154469497,'',"[shoulder_pan_joint, shoulder_lift_joint, elbow_joint, wrist_1_joint, wrist_2_joint,","[1.536424160003662, -1.121073071156637, 2.3675010204315186, -2.7923224608050745, -1.5670536200152796, 2.342292547225952]","[0.0, 0.0, -1.2783173588104546e-05, 0.0, 0.0, -0.19734662771224976]","[0.0320434607565403, -3.460693597793579, -2.102818250656128, -0.2758941948413849, 0.0538330152630806, -0.5069275498390198]"
1584462973266838650,,2635237,,1584462973,266420479,'',"[shoulder_pan_joint, shoulder_lift_joint, elbow_joint, wrist_1_joint, wrist_2_joint,","[1.536460041999817, -1.1210606733905237, 2.3675129413604736, -2.7923463026629847, -1.5670416990863245, 2.3199410438537598]","[0.0, 0.0, -1.2783173588104546e-05, 0.0, 0.0, -0.20371265709400177]","[0.0, -3.437805414199829, -2.1207528114318848, -0.2512207329273224, 0.0560760572552681, -0.4104767143726349]"
1584462973378860213,,2635251,,1584462973,378415272,'',"[shoulder_pan_joint, shoulder_lift_joint, elbow_joint, wrist_1_joint, wrist_2_joint,","[1.5364481210708618, -1.1210487524615687, 2.367536783218384, -2.7923105398761194, -1.5670297781573694, 2.297518730163574]","[0.0, 0.0, -1.2783173588104546e-05, 0.0, 0.0, -0.19815197587013245]","[0.0457763709127903, -3.451538324356079, -2.1207528114318848, -0.2915954887866974, 0.0471038855612278, -0.5046845078468323]"
1584462973490859174,,2635265,,1584462973,490411157,'',"[shoulder_pan_joint, shoulder_lift_joint, elbow_joint, wrist_1_joint, wrist_2_joint,","[1.536460041999817, -1.1210606733905237, 2.367560863494873, -2.792358700429098, -1.5670536200152796, 2.2750957012176514]","[0.0, 0.0, -1.2783173588104546e-05, 0.0, 0.0, -0.19822867214679718]","[0.0503540076315403, -3.442383050918579, -2.1229946613311768, -0.2444916069507599, 0.0583190992474556, -0.4643097519874573]"
1584462973602676596,,2635279,,1584462973,602344956,'',"[shoulder_pan_joint, shoulder_lift_joint, elbow_joint, wrist_1_joint, wrist_2_joint,","[1.5364720821380615, -1.1210845152484339, 2.3675010204315186, -2.7923343817340296, -1.5670416990863245, 2.2526254653930664]","[0.0, 0.0, -1.2783173588104546e-05, 0.0, 0.0, -0.19897648692131042]","[0.0411987341940403, -3.437805414199829, -2.1498963832855225, -0.2601929008960724, 0.0515899695456028, -0.4844971299171448]"
1584462973715066497,,2635293,,1584462973,714609654,'',"[shoulder_pan_joint, shoulder_lift_joint, elbow_joint, wrist_1_joint, wrist_2_joint,","[1.5364720821380615, -1.1210487524615687, 2.3675010204315186, -2.792358700429098, -1.5670297781573694, 2.236703634262085]","[0.0, 0.0, -1.2783173588104546e-05, 0.0, 0.0, -0.06034297123551369]","[0.0366210974752903, -3.414917230606079, -2.1185109615325928, -0.2893524467945099, 0.0583190992474556, -0.3813171684741974]"
1584462973826817585,,2635307,,1584462973,826388734,'',"[shoulder_pan_joint, shoulder_lift_joint, elbow_joint, wrist_1_joint, wrist_2_joint,","[1.5364840030670166, -1.1210845152484339, 2.3675010204315186, -2.7923343817340296, -1.5670536200152796, 2.2356619834899902]","[0.0, 0.0, -1.2783173588104546e-05, 0.0, 0.0, 0.0012271846644580364]","[0.009155274368822575, -3.428650140762329, -2.1207528114318848, -0.2915954887866974, 0.0493469275534153, 0.01345825381577015]"
1584462973938721619,,2635321,,1584462973,938334536,'',"[shoulder_pan_joint, shoulder_lift_joint, elbow_joint, wrist_1_joint, wrist_2_joint,","[1.536460041999817, -1.1210606733905237, 2.367536783218384, -2.7923224608050745, -1.5670416990863245, 2.235889434814453]","[0.0, 0.0, -1.2783173588104546e-05, 0.0, 0.0, 0.002281796419993043]","[0.0595092847943306, -3.378296136856079, -2.098334789276123, -0.2557068169116974, 0.0358886756002903, 0.02467346377670765]"
1584462974050852306,,2635335,,1584462974,50344627,'',"[shoulder_pan_joint, shoulder_lift_joint, elbow_joint, wrist_1_joint, wrist_2_joint,","[1.536460041999817, -1.1210129896747034, 2.367536783218384, -2.7923463026629847, -1.567077938710348, 2.235901355743408]","[0.0, 0.0, -1.2783173588104546e-05, 0.0, 0.0, 0.00026844663079828024]","[0.0411987341940403, -3.405761957168579, -2.100576400756836, -0.2781372368335724, 0.0560760572552681, 0.0314025916159153]"
1584462974162692630,,2635349,,1584462974,162296821,'',"[shoulder_pan_joint, shoulder_lift_joint, elbow_joint, wrist_1_joint, wrist_2_joint,","[1.5364481210708618, -1.1210487524615687, 2.3675129413604736, -2.7923224608050745, -1.5670536200152796, 2.2359132766723633]","[0.0, 0.0, -1.2783173588104546e-05, 0.0, 0.0, 0.00013422331539914012]","[0.0366210974752903, -3.437805414199829, -2.096092939376831, -0.2714081108570099, 0.0471038855612278, 0.0291595496237278]"
1584462974274768134,,2635363,,1584462974,274306352,'',"[shoulder_pan_joint, shoulder_lift_joint, elbow_joint, wrist_1_joint, wrist_2_joint,","[1.5364481210708618, -1.1210487524615687, 2.3675129413604736, -2.7923224608050745, -1.5670536200152796, 2.235901355743408]","[0.0, 0.0, -1.2783173588104546e-05, 0.0, 0.0, 9.58738019107841e-05]","[0.0411987341940403, -3.405761957168579, -2.10506010055542, -0.2669220268726349, 0.0448608435690403, 0.0336456336081028]"
1584462974386915803,,2635377,,1584462974,386474048,'',"[shoulder_pan_joint, shoulder_lift_joint, elbow_joint, wrist_1_joint, wrist_2_joint,","[1.536460041999817, -1.1210606733905237, 2.3675248622894287, -2.7923105398761194, -1.5670536200152796, 2.235889434814453]","[0.0, 0.0, -1.2783173588104546e-05, 0.0, 0.0, 5.752428114647046e-05]","[0.0549316480755806, -3.442383050918579, -2.1297199726104736, -0.2714081108570099, 0.0515899695456028, 0.0381317175924778]"
1584462974498706385,,2635391,,1584462974,498291099,'',"[shoulder_pan_joint, shoulder_lift_joint, elbow_joint, wrist_1_joint, wrist_2_joint,","[1.5364840030670166, -1.1210606733905237, 2.367465019226074, -2.7923224608050745, -1.5670655409442347, 2.2359132766723633]","[0.0, 0.0, -0.0, 0.0, 0.0, 5.752428114647046e-05]","[0.0503540076315403, -3.442383050918579, -2.1342036724090576, -0.2579498589038849, 0.0538330152630806, 0.0336456336081028]"
1584462974610786688,,2635405,,1584462974,610366483,'',"[shoulder_pan_joint, shoulder_lift_joint, elbow_joint, wrist_1_joint, wrist_2_joint,","[1.536460041999817, -1.1210487524615687, 2.3675010204315186, -2.7923105398761194, -1.5670655409442347, 2.2359373569488525]","[0.0, 0.0, -0.0, 0.0, 0.0, 3.834952076431364e-05]","[0.0366210974752903, -3.446960687637329, -2.107301950454712, -0.2736511528491974, 0.0628051832318306, 0.0381317175924778]"
1584462974722840701,,2635419,,1584462974,722309669,'',"[shoulder_pan_joint, shoulder_lift_joint, elbow_joint, wrist_1_joint, wrist_2_joint,","[1.5364481210708618, -1.121073071156637, 2.3675010204315186, -2.7923343817340296, -1.5670416990863245, 2.235901355743408]","[0.0, 0.0, -0.0, 0.0, 0.0, 3.834952076431364e-05]","[0.01373291201889515, -3.442383050918579, -2.116269111633301, -0.2310333549976349, 0.0538330152630806, 0.0336456336081028]"
1584462974834650379,,2635433,,1584462974,834326113,'',"[shoulder_pan_joint, shoulder_lift_joint, elbow_joint, wrist_1_joint, wrist_2_joint,","[1.536460041999817, -1.1210487524615687, 2.3675129413604736, -2.7923463026629847, -1.5670416990863245, 2.2359254360198975]","[0.0, 0.0, -0.0, 0.0, 0.0, 3.834952076431364e-05]","[0.0411987341940403, -3.433227777481079, -2.1409289836883545, -0.2691650688648224, 0.0358886756002903, 0.0291595496237278]"
1584462974946700836,,2635447,,1584462974,946315005,'',"[shoulder_pan_joint, shoulder_lift_joint, elbow_joint, wrist_1_joint, wrist_2_joint,","[1.536460041999817, -1.1210606733905237, 2.367536783218384, -2.7923343817340296, -1.5670655409442347, 2.2359254360198975]","[0.0, 0.0, -0.0, 0.0, 0.0, 1.917476038215682e-05]","[0.0274658240377903, -3.405761957168579, -2.1229946613311768, -0.2646789848804474, 0.0493469275534153, 0.0314025916159153]"
1584462975058561288,,2635461,,1584462975,58239407,'',"[shoulder_pan_joint, shoulder_lift_joint, elbow_joint, wrist_1_joint, wrist_2_joint,","[1.5364360809326172, -1.1210487524615687, 2.3675010204315186, -2.7923463026629847, -1.567089859639303, 2.2359492778778076]","[0.0, 0.0, -0.0, 0.0, 0.0, 1.917476038215682e-05]","[0.0823974683880806, -3.410339593887329, -2.111785650253296, -0.2848663628101349, 0.0583190992474556, 0.0314025916159153]"
1584462975170547345,,2635475,,1584462975,170244369,'',"[shoulder_pan_joint, shoulder_lift_joint, elbow_joint, wrist_1_joint, wrist_2_joint,","[1.5364481210708618, -1.1210606733905237, 2.3675010204315186, -2.7922866980182093, -1.5670536200152796, 2.2359373569488525]","[0.0, 0.0, -0.0, 0.0, 0.0, 1.917476038215682e-05]","[0.0869751051068306, -3.378296136856079, -2.080400228500366, -0.2714081108570099, 0.0493469275534153, 0.0269165076315403]"
1584462975282589326,,2635489,,1584462975,282287182,'',"[shoulder_pan_joint, shoulder_lift_joint, elbow_joint, wrist_1_joint, wrist_2_joint,","[1.5364960432052612, -1.1210487524615687, 2.3675010204315186, -2.7923343817340296, -1.5670655409442347, 2.2359492778778076]","[0.0, 0.0, -0.0, 0.0, 0.0, 1.917476038215682e-05]","[0.0320434607565403, -3.479004144668579, -2.102818250656128, -0.2669220268726349, 0.0426178015768528, 0.0381317175924778]"
1584462975394557981,,2635503,,1584462975,394287295,'',"[shoulder_pan_joint, shoulder_lift_joint, elbow_joint, wrist_1_joint, wrist_2_joint,","[1.5364481210708618, -1.1210249106036585, 2.3675248622894287, -2.7923343817340296, -1.567077938710348, 2.2359132766723633]","[0.0, 0.0, -0.0, 0.0, 0.0, 1.917476038215682e-05]","[0.0503540076315403, -3.373718500137329, -2.109543800354004, -0.2893524467945099, 0.0493469275534153, 0.0358886756002903]"
1584462975506564065,,2635517,,1584462975,506231664,'',"[shoulder_pan_joint, shoulder_lift_joint, elbow_joint, wrist_1_joint, wrist_2_joint,","[1.536460041999817, -1.1210487524615687, 2.3675010204315186, -2.7923343817340296, -1.5670655409442347, 2.2359373569488525]","[0.0, 0.0, -0.0, 0.0, 0.0, 1.917476038215682e-05]","[0.0457763709127903, -3.442383050918579, -2.093851089477539, -0.2758941948413849, 0.0471038855612278, 0.0291595496237278]"
1584462975618586640,,2635531,,1584462975,618249320,'',"[shoulder_pan_joint, shoulder_lift_joint, elbow_joint, wrist_1_joint, wrist_2_joint,","[1.5364840030670166, -1.121073071156637, 2.367548942565918, -2.7923343817340296, -1.5670655409442347, 2.2359254360198975]","[0.0, 0.0, -0.0, 0.0, 0.0, 1.917476038215682e-05]","[0.0366210974752903, -3.396606683731079, -2.1297199726104736, -0.2691650688648224, 0.0672912672162056, 0.0314025916159153]"
1584462975730570883,,2635545,,1584462975,730264711,'',"[shoulder_pan_joint, shoulder_lift_joint, elbow_joint, wrist_1_joint, wrist_2_joint,","[1.5364360809326172, -1.1210368315326136, 2.3675010204315186, -2.792358700429098, -1.5670416990863245, 2.2359254360198975]","[0.0, 0.0, -0.0, 0.0, 0.0, 1.917476038215682e-05]","[0.009155274368822575, -3.433227777481079, -2.093851089477539, -0.2781372368335724, 0.0471038855612278, 0.0336456336081028]"
1584462975842468435,,2635559,,1584462975,842214861,'',"[shoulder_pan_joint, shoulder_lift_joint, elbow_joint, wrist_1_joint, wrist_2_joint,","[1.5364720821380615, -1.1210487524615687, 2.3675129413604736, -2.7923105398761194, -1.5670536200152796, 2.2359254360198975]","[0.0, 0.0, -0.0, 0.0, 0.0, 0.0]","[0.0457763709127903, -3.414917230606079, -2.107301950454712, -0.2938385307788849, 0.0515899695456028, 0.0314025916159153]"
1584462975954558055,,2635573,,1584462975,954211458,'',"[shoulder_pan_joint, shoulder_lift_joint, elbow_joint, wrist_1_joint, wrist_2_joint,","[1.5364840030670166, -1.1210606733905237, 2.367536783218384, -2.7923105398761194, -1.5670297781573694, 2.2359254360198975]","[0.0, 0.0, -0.0, 0.0, 0.0, 0.0]","[0.0274658240377903, -3.483581781387329, -2.102818250656128, -0.2826233208179474, 0.0560760572552681, 0.0314025916159153]"
1584462976066465906,,2635587,,1584462976,66185162,'',"[shoulder_pan_joint, shoulder_lift_joint, elbow_joint, wrist_1_joint, wrist_2_joint,","[1.5364720821380615, -1.121073071156637, 2.3675010204315186, -2.7923343817340296, -1.5670655409442347, 2.2359254360198975]","[0.0, 0.0, -0.0, 0.0, 0.0, 0.0]","[0.0778198316693306, -3.428650140762329, -2.1274781227111816, -0.2646789848804474, 0.0515899695456028, 0.0358886756002903]"
1584462976178500112,,2635601,,1584462976,178196295,'',"[shoulder_pan_joint, shoulder_lift_joint, elbow_joint, wrist_1_joint, wrist_2_joint,","[1.536460041999817, -1.121073071156637, 2.3675129413604736, -2.7923463026629847, -1.5670655409442347, 2.2359254360198975]","[0.0, 0.0, -0.0, 0.0, 0.0, 0.0]","[0.01831054873764515, -3.401184320449829, -2.116269111633301, -0.2489776909351349, 0.0538330152630806, 0.0381317175924778]"
1584462976290556110,,2635615,,1584462976,290232977,'',"[shoulder_pan_joint, shoulder_lift_joint, elbow_joint, wrist_1_joint, wrist_2_joint,","[1.5364720821380615, -1.1210487524615687, 2.3675010204315186, -2.7923224608050745, -1.5670536200152796, 2.2359254360198975]","[0.0, 0.0, -0.0, 0.0, 0.0, 0.0]","[0.02288818545639515, -3.433227777481079, -2.1319618225097656, -0.2803802788257599, 0.0628051832318306, 0.0314025916159153]"
1584462976402733915,,2635629,,1584462976,402255932,'',"[shoulder_pan_joint, shoulder_lift_joint, elbow_joint, wrist_1_joint, wrist_2_joint,","[1.5364360809326172, -1.121073071156637, 2.3674888610839844, -2.7923224608050745, -1.5670655409442347, 2.2359373569488525]","[0.0, 0.0, -0.0, 0.0, 0.0, 0.0]","[0.0457763709127903, -3.364563226699829, -2.1207528114318848, -0.2915954887866974, 0.0426178015768528, 0.0314025916159153]"
1584462976514666462,,2635643,,1584462976,514241118,'',"[shoulder_pan_joint, shoulder_lift_joint, elbow_joint, wrist_1_joint, wrist_2_joint,","[1.536460041999817, -1.1210368315326136, 2.3675010204315186, -2.792358700429098, -1.5670655409442347, 2.2359492778778076]","[0.0, 0.0, -0.0, 0.0, 0.0, 0.0]","[0.0274658240377903, -3.433227777481079, -2.1342036724090576, -0.2803802788257599, 0.0471038855612278, 0.0358886756002903]"
1584462976626472533,,2635657,,1584462976,626158346,'',"[shoulder_pan_joint, shoulder_lift_joint, elbow_joint, wrist_1_joint, wrist_2_joint,","[1.536460041999817, -1.1210606733905237, 2.3675129413604736, -2.7923343817340296, -1.5670536200152796, 2.2359373569488525]","[0.0, 0.0, -0.0, 0.0, 0.0, 0.0]","[0.01831054873764515, -3.373718500137329, -2.10506010055542, -0.3185119926929474, 0.0583190992474556, 0.0336456336081028]"
1584462976738637534,,2635671,,1584462976,738262894,'',"[shoulder_pan_joint, shoulder_lift_joint, elbow_joint, wrist_1_joint, wrist_2_joint,","[1.536460041999817, -1.121073071156637, 2.3675248622894287, -2.7923224608050745, -1.5670416990863245, 2.2359373569488525]","[0.0, 0.0, -0.0, 0.0, 0.0, 0.0]","[0.0457763709127903, -3.401184320449829, -2.1252365112304688, -0.2915954887866974, 0.0560760572552681, 0.0314025916159153]"
1584462976850830467,,2635685,,1584462976,850314533,'',"[shoulder_pan_joint, shoulder_lift_joint, elbow_joint, wrist_1_joint, wrist_2_joint,","[1.5364481210708618, -1.1210368315326136, 2.3675129413604736, -2.7922866980182093, -1.5670178572284144, 2.2359254360198975]","[0.0, 0.0, -0.0, 0.0, 0.0, 0.0]","[-0.01831054873764515, -3.373718500137329, -2.1342036724090576, -0.2691650688648224, 0.0538330152630806, 0.0314025916159153]"
1584462976962552280,,2635699,,1584462976,962216262,'',"[shoulder_pan_joint, shoulder_lift_joint, elbow_joint, wrist_1_joint, wrist_2_joint,","[1.536460041999817, -1.1210845152484339, 2.3674888610839844, -2.7923343817340296, -1.567089859639303, 2.2359254360198975]","[0.0, 0.0, -0.0, 0.0, 0.0, 0.0]","[0.0411987341940403, -3.442383050918579, -2.1274781227111816, -0.3028106987476349, 0.0493469275534153, 0.0336456336081028]"
1584462977074912165,,2635713,,1584462977,74250439,'',"[shoulder_pan_joint, shoulder_lift_joint, elbow_joint, wrist_1_joint, wrist_2_joint,","[1.536460041999817, -1.1210845152484339, 2.3675248622894287, -2.7923463026629847, -1.5670536200152796, 2.2359254360198975]","[0.0, 0.0, -0.0, 0.0, 0.0, 0.0]","[0.0595092847943306, -3.396606683731079, -2.096092939376831, -0.2781372368335724, 0.0471038855612278, 0.0336456336081028]"
1584462977186838120,,2635727,,1584462977,186372220,'',"[shoulder_pan_joint, shoulder_lift_joint, elbow_joint, wrist_1_joint, wrist_2_joint,","[1.5364360809326172, -1.121073071156637, 2.3675010204315186, -2.7922986189471644, -1.5670059362994593, 2.2359132766723633]","[0.0, 0.0, -0.0, 0.0, 0.0, 0.0]","[0.0640869215130806, -3.369140863418579, -2.100576400756836, -0.2983246147632599, 0.0515899695456028, 0.0336456336081028]"
1584462977298577025,,2635741,,1584462977,298241208,'',"[shoulder_pan_joint, shoulder_lift_joint, elbow_joint, wrist_1_joint, wrist_2_joint,","[1.5364720821380615, -1.121073071156637, 2.3674769401550293, -2.7923343817340296, -1.5670536200152796, 2.2359492778778076]","[0.0, 0.0, -0.0, 0.0, 0.0, 0.0]","[0.0503540076315403, -3.424072504043579, -2.1319618225097656, -0.2915954887866974, 0.0493469275534153, 0.0291595496237278]"
1584462977410796318,,2635755,,1584462977,410366014,'',"[shoulder_pan_joint, shoulder_lift_joint, elbow_joint, wrist_1_joint, wrist_2_joint,","[1.5364481210708618, -1.1210368315326136, 2.3674888610839844, -2.7923343817340296, -1.567077938710348, 2.2359373569488525]","[0.0, 0.0, -0.0, 0.0, 0.0, 0.0]","[0.0595092847943306, -3.414917230606079, -2.1386873722076416, -0.2826233208179474, 0.0515899695456028, 0.0403747595846653]"
1584462977522708757,,2635769,,1584462977,522209274,'',"[shoulder_pan_joint, shoulder_lift_joint, elbow_joint, wrist_1_joint, wrist_2_joint,","[1.536460041999817, -1.1210487524615687, 2.3674888610839844, -2.7923463026629847, -1.567077938710348, 2.2359132766723633]","[0.0, 0.0, -0.0, 0.0, 0.0, 0.0]","[0.01373291201889515, -3.392029047012329, -2.116269111633301, -0.3005676567554474, 0.0628051832318306, 0.0314025916159153]"
1584462977634615496,,2635783,,1584462977,634272074,'',"[shoulder_pan_joint, shoulder_lift_joint, elbow_joint, wrist_1_joint, wrist_2_joint,","[1.5364720821380615, -1.121073071156637, 2.3674769401550293, -2.792358700429098, -1.5670536200152796, 2.2359254360198975]","[0.0, 0.0, -0.0, 0.0, 0.0, 0.0]","[0.0778198316693306, -3.465271234512329, -2.107301950454712, -0.3050537407398224, 0.0471038855612278, 0.0358886756002903]"
1584462977746483001,,2635797,,1584462977,746164045,'',"[shoulder_pan_joint, shoulder_lift_joint, elbow_joint, wrist_1_joint, wrist_2_joint,","[1.536460041999817, -1.1210606733905237, 2.3675129413604736, -2.7923343817340296, -1.5670416990863245, 2.2359373569488525]","[0.0, 0.0, -0.0, 0.0, 0.0, 0.0]","[0.0411987341940403, -3.460693597793579, -2.10506010055542, -0.2826233208179474, 0.0583190992474556, 0.0314025916159153]"
1584462977858803392,,2635811,,1584462977,858373960,'',"[shoulder_pan_joint, shoulder_lift_joint, elbow_joint, wrist_1_joint, wrist_2_joint,","[1.5364481210708618, -1.1210487524615687, 2.3675129413604736, -2.7923343817340296, -1.5670416990863245, 2.2359373569488525]","[0.0, 0.0, -0.0, 0.0, 0.0, 0.0]","[0.0320434607565403, -3.474426507949829, -2.100576400756836, -0.2871094048023224, 0.0672912672162056, 0.0314025916159153]"
1584462977970470614,,2635825,,1584462977,970163149,'',"[shoulder_pan_joint, shoulder_lift_joint, elbow_joint, wrist_1_joint, wrist_2_joint,","[1.5364720821380615, -1.1210606733905237, 2.3675010204315186, -2.792358700429098, -1.5670297781573694, 2.2359492778778076]","[0.0, 0.0, -0.0, 0.0, 0.0, 0.0]","[0.0503540076315403, -3.405761957168579, -2.109543800354004, -0.2758941948413849, 0.0560760572552681, 0.0314025916159153]"
1584462978082588427,,2635839,,1584462978,82175956,'',"[shoulder_pan_joint, shoulder_lift_joint, elbow_joint, wrist_1_joint, wrist_2_joint,","[1.536424160003662, -1.1210487524615687, 2.3675010204315186, -2.7923105398761194, -1.5670536200152796, 2.2359373569488525]","[0.0, 0.0, -0.0, 0.0, 0.0, 0.0]","[0.009155274368822575, -3.465271234512329, -2.10506010055542, -0.2646789848804474, 0.0471038855612278, 0.0314025916159153]"
1584462978194598548,,2635853,,1584462978,194209502,'',"[shoulder_pan_joint, shoulder_lift_joint, elbow_joint, wrist_1_joint, wrist_2_joint,","[1.5364720821380615, -1.1210606733905237, 2.3674769401550293, -2.792358700429098, -1.5670536200152796, 2.2359373569488525]","[0.0, 0.0, -0.0, 0.0, 0.0, 0.0]","[0.0595092847943306, -3.460693597793579, -2.114027261734009, -0.2893524467945099, 0.0381317175924778, 0.0336456336081028]"
1584462978306769501,,2635867,,1584462978,306137119,'',"[shoulder_pan_joint, shoulder_lift_joint, elbow_joint, wrist_1_joint, wrist_2_joint,","[1.536460041999817, -1.1210606733905237, 2.3674769401550293, -2.7923463026629847, -1.567077938710348, 2.2359132766723633]","[0.0, 0.0, -0.0, 0.0, 0.0, 0.0]","[0.0869751051068306, -3.451538324356079, -2.1386873722076416, -0.2758941948413849, 0.0493469275534153, 0.0336456336081028]"
1584462978418495502,,2635881,,1584462978,418161267,'',"[shoulder_pan_joint, shoulder_lift_joint, elbow_joint, wrist_1_joint, wrist_2_joint,","[1.536460041999817, -1.121073071156637, 2.3674769401550293, -2.792358700429098, -1.567077938710348, 2.2359373569488525]","[0.0, 0.0, -0.0, 0.0, 0.0, 0.0]","[0.01373291201889515, -3.437805414199829, -2.1185109615325928, -0.2714081108570099, 0.0538330152630806, 0.0269165076315403]"
1584462978530769607,,2635895,,1584462978,530190745,'',"[shoulder_pan_joint, shoulder_lift_joint, elbow_joint, wrist_1_joint, wrist_2_joint,","[1.536460041999817, -1.1210606733905237, 2.3675010204315186, -2.7923105398761194, -1.5670416990863245, 2.2359132766723633]","[0.0, 0.0, -0.0, 0.0, 0.0, 0.0]","[0.0411987341940403, -3.419494867324829, -2.102818250656128, -0.2826233208179474, 0.0560760572552681, 0.0336456336081028]"
1584462978642781361,,2635909,,1584462978,642162015,'',"[shoulder_pan_joint, shoulder_lift_joint, elbow_joint, wrist_1_joint, wrist_2_joint,","[1.5364840030670166, -1.1210368315326136, 2.3675010204315186, -2.7923463026629847, -1.5670536200152796, 2.2359254360198975]","[0.0, 0.0, -0.0, 0.0, 0.0, 0.0]","[0.01831054873764515, -3.405761957168579, -2.109543800354004, -0.2489776909351349, 0.0650482252240181, 0.0336456336081028]"
1584462978754508274,,2635923,,1584462978,754134246,'',"[shoulder_pan_joint, shoulder_lift_joint, elbow_joint, wrist_1_joint, wrist_2_joint,","[1.5364481210708618, -1.1210368315326136, 2.367536783218384, -2.7923343817340296, -1.5670655409442347, 2.2359132766723633]","[0.0, 0.0, -0.0, 0.0, 0.0, 0.0]","[0.0457763709127903, -3.456115961074829, -2.114027261734009, -0.2960815727710724, 0.0471038855612278, 0.0336456336081028]"
1584462978866634964,,2635937,,1584462978,866148285,'',"[shoulder_pan_joint, shoulder_lift_joint, elbow_joint, wrist_1_joint, wrist_2_joint,","[1.5364720821380615, -1.1210487524615687, 2.3675129413604736, -2.7923463026629847, -1.5670655409442347, 2.2359373569488525]","[0.0, 0.0, -0.0, 0.0, 0.0, 0.0]","[0.0366210974752903, -3.414917230606079, -2.1185109615325928, -0.2758941948413849, 0.0538330152630806, 0.0358886756002903]"
1584462978978771141,,2635951,,1584462978,978305581,'',"[shoulder_pan_joint, shoulder_lift_joint, elbow_joint, wrist_1_joint, wrist_2_joint,","[1.5364720821380615, -1.121073071156637, 2.3675010204315186, -2.7923463026629847, -1.5670655409442347, 2.2359373569488525]","[0.0, 0.0, -0.0, 0.0, 0.0, 0.0]","[0.0823974683880806, -3.382873773574829, -2.080400228500366, -0.2736511528491974, 0.0403747595846653, 0.0358886756002903]"
1584462979090436850,,2635965,,1584462979,90112363,'',"[shoulder_pan_joint, shoulder_lift_joint, elbow_joint, wrist_1_joint, wrist_2_joint,","[1.536460041999817, -1.1210606733905237, 2.3675010204315186, -2.7923343817340296, -1.5670416990863245, 2.2359373569488525]","[0.0, 0.0, -0.0, 0.0, 0.0, 0.0]","[0.0503540076315403, -3.451538324356079, -2.098334789276123, -0.2691650688648224, 0.0560760572552681, 0.0269165076315403]"
1584462979202584819,,2635979,,1584462979,202182026,'',"[shoulder_pan_joint, shoulder_lift_joint, elbow_joint, wrist_1_joint, wrist_2_joint,","[1.536460041999817, -1.1210606733905237, 2.3675129413604736, -2.7923343817340296, -1.5670536200152796, 2.235901355743408]","[0.0, 0.0, -0.0, 0.0, 0.0, 0.0]","[0.0320434607565403, -3.410339593887329, -2.116269111633301, -0.2893524467945099, 0.0515899695456028, 0.0314025916159153]"
1584462979314736114,,2635993,,1584462979,314255096,'',"[shoulder_pan_joint, shoulder_lift_joint, elbow_joint, wrist_1_joint, wrist_2_joint,","[1.5364720821380615, -1.1210606733905237, 2.367548942565918, -2.7923224608050745, -1.5670655409442347, 2.2359132766723633]","[0.0, 0.0, -0.0, 0.0, 0.0, 0.0]","[0.0549316480755806, -3.392029047012329, -2.107301950454712, -0.2489776909351349, 0.0605621412396431, 0.0358886756002903]"
1584462979426518360,,2636007,,1584462979,426095260,'',"[shoulder_pan_joint, shoulder_lift_joint, elbow_joint, wrist_1_joint, wrist_2_joint,","[1.5364720821380615, -1.1210845152484339, 2.3675129413604736, -2.7923463026629847, -1.5670536200152796, 2.2359254360198975]","[0.0, 0.0, -0.0, 0.0, 0.0, 0.0]","[0.0640869215130806, -3.433227777481079, -2.1252365112304688, -0.2736511528491974, 0.0538330152630806, 0.0314025916159153]"
1584462979538503756,,2636021,,1584462979,538109460,'',"[shoulder_pan_joint, shoulder_lift_joint, elbow_joint, wrist_1_joint, wrist_2_joint,","[1.5364481210708618, -1.121073071156637, 2.3675248622894287, -2.7923224608050745, -1.5670655409442347, 2.2359254360198975]","[0.0, 0.0, -0.0, 0.0, 0.0, 0.0]","[0.0961303785443306, -3.479004144668579, -2.10506010055542, -0.2826233208179474, 0.0583190992474556, 0.0358886756002903]"
1584462979650437836,,2636035,,1584462979,650070299,'',"[shoulder_pan_joint, shoulder_lift_joint, elbow_joint, wrist_1_joint, wrist_2_joint,","[1.5364720821380615, -1.1210487524615687, 2.367548942565918, -2.7923463026629847, -1.5670536200152796, 2.235901355743408]","[0.0, 0.0, -0.0, 0.0, 0.0, 0.0]","[0.0778198316693306, -3.392029047012329, -2.1185109615325928, -0.2960815727710724, 0.0560760572552681, 0.0358886756002903]"
1584462979762827547,,2636049,,1584462979,762320690,'',"[shoulder_pan_joint, shoulder_lift_joint, elbow_joint, wrist_1_joint, wrist_2_joint,","[1.5364481210708618, -1.1210845152484339, 2.3675010204315186, -2.7923224608050745, -1.5670655409442347, 2.235961437225342]","[0.0, 0.0, -0.0, 0.0, 0.0, 0.0]","[0.0732421949505806, -3.437805414199829, -2.114027261734009, -0.2601929008960724, 0.0605621412396431, 0.0314025916159153]"
1584462979874395963,,2636063,,1584462979,874049536,'',"[shoulder_pan_joint, shoulder_lift_joint, elbow_joint, wrist_1_joint, wrist_2_joint,","[1.5364481210708618, -1.1210606733905237, 2.3674888610839844, -2.792358700429098, -1.5670536200152796, 2.2359132766723633]","[0.0, 0.0, -0.0, 0.0, 0.0, 0.0]","[0.0732421949505806, -3.442383050918579, -2.100576400756836, -0.2848663628101349, 0.0538330152630806, 0.0358886756002903]"
1584462979986542300,,2636077,,1584462979,986102398,'',"[shoulder_pan_joint, shoulder_lift_joint, elbow_joint, wrist_1_joint, wrist_2_joint,","[1.536460041999817, -1.1210606733905237, 2.3675129413604736, -2.7923224608050745, -1.5670655409442347, 2.2359373569488525]","[0.0, 0.0, -0.0, 0.0, 0.0, 0.0]","[0.0686645582318306, -3.410339593887329, -2.1252365112304688, -0.2893524467945099, 0.0628051832318306, 0.0291595496237278]"
1584462980098684398,,2636091,,1584462980,98120925,'',"[shoulder_pan_joint, shoulder_lift_joint, elbow_joint, wrist_1_joint, wrist_2_joint,","[1.536460041999817, -1.121073071156637, 2.3675248622894287, -2.792370621358053, -1.5670655409442347, 2.2359254360198975]","[0.0, 0.0, -0.0, 0.0, 0.0, 0.0]","[0.02288818545639515, -3.437805414199829, -2.116269111633301, -0.2669220268726349, 0.0448608435690403, 0.0336456336081028]"
1584462980210653363,,2636105,,1584462980,210276289,'',"[shoulder_pan_joint, shoulder_lift_joint, elbow_joint, wrist_1_joint, wrist_2_joint,","[1.536460041999817, -1.1210487524615687, 2.367536783218384, -2.7923343817340296, -1.5670416990863245, 2.2359132766723633]","[0.0, 0.0, -0.0, 0.0, 0.0, 0.0]","[0.0778198316693306, -3.433227777481079, -2.1207528114318848, -0.2871094048023224, 0.0515899695456028, 0.0269165076315403]"
1584462980322358134,,2636119,,1584462980,322026785,'',"[shoulder_pan_joint, shoulder_lift_joint, elbow_joint, wrist_1_joint, wrist_2_joint,","[1.5358364582061768, -1.12132436433901, 2.3696486949920654, -2.7933042685138147, -1.5670297781573694, 2.234895944595337]","[-0.013588513247668743, -0.005458415020257235, 0.036495961248874664, -0.014381070621311665, 0.0, -0.013729128055274487]","[-0.9933472871780396, -4.673767566680908, -0.8787897229194641, -0.6258087754249573, 0.0493469275534153, -0.3274841606616974]"
1584462980434378245,,2636133,,1584462980,434023643,'',"[shoulder_pan_joint, shoulder_lift_joint, elbow_joint, wrist_1_joint, wrist_2_joint,","[1.5349249839782715, -1.1218283812152308, 2.3726489543914795, -2.7943342367755335, -1.5670178572284144, 2.2367396354675293]","[0.004461327567696571, -0.0010865697404369712, 0.01193948369473219, -0.0038733016699552536, 0.0, 0.05928836017847061]","[0.2334595024585724, -4.472351551055908, -0.9236259460449219, -0.6347809433937073, 0.0515899695456028, 0.3207550346851349]"
1584462980546602607,,2636147,,1584462980,546041970,'',"[shoulder_pan_joint, shoulder_lift_joint, elbow_joint, wrist_1_joint, wrist_2_joint,","[1.5369398593902588, -1.1217802206622522, 2.3727447986602783, -2.7939870993243616, -1.5670655409442347, 2.2424020767211914]","[0.025067802518606186, 0.0003579288604669273, -0.0010993529576808214, 0.0025310683995485306, 0.0, 0.0370648130774498]","[1.0437012910842896, -3.689575672149658, -1.4840785264968872, -0.3386993706226349, 0.0762634351849556, 0.3790741264820099]"
1584462980658346411,,2636161,,1584462980,658023668,'',"[shoulder_pan_joint, shoulder_lift_joint, elbow_joint, wrist_1_joint, wrist_2_joint,","[1.5394108295440674, -1.1218040625201624, 2.3727567195892334, -2.7939747015582483, -1.567077938710348, 2.2453229427337646]","[0.01943042315542698, 0.00012783173588104546, -0.0002556634717620909, 0.0003067961661145091, 0.0, 0.019347332417964935]","[0.8834840059280396, -3.721619129180908, -1.4616605043411255, -0.2983246147632599, 0.0695343092083931, 0.3140259087085724]"
1584462980770347426,,2636175,,1584462980,769995618,'',"[shoulder_pan_joint, shoulder_lift_joint, elbow_joint, wrist_1_joint, wrist_2_joint,","[1.5421934127807617, -1.1218159834491175, 2.3727686405181885, -2.793915096913473, -1.567089859639303, 2.2478129863739014]","[0.03243090957403183, 7.669904152862728e-05, -0.00021731395099777728, 0.0005368932615965605, 0.0, 0.03253956884145737]","[0.7186890244483948, -3.744507312774658, -1.4930458068847656, -0.2826233208179474, 0.0829925611615181, 0.2489776909351349]"
1584462980882380200,,2636189,,1584462980,882003577,'',"[shoulder_pan_joint, shoulder_lift_joint, elbow_joint, wrist_1_joint, wrist_2_joint,","[1.546991229057312, -1.1217682997332972, 2.372708797454834, -2.7938907782184046, -1.567101780568258, 2.252948522567749]","[0.05285842344164848, 5.1132694352418184e-05, -0.00020453077740967274, 0.00028762139845639467, 0.0, 0.05342088267207146]","[0.8102417588233948, -3.776550769805908, -1.5715092420578003, -0.2669220268726349, 0.1031799390912056, 0.3185119926929474]"
1584462980994328967,,2636203,,1584462980,993980847,'',"[shoulder_pan_joint, shoulder_lift_joint, elbow_joint, wrist_1_joint, wrist_2_joint,","[1.5542240142822266, -1.1217802206622522, 2.3726608753204346, -2.7938669363604944, -1.5671494642840784, 2.2587544918060303]","[0.0758042186498642, 3.834952076431364e-05, -0.00020453077740967274, 0.0002109223569277674, 0.0, 0.05012282356619835]","[0.6774902939796448, -3.913879871368408, -1.5199475288391113, -0.2400055229663849, 0.1211242824792862, 0.3925323784351349]"
1584462981106385065,,2636217,,1584462981,105971262,'',"[shoulder_pan_joint, shoulder_lift_joint, elbow_joint, wrist_1_joint, wrist_2_joint,","[1.5639395713806152, -1.121756378804342, 2.3724803924560547, -2.7935078779803675, -1.567089859639303, 2.2646324634552]","[0.09846878796815872, 3.834952076431364e-05, -0.0029145635198801756, 0.00441019469872117, 0.0, 0.06107161194086075]","[1.0253907442092896, -3.868103504180908, -1.5692673921585083, -0.2601929008960724, 0.1772003322839737, 0.2826233208179474]"
1584462981218436904,,2636231,,1584462981,218014295,'',"[shoulder_pan_joint, shoulder_lift_joint, elbow_joint, wrist_1_joint, wrist_2_joint,","[1.5751421451568604, -1.1218040625201624, 2.3724563121795654, -2.7933762709247034, -1.567089859639303, 2.2717196941375732]","[0.09508124738931656, 2.5566347176209092e-05, -0.00048576059634797275, 0.0005752427969127893, 0.0, 0.05652719363570213]","[1.1260987520217896, -3.932190418243408, -1.5804764032363892, -0.2287903130054474, 0.1884155422449112, 0.3947754204273224]"
1584462981330621633,,2636245,,1584462981,329994241,'',"[shoulder_pan_joint, shoulder_lift_joint, elbow_joint, wrist_1_joint, wrist_2_joint,","[1.5845580101013184, -1.1217682997332972, 2.3724563121795654, -2.793328110371725, -1.567101780568258, 2.276615858078003]","[0.0774276852607727, 2.5566347176209092e-05, -0.0002812298189383, 0.00028762139845639467, 0.0, 0.03647039458155632]","[0.9246827363967896, -3.977966785430908, -1.551332950592041, -0.2243042290210724, 0.2130890041589737, 0.3409424126148224]"
1584462981442275769,,2636259,,1584462981,441959328,'',"[shoulder_pan_joint, shoulder_lift_joint, elbow_joint, wrist_1_joint, wrist_2_joint,","[1.5930379629135132, -1.1217682997332972, 2.3724803924560547, -2.7933042685138147, -1.5671375433551233, 2.2806265354156494]","[0.0732092335820198, 2.5566347176209092e-05, -0.0, 0.00015339808305725455, 0.0, 0.04254879429936409]","[0.8605957627296448, -3.987122058868408, -1.5759928226470947, -0.2153320610523224, 0.2130890041589737, 0.2871094048023224]"
1584462981554357695,,2636273,,1584462981,553961405,'',"[shoulder_pan_joint, shoulder_lift_joint, elbow_joint, wrist_1_joint, wrist_2_joint,","[1.6009182929992676, -1.1217802206622522, 2.372504234313965, -2.7931488196002405, -1.5671613852130335, 2.285630702972412]","[0.06516861915588379, 1.2783173588104546e-05, -0.0, 0.0014956312952563167, 0.0, 0.04043956845998764]","[1.1581422090530396, -4.037476062774658, -1.5087385177612305, -0.2893524467945099, 0.2198181450366974, 0.3185119926929474]"
1584462981666541501,,2636287,,1584462981,665979632,'',"[shoulder_pan_joint, shoulder_lift_joint, elbow_joint, wrist_1_joint, wrist_2_joint,","[1.6066995859146118, -1.1217802206622522, 2.3725521564483643, -2.792957131062643, -1.5671737829791468, 2.289341688156128]","[0.035959068685770035, 1.2783173588104546e-05, -0.0, 0.0012655341997742653, 0.0, 0.032462868839502335]","[1.1169434785842896, -3.964233875274658, -1.5715092420578003, -0.2826233208179474, 0.2400055229663849, 0.3162689507007599]"
1584462981778273253,,2636301,,1584462981,777950180,'',"[shoulder_pan_joint, shoulder_lift_joint, elbow_joint, wrist_1_joint, wrist_2_joint,","[1.6090503931045532, -1.1217802206622522, 2.372612237930298, -2.7928975264178675, -1.5671613852130335, 2.292681932449341]","[0.008858739398419857, 1.2783173588104546e-05, 8.948221511673182e-05, 0.0004026699753012508, 0.0, 0.027822576463222504]","[0.9796143770217896, -3.927612781524658, -1.5266729593276978, -0.2803802788257599, 0.2018737941980362, 0.2826233208179474]"
1584462981890286431,,2636315,,1584462981,889946185,'',"[shoulder_pan_joint, shoulder_lift_joint, elbow_joint, wrist_1_joint, wrist_2_joint,","[1.6091582775115967, -1.1217682997332972, 2.3725521564483643, -2.792957131062643, -1.5671613852130335, 2.2952799797058105]","[-0.00048576059634797275, 1.2783173588104546e-05, 8.948221511673182e-05, 0.00023009712458588183, 0.0, 0.016720391809940338]","[-0.004577637184411287, -3.872681140899658, -1.5603001117706299, -0.3050537407398224, 0.1704712063074112, 0.2377624809741974]"
1584462982002444629,,2636329,,1584462982,1952861,'',"[shoulder_pan_joint, shoulder_lift_joint, elbow_joint, wrist_1_joint, wrist_2_joint,","[1.609134316444397, -1.1217320601092737, 2.3725521564483643, -2.7929089705096644, -1.5672453085528772, 2.295675039291382]","[-0.00015339808305725455, 0.0038221688009798527, -0.0, 0.00013422331539914012, -0.006442719604820013, -0.002320145955309272]","[-0.009155274368822575, -3.639221668243408, -1.3809553384780884, -0.2624359428882599, 0.0964508131146431, -0.0426178015768528]"
1584462982114317224,,2636343,,1584462982,113970326,'',"[shoulder_pan_joint, shoulder_lift_joint, elbow_joint, wrist_1_joint, wrist_2_joint,","[1.6091941595077515, -1.12164813676943, 2.3725762367248535, -2.792945210133688, -1.5672696272479456, 2.2956390380859375]","[-8.948221511673182e-05, 0.0, -0.0, 9.58738019107841e-05, -0.0003067961661145091, -0.00028762139845639467]","[-0.0320434607565403, -3.602600574493408, -1.3787134885787964, -0.2534637749195099, 0.0740203931927681, -0.0560760572552681]"
1584462982226314091,,2636357,,1584462982,225969257,'',"[shoulder_pan_joint, shoulder_lift_joint, elbow_joint, wrist_1_joint, wrist_2_joint,","[1.6091822385787964, -1.1216605345355433, 2.3725881576538086, -2.792945210133688, -1.5672696272479456, 2.2956271171569824]","[-6.391586794052273e-05, 0.0, -0.0, 5.752428114647046e-05, -0.00015339808305725455, -0.0002109223569277674]","[-0.0274658240377903, -3.872681140899658, -1.4100987911224365, -0.2557068169116974, 0.0605621412396431, -0.0583190992474556]"
1584462982338291261,,2636371,,1584462982,337948030,'',"[shoulder_pan_joint, shoulder_lift_joint, elbow_joint, wrist_1_joint, wrist_2_joint,","[1.6091582775115967, -1.121636692677633, 2.3725643157958984, -2.7929328123675745, -1.5672453085528772, 2.2956149578094482]","[-3.834952076431364e-05, 0.0, -0.0, 5.752428114647046e-05, -0.00011504856229294091, -0.00017257283616345376]","[-0.0411987341940403, -4.101562976837158, -1.3966479301452637, -0.2646789848804474, 0.0717773512005806, -0.0471038855612278]"
1584462982450481970,,2636385,,1584462982,450046898,'',"[shoulder_pan_joint, shoulder_lift_joint, elbow_joint, wrist_1_joint, wrist_2_joint,","[1.6091701984405518, -1.1216962973224085, 2.372540235519409, -2.7929208914386194, -1.5672577063189905, 2.295603036880493]","[-3.834952076431364e-05, -1.2783173588104546e-05, -0.0, 3.834952076431364e-05, -0.00011504856229294091, -0.00011504856229294091]","[-0.0595092847943306, -4.252624988555908, -1.4123406410217285, -0.2624359428882599, 0.0672912672162056, -0.0605621412396431]"
1584462982562253967,,2636399,,1584462982,561931455,'',"[shoulder_pan_joint, shoulder_lift_joint, elbow_joint, wrist_1_joint, wrist_2_joint,","[1.609146237373352, -1.1216843763934534, 2.3725762367248535, -2.7929089705096644, -1.5672696272479456, 2.295591115951538]","[-2.5566347176209092e-05, -0.00015339808305725455, -0.0, 3.834952076431364e-05, -0.00011504856229294091, -7.669904152862728e-05]","[-0.01373291201889515, -4.682922840118408, -1.405615210533142, -0.2646789848804474, 0.0740203931927681, -0.0515899695456028]"
1584462982674216190,,2636413,,1584462982,673912272,'',"[shoulder_pan_joint, shoulder_lift_joint, elbow_joint, wrist_1_joint, wrist_2_joint,","[1.6091822385787964, -1.1218403021441858, 2.3725881576538086, -2.7929328123675745, -1.5672453085528772, 2.295591115951538]","[-2.5566347176209092e-05, 0.0, -0.0, 1.917476038215682e-05, -7.669904152862728e-05, -5.752428114647046e-05]","[-0.0320434607565403, -4.371643543243408, -1.4145824909210205, -0.2534637749195099, 0.0605621412396431, -0.0538330152630806]"
1584462982786460389,,2636427,,1584462982,785946589,'',"[shoulder_pan_joint, shoulder_lift_joint, elbow_joint, wrist_1_joint, wrist_2_joint,","[1.609134316444397, -1.1218159834491175, 2.3726003170013428, -2.7929328123675745, -1.5672577063189905, 2.295591115951538]","[-2.5566347176209092e-05, 0.0, -0.0, 1.917476038215682e-05, -5.752428114647046e-05, -3.834952076431364e-05]","[-0.009155274368822575, -4.463196277618408, -1.4011316299438477, -0.2669220268726349, 0.0919647291302681, -0.0471038855612278]"
1584462982898330088,,2636441,,1584462982,898028946,'',"[shoulder_pan_joint, shoulder_lift_joint, elbow_joint, wrist_1_joint, wrist_2_joint,","[1.6091222763061523, -1.1218283812152308, 2.3725643157958984, -2.7929328123675745, -1.5672577063189905, 2.2956149578094482]","[-1.2783173588104546e-05, 0.0, -0.0, 1.917476038215682e-05, -5.752428114647046e-05, -3.834952076431364e-05]","[-0.0457763709127903, -4.458618640899658, -1.416824221611023, -0.2444916069507599, 0.0717773512005806, -0.0448608435690403]"
1584462983010266422,,2636455,,1584462983,9953187,'',"[shoulder_pan_joint, shoulder_lift_joint, elbow_joint, wrist_1_joint, wrist_2_joint,","[1.6091822385787964, -1.1218040625201624, 2.3725762367248535, -2.7929089705096644, -1.5672453085528772, 2.295603036880493]","[-1.2783173588104546e-05, 0.0, -0.0, 1.917476038215682e-05, -3.834952076431364e-05, -3.834952076431364e-05]","[-0.0274658240377903, -4.435730457305908, -1.4257915019989014, -0.2444916069507599, 0.0672912672162056, -0.0695343092083931]"
1584462983122471759,,2636469,,1584462983,121960874,'',"[shoulder_pan_joint, shoulder_lift_joint, elbow_joint, wrist_1_joint, wrist_2_joint,","[1.609146237373352, -1.1217921415912073, 2.3725643157958984, -2.7928975264178675, -1.5672453085528772, 2.2956149578094482]","[-1.2783173588104546e-05, 0.0, -0.0, 1.917476038215682e-05, -3.834952076431364e-05, -1.917476038215682e-05]","[-0.0595092847943306, -4.449463367462158, -1.3831970691680908, -0.2422485649585724, 0.0695343092083931, -0.0628051832318306]"
1584462983234408744,,2636483,,1584462983,233856973,'',"[shoulder_pan_joint, shoulder_lift_joint, elbow_joint, wrist_1_joint, wrist_2_joint,","[1.6091701984405518, -1.1218159834491175, 2.3725881576538086, -2.7929328123675745, -1.5672815481769007, 2.295591115951538]","[-1.2783173588104546e-05, 0.0, -0.0, 1.917476038215682e-05, -1.917476038215682e-05, -1.917476038215682e-05]","[-0.0503540076315403, -4.467773914337158, -1.3921643495559692, -0.2557068169116974, 0.0740203931927681, -0.0560760572552681]"
1584462983346230774,,2636497,,1584462983,345872976,'',"[shoulder_pan_joint, shoulder_lift_joint, elbow_joint, wrist_1_joint, wrist_2_joint,","[1.609146237373352, -1.1218040625201624, 2.372540235519409, -2.7929208914386194, -1.5672453085528772, 2.295603036880493]","[-1.2783173588104546e-05, 0.0, -0.0, 1.917476038215682e-05, -1.917476038215682e-05, -1.917476038215682e-05]","[-0.0549316480755806, -4.486084461212158, -1.4100987911224365, -0.2557068169116974, 0.0852356031537056, -0.0493469275534153]"
1584462983458255523,,2636511,,1584462983,457939553,'',"[shoulder_pan_joint, shoulder_lift_joint, elbow_joint, wrist_1_joint, wrist_2_joint,","[1.6091582775115967, -1.1218040625201624, 2.3725762367248535, -2.7929208914386194, -1.567317310963766, 2.295603036880493]","[-1.2783173588104546e-05, 0.0, -0.0, 1.917476038215682e-05, -1.917476038215682e-05, -1.917476038215682e-05]","[-0.0411987341940403, -4.499817371368408, -1.4100987911224365, -0.2108459621667862, -0.0448608435690403, -0.0650482252240181]"
1584462983570290972,,2636525,,1584462983,569903980,'',"[shoulder_pan_joint, shoulder_lift_joint, elbow_joint, wrist_1_joint, wrist_2_joint,","[1.6091701984405518, -1.1218159834491175, 2.3725643157958984, -2.7929089705096644, -1.5682042280780237, 2.295591115951538]","[-1.2783173588104546e-05, 0.0, -0.0, 1.917476038215682e-05, 0.001725728390738368, -1.917476038215682e-05]","[-0.0320434607565403, -4.435730457305908, -1.4145824909210205, -0.2310333549976349, 0.0471038855612278, -0.0605621412396431]"
1584462983682375714,,2636539,,1584462983,681864910,'',"[shoulder_pan_joint, shoulder_lift_joint, elbow_joint, wrist_1_joint, wrist_2_joint,","[1.6091582775115967, -1.1218403021441858, 2.3725762367248535, -2.7929328123675745, -1.5681923071490687, 2.2956149578094482]","[-1.2783173588104546e-05, 0.0, -0.0, 1.917476038215682e-05, 0.0004218447138555348, -1.917476038215682e-05]","[-0.0457763709127903, -4.476929187774658, -1.416824221611023, -0.2422485649585724, 0.0628051832318306, -0.0628051832318306]"
1584462983794189749,,2636553,,1584462983,793875101,'',"[shoulder_pan_joint, shoulder_lift_joint, elbow_joint, wrist_1_joint, wrist_2_joint,","[1.6091582775115967, -1.1218403021441858, 2.3725643157958984, -2.7929328123675745, -1.5681923071490687, 2.295591115951538]","[-1.2783173588104546e-05, 0.0, -0.0, 1.917476038215682e-05, 0.00017257283616345376, -1.917476038215682e-05]","[-0.01831054873764515, -4.463196277618408, -1.4011316299438477, -0.2557068169116974, 0.0740203931927681, -0.0538330152630806]"
1584462983906262187,,2636567,,1584462983,905957458,'',"[shoulder_pan_joint, shoulder_lift_joint, elbow_joint, wrist_1_joint, wrist_2_joint,","[1.609134316444397, -1.1218283812152308, 2.372528314590454, -2.792969051991598, -1.5682042280780237, 2.295591115951538]","[0.0, 0.0, -0.0, 1.917476038215682e-05, 0.00011504856229294091, -1.917476038215682e-05]","[-0.0320434607565403, -4.435730457305908, -1.4302750825881958, -0.2669220268726349, 0.0695343092083931, -0.0583190992474556]"
1584462984018405007,,2636581,,1584462984,17990583,'',"[shoulder_pan_joint, shoulder_lift_joint, elbow_joint, wrist_1_joint, wrist_2_joint,","[1.6091582775115967, -1.1218159834491175, 2.3725521564483643, -2.792945210133688, -1.5681923071490687, 2.295579195022583]","[0.0, 0.0, -0.0, 1.917476038215682e-05, 7.669904152862728e-05, 0.0]","[-0.0320434607565403, -4.454041004180908, -1.4235496520996094, -0.2579498589038849, 0.0628051832318306, -0.0515899695456028]"
1584462984130235954,,2636595,,1584462984,129881803,'',"[shoulder_pan_joint, shoulder_lift_joint, elbow_joint, wrist_1_joint, wrist_2_joint,","[1.6091582775115967, -1.1218159834491175, 2.3725521564483643, -2.7929208914386194, -1.5682042280780237, 2.295579195022583]","[0.0, 0.0, -0.0, 1.917476038215682e-05, 5.752428114647046e-05, 0.0]","[-0.0366210974752903, -4.440308094024658, -1.4280333518981934, -0.2579498589038849, 0.0628051832318306, -0.0605621412396431]"
1584462984242383302,,2636609,,1584462984,241947999,'',"[shoulder_pan_joint, shoulder_lift_joint, elbow_joint, wrist_1_joint, wrist_2_joint,","[1.6091701984405518, -1.1218159834491175, 2.3725762367248535, -2.792945210133688, -1.5681923071490687, 2.295591115951538]","[0.0, 0.0, -0.0, 1.917476038215682e-05, 3.834952076431364e-05, 0.0]","[-0.01373291201889515, -4.463196277618408, -1.4100987911224365, -0.2579498589038849, 0.0740203931927681, -0.0515899695456028]"
1584462984354573661,,2636623,,1584462984,353909130,'',"[shoulder_pan_joint, shoulder_lift_joint, elbow_joint, wrist_1_joint, wrist_2_joint,","[1.6091582775115967, -1.1218159834491175, 2.372540235519409, -2.792945210133688, -1.5681923071490687, 2.295591115951538]","[0.0, 0.0, -0.0, 1.917476038215682e-05, 3.834952076431364e-05, 0.0]","[-0.01831054873764515, -4.444885730743408, -1.419066071510315, -0.2489776909351349, 0.0583190992474556, -0.0560760572552681]"
1584462984466239720,,2636637,,1584462984,465835304,'',"[shoulder_pan_joint, shoulder_lift_joint, elbow_joint, wrist_1_joint, wrist_2_joint,","[1.6091582775115967, -1.121864144002096, 2.3725521564483643, -2.792945210133688, -1.5681923071490687, 2.295579195022583]","[0.0, 0.0, -0.0, 1.917476038215682e-05, 3.834952076431364e-05, 0.0]","[-0.0549316480755806, -4.481506824493408, -1.4145824909210205, -0.2646789848804474, 0.0717773512005806, -0.0583190992474556]"
1584462984578282583,,2636651,,1584462984,577895350,'',"[shoulder_pan_joint, shoulder_lift_joint, elbow_joint, wrist_1_joint, wrist_2_joint,","[1.6091582775115967, -1.1218040625201624, 2.372540235519409, -2.7929328123675745, -1.5681803862201136, 2.295603036880493]","[0.0, 0.0, -0.0, 1.917476038215682e-05, 1.917476038215682e-05, 0.0]","[-0.0274658240377903, -4.481506824493408, -1.3944061994552612, -0.2557068169116974, 0.0628051832318306, -0.0560760572552681]"
1584462984690378846,,2636665,,1584462984,689907024,'',"[shoulder_pan_joint, shoulder_lift_joint, elbow_joint, wrist_1_joint, wrist_2_joint,","[1.6091582775115967, -1.1218040625201624, 2.3725881576538086, -2.7929208914386194, -1.5681803862201136, 2.2956149578094482]","[0.0, 0.0, -0.0, 1.917476038215682e-05, 1.917476038215682e-05, 0.0]","[0.0, -4.449463367462158, -1.40337336063385, -0.2512207329273224, 0.0650482252240181, -0.0560760572552681]"
1584462984802562912,,2636679,,1584462984,801961319,'',"[shoulder_pan_joint, shoulder_lift_joint, elbow_joint, wrist_1_joint, wrist_2_joint,","[1.609146237373352, -1.1218159834491175, 2.3725643157958984, -2.7929328123675745, -1.5681684652911585, 2.295220375061035]","[0.0, 0.0, -0.0, 0.0, 1.917476038215682e-05, -0.021859226748347282]","[-0.0457763709127903, -4.476929187774658, -1.3966479301452637, -0.2557068169116974, 0.0672912672162056, -0.2332763969898224]"
1584462984914596288,,2636693,,1584462984,914077569,'',"[shoulder_pan_joint, shoulder_lift_joint, elbow_joint, wrist_1_joint, wrist_2_joint,","[1.6091582775115967, -1.1218283812152308, 2.3725762367248535, -2.792980972920553, -1.5682042280780237, 2.2861452102661133]","[0.0, 0.0, -0.0, 0.0, 1.917476038215682e-05, -0.17013764381408691]","[-0.0457763709127903, -4.508972644805908, -1.4145824909210205, -0.2489776909351349, 0.0605621412396431, -0.3701019585132599]"
1584462985026527442,,2636707,,1584462985,25987413,'',"[shoulder_pan_joint, shoulder_lift_joint, elbow_joint, wrist_1_joint, wrist_2_joint,","[1.6091941595077515, -1.1218159834491175, 2.3725643157958984, -2.7928975264178675, -1.5681803862201136, 2.2638306617736816]","[0.0, 0.0, -0.0, 0.0, 1.917476038215682e-05, -0.20181435346603394]","[-0.02288818545639515, -4.508972644805908, -1.4123406410217285, -0.2803802788257599, 0.0740203931927681, -0.6145935654640198]"
1584462985138446473,,2636721,,1584462985,137900163,'',"[shoulder_pan_joint, shoulder_lift_joint, elbow_joint, wrist_1_joint, wrist_2_joint,","[1.6091822385787964, -1.1217921415912073, 2.372540235519409, -2.7929208914386194, -1.5681803862201136, 2.241156816482544]","[0.0, 0.0, -0.0, 0.0, 1.917476038215682e-05, -0.20158424973487854]","[-0.0320434607565403, -4.435730457305908, -1.4123406410217285, -0.2691650688648224, 0.0583190992474556, -0.3880462944507599]"
1584462985250289293,,2636735,,1584462985,249863137,'',"[shoulder_pan_joint, shoulder_lift_joint, elbow_joint, wrist_1_joint, wrist_2_joint,","[1.609134316444397, -1.1218040625201624, 2.372540235519409, -2.7929328123675745, -1.5681684652911585, 2.2187588214874268]","[0.0, 0.0, -0.0, 0.0, 1.917476038215682e-05, -0.20006944239139557]","[-0.0320434607565403, -4.426575183868408, -1.416824221611023, -0.2781372368335724, 0.0560760572552681, -0.5181427597999573]"
1584462985362221699,,2636749,,1584462985,361876475,'',"[shoulder_pan_joint, shoulder_lift_joint, elbow_joint, wrist_1_joint, wrist_2_joint,","[1.6091701984405518, -1.1218403021441858, 2.3725643157958984, -2.7929328123675745, -1.568132225667135, 2.1963961124420166]","[0.0, 0.0, -0.0, 0.0, 1.917476038215682e-05, -0.19974347949028015]","[-0.0503540076315403, -4.449463367462158, -1.4011316299438477, -0.2624359428882599, 0.0650482252240181, -0.4239349663257599]"
1584462985474384366,,2636763,,1584462985,473899160,'',"[shoulder_pan_joint, shoulder_lift_joint, elbow_joint, wrist_1_joint, wrist_2_joint,","[1.6091582775115967, -1.1218159834491175, 2.372540235519409, -2.792957131062643, -1.56812030473818, 2.173997640609741]","[0.0, 0.0, -0.0, 0.0, 1.917476038215682e-05, -0.19822867214679718]","[-0.0549316480755806, -4.458618640899658, -1.4011316299438477, -0.2355194389820099, 0.0560760572552681, -0.5338440537452698]"
1584462985586270436,,2636777,,1584462985,585864588,'',"[shoulder_pan_joint, shoulder_lift_joint, elbow_joint, wrist_1_joint, wrist_2_joint,","[1.6091822385787964, -1.1218159834491175, 2.3725521564483643, -2.7929208914386194, -1.568108383809225, 2.151563882827759]","[0.0, 0.0, -0.0, 0.0, 1.917476038215682e-05, -0.20012697577476501]","[-0.0457763709127903, -4.412842273712158, -1.3988897800445557, -0.2714081108570099, 0.0493469275534153, -0.4351502060890198]"
1584462985698383029,,2636791,,1584462985,697880761,'',"[shoulder_pan_joint, shoulder_lift_joint, elbow_joint, wrist_1_joint, wrist_2_joint,","[1.6091822385787964, -1.1218283812152308, 2.3725521564483643, -2.7929328123675745, -1.5680964628802698, 2.1291892528533936]","[0.0, 0.0, -0.0, 0.0, 1.917476038215682e-05, -0.20028036832809448]","[-0.02288818545639515, -4.495239734649658, -1.3966479301452637, -0.2601929008960724, 0.0426178015768528, -0.4643097519874573]"
1584462985810374005,,2636805,,1584462985,810074285,'',"[shoulder_pan_joint, shoulder_lift_joint, elbow_joint, wrist_1_joint, wrist_2_joint,","[1.609146237373352, -1.1218159834491175, 2.3725762367248535, -2.792980972920553, -1.5680845419513147, 2.106767177581787]","[0.0, 0.0, -0.0, 0.0, 1.917476038215682e-05, -0.19951337575912476]","[-0.0457763709127903, -4.444885730743408, -1.405615210533142, -0.2624359428882599, -0.008972168900072575, -0.4486084580421448]"
1584462985922381122,,2636819,,1584462985,921911034,'',"[shoulder_pan_joint, shoulder_lift_joint, elbow_joint, wrist_1_joint, wrist_2_joint,","[1.6091701984405518, -1.1218283812152308, 2.372540235519409, -2.7929328123675745, -1.5680964628802698, 2.084404706954956]","[0.0, 0.0, -0.0, 0.0, 0.0, -0.20062552392482758]","[-0.0595092847943306, -4.467773914337158, -1.405615210533142, -0.2355194389820099, -0.0740203931927681, -0.3970184624195099]"
1584462986034330089,,2636833,,1584462986,33912088,'',"[shoulder_pan_joint, shoulder_lift_joint, elbow_joint, wrist_1_joint, wrist_2_joint,","[1.6091701984405518, -1.121852223073141, 2.372540235519409, -2.7929208914386194, -1.5681560675250452, 2.0619709491729736]","[0.0, 0.0, -0.0, 0.0, -0.0008436894277110696, -0.20001192390918732]","[-0.0640869215130806, -4.435730457305908, -1.3899224996566772, -0.2601929008960724, -0.1457977443933487, -0.5136566758155823]"
1584462986146158371,,2636847,,1584462986,145818096,'',"[shoulder_pan_joint, shoulder_lift_joint, elbow_joint, wrist_1_joint, wrist_2_joint,","[1.6091582775115967, -1.1218040625201624, 2.3725521564483643, -2.7929328123675745, -1.56812030473818, 2.0396084785461426]","[0.0, 0.0, -0.0, 0.0, -0.00028762139845639467, -0.20279227197170258]","[-0.0503540076315403, -4.481506824493408, -1.405615210533142, -0.2512207329273224, -0.1143951565027237, -0.3880462944507599]"
1584462986258454918,,2636861,,1584462986,257949604,'',"[shoulder_pan_joint, shoulder_lift_joint, elbow_joint, wrist_1_joint, wrist_2_joint,","[1.6091701984405518, -1.1218403021441858, 2.372540235519409, -2.792969051991598, -1.5681803862201136, 2.0172343254089355]","[0.0, 0.0, -0.0, 0.0, -0.00013422331539914012, -0.19799856841564178]","[-0.01373291201889515, -4.481506824493408, -1.419066071510315, -0.2444916069507599, -0.1256103664636612, -0.5607605576515198]"
1584462986370203692,,2636875,,1584462986,369831587,'',"[shoulder_pan_joint, shoulder_lift_joint, elbow_joint, wrist_1_joint, wrist_2_joint,","[1.6091701984405518, -1.1218403021441858, 2.372540235519409, -2.792945210133688, -1.56812030473818, 1.9947278499603271]","[0.0, 0.0, -0.0, 0.0, -9.58738019107841e-05, -0.19966678321361542]","[-0.02288818545639515, -4.458618640899658, -1.4123406410217285, -0.2287903130054474, -0.1211242824792862, -0.4396362900733948]"
1584462986482279506,,2636889,,1584462986,481843211,'',"[shoulder_pan_joint, shoulder_lift_joint, elbow_joint, wrist_1_joint, wrist_2_joint,","[1.6091701984405518, -1.1218159834491175, 2.372540235519409, -2.7929328123675745, -1.56812030473818, 1.9723536968231201]","[0.0, 0.0, -0.0, 0.0, -7.669904152862728e-05, -0.19895730912685394]","[-0.0366210974752903, -4.449463367462158, -1.40337336063385, -0.2512207329273224, -0.1278534084558487, -0.4598236680030823]"
1584462986594240076,,2636903,,1584462986,593815943,'',"[shoulder_pan_joint, shoulder_lift_joint, elbow_joint, wrist_1_joint, wrist_2_joint,","[1.6091582775115967, -1.1218403021441858, 2.3725521564483643, -2.7929328123675745, -1.5681560675250452, 1.9499911069869995]","[0.0, 0.0, -0.0, 0.0, -5.752428114647046e-05, -0.2008172571659088]","[-0.0320434607565403, -4.476929187774658, -1.4145824909210205, -0.2534637749195099, -0.1368255764245987, -0.4665527939796448]"
1584462986706343822,,2636917,,1584462986,705918778,'',"[shoulder_pan_joint, shoulder_lift_joint, elbow_joint, wrist_1_joint, wrist_2_joint,","[1.6091701984405518, -1.1218040625201624, 2.3725521564483643, -2.7929328123675745, -1.5681684652911585, 1.9274966716766357]","[0.0, 0.0, -0.0, 0.0, -3.834952076431364e-05, -0.1993599832057953]","[-0.0274658240377903, -4.449463367462158, -1.419066071510315, -0.2534637749195099, -0.1278534084558487, -0.4508515000343323]"
1584462986818380313,,2636931,,1584462986,817885048,'',"[shoulder_pan_joint, shoulder_lift_joint, elbow_joint, wrist_1_joint, wrist_2_joint,","[1.609146237373352, -1.1218283812152308, 2.372540235519409, -2.792969051991598, -1.56812030473818, 1.90512216091156]","[0.0, 0.0, -0.0, 0.0, -3.834952076431364e-05, -0.2007022202014923]","[-0.0503540076315403, -4.513550281524658, -1.4100987911224365, -0.2467346489429474, -0.1345825344324112, -0.4643097519874573]"
1584462986930252938,,2636945,,1584462986,929823115,'',"[shoulder_pan_joint, shoulder_lift_joint, elbow_joint, wrist_1_joint, wrist_2_joint,","[1.6091941595077515, -1.1218040625201624, 2.3725762367248535, -2.7929089705096644, -1.568108383809225, 1.8827592134475708]","[0.0, 0.0, -0.0, 0.0, -3.834952076431364e-05, -0.20229372382164001]","[-0.0320434607565403, -4.472351551055908, -1.3921643495559692, -0.2624359428882599, -0.1323394924402237, -0.3813171684741974]"
1584462987042367275,,2636959,,1584462987,41975754,'',"[shoulder_pan_joint, shoulder_lift_joint, elbow_joint, wrist_1_joint, wrist_2_joint,","[1.6091941595077515, -1.1218159834491175, 2.3725643157958984, -2.792957131062643, -1.568132225667135, 1.8602768182754517]","[0.0, 0.0, -0.0, 0.0, -1.917476038215682e-05, -0.19813279807567596]","[-0.0503540076315403, -4.421997547149658, -1.405615210533142, -0.2512207329273224, -0.1368255764245987, -0.5540314316749573]"
1584462987154324257,,2636973,,1584462987,153832298,'',"[shoulder_pan_joint, shoulder_lift_joint, elbow_joint, wrist_1_joint, wrist_2_joint,","[1.6091941595077515, -1.1218159834491175, 2.3725762367248535, -2.7929089705096644, -1.56812030473818, 1.837889552116394]","[0.0, 0.0, -0.0, 0.0, -1.917476038215682e-05, -0.2017376571893692]","[-0.0961303785443306, -4.499817371368408, -1.4011316299438477, -0.2377624809741974, -0.1502838283777237, -0.4777680039405823]"
1584462987266397617,,2636987,,1584462987,265903033,'',"[shoulder_pan_joint, shoulder_lift_joint, elbow_joint, wrist_1_joint, wrist_2_joint,","[1.6091822385787964, -1.1218040625201624, 2.3725521564483643, -2.7929208914386194, -1.568132225667135, 1.8154906034469604]","[0.0, 0.0, -0.0, 0.0, -1.917476038215682e-05, -0.1984395980834961]","[-0.0274658240377903, -4.467773914337158, -1.407857060432434, -0.2534637749195099, -0.1547699123620987, -0.4800110459327698]"
1584462987378514538,,2637001,,1584462987,378074426,'',"[shoulder_pan_joint, shoulder_lift_joint, elbow_joint, wrist_1_joint, wrist_2_joint,","[1.6091701984405518, -1.1218159834491175, 2.3725762367248535, -2.7929208914386194, -1.5681803862201136, 1.7930670976638794]","[0.0, 0.0, -0.0, 0.0, -1.917476038215682e-05, -0.20028036832809448]","[-0.0411987341940403, -4.486084461212158, -1.405615210533142, -0.2624359428882599, -0.1547699123620987, -0.4463654160499573]"
