PorkPy/robot-pulling-data/deg70/joint_states_throttle.csv
rosbagTimestamp,header,seq,stamp,secs,nsecs,frame_id,name,wrist_3_joint],position,velocity,effort
1584377785505161431,,697077,,1584377785,504810655,'',"[shoulder_pan_joint, shoulder_lift_joint, elbow_joint, wrist_1_joint, wrist_2_joint,","[1.4159014225006104, -1.17816669145693, 2.4538559913635254, -2.839672390614645, -1.562847916279928, 2.698735237121582]","[0.0, 0.0, -0.0, 0.0, 0.0, 0.0]","[-0.0503540076315403, -3.094482660293579, -1.4863203763961792, -0.4867401719093323, -0.01570129580795765, -0.1076660305261612]"
1584377785617066908,,697091,,1584377785,616713437,'',"[shoulder_pan_joint, shoulder_lift_joint, elbow_joint, wrist_1_joint, wrist_2_joint,","[1.4159014225006104, -1.1782029310809534, 2.4538559913635254, -2.8396604696856897, -1.5628722349749964, 2.6987111568450928]","[0.0, 0.0, -0.0, 0.0, 0.0, 0.0]","[-0.0640869215130806, -2.947998285293579, -1.4975295066833496, -0.4710388779640198, -0.02018737979233265, -0.1009368970990181]"
1584377785729067722,,697105,,1584377785,728714572,'',"[shoulder_pan_joint, shoulder_lift_joint, elbow_joint, wrist_1_joint, wrist_2_joint,","[1.4159133434295654, -1.178178612385885, 2.4538679122924805, -2.8396251837359827, -1.562847916279928, 2.698735237121582]","[0.0, 0.0, -0.0, 0.0, 0.0, 0.0]","[-0.0411987341940403, -3.144836664199829, -1.4885622262954712, -0.4957123398780823, -0.01345825381577015, -0.1143951565027237]"
1584377785841047488,,697119,,1584377785,840771161,'',"[shoulder_pan_joint, shoulder_lift_joint, elbow_joint, wrist_1_joint, wrist_2_joint,","[1.4159014225006104, -1.178178612385885, 2.4538559913635254, -2.8396604696856897, -1.562847916279928, 2.698735237121582]","[0.0, 0.0, -0.0, 0.0, 0.0, 0.0]","[-0.02288818545639515, -3.208923578262329, -1.4863203763961792, -0.4687958359718323, -0.02243042178452015, -0.1054229810833931]"
1584377785952986556,,697133,,1584377785,952670235,'',"[shoulder_pan_joint, shoulder_lift_joint, elbow_joint, wrist_1_joint, wrist_2_joint,","[1.4158893823623657, -1.178178612385885, 2.453843832015991, -2.8396604696856897, -1.562859837208883, 2.6986992359161377]","[0.0, 0.0, -0.0, 0.0, 0.0, 0.0]","[-0.0549316480755806, -3.112793207168579, -1.4952876567840576, -0.5046845078468323, -0.01794433780014515, -0.1054229810833931]"
1584377786065080285,,697147,,1584377786,64759405,'',"[shoulder_pan_joint, shoulder_lift_joint, elbow_joint, wrist_1_joint, wrist_2_joint,","[1.4158774614334106, -1.178178612385885, 2.4538679122924805, -2.839637104664938, -1.562847916279928, 2.6986992359161377]","[0.0, 0.0, -0.0, 0.0, 0.0, 0.0]","[-0.0823974683880806, -3.153991937637329, -1.4706276655197144, -0.4889832139015198, -0.02018737979233265, -0.0942077711224556]"
1584377786177061884,,697161,,1584377786,176730845,'',"[shoulder_pan_joint, shoulder_lift_joint, elbow_joint, wrist_1_joint, wrist_2_joint,","[1.4159014225006104, -1.17816669145693, 2.4538679122924805, -2.839672390614645, -1.5628722349749964, 2.698747158050537]","[0.0, 0.0, -0.0, 0.0, 0.0, 0.0]","[-0.0457763709127903, -3.204345941543579, -1.5064966678619385, -0.4912262558937073, -0.02018737979233265, -0.1143951565027237]"
1584377786288981627,,697175,,1584377786,288715980,'',"[shoulder_pan_joint, shoulder_lift_joint, elbow_joint, wrist_1_joint, wrist_2_joint,","[1.4159133434295654, -1.178154770527975, 2.453843832015991, -2.839672390614645, -1.562835995350973, 2.6986992359161377]","[0.0, 0.0, -0.0, 0.0, 0.0, 0.0]","[-0.0366210974752903, -3.199768304824829, -1.4952876567840576, -0.4800110459327698, -0.01794433780014515, -0.0785064771771431]"
1584377786401014121,,697189,,1584377786,400744256,'',"[shoulder_pan_joint, shoulder_lift_joint, elbow_joint, wrist_1_joint, wrist_2_joint,","[1.4159014225006104, -1.1781428495990198, 2.453843832015991, -2.839672390614645, -1.5628121534930628, 2.6987111568450928]","[0.0, 0.0, -0.0, 0.0, 0.0, 0.0]","[-0.0457763709127903, -3.012085199356079, -1.4952876567840576, -0.4889832139015198, -0.02018737979233265, -0.1009368970990181]"
1584377786513041855,,697203,,1584377786,512746222,'',"[shoulder_pan_joint, shoulder_lift_joint, elbow_joint, wrist_1_joint, wrist_2_joint,","[1.4159014225006104, -1.1781905333148401, 2.4538679122924805, -2.8396485487567347, -1.562847916279928, 2.698747158050537]","[0.0, 0.0, -0.0, 0.0, 0.0, 0.0]","[-0.0549316480755806, -3.195190668106079, -1.4818367958068848, -0.4530945420265198, -0.02243042178452015, -0.0986938551068306]"
1584377786624976506,,697217,,1584377786,624674421,'',"[shoulder_pan_joint, shoulder_lift_joint, elbow_joint, wrist_1_joint, wrist_2_joint,","[1.4158893823623657, -1.178178612385885, 2.4538559913635254, -2.839637104664938, -1.5628960768329065, 2.698747158050537]","[0.0, 0.0, -0.0, 0.0, 0.0, 0.0]","[-0.0640869215130806, -3.108215570449829, -1.4818367958068848, -0.4665527939796448, -0.0269165076315403, -0.0964508131146431]"
1584377786736929612,,697231,,1584377786,736664586,'',"[shoulder_pan_joint, shoulder_lift_joint, elbow_joint, wrist_1_joint, wrist_2_joint,","[1.4159133434295654, -1.17816669145693, 2.4538559913635254, -2.8396604696856897, -1.5628960768329065, 2.698723077774048]","[0.0, 0.0, -0.0, 0.0, 0.0, 0.0]","[-0.0686645582318306, -3.176880121231079, -1.5199475288391113, -0.4934692978858948, -0.02018737979233265, -0.1009368970990181]"
1584377786848995839,,697245,,1584377786,848671302,'',"[shoulder_pan_joint, shoulder_lift_joint, elbow_joint, wrist_1_joint, wrist_2_joint,","[1.4159133434295654, -1.178178612385885, 2.453843832015991, -2.839672390614645, -1.562859837208883, 2.698735237121582]","[0.0, 0.0, -0.0, 0.0, 0.0, 0.0]","[-0.0640869215130806, -3.121948480606079, -1.4818367958068848, -0.4665527939796448, -0.02467346377670765, -0.0964508131146431]"
1584377786961067987,,697259,,1584377786,960718032,'',"[shoulder_pan_joint, shoulder_lift_joint, elbow_joint, wrist_1_joint, wrist_2_joint,","[1.4158774614334106, -1.17816669145693, 2.4538679122924805, -2.8396604696856897, -1.5628722349749964, 2.6986992359161377]","[0.0, 0.0, -0.0, 0.0, 0.0, 0.0]","[-0.0411987341940403, -3.153991937637329, -1.4751113653182983, -0.4957123398780823, -0.01570129580795765, -0.0874786451458931]"
1584377787073043514,,697273,,1584377787,72727954,'',"[shoulder_pan_joint, shoulder_lift_joint, elbow_joint, wrist_1_joint, wrist_2_joint,","[1.4158893823623657, -1.17816669145693, 2.453843832015991, -2.8396604696856897, -1.5628841559039515, 2.698735237121582]","[0.0, 0.0, -0.0, 0.0, 0.0, 0.0]","[-0.0503540076315403, -3.176880121231079, -1.4975295066833496, -0.4777680039405823, -0.02018737979233265, -0.1233673244714737]"
1584377787184911831,,697287,,1584377787,184629613,'',"[shoulder_pan_joint, shoulder_lift_joint, elbow_joint, wrist_1_joint, wrist_2_joint,","[1.4158774614334106, -1.178154770527975, 2.4538798332214355, -2.8396604696856897, -1.562859837208883, 2.698735237121582]","[0.0, 0.0, -0.0, 0.0, 0.0, 0.0]","[-0.0320434607565403, -3.153991937637329, -1.463902235031128, -0.4284210503101349, -0.01794433780014515, -0.1143951565027237]"
1584377787296913847,,697301,,1584377787,296671484,'',"[shoulder_pan_joint, shoulder_lift_joint, elbow_joint, wrist_1_joint, wrist_2_joint,","[1.4158893823623657, -1.178154770527975, 2.4538559913635254, -2.839637104664938, -1.562859837208883, 2.698723077774048]","[0.0, 0.0, -0.0, 0.0, 0.0, 0.0]","[-0.0274658240377903, -3.181457757949829, -1.4751113653182983, -0.5046845078468323, -0.02467346377670765, -0.1076660305261612]"
1584377787408921525,,697315,,1584377787,408640930,'',"[shoulder_pan_joint, shoulder_lift_joint, elbow_joint, wrist_1_joint, wrist_2_joint,","[1.4159014225006104, -1.17816669145693, 2.4538798332214355, -2.839672390614645, -1.5628722349749964, 2.698723077774048]","[0.0, 0.0, -0.0, 0.0, 0.0, 0.0]","[-0.0640869215130806, -3.076172113418579, -1.4885622262954712, -0.4486084580421448, -0.02243042178452015, -0.1099090725183487]"
1584377787520923763,,697329,,1584377787,520642807,'',"[shoulder_pan_joint, shoulder_lift_joint, elbow_joint, wrist_1_joint, wrist_2_joint,","[1.4159133434295654, -1.17816669145693, 2.4538559913635254, -2.8396485487567347, -1.562847916279928, 2.698747158050537]","[0.0, 0.0, -0.0, 0.0, 0.0, 0.0]","[0.0, -3.099060297012329, -1.5087385177612305, -0.4912262558937073, -0.01794433780014515, -0.1031799390912056]"
1584377787632906844,,697343,,1584377787,632627692,'',"[shoulder_pan_joint, shoulder_lift_joint, elbow_joint, wrist_1_joint, wrist_2_joint,","[1.4158774614334106, -1.178178612385885, 2.4538559913635254, -2.839672390614645, -1.562859837208883, 2.698747158050537]","[0.0, 0.0, -0.0, 0.0, 0.0, 0.0]","[-0.02288818545639515, -3.135681390762329, -1.4863203763961792, -0.4867401719093323, -0.02018737979233265, -0.0964508131146431]"
1584377787744900946,,697357,,1584377787,744633816,'',"[shoulder_pan_joint, shoulder_lift_joint, elbow_joint, wrist_1_joint, wrist_2_joint,","[1.4158893823623657, -1.1781905333148401, 2.453843832015991, -2.839637104664938, -1.5628722349749964, 2.698723077774048]","[0.0, 0.0, -0.0, 0.0, 0.0, 0.0]","[-0.0686645582318306, -3.099060297012329, -1.4863203763961792, -0.4732819199562073, -0.01570129580795765, -0.1054229810833931]"
1584377787857024379,,697371,,1584377787,856639770,'',"[shoulder_pan_joint, shoulder_lift_joint, elbow_joint, wrist_1_joint, wrist_2_joint,","[1.4159133434295654, -1.17816669145693, 2.4538679122924805, -2.8396485487567347, -1.562835995350973, 2.698723077774048]","[0.0, 0.0, -0.0, 0.0, 0.0, 0.0]","[-0.0503540076315403, -3.144836664199829, -1.4930458068847656, -0.4620667099952698, -0.02018737979233265, -0.1009368970990181]"
1584377787969006850,,697385,,1584377787,968681011,'',"[shoulder_pan_joint, shoulder_lift_joint, elbow_joint, wrist_1_joint, wrist_2_joint,","[1.4159014225006104, -1.1781905333148401, 2.4538679122924805, -2.839637104664938, -1.562859837208883, 2.6986992359161377]","[0.0, 0.0, -0.0, 0.0, 0.0, 0.0]","[-0.0549316480755806, -3.117370843887329, -1.4840785264968872, -0.4687958359718323, -0.01794433780014515, -0.1054229810833931]"
1584377788080963582,,697399,,1584377788,80610693,'',"[shoulder_pan_joint, shoulder_lift_joint, elbow_joint, wrist_1_joint, wrist_2_joint,","[1.4158893823623657, -1.178154770527975, 2.4538679122924805, -2.8396604696856897, -1.562847916279928, 2.698735237121582]","[0.0, 0.0, -0.0, 0.0, 0.0, 0.0]","[-0.01831054873764515, -3.108215570449829, -1.4728695154190063, -0.4598236680030823, -0.01794433780014515, -0.1031799390912056]"
1584377788192954318,,697413,,1584377788,192603722,'',"[shoulder_pan_joint, shoulder_lift_joint, elbow_joint, wrist_1_joint, wrist_2_joint,","[1.4158774614334106, -1.1781905333148401, 2.4538679122924805, -2.8396485487567347, -1.562859837208883, 2.6987111568450928]","[0.0, 0.0, -0.0, 0.0, 0.0, 0.0]","[-0.0503540076315403, -3.144836664199829, -1.4818367958068848, -0.5024414658546448, -0.02018737979233265, -0.0964508131146431]"
1584377788304925167,,697427,,1584377788,304590371,'',"[shoulder_pan_joint, shoulder_lift_joint, elbow_joint, wrist_1_joint, wrist_2_joint,","[1.4159133434295654, -1.178178612385885, 2.453831911087036, -2.839672390614645, -1.5628841559039515, 2.698735237121582]","[0.0, 0.0, -0.0, 0.0, 0.0, 0.0]","[-0.0549316480755806, -3.176880121231079, -1.4795949459075928, -0.4867401719093323, -0.01345825381577015, -0.0919647291302681]"
1584377788416951008,,697441,,1584377788,416605982,'',"[shoulder_pan_joint, shoulder_lift_joint, elbow_joint, wrist_1_joint, wrist_2_joint,","[1.4158893823623657, -1.17816669145693, 2.4538679122924805, -2.8396604696856897, -1.5628841559039515, 2.698735237121582]","[0.0, 0.0, -0.0, 0.0, 0.0, 0.0]","[-0.01373291201889515, -3.062439203262329, -1.4795949459075928, -0.4755249619483948, -0.01794433780014515, -0.1188812404870987]"
1584377788528978843,,697455,,1584377788,528611416,'',"[shoulder_pan_joint, shoulder_lift_joint, elbow_joint, wrist_1_joint, wrist_2_joint,","[1.4159014225006104, -1.17816669145693, 2.4538917541503906, -2.839637104664938, -1.562859837208883, 2.698759078979492]","[0.0, 0.0, -0.0, 0.0, 0.0, 0.0]","[-0.0411987341940403, -3.085327386856079, -1.4818367958068848, -0.4710388779640198, -0.02243042178452015, -0.1009368970990181]"
1584377788640976021,,697469,,1584377788,640616920,'',"[shoulder_pan_joint, shoulder_lift_joint, elbow_joint, wrist_1_joint, wrist_2_joint,","[1.4159014225006104, -1.178178612385885, 2.453843832015991, -2.8396485487567347, -1.562859837208883, 2.698747158050537]","[0.0, 0.0, -0.0, 0.0, 0.0, 0.0]","[-0.0274658240377903, -3.213501214981079, -1.4885622262954712, -0.4329071640968323, -0.02243042178452015, -0.0919647291302681]"
1584377788752975773,,697483,,1584377788,752638563,'',"[shoulder_pan_joint, shoulder_lift_joint, elbow_joint, wrist_1_joint, wrist_2_joint,","[1.4159133434295654, -1.1781309286700647, 2.453831911087036, -2.8396485487567347, -1.5628841559039515, 2.698723077774048]","[0.0, 0.0, -0.0, 0.0, 0.0, 0.0]","[-0.02288818545639515, -3.030395746231079, -1.4930458068847656, -0.4508515000343323, -0.02018737979233265, -0.1009368970990181]"
1584377788864987629,,697497,,1584377788,864599743,'',"[shoulder_pan_joint, shoulder_lift_joint, elbow_joint, wrist_1_joint, wrist_2_joint,","[1.4160691499710083, -1.1782267729388636, 2.453807830810547, -2.839637104664938, -1.5628722349749964, 2.7001960277557373]","[0.007861651480197906, -0.0009715211926959455, -0.003630421357229352, 0.0, 0.0, 0.04759175330400467]","[0.6317139267921448, -3.822327136993408, -1.788964867591858, -0.3880462944507599, -0.02243042178452015, 0.2758941948413849]"
1584377788977035361,,697511,,1584377788,976639671,'',"[shoulder_pan_joint, shoulder_lift_joint, elbow_joint, wrist_1_joint, wrist_2_joint,","[1.4176405668258667, -1.1782386938678187, 2.453723669052124, -2.839577023183004, -1.5628722349749964, 2.705751657485962]","[0.015518772415816784, 0.0, -0.0003579288604669273, 0.0, 0.0, 0.04346918314695358]","[0.8605957627296448, -3.932190418243408, -1.741886854171753, -0.4082336723804474, -0.02243042178452015, 0.3297272026538849]"
1584377789089093082,,697525,,1584377789,88644664,'',"[shoulder_pan_joint, shoulder_lift_joint, elbow_joint, wrist_1_joint, wrist_2_joint,","[1.4199917316436768, -1.1782148520099085, 2.453375816345215, -2.8394930998431605, -1.5629437605487269, 2.709691047668457]","[0.027726704254746437, 0.0, -0.010162622667849064, 0.0071138362400233746, 0.0, 0.030545393005013466]","[0.9384156465530396, -3.625488758087158, -1.8629446029663086, -0.3476715385913849, -0.011215210892260075, 0.3454284965991974]"
1584377789201018275,,697539,,1584377789,200635299,'',"[shoulder_pan_joint, shoulder_lift_joint, elbow_joint, wrist_1_joint, wrist_2_joint,","[1.424525499343872, -1.1775792280780237, 2.4486007690429688, -2.8368833700763147, -1.5629199186908167, 2.713390350341797]","[0.06130810081958771, 0.015723302960395813, -0.08329515904188156, 0.040899764746427536, 0.0, 0.03531990945339203]","[0.7507324814796448, -2.595520257949829, -1.9952113628387451, -0.1996307522058487, -0.02467346377670765, 0.3072967827320099]"
1584377789312963927,,697553,,1584377789,312593153,'',"[shoulder_pan_joint, shoulder_lift_joint, elbow_joint, wrist_1_joint, wrist_2_joint,","[1.4336293935775757, -1.1735265890704554, 2.435654401779175, -2.8301308790790003, -1.562967602406637, 2.718503475189209]","[0.09508124738931656, 0.06121861934661865, -0.1432354599237442, 0.08080244064331055, -0.00026844663079828024, 0.05512743443250656]","[0.8834840059280396, -2.645874261856079, -1.9727933406829834, -0.004486084450036287, -0.0314025916159153, 0.3297272026538849]"
1584377789424880374,,697567,,1584377789,424535158,'',"[shoulder_pan_joint, shoulder_lift_joint, elbow_joint, wrist_1_joint, wrist_2_joint,","[1.4457683563232422, -1.1653860251056116, 2.417980670928955, -2.8198707739459437, -1.562967602406637, 2.724597930908203]","[0.11103464663028717, 0.06913140416145325, -0.1623079478740692, 0.0944356918334961, -0.00017257283616345376, 0.05138835683465004]","[1.0665894746780396, -2.851867914199829, -2.10506010055542, -0.1435547024011612, -0.0381317175924778, 0.3835602104663849]"
1584377789536874606,,697581,,1584377789,536535892,'',"[shoulder_pan_joint, shoulder_lift_joint, elbow_joint, wrist_1_joint, wrist_2_joint,","[1.4585907459259033, -1.1570408979998987, 2.399874448776245, -2.8096821943866175, -1.5630033651935022, 2.7297585010528564]","[0.12210487574338913, 0.0791022777557373, -0.1592911183834076, 0.09230729937553406, -0.00011504856229294091, 0.0499502494931221]","[0.8514404892921448, -3.186035394668579, -2.2171506881713867, -0.1839294582605362, -0.0426178015768528, 0.2736511528491974]"
1584377789648862997,,697595,,1584377789,648549751,'',"[shoulder_pan_joint, shoulder_lift_joint, elbow_joint, wrist_1_joint, wrist_2_joint,","[1.4737282991409302, -1.1491878668414515, 2.382619857788086, -2.7997458616839808, -1.562967602406637, 2.736583948135376]","[0.14391297101974487, 0.06612735986709595, -0.15165956318378448, 0.08112841099500656, -7.669904152862728e-05, 0.06377525627613068]","[0.9017945528030396, -3.204345941543579, -2.188007116317749, -0.0762634351849556, -0.0471038855612278, 0.3745880424976349]"
1584377789760925857,,697609,,1584377789,760549965,'',"[shoulder_pan_joint, shoulder_lift_joint, elbow_joint, wrist_1_joint, wrist_2_joint,","[1.4899327754974365, -1.1420062224017542, 2.366300582885742, -2.7901437918292444, -1.5630396048175257, 2.7421393394470215]","[0.14763286709785461, 0.05729418247938156, -0.14065325260162354, 0.08212549984455109, -5.752428114647046e-05, 0.03978762775659561]","[1.0391236543655396, -3.314209222793579, -2.203699827194214, -0.1704712063074112, -0.0426178015768528, 0.3656158745288849]"
1584377789872862392,,697623,,1584377789,872515814,'',"[shoulder_pan_joint, shoulder_lift_joint, elbow_joint, wrist_1_joint, wrist_2_joint,","[1.506629467010498, -1.1359155813800257, 2.3516132831573486, -2.7818473021136683, -1.5630515257464808, 2.746845006942749]","[0.14949920773506165, 0.055274441838264465, -0.12284629791975021, 0.07288326323032379, -0.00023009712458588183, 0.05198277533054352]","[1.1352540254592896, -3.222656488418579, -2.3964955806732178, -0.1570129543542862, -0.0426178015768528, 0.2871094048023224]"
1584377789984913261,,697637,,1584377789,984581350,'',"[shoulder_pan_joint, shoulder_lift_joint, elbow_joint, wrist_1_joint, wrist_2_joint,","[1.5226662158966064, -1.1302569548236292, 2.339961528778076, -2.7748196760760706, -1.563087288533346, 2.7529642581939697]","[0.13984791934490204, 0.03868188336491585, -0.08117315173149109, 0.052136171609163284, -0.00023009712458588183, 0.0522320456802845]","[0.9841920137405396, -3.474426507949829, -2.365110158920288, -0.2310333549976349, -0.0448608435690403, 0.3745880424976349]"
1584377790096895670,,697651,,1584377790,96532421,'',"[shoulder_pan_joint, shoulder_lift_joint, elbow_joint, wrist_1_joint, wrist_2_joint,","[1.5391467809677124, -1.1276190916644495, 2.333085536956787, -2.7699711958514612, -1.5632312933551233, 2.7585079669952393]","[0.15064969658851624, 0.014317153953015804, -0.039269909262657166, 0.032884713262319565, -0.0005560680292546749, 0.044926464557647705]","[1.0391236543655396, -3.469848871231079, -2.4323644638061523, -0.2086029201745987, -0.02018737979233265, 0.3656158745288849]"
1584377790208827707,,697665,,1584377790,208541011,'',"[shoulder_pan_joint, shoulder_lift_joint, elbow_joint, wrist_1_joint, wrist_2_joint,","[1.5553992986679077, -1.1273792425738733, 2.332834005355835, -2.7686546484576624, -1.5633872191058558, 2.7636923789978027]","[0.14157365262508392, -0.013703562319278717, 0.028915539383888245, -0.02076626569032669, -0.001035437104292214, 0.05144588276743889]","[0.8148193955421448, -5.090332508087158, -1.6141035556793213, -0.7626343369483948, 0.02243042178452015, 0.3544006645679474]"
1584377790320847647,,697679,,1584377790,320522779,'',"[shoulder_pan_joint, shoulder_lift_joint, elbow_joint, wrist_1_joint, wrist_2_joint,","[1.571591854095459, -1.1296094099627894, 2.3374414443969727, -2.770773235951559, -1.5635550657855433, 2.7684099674224854]","[0.1395411193370819, -0.02075987309217453, 0.04820534586906433, -0.021629130467772484, -0.0006135923322290182, 0.02774587832391262]","[0.7873535752296448, -5.401611804962158, -1.6656652688980103, -0.908432126045227, 0.0336456336081028, 0.3880462944507599]"
1584377790432841388,,697693,,1584377790,432517112,'',"[shoulder_pan_joint, shoulder_lift_joint, elbow_joint, wrist_1_joint, wrist_2_joint,","[1.5867170095443726, -1.131827179585592, 2.3430216312408447, -2.77341872850527, -1.5635908285724085, 2.7693443298339844]","[0.13137267529964447, -0.017244501039385796, 0.05179741978645325, -0.027477432042360306, -0.0003834952076431364, -0.03725655749440193]","[0.8239746689796448, -5.429077625274658, -1.4751113653182983, -0.953292965888977, 0.0560760572552681, -0.0807495191693306]"
1584377790544954553,,697707,,1584377790,544555287,'',"[shoulder_pan_joint, shoulder_lift_joint, elbow_joint, wrist_1_joint, wrist_2_joint,","[1.6016377210617065, -1.1338055769549769, 2.348241090774536, -2.7758730093585413, -1.563758675252096, 2.7638959884643555]","[0.1321907937526703, -0.017730262130498886, 0.039870716631412506, -0.018733739852905273, -0.003355582943186164, -0.045463357120752335]","[0.9933472871780396, -5.213928699493408, -1.641005277633667, -1.0407716035842896, 0.1121521145105362, -0.2803802788257599]"
1584377790656851072,,697721,,1584377790,656513201,'',"[shoulder_pan_joint, shoulder_lift_joint, elbow_joint, wrist_1_joint, wrist_2_joint,","[1.615443229675293, -1.1360114256488245, 2.3535330295562744, -2.777968231831686, -1.5640938917743128, 2.759094476699829]","[0.11713221669197083, -0.02136068232357502, 0.05703851953148842, -0.026748791337013245, -0.002799514913931489, -0.04231869429349899]","[0.9246827363967896, -5.442810535430908, -1.5715092420578003, -0.9914246797561646, 0.1951446682214737, -0.2355194389820099]"
1584377790768937788,,697735,,1584377790,768540765,'',"[shoulder_pan_joint, shoulder_lift_joint, elbow_joint, wrist_1_joint, wrist_2_joint,","[1.6274855136871338, -1.1389134565936487, 2.360156774520874, -2.7815354506122034, -1.564225975667135, 2.753502607345581]","[0.10004111379384995, -0.02871100790798664, 0.05391942709684372, -0.03133155778050423, -0.0005752427969127893, -0.06358350813388824]","[0.8102417588233948, -5.493164539337158, -1.6992924213409424, -0.9959107637405396, 0.1570129543542862, -0.2108459621667862]"
1584377790880920518,,697749,,1584377790,880554293,'',"[shoulder_pan_joint, shoulder_lift_joint, elbow_joint, wrist_1_joint, wrist_2_joint,","[1.6369493007659912, -1.1424620787249964, 2.366264581680298, -2.7851994673358362, -1.564333740864889, 2.7452287673950195]","[0.07185421884059906, -0.028506476432085037, 0.057549845427274704, -0.03719903528690338, -0.0009012137306854129, -0.08066821843385696]","[1.0025025606155396, -5.255127429962158, -1.6006526947021484, -0.8254395127296448, 0.1816864162683487, -0.3499145805835724]"
1584377790992940619,,697763,,1584377790,992548406,'',"[shoulder_pan_joint, shoulder_lift_joint, elbow_joint, wrist_1_joint, wrist_2_joint,","[1.6431140899658203, -1.1452553907977503, 2.3723244667053223, -2.7895572821246546, -1.5643098990069788, 2.7346436977386475]","[0.04061214253306389, -0.020389162003993988, 0.03746747970581055, -0.03338325768709183, -0.00028762139845639467, -0.10998642444610596]","[0.8560181260108948, -5.154419422149658, -1.5266729593276978, -0.877029538154602, 0.2130890041589737, -0.3095398247241974]"
1584377791104898905,,697777,,1584377791,104514766,'',"[shoulder_pan_joint, shoulder_lift_joint, elbow_joint, wrist_1_joint, wrist_2_joint,","[1.6462445259094238, -1.1467302481280726, 2.3746285438537598, -2.7917960325824183, -1.564333740864889, 2.7227301597595215]","[0.017704695463180542, -0.0038093857001513243, 0.0073631079867482185, -0.006250971928238869, -0.00015339808305725455, -0.11165463179349899]","[0.8514404892921448, -4.751587390899658, -1.5916855335235596, -0.8209534287452698, 0.2063598781824112, -0.2534637749195099]"
1584377791216889600,,697791,,1584377791,216494341,'',"[shoulder_pan_joint, shoulder_lift_joint, elbow_joint, wrist_1_joint, wrist_2_joint,","[1.6475759744644165, -1.146682087575094, 2.374784231185913, -2.7917960325824183, -1.564345661793844, 2.7103254795074463]","[0.01113414391875267, -0.00024288029817398638, 0.0006135923322290182, 9.58738019107841e-05, -9.58738019107841e-05, -0.1025274395942688]","[0.7141113877296448, -4.302978992462158, -2.01090407371521, -0.6908569931983948, 0.1637420803308487, -0.2781372368335724]"
1584377791328950527,,697805,,1584377791,328502209,'',"[shoulder_pan_joint, shoulder_lift_joint, elbow_joint, wrist_1_joint, wrist_2_joint,","[1.6490750312805176, -1.146682087575094, 2.3748323917388916, -2.791760269795553, -1.564465347920553, 2.698723077774048]","[0.016349678859114647, -0.00011504856229294091, 0.00023009712458588183, 9.58738019107841e-05, -0.0007094661123119295, -0.08962283283472061]","[0.8102417588233948, -4.270935535430908, -2.0445311069488525, -0.6639404892921448, 0.2355194389820099, -0.4284210503101349]"
1584377791440902730,,697819,,1584377791,440449463,'',"[shoulder_pan_joint, shoulder_lift_joint, elbow_joint, wrist_1_joint, wrist_2_joint,","[1.6502506732940674, -1.1467064062701624, 2.3754682540893555, -2.791915241871969, -1.5644176642047327, 2.6885695457458496]","[-0.007657120935618877, 5.1132694352418184e-05, 0.02105388604104519, -0.013249759562313557, -0.000690291344653815, -0.1113094836473465]","[-0.2288818657398224, -5.094910144805908, -1.7194687128067017, -0.8927308320999146, 0.2220611870288849, -0.3476715385913849]"
1584377791552897985,,697833,,1584377791,552477499,'',"[shoulder_pan_joint, shoulder_lift_joint, elbow_joint, wrist_1_joint, wrist_2_joint,","[1.6482837200164795, -1.1475814024554651, 2.377580404281616, -2.794046703969137, -1.5642979780780237, 2.6752431392669678]","[-0.016771523281931877, -0.00250550196506083, 0.00809174869209528, -0.011140535585582256, 5.752428114647046e-05, -0.1274929791688919]","[-1.0986329317092896, -4.898071765899658, -1.3966479301452637, -0.7245026230812073, 0.1794433742761612, -0.2669220268726349]"
1584377791664893320,,697847,,1584377791,664501537,'',"[shoulder_pan_joint, shoulder_lift_joint, elbow_joint, wrist_1_joint, wrist_2_joint,","[1.646640419960022, -1.1472938696490687, 2.376596212387085, -2.793567959462301, -1.5642498175250452, 2.661869525909424]","[-0.015608254820108414, 0.004282363224774599, -0.014406636357307434, 0.00951068103313446, 0.0, -0.11422404646873474]","[-1.0299683809280396, -3.735352039337158, -2.4278807640075684, -0.2893524467945099, 0.1839294582605362, -0.2960815727710724]"
1584377791776866061,,697861,,1584377791,776485319,'',"[shoulder_pan_joint, shoulder_lift_joint, elbow_joint, wrist_1_joint, wrist_2_joint,","[1.6443735361099243, -1.14722186723818, 2.37575626373291, -2.7933762709247034, -1.5642617384540003, 2.6495604515075684]","[-0.026218289509415627, 0.0003195793251506984, 0.0003067961661145091, -0.00023009712458588183, 0.0, -0.09644904732704163]","[-0.9246827363967896, -4.289246082305908, -2.0467729568481445, -0.5360870957374573, 0.1884155422449112, -0.2983246147632599]"
1584377791888885591,,697875,,1584377791,888496524,'',"[shoulder_pan_joint, shoulder_lift_joint, elbow_joint, wrist_1_joint, wrist_2_joint,","[1.6413029432296753, -1.1472819487201136, 2.375816583633423, -2.7937353293048304, -1.563986603413717, 2.638293743133545]","[-0.02454369328916073, -5.1132694352418184e-05, -0.00012783173588104546, -0.0006711166352033615, 0.0011888351291418076, -0.09809807687997818]","[-1.0299683809280396, -4.298401355743408, -1.9727933406829834, -0.4867401719093323, 0.1435547024011612, -0.4127197563648224]"
1584377792000926721,,697889,,1584377792,513778,'',"[shoulder_pan_joint, shoulder_lift_joint, elbow_joint, wrist_1_joint, wrist_2_joint,","[1.6392282247543335, -1.1472342650042933, 2.3757681846618652, -2.7939627806292933, -1.5637229124652308, 2.6280810832977295]","[-0.011543205939233303, -5.1132694352418184e-05, -0.00012783173588104546, -0.0014956312952563167, 0.0014381069922819734, -0.09689006209373474]","[-1.0574342012405396, -4.289246082305908, -2.019871234893799, -0.4867401719093323, 0.0740203931927681, -0.3095398247241974]"
1584377792112861903,,697903,,1584377792,112464900,'',"[shoulder_pan_joint, shoulder_lift_joint, elbow_joint, wrist_1_joint, wrist_2_joint,","[1.6390360593795776, -1.1472819487201136, 2.3757920265197754, -2.7940943876849573, -1.5636151472674769, 2.618131637573242]","[0.00890987180173397, -5.1132694352418184e-05, -0.00012783173588104546, -0.0005944175645709038, 0.0007094661123119295, -0.07999709993600845]","[0.3341675102710724, -4.293823719024658, -2.0310802459716797, -0.4508515000343323, 0.0964508131146431, -0.2781372368335724]"
1584377792224816351,,697917,,1584377792,224444275,'',"[shoulder_pan_joint, shoulder_lift_joint, elbow_joint, wrist_1_joint, wrist_2_joint,","[1.641159176826477, -1.1472342650042933, 2.375948190689087, -2.794034783040182, -1.5636871496783655, 2.6089842319488525]","[0.022728482261300087, -5.1132694352418184e-05, 0.001073786523193121, -0.0001917476038215682, 0.0002109223569277674, -0.08164612948894501]","[0.8239746689796448, -4.403687000274658, -1.9503751993179321, -0.5540314316749573, 0.0986938551068306, -0.2803802788257599]"
1584377792336816233,,697931,,1584377792,336450540,'',"[shoulder_pan_joint, shoulder_lift_joint, elbow_joint, wrist_1_joint, wrist_2_joint,","[1.6436896324157715, -1.1472581068622034, 2.3764760494232178, -2.794034783040182, -1.563746754323141, 2.600663423538208]","[0.02202540822327137, -3.834952076431364e-05, 0.015263109467923641, -0.00011504856229294091, 0.00011504856229294091, -0.06975777447223663]","[0.8697510361671448, -4.820251941680908, -1.6948087215423584, -0.7155304551124573, 0.0829925611615181, -0.2669220268726349]"
1584377792448895024,,697945,,1584377792,448449912,'',"[shoulder_pan_joint, shoulder_lift_joint, elbow_joint, wrist_1_joint, wrist_2_joint,","[1.6461126804351807, -1.1481688658343714, 2.3798117637634277, -2.796561066304342, -1.563650910054342, 2.5918631553649902]","[0.02690858021378517, -0.012105665169656277, 0.036444827914237976, -0.02881966531276703, 7.669904152862728e-05, -0.07512670755386353]","[0.7232666611671448, -5.429077625274658, -1.4975295066833496, -0.5787048935890198, 0.0942077711224556, -0.3588867485523224]"
1584377792560891420,,697959,,1584377792,560470002,'',"[shoulder_pan_joint, shoulder_lift_joint, elbow_joint, wrist_1_joint, wrist_2_joint,","[1.6500465869903564, -1.149811093007223, 2.383831739425659, -2.7998769919024866, -1.5634830633746546, 2.5850625038146973]","[0.046914245933294296, -0.015569905750453472, 0.03468075022101402, -0.02648034319281578, 0.0018024274613708258, -0.0561053492128849]","[1.0345460176467896, -5.465698719024658, -1.4885622262954712, -0.5854340195655823, 0.0538330152630806, -0.2557068169116974]"
1584377792672799912,,697973,,1584377792,672473903,'',"[shoulder_pan_joint, shoulder_lift_joint, elbow_joint, wrist_1_joint, wrist_2_joint,","[1.6554559469223022, -1.1517537275897425, 2.387791395187378, -2.802319351826803, -1.5634592215167444, 2.577831268310547]","[0.04710599407553673, -0.021207284182310104, 0.03976845368742943, -0.02076626569032669, 0.00026844663079828024, -0.060266271233558655]","[0.7553101181983948, -5.438232898712158, -1.737403154373169, -0.6145935654640198, 0.0762634351849556, -0.3207550346851349]"
1584377792784896936,,697987,,1584377792,784515143,'',"[shoulder_pan_joint, shoulder_lift_joint, elbow_joint, wrist_1_joint, wrist_2_joint,","[1.6606855392456055, -1.154703442250387, 2.3931193351745605, -2.805396382008688, -1.5633395353900355, 2.5719285011291504]","[0.050225090235471725, -0.02743268944323063, 0.0566805899143219, -0.033191509544849396, 0.0015723303658887744, -0.046671368181705475]","[0.8056641221046448, -5.154419422149658, -1.5759928226470947, -0.6549683213233948, 0.0560760572552681, -0.2444916069507599]"
1584377792896948727,,698001,,1584377792,896538279,'',"[shoulder_pan_joint, shoulder_lift_joint, elbow_joint, wrist_1_joint, wrist_2_joint,","[1.6669940948486328, -1.1574485937701624, 2.3994665145874023, -2.8094547430621546, -1.5630634466754358, 2.5656309127807617]","[0.055632371455430984, -0.01962217129766941, 0.05062136799097061, -0.03514733538031578, 0.001898301299661398, -0.06914418190717697]","[0.7827759385108948, -5.241394519805908, -1.546849250793457, -0.6661835312843323, 0.0403747595846653, -0.2781372368335724]"
1584377793008833705,,698015,,1584377793,8470646,'',"[shoulder_pan_joint, shoulder_lift_joint, elbow_joint, wrist_1_joint, wrist_2_joint,","[1.6722720861434937, -1.1596429983722132, 2.4049620628356934, -2.8130229155169886, -1.562847916279928, 2.5581002235412598]","[0.04229952022433281, -0.01949433982372284, 0.04828204587101936, -0.032462868839502335, 0.001342233270406723, -0.0634109303355217]","[0.9704591035842896, -5.163574695587158, -1.3652626276016235, -0.5203858017921448, 0.0515899695456028, -0.2691650688648224]"
1584377793120843376,,698029,,1584377793,120474075,'',"[shoulder_pan_joint, shoulder_lift_joint, elbow_joint, wrist_1_joint, wrist_2_joint,","[1.677297592163086, -1.1619208494769495, 2.409653663635254, -2.816195313130514, -1.5627759138690394, 2.5503299236297607]","[0.045776546001434326, -0.017717478796839714, 0.03301893547177315, -0.023661654442548752, 0.0003451456723269075, -0.08490584045648575]","[0.8697510361671448, -5.094910144805908, -1.3876807689666748, -0.4620667099952698, 0.0650482252240181, -0.2915954887866974]"
1584377793232847296,,698043,,1584377793,232452218,'',"[shoulder_pan_joint, shoulder_lift_joint, elbow_joint, wrist_1_joint, wrist_2_joint,","[1.6815673112869263, -1.1634915510760706, 2.4124252796173096, -2.817763630543844, -1.5628960768329065, 2.5414228439331055]","[0.02895388752222061, -0.011607121676206589, 0.02082378976047039, -0.008935438469052315, 0.00015339808305725455, -0.07409127056598663]","[1.0437012910842896, -5.200195789337158, -1.5558165311813354, -0.5674896836280823, 0.0628051832318306, -0.2781372368335724]"
1584377793344892013,,698057,,1584377793,344480263,'',"[shoulder_pan_joint, shoulder_lift_joint, elbow_joint, wrist_1_joint, wrist_2_joint,","[1.6838581562042236, -1.1650260130511683, 2.4150049686431885, -2.8189247290240687, -1.562859837208883, 2.5316410064697266]","[0.017858093604445457, -0.015199193730950356, 0.02377670258283615, -0.011102186515927315, 9.58738019107841e-05, -0.0898720994591713]","[0.8102417588233948, -4.838562488555908, -1.2957664728164673, -0.5585175156593323, 0.0785064771771431, -0.3566437065601349]"
1584377793456939845,,698071,,1584377793,456468203,'',"[shoulder_pan_joint, shoulder_lift_joint, elbow_joint, wrist_1_joint, wrist_2_joint,","[1.6863168478012085, -1.166680637990133, 2.4180047512054443, -2.82042104402651, -1.562835995350973, 2.5224339962005615]","[0.027713920921087265, -0.013524597510695457, 0.03057735040783882, -0.01787087693810463, 7.669904152862728e-05, -0.08170365542173386]","[0.7507324814796448, -5.076599597930908, -1.4325169324874878, -0.6101074814796448, 0.0717773512005806, -0.2467346489429474]"
1584377793568899614,,698085,,1584377793,568460402,'',"[shoulder_pan_joint, shoulder_lift_joint, elbow_joint, wrist_1_joint, wrist_2_joint,","[1.6899510622024536, -1.1680596510516565, 2.4211363792419434, -2.822204891835348, -1.5628960768329065, 2.5124733448028564]","[0.03448900207877159, -0.00800226628780365, 0.021207284182310104, -0.01068034116178751, 5.752428114647046e-05, -0.08076409250497818]","[0.7827759385108948, -5.067444324493408, -1.3361190557479858, -0.5944061875343323, 0.0785064771771431, -0.3297272026538849]"
1584377793680870121,,698099,,1584377793,680444495,'',"[shoulder_pan_joint, shoulder_lift_joint, elbow_joint, wrist_1_joint, wrist_2_joint,","[1.693297266960144, -1.1685393492328089, 2.4231879711151123, -2.8233545462237757, -1.5628722349749964, 2.5039491653442383]","[0.02087492309510708, -0.0020580908749252558, 0.014112623408436775, -0.010469418950378895, 3.834952076431364e-05, -0.08486749231815338]","[0.9292603731155396, -5.081177234649658, -1.4728695154190063, -0.6101074814796448, 0.0942077711224556, -0.2781372368335724]"
1584377793792901333,,698113,,1584377793,792488691,'',"[shoulder_pan_joint, shoulder_lift_joint, elbow_joint, wrist_1_joint, wrist_2_joint,","[1.6943050622940063, -1.168551270161764, 2.4237399101257324, -2.823617760335104, -1.5629199186908167, 2.4943830966949463]","[-0.004640291910618544, -0.00021731395099777728, -0.00024288029817398638, -0.00032597093377262354, 3.834952076431364e-05, -0.08369782567024231]","[0.0457763709127903, -4.412842273712158, -1.741886854171753, -0.3925323784351349, 0.0829925611615181, -0.2669220268726349]"
1584377793904922886,,698127,,1584377793,904487622,'',"[shoulder_pan_joint, shoulder_lift_joint, elbow_joint, wrist_1_joint, wrist_2_joint,","[1.6914621591567993, -1.1685031096087855, 2.4226841926574707, -2.823294464741842, -1.5628841559039515, 2.482949733734131]","[-0.032699357718229294, 0.004512460436671972, -0.032533176243305206, 0.019155586138367653, 3.834952076431364e-05, -0.10688011348247528]","[-1.0803223848342896, -3.282165765762329, -2.170072555541992, -0.1143951565027237, 0.0583190992474556, -0.4015045464038849]"
1584377794016814136,,698141,,1584377794,16447941,'',"[shoulder_pan_joint, shoulder_lift_joint, elbow_joint, wrist_1_joint, wrist_2_joint,","[1.6881399154663086, -1.1676281134234827, 2.417344808578491, -2.8204811255084437, -1.5630033651935022, 2.4717438220977783]","[-0.02616715617477894, 0.009676862508058548, -0.045891594141721725, 0.027650004252791405, 1.917476038215682e-05, -0.10837574303150177]","[-0.7003784775733948, -2.874756097793579, -2.1566216945648193, -0.0269165076315403, 0.0560760572552681, -0.3252411186695099]"
1584377794128833866,,698155,,1584377794,128422617,'',"[shoulder_pan_joint, shoulder_lift_joint, elbow_joint, wrist_1_joint, wrist_2_joint,","[1.6846379041671753, -1.166884724293844, 2.4132893085479736, -2.8177154699908655, -1.5630634466754358, 2.4603943824768066]","[-0.03503867983818054, 0.004384628497064114, -0.026103239506483078, 0.018196847289800644, -0.00026844663079828024, -0.09491506218910217]","[-1.0208131074905396, -2.838135004043579, -2.300097703933716, -0.02467346377670765, 0.0650482252240181, -0.2714081108570099]"
1584377794240901846,,698169,,1584377794,240449700,'',"[shoulder_pan_joint, shoulder_lift_joint, elbow_joint, wrist_1_joint, wrist_2_joint,","[1.6799243688583374, -1.1667888800250452, 2.411081552505493, -2.8169615904437464, -1.5629914442645472, 2.4492602348327637]","[-0.048895638436079025, 0.0003195793251506984, -0.01817767322063446, 0.0007286408799700439, -0.00026844663079828024, -0.08948860317468643]","[-1.0665894746780396, -3.103637933731079, -2.1566216945648193, 0.02467346377670765, 0.0560760572552681, -0.3342132866382599]"
1584377794352783518,,698183,,1584377794,352387838,'',"[shoulder_pan_joint, shoulder_lift_joint, elbow_joint, wrist_1_joint, wrist_2_joint,","[1.6752703189849854, -1.1666925589190882, 2.4090895652770996, -2.816566292439596, -1.5629437605487269, 2.4393835067749023]","[-0.03260987624526024, 0.0003834952076431364, -0.01324336789548397, 0.0020133499056100845, -0.00013422331539914012, -0.09200049936771393]","[-0.9063721895217896, -2.943420648574829, -2.0467729568481445, 0.0314025916159153, 0.0515899695456028, -0.3858032524585724]"
1584377794464785715,,698197,,1584377794,464406275,'',"[shoulder_pan_joint, shoulder_lift_joint, elbow_joint, wrist_1_joint, wrist_2_joint,","[1.6722960472106934, -1.16675311723818, 2.408621311187744, -2.816829506550924, -1.5628121534930628, 2.430021047592163]","[-0.023495472967624664, 0.0001661812566453591, -0.0007925567333586514, -0.0033939324785023928, 1.917476038215682e-05, -0.07882744073867798]","[-1.0482789278030396, -3.620911121368408, -1.504254937171936, -0.1929016262292862, 0.0448608435690403, -0.2714081108570099]"
1584377794576727149,,698211,,1584377794,576357828,'',"[shoulder_pan_joint, shoulder_lift_joint, elbow_joint, wrist_1_joint, wrist_2_joint,","[1.6699931621551514, -1.1667769590960901, 2.408621311187744, -2.817068878804342, -1.56260854402651, 2.4205753803253174]","[-0.016285762190818787, 8.948221511673182e-05, 0.00029401297797448933, -0.004275971557945013, 0.0017832526937127113, -0.07280656695365906]","[-1.0803223848342896, -3.620911121368408, -1.4482096433639526, -0.1884155422449112, 0.02018737979233265, -0.3656158745288849]"
1584377794688687187,,698225,,1584377794,688332334,'',"[shoulder_pan_joint, shoulder_lift_joint, elbow_joint, wrist_1_joint, wrist_2_joint,","[1.6683495044708252, -1.1667407194720667, 2.408609390258789, -2.8172605673419397, -1.5623448530780237, 2.413811445236206]","[-0.012668125331401825, -1.2783173588104546e-05, 0.00021731395099777728, -0.001418932224623859, 0.0018791265320032835, -0.05506991222500801]","[-1.1260987520217896, -3.547668933868408, -1.46614408493042, -0.1951446682214737, 0.01345825381577015, -0.2758941948413849]"
1584377794800834606,,698239,,1584377794,800413548,'',"[shoulder_pan_joint, shoulder_lift_joint, elbow_joint, wrist_1_joint, wrist_2_joint,","[1.6683614253997803, -1.1667168776141565, 2.4086573123931885, -2.8173206488238733, -1.5621770063983362, 2.407658100128174]","[0.020133499056100845, -1.2783173588104546e-05, 0.00012783173588104546, -0.0003834952076431364, 0.001208009896799922, -0.042759716510772705]","[0.6408692002296448, -3.648376941680908, -1.5670255422592163, -0.1682281643152237, 0.008972168900072575, -0.2938385307788849]"
1584377794912727699,,698253,,1584377794,912330677,'',"[shoulder_pan_joint, shoulder_lift_joint, elbow_joint, wrist_1_joint, wrist_2_joint,","[1.6707249879837036, -1.1668966452227991, 2.409857749938965, -2.8180387655841272, -1.5622008482562464, 2.4034438133239746]","[0.022907447069883347, -0.004192880820482969, 0.0201079323887825, -0.018426945433020592, 0.00024927189224399626, -0.02749660611152649]","[0.7003784775733948, -4.403687000274658, -1.1904014348983765, -0.4508515000343323, 0.0403747595846653, -0.3499145805835724]"
1584377795024741828,,698267,,1584377795,24322263,'',"[shoulder_pan_joint, shoulder_lift_joint, elbow_joint, wrist_1_joint, wrist_2_joint,","[1.673807144165039, -1.1675923506366175, 2.412916898727417, -2.8200023810016077, -1.5621169249164026, 2.400977849960327]","[0.03471909835934639, -0.007401457522064447, 0.035716187208890915, -0.021168936043977737, 0.0013230585027486086, -0.023910926654934883]","[0.7461548447608948, -4.829407215118408, -1.3024919033050537, -0.5114136338233948, 0.0403747595846653, -0.2355194389820099]"
1584377795136773531,,698281,,1584377795,136320423,'',"[shoulder_pan_joint, shoulder_lift_joint, elbow_joint, wrist_1_joint, wrist_2_joint,","[1.6788686513900757, -1.168563191090719, 2.4179208278656006, -2.8228758017169397, -1.561925236378805, 2.3977808952331543]","[0.05368932709097862, -0.01104466151446104, 0.05068528279662132, -0.03129320964217186, 0.0012463594321161509, -0.032942239195108414]","[0.6866455674171448, -5.012512683868408, -1.18367600440979, -0.5024414658546448, 0.0403747595846653, -0.2220611870288849]"
1584377795248848614,,698295,,1584377795,248351644,'',"[shoulder_pan_joint, shoulder_lift_joint, elbow_joint, wrist_1_joint, wrist_2_joint,","[1.6848535537719727, -1.1699774901019495, 2.4231278896331787, -2.826000515614645, -1.5617817083941858, 2.393267869949341]","[0.05549175664782524, -0.01251472719013691, 0.035537220537662506, -0.021283984184265137, 0.0007669904152862728, -0.04316238686442375]","[0.8331299424171448, -5.017090320587158, -1.2554138898849487, -0.5831909775733948, 0.0403747595846653, -0.3072967827320099]"
1584377795360810586,,698309,,1584377795,360385691,'',"[shoulder_pan_joint, shoulder_lift_joint, elbow_joint, wrist_1_joint, wrist_2_joint,","[1.69169020652771, -1.1710451284991663, 2.4267876148223877, -2.8275330702411097, -1.5618770758258265, 2.38922119140625]","[0.050161171704530716, -0.010852914303541183, 0.0401008166372776, -0.01242524478584528, 0.0002109223569277674, -0.02822524681687355]","[0.8743286728858948, -5.081177234649658, -1.2083358764648438, -0.5540314316749573, 0.0403747595846653, -0.3566437065601349]"
1584377795472811421,,698323,,1584377795,472387528,'',"[shoulder_pan_joint, shoulder_lift_joint, elbow_joint, wrist_1_joint, wrist_2_joint,","[1.6973752975463867, -1.1733349005328577, 2.432894706726074, -2.8302744070636194, -1.5618417898761194, 2.387042284011841]","[0.046850331127643585, -0.030104374513030052, 0.06305939704179764, -0.033536653965711594, 0.00011504856229294091, -0.012693691067397594]","[0.9063721895217896, -5.039978504180908, -1.2173031568527222, -0.4508515000343323, 0.0515899695456028, -0.2960815727710724]"
1584377795584883899,,698337,,1584377795,584442073,'',"[shoulder_pan_joint, shoulder_lift_joint, elbow_joint, wrist_1_joint, wrist_2_joint,","[1.7027846574783325, -1.1766322294818323, 2.43904972076416, -2.8339136282550257, -1.5618537108050745, 2.3853423595428467]","[0.04506068676710129, -0.030347254127264023, 0.05186133459210396, -0.028551217168569565, 7.669904152862728e-05, -0.020478643476963043]","[1.0025025606155396, -4.801941394805908, -1.1769505739212036, -0.5338440537452698, 0.0650482252240181, -0.2534637749195099]"
1584377795696738621,,698351,,1584377795,696305801,'',"[shoulder_pan_joint, shoulder_lift_joint, elbow_joint, wrist_1_joint, wrist_2_joint,","[1.7068746089935303, -1.1802290121661585, 2.4451332092285156, -2.8372305075274866, -1.5618537108050745, 2.382493257522583]","[0.0291200689971447, -0.028838839381933212, 0.05080033093690872, -0.029529130086302757, 5.752428114647046e-05, -0.032884713262319565]","[0.9109498262405396, -4.637146472930908, -1.1724668741226196, -0.5360870957374573, 0.0628051832318306, -0.2601929008960724]"
1584377795808838621,,698365,,1584377795,808422272,'',"[shoulder_pan_joint, shoulder_lift_joint, elbow_joint, wrist_1_joint, wrist_2_joint,","[1.710029125213623, -1.1818717161761683, 2.448540449142456, -2.8396604696856897, -1.561925236378805, 2.3776323795318604]","[0.03181731700897217, -0.004870389122515917, 0.014483335427939892, -0.012137623503804207, 5.752428114647046e-05, -0.04916408658027649]","[0.7598877549171448, -4.765320301055908, -1.2643811702728271, -0.5203858017921448, 0.0650482252240181, -0.3095398247241974]"
1584377795920826932,,698379,,1584377795,920422456,'',"[shoulder_pan_joint, shoulder_lift_joint, elbow_joint, wrist_1_joint, wrist_2_joint,","[1.7141669988632202, -1.181943718587057, 2.4499800205230713, -2.839900318776266, -1.5620811621295374, 2.372053861618042]","[0.03783819451928139, -0.00023009712458588183, 0.019149193540215492, -0.0029145635198801756, 3.834952076431364e-05, -0.05579855293035507]","[0.8331299424171448, -4.774475574493408, -1.3764716386795044, -0.6527252793312073, 0.0874786451458931, -0.3364563286304474]"
1584377796032726057,,698393,,1584377796,32313726,'',"[shoulder_pan_joint, shoulder_lift_joint, elbow_joint, wrist_1_joint, wrist_2_joint,","[1.7183648347854614, -1.182399098073141, 2.453291893005371, -2.840857807789938, -1.562056843434469, 2.3656129837036133]","[0.03537104278802872, -0.010073140263557434, 0.040356479585170746, -0.013882526196539402, 0.0, -0.06590364873409271]","[1.0116578340530396, -4.953003406524658, -1.2038522958755493, -0.7514191269874573, 0.0942077711224556, -0.2332763969898224]"
1584377796144742380,,698407,,1584377796,144335289,'',"[shoulder_pan_joint, shoulder_lift_joint, elbow_joint, wrist_1_joint, wrist_2_joint,","[1.722046971321106, -1.1844733397113245, 2.458475112915039, -2.8433120886432093, -1.5620692412005823, 2.357029438018799]","[0.03497476130723953, -0.022485602647066116, 0.03898867964744568, -0.023623304441571236, 0.0, -0.06830049306154251]","[0.8422852158546448, -4.893494129180908, -1.1567742824554443, -0.6347809433937073, 0.0942077711224556, -0.3409424126148224]"
1584377796256742303,,698421,,1584377796,256309323,'',"[shoulder_pan_joint, shoulder_lift_joint, elbow_joint, wrist_1_joint, wrist_2_joint,","[1.7263407707214355, -1.1864154974566858, 2.46160626411438, -2.8448804060565394, -1.5621407667743128, 2.349259853363037]","[0.033121202141046524, -0.01213123183697462, 0.02491440437734127, -0.00845606904476881, 0.0, -0.08532768487930298]","[0.9384156465530396, -4.820251941680908, -1.2598974704742432, -0.6258087754249573, 0.0986938551068306, -0.2400055229663849]"
1584377796368728370,,698435,,1584377796,368308755,'',"[shoulder_pan_joint, shoulder_lift_joint, elbow_joint, wrist_1_joint, wrist_2_joint,","[1.729135274887085, -1.1876748243915003, 2.4648337364196777, -2.846257034932272, -1.5621770063983362, 2.3397903442382812]","[0.017666345462203026, -0.011543205939233303, 0.03309563547372818, -0.017429856583476067, -9.58738019107841e-05, -0.07111918926239014]","[0.9246827363967896, -5.035400867462158, -1.150048851966858, -0.6078644394874573, 0.1121521145105362, -0.2848663628101349]"
1584377796480739003,,698449,,1584377796,480291396,'',"[shoulder_pan_joint, shoulder_lift_joint, elbow_joint, wrist_1_joint, wrist_2_joint,","[1.730406403541565, -1.1893656889544886, 2.468409299850464, -2.848412815724508, -1.5621288458453577, 2.3315775394439697]","[0.0062637547962367535, -0.018190456554293633, 0.026026541367173195, -0.018139323219656944, -9.58738019107841e-05, -0.07967112958431244]","[0.7598877549171448, -4.870605945587158, -1.2374794483184814, -0.5383301377296448, 0.1031799390912056, -0.3005676567554474]"
1584377796592685957,,698463,,1584377796,592271101,'',"[shoulder_pan_joint, shoulder_lift_joint, elbow_joint, wrist_1_joint, wrist_2_joint,","[1.7304184436798096, -1.1907079855548304, 2.470148801803589, -2.849621597920553, -1.5621169249164026, 2.323819875717163]","[0.0, -0.0011377024929970503, 0.0030040456913411617, -0.0010162623366340995, -9.58738019107841e-05, -0.05785025283694267]","[-0.02288818545639515, -4.298401355743408, -1.2621393203735352, -0.4598236680030823, 0.0919647291302681, -0.2871094048023224]"
1584377796704609978,,698477,,1584377796,704292163,'',"[shoulder_pan_joint, shoulder_lift_joint, elbow_joint, wrist_1_joint, wrist_2_joint,","[1.7301307916641235, -1.1907079855548304, 2.4700045585632324, -2.849478546773092, -1.5621169249164026, 2.316816568374634]","[-0.007286408916115761, 0.0, -0.0005624596378766, 0.0008053399506025016, -9.58738019107841e-05, -0.08066821843385696]","[-0.6591797471046448, -3.703308582305908, -1.6253126859664917, -0.3319702446460724, 0.0897216871380806, -0.2915954887866974]"
1584377796816678670,,698491,,1584377796,816274243,'',"[shoulder_pan_joint, shoulder_lift_joint, elbow_joint, wrist_1_joint, wrist_2_joint,","[1.729422926902771, -1.1907079855548304, 2.4699807167053223, -2.849466149006979, -1.562056843434469, 2.307838201522827]","[-0.0015595471486449242, 0.0, -0.00029401297797448933, 0.0002109223569277674, -9.58738019107841e-05, -0.07129175961017609]","[-0.3387451469898224, -3.872681140899658, -1.6835997104644775, -0.3072967827320099, 0.0919647291302681, -0.2601929008960724]"
1584377796928544752,,698505,,1584377796,928223341,'',"[shoulder_pan_joint, shoulder_lift_joint, elbow_joint, wrist_1_joint, wrist_2_joint,","[1.7298786640167236, -1.1907318274127405, 2.4700045585632324, -2.849478546773092, -1.5620811621295374, 2.2993502616882324]","[0.004256796557456255, 0.0, -0.00015339808305725455, 0.00011504856229294091, -7.669904152862728e-05, -0.08258569240570068]","[0.4760742783546448, -3.881836414337158, -1.6768742799758911, -0.3095398247241974, 0.0942077711224556, -0.3566437065601349]"
1584377797040709203,,698519,,1584377797,40264631,'',"[shoulder_pan_joint, shoulder_lift_joint, elbow_joint, wrist_1_joint, wrist_2_joint,","[1.7299267053604126, -1.1907199064837855, 2.4699926376342773, -2.8494184652911585, -1.5620811621295374, 2.2913646697998047]","[-0.0032469260040670633, 0.0, -0.00010226538870483637, 7.669904152862728e-05, -5.752428114647046e-05, -0.07221214473247528]","[-0.5401611924171448, -4.060364246368408, -1.5378820896148682, -0.3588867485523224, 0.0897216871380806, -0.2803802788257599]"
1584377797152680282,,698533,,1584377797,152261579,'',"[shoulder_pan_joint, shoulder_lift_joint, elbow_joint, wrist_1_joint, wrist_2_joint,","[1.7290394306182861, -1.1906960646258753, 2.4699807167053223, -2.8494423071490687, -1.562056843434469, 2.281644105911255]","[-0.008871522732079029, 0.0, -7.669904152862728e-05, 5.752428114647046e-05, -3.834952076431364e-05, -0.08994880318641663]","[-0.9979249238967896, -3.872681140899658, -1.6522144079208374, -0.3207550346851349, 0.0874786451458931, -0.3162689507007599]"
1584377797264716883,,698547,,1584377797,264250982,'',"[shoulder_pan_joint, shoulder_lift_joint, elbow_joint, wrist_1_joint, wrist_2_joint,","[1.7295432090759277, -1.1907199064837855, 2.469968557357788, -2.8494542280780237, -1.562044922505514, 2.273479461669922]","[0.018331071361899376, 0.0, -6.391586794052273e-05, 5.752428114647046e-05, -3.834952076431364e-05, -0.05739005655050278]","[0.7644653916358948, -3.831482410430908, -1.6611815690994263, -0.3095398247241974, 0.0964508131146431, -0.2871094048023224]"
1584377797376709573,,698561,,1584377797,376234444,'',"[shoulder_pan_joint, shoulder_lift_joint, elbow_joint, wrist_1_joint, wrist_2_joint,","[1.7313179969787598, -1.1907079855548304, 2.4699807167053223, -2.8494303862201136, -1.5621050039874476, 2.2672784328460693]","[0.008769256994128227, 0.0, -0.0, 3.834952076431364e-05, 1.917476038215682e-05, -0.0502953976392746]","[1.0849000215530396, -4.005432605743408, -1.5916855335235596, -0.3386993706226349, 0.0964508131146431, -0.3229980766773224]"
1584377797488605130,,698575,,1584377797,488236761,'',"[shoulder_pan_joint, shoulder_lift_joint, elbow_joint, wrist_1_joint, wrist_2_joint,","[1.7300468683242798, -1.1906960646258753, 2.469968557357788, -2.8494184652911585, -1.5620692412005823, 2.2610652446746826]","[-0.02641003578901291, 0.0, 0.00015339808305725455, 3.834952076431364e-05, 1.917476038215682e-05, -0.0561053492128849]","[-0.9658814668655396, -3.927612781524658, -1.6723906993865967, -0.3162689507007599, 0.0829925611615181, -0.2803802788257599]"
1584377797600622807,,698589,,1584377797,600236063,'',"[shoulder_pan_joint, shoulder_lift_joint, elbow_joint, wrist_1_joint, wrist_2_joint,","[1.7276241779327393, -1.1906722227679651, 2.4699807167053223, -2.849466149006979, -1.5619013945208948, 2.253451108932495]","[-0.013677995651960373, 0.0, 0.00015339808305725455, 1.917476038215682e-05, 1.917476038215682e-05, -0.08130098134279251]","[-1.0849000215530396, -3.945923328399658, -1.6544561386108398, -0.3229980766773224, 0.0852356031537056, -0.3229980766773224]"
1584377797712708270,,698603,,1584377797,712269589,'',"[shoulder_pan_joint, shoulder_lift_joint, elbow_joint, wrist_1_joint, wrist_2_joint,","[1.7279118299484253, -1.190683666859762, 2.4698727130889893, -2.8494423071490687, -1.56191331544985, 2.2454307079315186]","[0.025834793224930763, 0.0, -0.0015595471486449242, 1.917476038215682e-05, 1.917476038215682e-05, -0.05464806780219078]","[0.7415772080421448, -3.890991687774658, -1.8001738786697388, -0.2444916069507599, 0.0785064771771431, -0.2489776909351349]"
1584377797824689948,,698617,,1584377797,824215731,'',"[shoulder_pan_joint, shoulder_lift_joint, elbow_joint, wrist_1_joint, wrist_2_joint,","[1.7310303449630737, -1.1906960646258753, 2.4699926376342773, -2.8493946234332483, -1.5620811621295374, 2.2390379905700684]","[0.022945797070860863, 0.0, 0.00043462790199555457, 1.917476038215682e-05, 0.00013422331539914012, -0.06507913768291473]","[1.0070801973342896, -4.010010242462158, -1.72843599319458, -0.2915954887866974, 0.0874786451458931, -0.3117828667163849]"
1584377797936693288,,698631,,1584377797,936210856,'',"[shoulder_pan_joint, shoulder_lift_joint, elbow_joint, wrist_1_joint, wrist_2_joint,","[1.731929898262024, -1.190683666859762, 2.4710488319396973, -2.849597756062643, -1.5620930830584925, 2.232142448425293]","[-0.005215534940361977, 0.0, 0.022728482261300087, -0.009951700456440449, 0.00013422331539914012, -0.056776463985443115]","[-0.2059936672449112, -4.911804676055908, -1.275590181350708, -0.6437531113624573, 0.0942077711224556, -0.3813171684741974]"
1584377798048610035,,698645,,1584377798,48221077,'',"[shoulder_pan_joint, shoulder_lift_joint, elbow_joint, wrist_1_joint, wrist_2_joint,","[1.729974627494812, -1.191775147114889, 2.4739882946014404, -2.8515012899981897, -1.5618298689471644, 2.2254984378814697]","[-0.02147573232650757, -0.01386974286288023, 0.02165469527244568, -0.021322334185242653, -9.58738019107841e-05, -0.06544345617294312]","[-1.0620118379592896, -4.893494129180908, -1.3764716386795044, -0.5764618515968323, 0.0785064771771431, -0.2803802788257599]"
1584377798160714373,,698659,,1584377798,160210711,'',"[shoulder_pan_joint, shoulder_lift_joint, elbow_joint, wrist_1_joint, wrist_2_joint,","[1.728703498840332, -1.1923988501178187, 2.4755237102508545, -2.8531296888934534, -1.5615299383746546, 2.218459129333496]","[0.004295146092772484, -0.0004985437844879925, 0.006148706655949354, -0.0019558256026357412, 0.003240534570068121, -0.04283641278743744]","[-0.0320434607565403, -4.238892078399658, -1.3652626276016235, -0.4463654160499573, 0.0269165076315403, -0.3050537407398224]"
1584377798272562161,,698673,,1584377798,272163235,'',"[shoulder_pan_joint, shoulder_lift_joint, elbow_joint, wrist_1_joint, wrist_2_joint,","[1.7318097352981567, -1.1923745314227503, 2.4756438732147217, -2.852973763142721, -1.5617459456073206, 2.216627836227417]","[0.03152330592274666, -0.00014061490946915, 0.0005752427969127893, 0.0014956312952563167, 0.00028762139845639467, 0.011715778149664402]","[1.0620118379592896, -3.890991687774658, -1.7149850130081177, -0.3297272026538849, 0.0560760572552681, 0.0986938551068306]"
1584377798384604824,,698687,,1584377798,384187223,'',"[shoulder_pan_joint, shoulder_lift_joint, elbow_joint, wrist_1_joint, wrist_2_joint,","[1.7348682880401611, -1.192878548298971, 2.479159116744995, -2.8541114966021937, -1.5617459456073206, 2.2201592922210693]","[0.028238030150532722, -0.015800002962350845, 0.0658716931939125, -0.029145635664463043, 0.00013422331539914012, 0.02870461530983448]","[0.8926392793655396, -5.007935047149658, -1.4571768045425415, -0.7177734971046448, 0.0829925611615181, 0.3544006645679474]"
1584377798496644211,,698701,,1584377798,496171057,'',"[shoulder_pan_joint, shoulder_lift_joint, elbow_joint, wrist_1_joint, wrist_2_joint,","[1.7388020753860474, -1.1958754698382776, 2.4879653453826904, -2.8592475096331995, -1.5616257826434534, 2.2221221923828125]","[0.04159644618630409, -0.034821365028619766, 0.07915341109037399, -0.05242379382252693, 9.58738019107841e-05, 0.007784952875226736]","[0.8743286728858948, -4.870605945587158, -1.1881595849990845, -0.5809479355812073, 0.0897216871380806, 0.2915954887866974]"
1584377798608614779,,698715,,1584377798,608201777,'',"[shoulder_pan_joint, shoulder_lift_joint, elbow_joint, wrist_1_joint, wrist_2_joint,","[1.7432879209518433, -1.2000120321856897, 2.496363639831543, -2.864575211201803, -1.5616381804095667, 2.219022035598755]","[0.03750583156943321, -0.03534547612071037, 0.06312330812215805, -0.04066966474056244, 7.669904152862728e-05, -0.04640292003750801]","[0.9521485567092896, -4.856873035430908, -1.1702251434326172, -0.5764618515968323, 0.1009368970990181, -0.2848663628101349]"
1584377798720624180,,698729,,1584377798,720240683,'',"[shoulder_pan_joint, shoulder_lift_joint, elbow_joint, wrist_1_joint, wrist_2_joint,","[1.746874213218689, -1.2035735289203089, 2.501366138458252, -2.867688004170553, -1.561793629323141, 2.2145447731018066]","[0.0318940170109272, -0.025067802518606186, 0.03317233547568321, -0.016643691807985306, 5.752428114647046e-05, -0.030833015218377113]","[0.8422852158546448, -4.522705554962158, -1.1253888607025146, -0.7065582871437073, 0.1143951565027237, -0.2557068169116974]"
1584377798832521230,,698743,,1584377798,832166186,'',"[shoulder_pan_joint, shoulder_lift_joint, elbow_joint, wrist_1_joint, wrist_2_joint,","[1.7507960796356201, -1.2054556051837366, 2.505673408508301, -2.8695676962481897, -1.5618770758258265, 2.2111446857452393]","[0.035179294645786285, -0.014227672480046749, 0.04722104221582413, -0.024888839572668076, 3.834952076431364e-05, -0.03704563528299332]","[0.9017945528030396, -4.774475574493408, -1.275590181350708, -0.6998291611671448, 0.1188812404870987, -0.2467346489429474]"
1584377798944595833,,698757,,1584377798,944238154,'',"[shoulder_pan_joint, shoulder_lift_joint, elbow_joint, wrist_1_joint, wrist_2_joint,","[1.754394292831421, -1.2069786230670374, 2.5106041431427, -2.8721898237811487, -1.5618656317340296, 2.206068992614746]","[0.02653786912560463, -0.010405503213405609, 0.034271687269210815, -0.01998010091483593, 3.834952076431364e-05, -0.04851214215159416]","[0.9613038301467896, -4.879761219024658, -1.3069756031036377, -0.7648773789405823, 0.1233673244714737, -0.3117828667163849]"
1584377799056508132,,698771,,1584377799,56160442,'',"[shoulder_pan_joint, shoulder_lift_joint, elbow_joint, wrist_1_joint, wrist_2_joint,","[1.7559294700622559, -1.2080696264850062, 2.5136876106262207, -2.8739736715899866, -1.5618537108050745, 2.2005977630615234]","[0.0013294500531628728, -0.010188189335167408, 0.023137543350458145, -0.014285196550190449, 3.834952076431364e-05, -0.05338253080844879]","[0.0595092847943306, -4.623413562774658, -1.055892825126648, -0.6572113633155823, 0.1300964504480362, -0.3499145805835724]"
1584377799168723828,,698785,,1584377799,168213945,'',"[shoulder_pan_joint, shoulder_lift_joint, elbow_joint, wrist_1_joint, wrist_2_joint,","[1.7531708478927612, -1.2086809317218226, 2.515162944793701, -2.8751352469073694, -1.5617340246783655, 2.1923136711120605]","[-0.029439648613333702, -0.0007542072562500834, 0.0016745957545936108, -0.0011121360585093498, -5.752428114647046e-05, -0.09520268440246582]","[-1.0528565645217896, -3.794861316680908, -1.3293936252593994, -0.4059906303882599, 0.0986938551068306, -0.2893524467945099]"
1584377799280505884,,698799,,1584377799,280157563,'',"[shoulder_pan_joint, shoulder_lift_joint, elbow_joint, wrist_1_joint, wrist_2_joint,","[1.7510480880737305, -1.2086809317218226, 2.5148630142211914, -2.875003163014547, -1.5615423361407679, 2.182042360305786]","[-0.008232363499701023, 0.00012783173588104546, -0.0017129452899098396, 0.0011121360585093498, 0.0007478156476281583, -0.09109928458929062]","[-0.9887696504592896, -3.556824207305908, -1.6566979885101318, -0.2646789848804474, 0.0717773512005806, -0.2938385307788849]"
1584377799392572602,,698813,,1584377799,392185678,'',"[shoulder_pan_joint, shoulder_lift_joint, elbow_joint, wrist_1_joint, wrist_2_joint,","[1.7513597011566162, -1.2086451689349573, 2.5148391723632812, -2.874991242085592, -1.561578098927633, 2.1710410118103027]","[0.023380424827337265, 0.00011504856229294091, -0.0004090615548193455, 0.00024927189224399626, 0.00028762139845639467, -0.08691918849945068]","[0.6271362900733948, -3.598022937774658, -1.692566990852356, -0.2646789848804474, 0.0717773512005806, -0.3947754204273224]"
1584377799504575941,,698827,,1584377799,504167658,'',"[shoulder_pan_joint, shoulder_lift_joint, elbow_joint, wrist_1_joint, wrist_2_joint,","[1.7548021078109741, -1.2086566130267542, 2.5148751735687256, -2.8748839537249964, -1.5617578665362757, 2.162888526916504]","[0.02846812829375267, 7.669904152862728e-05, -0.00017896443023346364, 0.0008820389630272985, 0.00015339808305725455, -0.07330510765314102]","[0.9246827363967896, -3.730774402618408, -1.5916855335235596, -0.2983246147632599, 0.0986938551068306, -0.2489776909351349]"
1584377799616512636,,698841,,1584377799,616148996,'',"[shoulder_pan_joint, shoulder_lift_joint, elbow_joint, wrist_1_joint, wrist_2_joint,","[1.756205439567566, -1.2086566130267542, 2.5148870944976807, -2.874847714100973, -1.5618770758258265, 2.154161214828491]","[-0.00758042186498642, 5.1132694352418184e-05, -0.0, 0.0003067961661145091, -0.0005368932615965605, -0.07921093702316284]","[-0.1831054836511612, -3.790283679962158, -1.4257915019989014, -0.3835602104663849, 0.1076660305261612, -0.3768310844898224]"
1584377799728538006,,698855,,1584377799,728136105,'',"[shoulder_pan_joint, shoulder_lift_joint, elbow_joint, wrist_1_joint, wrist_2_joint,","[1.7528228759765625, -1.2086809317218226, 2.5148630142211914, -2.874859635029928, -1.5616620222674769, 2.1442010402679443]","[-0.035064246505498886, 3.834952076431364e-05, 0.0001661812566453591, 0.00015339808305725455, 5.752428114647046e-05, -0.0954519584774971]","[-1.0711671113967896, -3.616333484649658, -1.5378820896148682, -0.3386993706226349, 0.1031799390912056, -0.3185119926929474]"
1584377799840601268,,698869,,1584377799,840180842,'',"[shoulder_pan_joint, shoulder_lift_joint, elbow_joint, wrist_1_joint, wrist_2_joint,","[1.750244379043579, -1.2086690107928675, 2.5148510932922363, -2.8749077955829065, -1.5613983313189905, 2.135007381439209]","[-0.011351457796990871, 2.5566347176209092e-05, 0.0001661812566453591, 9.58738019107841e-05, 0.0013614079216495156, -0.07850147038698196]","[-0.8560181260108948, -3.657532215118408, -1.4347587823867798, -0.3633728325366974, 0.0583190992474556, -0.2826233208179474]"
1584377799952513817,,698883,,1584377799,952127394,'',"[shoulder_pan_joint, shoulder_lift_joint, elbow_joint, wrist_1_joint, wrist_2_joint,","[1.7497047185897827, -1.2087047735797327, 2.514827013015747, -2.8748958746539515, -1.5613144079791468, 2.124281167984009]","[0.0020069582387804985, 2.5566347176209092e-05, 0.00012783173588104546, 7.669904152862728e-05, 0.0005752427969127893, -0.09825146943330765]","[0.1190185695886612, -3.616333484649658, -1.6275544166564941, -0.3005676567554474, 0.0448608435690403, -0.3925323784351349]"
1584377800064517597,,698897,,1584377800,64137166,'',"[shoulder_pan_joint, shoulder_lift_joint, elbow_joint, wrist_1_joint, wrist_2_joint,","[1.7504122257232666, -1.2086809317218226, 2.5148391723632812, -2.8749077955829065, -1.561350170766012, 2.112980365753174]","[0.0021731394808739424, 2.5566347176209092e-05, 8.948221511673182e-05, 5.752428114647046e-05, 0.0001917476038215682, -0.11527866125106812]","[0.3295898735523224, -3.684998035430908, -1.4908039569854736, -0.3409424126148224, 0.0538330152630806, -0.3544006645679474]"
1584377800176481543,,698911,,1584377800,176099549,'',"[shoulder_pan_joint, shoulder_lift_joint, elbow_joint, wrist_1_joint, wrist_2_joint,","[1.7499808073043823, -1.2086690107928675, 2.5148751735687256, -2.8749077955829065, -1.5613144079791468, 2.100266456604004]","[-0.0067239492200315, 1.2783173588104546e-05, 6.391586794052273e-05, 3.834952076431364e-05, 0.00011504856229294091, -0.1157580241560936]","[-0.8468628525733948, -3.684998035430908, -1.4751113653182983, -0.3476715385913849, 0.0560760572552681, -0.2826233208179474]"
1584377800288469904,,698925,,1584377800,288123817,'',"[shoulder_pan_joint, shoulder_lift_joint, elbow_joint, wrist_1_joint, wrist_2_joint,","[1.7496927976608276, -1.2086451689349573, 2.5148870944976807, -2.8748958746539515, -1.5612905661212366, 2.0885231494903564]","[0.019468773156404495, 1.2783173588104546e-05, 5.1132694352418184e-05, 3.834952076431364e-05, 0.00011504856229294091, -0.07986287772655487]","[0.7461548447608948, -3.515625476837158, -1.7149850130081177, -0.2534637749195099, 0.0583190992474556, -0.3050537407398224]"
1584377800400545820,,698939,,1584377800,400160760,'',"[shoulder_pan_joint, shoulder_lift_joint, elbow_joint, wrist_1_joint, wrist_2_joint,","[1.7523431777954102, -1.2086451689349573, 2.514923334121704, -2.874835793172018, -1.5614703337298792, 2.079807996749878]","[0.026550650596618652, 1.2783173588104546e-05, -3.834952076431364e-05, 3.834952076431364e-05, 0.00011504856229294091, -0.06835801899433136]","[0.6774902939796448, -3.689575672149658, -1.6185872554779053, -0.2983246147632599, 0.0672912672162056, -0.3252411186695099]"
1584377800512506098,,698953,,1584377800,512122471,'',"[shoulder_pan_joint, shoulder_lift_joint, elbow_joint, wrist_1_joint, wrist_2_joint,","[1.7548381090164185, -1.2086566130267542, 2.5149953365325928, -2.874739948903219, -1.5616138617144983, 2.073451042175293]","[0.014253238216042519, 1.2783173588104546e-05, 0.00020453077740967274, 0.0007669904152862728, -0.0003067961661145091, -0.05090899020433426]","[0.8651733994483948, -3.767395496368408, -1.5625419616699219, -0.3386993706226349, 0.0829925611615181, -0.2893524467945099]"
1584377800624423327,,698967,,1584377800,624091115,'',"[shoulder_pan_joint, shoulder_lift_joint, elbow_joint, wrist_1_joint, wrist_2_joint,","[1.7544902563095093, -1.2089083830462855, 2.5173227787017822, -2.8754704634295862, -1.5614941755877894, 2.066328287124634]","[-0.028851622715592384, -0.010188189335167408, 0.04374402016401291, -0.01852281764149666, -0.00024927189224399626, -0.08411967009305954]","[-1.0070801973342896, -4.829407215118408, -1.2845574617385864, -0.6751556992530823, 0.0740203931927681, -0.3566437065601349]"
1584377800736647188,,698981,,1584377800,736220199,'',"[shoulder_pan_joint, shoulder_lift_joint, elbow_joint, wrist_1_joint, wrist_2_joint,","[1.7518393993377686, -1.2108872572528284, 2.521845817565918, -2.878571335469381, -1.561098877583639, 2.0581278800964355]","[-0.013856960460543633, -0.018931880593299866, 0.028391428291797638, -0.025866752490401268, 0.003892476437613368, -0.06458058953285217]","[-1.1260987520217896, -4.660034656524658, -1.2531720399856567, -0.4979553818702698, 0.01570129580795765, -0.2848663628101349]"
1584377800848490578,,698995,,1584377800,848091702,'',"[shoulder_pan_joint, shoulder_lift_joint, elbow_joint, wrist_1_joint, wrist_2_joint,","[1.7521992921829224, -1.212074104939596, 2.5237650871276855, -2.880127731953756, -1.5609071890460413, 2.0511727333068848]","[0.028864406049251556, -0.000907605339307338, 0.008194014430046082, -0.001725728390738368, 0.0009587380336597562, -0.0541686974465847]","[0.6271362900733948, -4.385376453399658, -1.3092173337936401, -0.4934692978858948, 0.0, -0.3028106987476349]"
1584377800960551937,,699009,,1584377800,960149384,'',"[shoulder_pan_joint, shoulder_lift_joint, elbow_joint, wrist_1_joint, wrist_2_joint,","[1.756001353263855, -1.212062184010641, 2.524496555328369, -2.8800557295428675, -1.5610626379596155, 2.0464677810668945]","[0.030014891177415848, -0.00017896443023346364, 0.006187056191265583, 7.669904152862728e-05, 0.00023009712458588183, -0.03497476130723953]","[1.0345460176467896, -4.325867176055908, -1.5109803676605225, -0.4216919243335724, 0.01794433780014515, -0.3297272026538849]"
1584377801072468683,,699023,,1584377801,72065550,'',"[shoulder_pan_joint, shoulder_lift_joint, elbow_joint, wrist_1_joint, wrist_2_joint,","[1.7581363916397095, -1.2125781218158167, 2.5276877880096436, -2.8811333815204065, -1.5610869566546839, 2.0428524017333984]","[0.013179452158510685, -0.013946441933512688, 0.054187871515750885, -0.023067235946655273, 0.00013422331539914012, -0.03280801326036453]","[0.7690430283546448, -5.163574695587158, -1.3293936252593994, -0.6549683213233948, 0.0403747595846653, -0.2489776909351349]"
1584377801184464489,,699037,,1584377801,184068959,'',"[shoulder_pan_joint, shoulder_lift_joint, elbow_joint, wrist_1_joint, wrist_2_joint,","[1.7597074508666992, -1.2162469069110315, 2.535233974456787, -2.885239903126852, -1.5610387961017054, 2.0390937328338623]","[0.01582556962966919, -0.04388463497161865, 0.06964273005723953, -0.04421699792146683, 7.669904152862728e-05, -0.04134078323841095]","[0.8285523056983948, -4.714966297149658, -1.3316354751586914, -0.7177734971046448, 0.0538330152630806, -0.2467346489429474]"
1584377801296584055,,699051,,1584377801,296103657,'',"[shoulder_pan_joint, shoulder_lift_joint, elbow_joint, wrist_1_joint, wrist_2_joint,","[1.761542558670044, -1.2199156920062464, 2.5425877571105957, -2.890040699635641, -1.5610387961017054, 2.033395767211914]","[0.017768610268831253, -0.02238333597779274, 0.061346448957920074, -0.04199272394180298, 5.752428114647046e-05, -0.05062136799097061]","[0.8422852158546448, -4.522705554962158, -1.18367600440979, -0.6123505234718323, 0.0471038855612278, -0.3274841606616974]"
1584377801408412167,,699065,,1584377801,408071210,'',"[shoulder_pan_joint, shoulder_lift_joint, elbow_joint, wrist_1_joint, wrist_2_joint,","[1.7636293172836304, -1.2222779432879847, 2.548274040222168, -2.8940160910235804, -1.5610745588885706, 2.027864694595337]","[0.013972008600831032, -0.01762799546122551, 0.03754417970776558, -0.027400732040405273, 5.752428114647046e-05, -0.048703890293836594]","[0.8468628525733948, -4.609680652618408, -1.226270318031311, -0.5585175156593323, 0.0560760572552681, -0.2557068169116974]"
1584377801520475669,,699079,,1584377801,520097282,'',"[shoulder_pan_joint, shoulder_lift_joint, elbow_joint, wrist_1_joint, wrist_2_joint,","[1.764744520187378, -1.2237761656390589, 2.55198073387146, -2.8965423742877405, -1.5610626379596155, 2.02223801612854]","[0.0021731394808739424, -0.010648383758962154, 0.03374757990241051, -0.019366508349776268, 3.834952076431364e-05, -0.0588473379611969]","[0.5767822861671448, -4.527283191680908, -1.1141798496246338, -0.5966492295265198, 0.0583190992474556, -0.2579498589038849]"
1584377801632439474,,699093,,1584377801,632038925,'',"[shoulder_pan_joint, shoulder_lift_joint, elbow_joint, wrist_1_joint, wrist_2_joint,","[1.764648675918579, -1.2252872625934046, 2.5561795234680176, -2.898996178303854, -1.5610268751727503, 2.015150785446167]","[-0.00029401297797448933, -0.016234630718827248, 0.03629142791032791, -0.021533256396651268, 0.0, -0.05932670831680298]","[0.0961303785443306, -4.751587390899658, -1.1567742824554443, -0.6818848252296448, 0.0605621412396431, -0.3072967827320099]"
1584377801744513666,,699107,,1584377801,744116303,'',"[shoulder_pan_joint, shoulder_lift_joint, elbow_joint, wrist_1_joint, wrist_2_joint,","[1.7647205591201782, -1.2272055784808558, 2.5590226650238037, -2.901019875203268, -1.5610030333148401, 2.008183479309082]","[-0.00012783173588104546, -0.01413819007575512, 0.014636733569204807, -0.014668691903352737, 0.0, -0.06958520412445068]","[-0.0961303785443306, -4.197693347930908, -1.150048851966858, -0.6482391953468323, 0.0538330152630806, -0.2377624809741974]"
1584377801856352718,,699121,,1584377801,856017692,'',"[shoulder_pan_joint, shoulder_lift_joint, elbow_joint, wrist_1_joint, wrist_2_joint,","[1.7646965980529785, -1.227577034627096, 2.559586763381958, -2.9013431707965296, -1.5610030333148401, 1.9999357461929321]","[-7.669904152862728e-05, -0.0003707120195031166, 0.0007414240390062332, -0.0004985437844879925, 0.0, -0.06738010793924332]","[-0.0457763709127903, -3.753662586212158, -1.499771237373352, -0.4015045464038849, 0.0538330152630806, -0.3117828667163849]"
1584377801968389640,,699135,,1584377801,968046359,'',"[shoulder_pan_joint, shoulder_lift_joint, elbow_joint, wrist_1_joint, wrist_2_joint,","[1.7646965980529785, -1.2275527159320276, 2.559610605239868, -2.9013431707965296, -1.5609906355487269, 1.9932076930999756]","[-5.1132694352418184e-05, -0.00014061490946915, 0.00029401297797448933, 0.00011504856229294091, 0.0, -0.0604388453066349]","[-0.0411987341940403, -3.767395496368408, -1.5625419616699219, -0.4172058403491974, 0.0515899695456028, -0.2736511528491974]"
1584377802080329722,,699149,,1584377802,79987572,'',"[shoulder_pan_joint, shoulder_lift_joint, elbow_joint, wrist_1_joint, wrist_2_joint,","[1.7647086381912231, -1.2275288740741175, 2.5595028400421143, -2.9013550917254847, -1.5610030333148401, 1.9861564636230469]","[-3.834952076431364e-05, -7.669904152862728e-05, -0.0007286408799700439, 0.00011504856229294091, 0.0, -0.05769685283303261]","[0.0640869215130806, -3.712463855743408, -1.643247127532959, -0.3588867485523224, 0.0493469275534153, -0.3678589165210724]"
1584377802192364389,,699163,,1584377802,192039862,'',"[shoulder_pan_joint, shoulder_lift_joint, elbow_joint, wrist_1_joint, wrist_2_joint,","[1.7646965980529785, -1.227588955556051, 2.5595266819000244, -2.9013431707965296, -1.5610030333148401, 1.979740023612976]","[-3.834952076431364e-05, -5.1132694352418184e-05, -0.00023009712458588183, 9.58738019107841e-05, 0.0, -0.05944175645709038]","[-0.01831054873764515, -3.652954578399658, -1.6185872554779053, -0.3813171684741974, 0.0471038855612278, -0.2691650688648224]"
1584377802304427140,,699177,,1584377802,304055665,'',"[shoulder_pan_joint, shoulder_lift_joint, elbow_joint, wrist_1_joint, wrist_2_joint,","[1.7647205591201782, -1.2275527159320276, 2.5595507621765137, -2.9013312498675745, -1.5610507170306605, 1.9722578525543213]","[-2.5566347176209092e-05, -3.834952076431364e-05, -0.00012783173588104546, 7.669904152862728e-05, 0.0, -0.06904831528663635]","[-0.02288818545639515, -3.643799304962158, -1.6028945446014404, -0.3566437065601349, 0.0538330152630806, -0.3028106987476349]"
1584377802416388430,,699191,,1584377802,416018378,'',"[shoulder_pan_joint, shoulder_lift_joint, elbow_joint, wrist_1_joint, wrist_2_joint,","[1.7646726369857788, -1.227588955556051, 2.5595266819000244, -2.9013431707965296, -1.5610030333148401, 1.9653979539871216]","[-2.5566347176209092e-05, -3.834952076431364e-05, -8.948221511673182e-05, 5.752428114647046e-05, 0.0, -0.05495486408472061]","[-0.0411987341940403, -3.575134754180908, -1.5804764032363892, -0.3566437065601349, 0.0538330152630806, -0.2601929008960724]"
1584377802528430522,,699205,,1584377802,528085868,'',"[shoulder_pan_joint, shoulder_lift_joint, elbow_joint, wrist_1_joint, wrist_2_joint,","[1.7646965980529785, -1.2275412718402308, 2.5595388412475586, -2.9013670126544397, -1.5609906355487269, 1.9588021039962769]","[-2.5566347176209092e-05, -2.5566347176209092e-05, -6.391586794052273e-05, 3.834952076431364e-05, 0.0, -0.06467646360397339]","[-0.1098632961511612, -3.717041492462158, -1.549091100692749, -0.3723450005054474, 0.0538330152630806, -0.2915954887866974]"
1584377802640397013,,699219,,1584377802,639993599,'',"[shoulder_pan_joint, shoulder_lift_joint, elbow_joint, wrist_1_joint, wrist_2_joint,","[1.7646965980529785, -1.227577034627096, 2.5595388412475586, -2.9013312498675745, -1.5610149542437952, 1.9524332284927368]","[-1.2783173588104546e-05, -2.5566347176209092e-05, -3.834952076431364e-05, 3.834952076431364e-05, 0.0, -0.05071724206209183]","[0.01373291201889515, -3.721619129180908, -1.5759928226470947, -0.4015045464038849, 0.0515899695456028, -0.3723450005054474]"
1584377802752319912,,699233,,1584377802,752052932,'',"[shoulder_pan_joint, shoulder_lift_joint, elbow_joint, wrist_1_joint, wrist_2_joint,","[1.7647205591201782, -1.2275527159320276, 2.559598684310913, -2.9013312498675745, -1.5610030333148401, 1.9469984769821167]","[-1.2783173588104546e-05, -2.5566347176209092e-05, -3.834952076431364e-05, 3.834952076431364e-05, 0.0, -0.051906075328588486]","[-0.0411987341940403, -3.598022937774658, -1.5670255422592163, -0.3745880424976349, 0.0448608435690403, -0.2512207329273224]"
1584377802864384365,,699247,,1584377802,864041635,'',"[shoulder_pan_joint, shoulder_lift_joint, elbow_joint, wrist_1_joint, wrist_2_joint,","[1.7647086381912231, -1.227577034627096, 2.5596346855163574, -2.901306931172506, -1.5610149542437952, 1.9402225017547607]","[-1.2783173588104546e-05, -1.2783173588104546e-05, 0.00014061490946915, 3.834952076431364e-05, 0.0, -0.06082233786582947]","[-0.009155274368822575, -3.616333484649658, -1.5827182531356812, -0.3633728325366974, 0.0515899695456028, -0.3342132866382599]"
1584377802976415266,,699261,,1584377802,976037179,'',"[shoulder_pan_joint, shoulder_lift_joint, elbow_joint, wrist_1_joint, wrist_2_joint,","[1.7646846771240234, -1.227565113698141, 2.5599944591522217, -2.901306931172506, -1.5610387961017054, 1.933769702911377]","[-1.2783173588104546e-05, -1.2783173588104546e-05, 0.01031602080911398, 3.834952076431364e-05, 0.0, -0.055817726999521255]","[-0.2517700493335724, -3.845215320587158, -1.3966479301452637, -0.4912262558937073, 0.0471038855612278, -0.2781372368335724]"
1584377803088346390,,699275,,1584377803,87999291,'',"[shoulder_pan_joint, shoulder_lift_joint, elbow_joint, wrist_1_joint, wrist_2_joint,","[1.7647205591201782, -1.2286799589740198, 2.5641212463378906, -2.9030311743365687, -1.5609310309039515, 1.9271498918533325]","[-1.2783173588104546e-05, -0.025080585852265358, 0.06426101177930832, -0.028742965310811996, 0.0, -0.06410122662782669]","[-0.0640869215130806, -4.655457019805908, -1.2419630289077759, -0.6616974472999573, 0.0426178015768528, -0.2960815727710724]"
1584377803200317399,,699289,,1584377803,199997871,'',"[shoulder_pan_joint, shoulder_lift_joint, elbow_joint, wrist_1_joint, wrist_2_joint,","[1.7647086381912231, -1.2319653669940394, 2.572878360748291, -2.90798789659609, -1.5606911818133753, 1.92060124874115]","[-1.2783173588104546e-05, -0.030168289318680763, 0.06939984858036041, -0.05079393833875656, 0.0016682040877640247, -0.05457136780023575]","[0.0366210974752903, -4.499817371368408, -1.1747087240219116, -0.5517883896827698, 0.0358886756002903, -0.3162689507007599]"
1584377803312282477,,699303,,1584377803,311969181,'',"[shoulder_pan_joint, shoulder_lift_joint, elbow_joint, wrist_1_joint, wrist_2_joint,","[1.764744520187378, -1.2344353834735315, 2.577017068862915, -2.9117234388934534, -1.5605476538287562, 1.9142683744430542]","[-1.2783173588104546e-05, -0.009012137539684772, 0.005381715949624777, -0.012866264209151268, 0.0008820389630272985, -0.06323835998773575]","[0.0595092847943306, -4.129028797149658, -0.798084557056427, -0.5652466416358948, 0.01570129580795765, -0.2153320610523224]"
1584377803424296847,,699317,,1584377803,423967311,'',"[shoulder_pan_joint, shoulder_lift_joint, elbow_joint, wrist_1_joint, wrist_2_joint,","[1.764744520187378, -1.2340877691852015, 2.574533700942993, -2.9102628866778772, -1.5605476538287562, 1.907396912574768]","[0.0, 0.013307283632457256, -0.04918965324759483, 0.030104374513030052, 0.00026844663079828024, -0.054667241871356964]","[0.0411987341940403, -2.426147699356079, -1.916748046875, -0.011215210892260075, 0.006729126907885075, -0.3274841606616974]"
1584377803536375787,,699331,,1584377803,535984806,'',"[shoulder_pan_joint, shoulder_lift_joint, elbow_joint, wrist_1_joint, wrist_2_joint,","[1.7647325992584229, -1.2320969740497034, 2.567420244216919, -2.9065874258624476, -1.56065541902651, 1.9025605916976929]","[0.0, 0.021769745275378227, -0.06810874491930008, 0.03704563528299332, 0.00013422331539914012, -0.03834952041506767]","[-0.1510620266199112, -2.330017328262329, -1.820350170135498, 0.0269165076315403, 0.0, -0.2826233208179474]"
1584377803648360723,,699345,,1584377803,647955916,'',"[shoulder_pan_joint, shoulder_lift_joint, elbow_joint, wrist_1_joint, wrist_2_joint,","[1.7647086381912231, -1.2296155134784144, 2.5601985454559326, -2.902360741292135, -1.560763184224264, 1.8984416723251343]","[0.0, 0.01913641020655632, -0.06597395986318588, 0.03827282041311264, 9.58738019107841e-05, -0.04164757952094078]","[-0.1922607570886612, -2.334594964981079, -1.865186333656311, -0.0605621412396431, -0.0022430422250181437, -0.2265472710132599]"
1584377803760433562,,699359,,1584377803,760030308,'',"[shoulder_pan_joint, shoulder_lift_joint, elbow_joint, wrist_1_joint, wrist_2_joint,","[1.7646965980529785, -1.2276371161090296, 2.5537564754486084, -2.8982179800616663, -1.5608232657061976, 1.8938446044921875]","[0.0, 0.015327025204896927, -0.04260631650686264, 0.03248204290866852, -1.917476038215682e-05, -0.03422694653272629]","[0.0457763709127903, -2.325439691543579, -1.8898463249206543, -0.0942077711224556, 0.006729126907885075, -0.3229980766773224]"
1584377803872387178,,699373,,1584377803,871972773,'',"[shoulder_pan_joint, shoulder_lift_joint, elbow_joint, wrist_1_joint, wrist_2_joint,","[1.7646965980529785, -1.2264984289752405, 2.5504097938537598, -2.8956320921527308, -1.560882870350973, 1.890337347984314]","[0.0, 0.007260842714458704, -0.024569259956479073, 0.01817767322063446, -1.917476038215682e-05, -0.02485048957169056]","[0.1098632961511612, -2.421570062637329, -1.8562191724777222, -0.0560760572552681, 0.008972168900072575, -0.3701019585132599]"
1584377803984383034,,699387,,1584377803,983986532,'',"[shoulder_pan_joint, shoulder_lift_joint, elbow_joint, wrist_1_joint, wrist_2_joint,","[1.7647205591201782, -1.2258990446673792, 2.5475306510925293, -2.893728558217184, -1.5610745588885706, 1.8876675367355347]","[0.0, 0.008078965358436108, -0.032124113291502, 0.015857527032494545, -0.0027228158432990313, -0.02527233399450779]","[-0.1144409328699112, -2.362060785293579, -1.9077807664871216, -0.0785064771771431, 0.0493469275534153, -0.2557068169116974]"
1584377804096341579,,699401,,1584377804,95958733,'',"[shoulder_pan_joint, shoulder_lift_joint, elbow_joint, wrist_1_joint, wrist_2_joint,","[1.7647205591201782, -1.2239683310138147, 2.542263984680176, -2.8907230536090296, -1.5613983313189905, 1.8848662376403809]","[0.0, 0.026614567264914513, -0.05765211209654808, 0.031695879995822906, -0.0033747577108442783, -0.024121848866343498]","[-0.0274658240377903, -2.297973871231079, -1.7799975872039795, -0.1121521145105362, 0.0942077711224556, -0.2736511528491974]"
1584377804208360217,,699415,,1584377804,207944790,'',"[shoulder_pan_joint, shoulder_lift_joint, elbow_joint, wrist_1_joint, wrist_2_joint,","[1.764744520187378, -1.2203477064715784, 2.534682273864746, -2.886305634175436, -1.562056843434469, 1.8816578388214111]","[0.0, 0.038656316697597504, -0.07539515942335129, 0.043775979429483414, -0.0060208747163414955, -0.03568422794342041]","[-0.3387451469898224, -2.407837152481079, -1.7441285848617554, -0.1480407863855362, 0.1749572902917862, -0.3185119926929474]"
1584377804320283406,,699429,,1584377804,319882867,'',"[shoulder_pan_joint, shoulder_lift_joint, elbow_joint, wrist_1_joint, wrist_2_joint,","[1.7647565603256226, -1.2159951368915003, 2.525540590286255, -2.8805344740497034, -1.5631478468524378, 1.8785213232040405]","[0.003668770892545581, 0.03404159098863602, -0.08052121102809906, 0.05351675674319267, -0.01031602080911398, -0.01812014915049076]","[0.5310059189796448, -2.792358636856079, -1.9234734773635864, -0.2243042290210724, 0.2624359428882599, -0.2915954887866974]"
1584377804432334054,,699443,,1584377804,431930630,'',"[shoulder_pan_joint, shoulder_lift_joint, elbow_joint, wrist_1_joint, wrist_2_joint,","[1.7647086381912231, -1.2126019636737269, 2.517382860183716, -2.87496787706484, -1.5643575827227991, 1.8761746883392334]","[-0.0031318773981183767, 0.02882605604827404, -0.05591360107064247, 0.043718453496694565, -0.010641992092132568, -0.024294421076774597]","[-0.4943848252296448, -2.769470453262329, -1.9526170492172241, -0.2444916069507599, 0.4172058403491974, -0.3835602104663849]"
1584377804544341802,,699457,,1584377804,543982440,'',"[shoulder_pan_joint, shoulder_lift_joint, elbow_joint, wrist_1_joint, wrist_2_joint,","[1.7649726867675781, -1.2099397818194788, 2.5127036571502686, -2.871280018483297, -1.5654600302325647, 1.875815510749817]","[0.011019095778465271, 0.019468773156404495, -0.03695615381002426, 0.025598304346203804, -0.006481069140136242, 0.043488357216119766]","[0.8926392793655396, -2.856445550918579, -2.0467729568481445, -0.2983246147632599, 0.4800110459327698, 0.1973877102136612]"
1584377804656328059,,699471,,1584377804,655946195,'',"[shoulder_pan_joint, shoulder_lift_joint, elbow_joint, wrist_1_joint, wrist_2_joint,","[1.7663639783859253, -1.2086690107928675, 2.5105323791503906, -2.869495693837301, -1.5662511030780237, 1.8804844617843628]","[0.009625730104744434, 0.0011888351291418076, -0.0019302591681480408, 0.0014764565275982022, -0.00404587434604764, 0.032999761402606964]","[0.8148193955421448, -3.282165765762329, -2.024354934692383, -0.4867401719093323, 0.4508515000343323, 0.3386993706226349]"
1584377804768413131,,699485,,1584377804,767999217,'',"[shoulder_pan_joint, shoulder_lift_joint, elbow_joint, wrist_1_joint, wrist_2_joint,","[1.7664598226547241, -1.2094362417804163, 2.513291597366333, -2.8713157812701624, -1.5663226286517542, 1.8825079202651978]","[-0.0006391586503013968, -0.015684954822063446, 0.044140297919511795, -0.026326945051550865, -0.00046019424917176366, 0.0029529130551964045]","[-0.4074096977710724, -4.508972644805908, -1.145565152168274, -0.7985230088233948, 0.4194488823413849, 0.1772003322839737]"
1584377804880335188,,699499,,1584377804,879901317,'',"[shoulder_pan_joint, shoulder_lift_joint, elbow_joint, wrist_1_joint, wrist_2_joint,","[1.7665197849273682, -1.211726490651266, 2.5204062461853027, -2.8750632444964808, -1.566035572682516, 1.8788565397262573]","[0.001725728390738368, -0.030794665217399597, 0.08411328494548798, -0.0480136014521122, 0.00441019469872117, -0.039691753685474396]","[-0.0503540076315403, -4.710388660430908, -1.2688647508621216, -0.7962799668312073, 0.3902893364429474, -0.3140259087085724]"
1584377804992415933,,699513,,1584377804,991950212,'',"[shoulder_pan_joint, shoulder_lift_joint, elbow_joint, wrist_1_joint, wrist_2_joint,","[1.766615629196167, -1.2161505858050745, 2.5303151607513428, -2.8813846747027796, -1.5654361883746546, 1.8751211166381836]","[0.0031318773981183767, -0.047988034784793854, 0.09779127687215805, -0.05842549353837967, 0.008206797763705254, -0.02816772274672985]","[0.2700805962085724, -4.563904285430908, -1.2195448875427246, -0.6931000351905823, 0.4149627983570099, -0.3319702446460724]"
1584377805104311250,,699527,,1584377805,103915450,'',"[shoulder_pan_joint, shoulder_lift_joint, elbow_joint, wrist_1_joint, wrist_2_joint,","[1.7666395902633667, -1.2207430044757288, 2.5414721965789795, -2.888712231312887, -1.5643098990069788, 1.8723082542419434]","[0.00020453077740967274, -0.03584401682019234, 0.1056784987449646, -0.06482986360788345, 0.008973787538707256, -0.02502306178212166]","[0.2288818657398224, -4.458618640899658, -1.2150613069534302, -0.6729126572608948, 0.3252411186695099, -0.2512207329273224]"
1584377805216333645,,699541,,1584377805,215943095,'',"[shoulder_pan_joint, shoulder_lift_joint, elbow_joint, wrist_1_joint, wrist_2_joint,","[1.7666515111923218, -1.225227181111471, 2.5526890754699707, -2.896374527608053, -1.563171688710348, 1.8690159320831299]","[0.0, -0.03918042778968811, 0.07539515942335129, -0.06118666008114815, 0.01020097266882658, -0.033785928040742874]","[-0.0823974683880806, -4.444885730743408, -1.004331111907959, -0.5988922715187073, 0.1233673244714737, -0.2355194389820099]"
1584377805328286931,,699555,,1584377805,327940032,'',"[shoulder_pan_joint, shoulder_lift_joint, elbow_joint, wrist_1_joint, wrist_2_joint,","[1.7666635513305664, -1.2296398321734827, 2.5616137981414795, -2.9019416014300745, -1.5623567740069788, 1.8643829822540283]","[0.0, -0.033070068806409836, 0.06663868576288223, -0.043124035000801086, 0.005982525181025267, -0.04433204606175423]","[0.0320434607565403, -4.028320789337158, -1.1859177350997925, -0.6594544053077698, 0.1525268703699112, -0.3117828667163849]"
1584377805440284880,,699569,,1584377805,439944283,'',"[shoulder_pan_joint, shoulder_lift_joint, elbow_joint, wrist_1_joint, wrist_2_joint,","[1.7666875123977661, -1.2321212927447718, 2.568835973739624, -2.9064791838275355, -1.5617459456073206, 1.8597378730773926]","[1.2783173588104546e-05, -0.017436249181628227, 0.06501521915197372, -0.042395394295454025, 0.0029529130551964045, -0.03971092775464058]","[0.009155274368822575, -4.348755359649658, -1.1096962690353394, -0.5809479355812073, 0.1345825344324112, -0.3162689507007599]"
1584377805552353000,,699583,,1584377805,551929158,'',"[shoulder_pan_joint, shoulder_lift_joint, elbow_joint, wrist_1_joint, wrist_2_joint,","[1.7666875123977661, -1.2341116110431116, 2.5742459297180176, -2.91046649614443, -1.561338249837057, 1.8558471202850342]","[1.2783173588104546e-05, -0.015352590940892696, 0.029375731945037842, -0.0240643247961998, 0.0019174760673195124, -0.03748665750026703]","[-0.1602173000574112, -4.138184070587158, -1.098487138748169, -0.5091705918312073, 0.0964508131146431, -0.2579498589038849]"
1584377805664319151,,699597,,1584377805,663933990,'',"[shoulder_pan_joint, shoulder_lift_joint, elbow_joint, wrist_1_joint, wrist_2_joint,","[1.7666995525360107, -1.2347591559039515, 2.575385332107544, -2.9116156736956995, -1.5613263289081019, 1.851274013519287]","[1.2783173588104546e-05, -0.00046019424917176366, -0.0044357613660395145, 0.0021667478140443563, 0.00036432043998502195, -0.04902986064553261]","[-0.004577637184411287, -3.561401844024658, -1.2060940265655518, -0.3140259087085724, 0.0919647291302681, -0.2198181450366974]"
1584377805776340704,,699611,,1584377805,775983415,'',"[shoulder_pan_joint, shoulder_lift_joint, elbow_joint, wrist_1_joint, wrist_2_joint,","[1.7672871351242065, -1.2340520063983362, 2.57230281829834, -2.9096644560443323, -1.5614102522479456, 1.845575213432312]","[0.02377670258283615, 0.015659388154745102, -0.04568706080317497, 0.02755413018167019, 0.00015339808305725455, -0.04690146446228027]","[0.5218506455421448, -2.357483148574829, -1.914506196975708, 0.01345825381577015, 0.0942077711224556, -0.3207550346851349]"
1584377805888307264,,699625,,1584377805,887923597,'',"[shoulder_pan_joint, shoulder_lift_joint, elbow_joint, wrist_1_joint, wrist_2_joint,","[1.7727687358856201, -1.2322772184955042, 2.567564010620117, -2.906527344380514, -1.5620091597186487, 1.841648817062378]","[0.07395065575838089, 0.013767478056252003, -0.027343207970261574, 0.02389175072312355, -0.0068453894928097725, -0.026576217263936996]","[0.6546021103858948, -2.439880609512329, -1.961584210395813, -0.0336456336081028, 0.1996307522058487, -0.2534637749195099]"
1584377806000318648,,699639,,1584377805,999885358,'',"[shoulder_pan_joint, shoulder_lift_joint, elbow_joint, wrist_1_joint, wrist_2_joint,","[1.782483458518982, -1.2318099180804651, 2.5668447017669678, -2.905318085347311, -1.5640342871295374, 1.8388235569000244]","[0.08500810712575912, 0.0003834952076431364, 0.005675728898495436, -0.0001917476038215682, -0.02028689719736576, -0.026499519124627113]","[0.7141113877296448, -3.684998035430908, -1.37198805809021, -0.3499145805835724, 0.4261780083179474, -0.2377624809741974]"
1584377806112267586,,699653,,1584377806,111867508,'',"[shoulder_pan_joint, shoulder_lift_joint, elbow_joint, wrist_1_joint, wrist_2_joint,","[1.7902551889419556, -1.2325170675860804, 2.569723606109619, -2.9065993467914026, -1.5663107077227991, 1.8343459367752075]","[0.046198390424251556, -0.012195147573947906, 0.036265864968299866, -0.016413595527410507, -0.020363595336675644, -0.05384272709488869]","[1.0116578340530396, -4.284668445587158, -0.9886384606361389, -0.6931000351905823, 0.6549683213233948, -0.2826233208179474]"
1584377806224337099,,699667,,1584377806,223855709,'',"[shoulder_pan_joint, shoulder_lift_joint, elbow_joint, wrist_1_joint, wrist_2_joint,","[1.7927019596099854, -1.233596150075094, 2.572566270828247, -2.907820526753561, -1.5677250067340296, 1.8285396099090576]","[0.0027867318131029606, -0.0054967645555734634, 0.010776215232908726, -0.0070946612395346165, -0.0065961177460849285, -0.04657549411058426]","[0.8605957627296448, -4.129028797149658, -1.0155401229858398, -0.6931000351905823, 0.6908569931983948, -0.3476715385913849]"
1584377806336285736,,699681,,1584377806,335866001,'',"[shoulder_pan_joint, shoulder_lift_joint, elbow_joint, wrist_1_joint, wrist_2_joint,","[1.7926899194717407, -1.233596150075094, 2.5722906589508057, -2.907604996358053, -1.5681923071490687, 1.8241099119186401]","[-0.00026844663079828024, -0.0002556634717620909, -0.013524597510695457, 0.011754128150641918, -0.0027036413084715605, -0.033536653965711594]","[0.01831054873764515, -3.099060297012329, -1.6992924213409424, -0.3005676567554474, 0.6841278672218323, -0.2803802788257599]"
1584377806448386708,,699695,,1584377806,447970500,'',"[shoulder_pan_joint, shoulder_lift_joint, elbow_joint, wrist_1_joint, wrist_2_joint,","[1.7926899194717407, -1.2327445189105433, 2.5696516036987305, -2.9057253042804163, -1.568491284047262, 1.8206143379211426]","[-0.00020453077740967274, 0.012693691067397594, -0.025003887712955475, 0.017487380653619766, -0.0019558256026357412, -0.032769665122032166]","[-0.01373291201889515, -2.618408441543579, -1.8158665895462036, -0.1839294582605362, 0.6504822373390198, -0.2265472710132599]"
1584377806560283959,,699709,,1584377806,559877108,'',"[shoulder_pan_joint, shoulder_lift_joint, elbow_joint, wrist_1_joint, wrist_2_joint,","[1.792725920677185, -1.232157055531637, 2.5676963329315186, -2.904456440602438, -1.5687311331378382, 1.8169149160385132]","[-0.00010226538870483637, 0.0010865697404369712, -0.007554855663329363, 0.005062136799097061, -0.0016106799012050033, -0.029337383806705475]","[-0.0366210974752903, -2.856445550918579, -1.9212316274642944, -0.2512207329273224, 0.6033783555030823, -0.3117828667163849]"
1584377806672260589,,699723,,1584377806,671868415,'',"[shoulder_pan_joint, shoulder_lift_joint, elbow_joint, wrist_1_joint, wrist_2_joint,","[1.7926419973373413, -1.2321093718158167, 2.567888021469116, -2.9045518080340784, -1.5686834494220179, 1.8139821290969849]","[-1.2783173588104546e-05, 0.00017896443023346364, 0.006059224251657724, -0.001764077926054597, -0.00026844663079828024, -0.025195635855197906]","[0.0686645582318306, -3.584290027618408, -1.3361190557479858, -0.5316010117530823, 0.6370239853858948, -0.3342132866382599]"
1584377806784338537,,699737,,1584377806,783955421,'',"[shoulder_pan_joint, shoulder_lift_joint, elbow_joint, wrist_1_joint, wrist_2_joint,","[1.7918262481689453, -1.2323253790484827, 2.569411516189575, -2.9055936972247522, -1.5685632864581507, 1.8112647533416748]","[-0.028391428291797638, -0.003451456781476736, 0.017052752897143364, -0.015800002962350845, 0.0003451456723269075, -0.027956800535321236]","[-0.6958008408546448, -4.060364246368408, -0.9908802509307861, -0.6953430771827698, 0.5944061875343323, -0.3050537407398224]"
1584377806896292735,,699751,,1584377806,895888419,'',"[shoulder_pan_joint, shoulder_lift_joint, elbow_joint, wrist_1_joint, wrist_2_joint,","[1.7865371704101562, -1.2324093023883265, 2.5702152252197266, -2.906287972127096, -1.5676167646991175, 1.8071821928024292]","[-0.06210065633058548, -0.00026844663079828024, 0.001073786523193121, -0.0006327670998871326, 0.01359490491449833, -0.04621117189526558]","[-0.5493164658546448, -3.529358386993408, -1.1590160131454468, -0.5271149277687073, 0.4665527939796448, -0.2893524467945099]"
1584377807008260448,,699765,,1584377807,7862604,'',"[shoulder_pan_joint, shoulder_lift_joint, elbow_joint, wrist_1_joint, wrist_2_joint,","[1.777925729751587, -1.2324450651751917, 2.5701193809509277, -2.906299893056051, -1.5649927298175257, 1.8007889986038208]","[-0.08321846276521683, -0.00011504856229294091, -0.0006008091731928289, -0.0002109223569277674, 0.02749660611152649, -0.05723666027188301]","[-0.7553101181983948, -3.213501214981079, -1.4437259435653687, -0.4037475883960724, 0.1996307522058487, -0.3319702446460724]"
1584377807120225485,,699779,,1584377807,119845625,'',"[shoulder_pan_joint, shoulder_lift_joint, elbow_joint, wrist_1_joint, wrist_2_joint,","[1.7698659896850586, -1.2324093023883265, 2.5701074600219727, -2.9063242117511194, -1.5620330015765589, 1.7947553396224976]","[-0.06417153030633926, -7.669904152862728e-05, -0.0003323625132907182, -0.00011504856229294091, 0.02327815815806389, -0.05035291984677315]","[-0.9384156465530396, -3.108215570449829, -1.4571768045425415, -0.3880462944507599, -0.0471038855612278, -0.2534637749195099]"
1584377807232206733,,699793,,1584377807,231770177,'',"[shoulder_pan_joint, shoulder_lift_joint, elbow_joint, wrist_1_joint, wrist_2_joint,","[1.7633532285690308, -1.2324093023883265, 2.5702033042907715, -2.9063242117511194, -1.5595291296588343, 1.7883864641189575]","[-0.049611497670412064, -5.1132694352418184e-05, -0.00012783173588104546, -7.669904152862728e-05, 0.01727645844221115, -0.06573107838630676]","[-0.8102417588233948, -3.153991937637329, -1.4100987911224365, -0.4172058403491974, -0.1570129543542862, -0.2781372368335724]"
1584377807344213048,,699807,,1584377807,343873533,'',"[shoulder_pan_joint, shoulder_lift_joint, elbow_joint, wrist_1_joint, wrist_2_joint,","[1.758304238319397, -1.2324212233172815, 2.5703110694885254, -2.9063242117511194, -1.5578153769122522, 1.7813348770141602]","[-0.045278001576662064, -3.834952076431364e-05, 0.0005496764788404107, -5.752428114647046e-05, 0.014994662255048752, -0.05664224177598953]","[-0.9658814668655396, -3.190613031387329, -1.3764716386795044, -0.4284210503101349, -0.3319702446460724, -0.4194488823413849]"
