PorkPy/robot-pulling-data/deg50_stops2/joint_states_throttle.csv
rosbagTimestamp,header,seq,stamp,secs,nsecs,frame_id,name,wrist_3_joint],position,velocity,effort
1584444207201930433,,289377,,1584444207,201620334,'',"[shoulder_pan_joint, shoulder_lift_joint, elbow_joint, wrist_1_joint, wrist_2_joint,","[1.4048062562942505, -1.1718605200396937, 2.483058452606201, -2.8627198378192347, -1.566873852406637, 2.7207422256469727]","[0.0, 0.0, -0.0, 0.0, 0.0, 0.0]","[-0.0503540076315403, -2.687072992324829, -1.0917617082595825, -0.4732819199562073, 0.1166381984949112, 0.0358886756002903]"
1584444207313929229,,289391,,1584444207,313694451,'',"[shoulder_pan_joint, shoulder_lift_joint, elbow_joint, wrist_1_joint, wrist_2_joint,","[1.404758334159851, -1.1718605200396937, 2.4830822944641113, -2.8627312819110315, -1.5669100920306605, 2.7207303047180176]","[0.0, 0.0, -0.0, 0.0, 0.0, 0.0]","[-0.0869751051068306, -2.655029535293579, -1.1074544191360474, -0.4867401719093323, 0.1233673244714737, 0.0381317175924778]"
1584444207425909861,,289405,,1584444207,425620842,'',"[shoulder_pan_joint, shoulder_lift_joint, elbow_joint, wrist_1_joint, wrist_2_joint,","[1.4047702550888062, -1.1718485991107386, 2.4830703735351562, -2.8627432028399866, -1.566885773335592, 2.7207422256469727]","[0.0, 0.0, -0.0, 0.0, 0.0, 0.0]","[-0.0640869215130806, -2.677917718887329, -1.08951997756958, -0.4934692978858948, 0.1256103664636612, 0.0381317175924778]"
1584444207537882539,,289419,,1584444207,537598248,'',"[shoulder_pan_joint, shoulder_lift_joint, elbow_joint, wrist_1_joint, wrist_2_joint,","[1.4047822952270508, -1.17180043855776, 2.4830944538116455, -2.8627432028399866, -1.5668981711017054, 2.7207183837890625]","[0.0, 0.0, -0.0, 0.0, 0.0, 0.0]","[-0.0869751051068306, -2.691650629043579, -1.1119379997253418, -0.4777680039405823, 0.1435547024011612, 0.0448608435690403]"
1584444207649852230,,289433,,1584444207,649623734,'',"[shoulder_pan_joint, shoulder_lift_joint, elbow_joint, wrist_1_joint, wrist_2_joint,","[1.4047702550888062, -1.1718485991107386, 2.4830822944641113, -2.8627198378192347, -1.5669100920306605, 2.720766305923462]","[0.0, 0.0, -0.0, 0.0, 0.0, 0.0]","[-0.1007080152630806, -2.650451898574829, -1.098487138748169, -0.4979553818702698, 0.1233673244714737, 0.0358886756002903]"
1584444207761986870,,289447,,1584444207,761673525,'',"[shoulder_pan_joint, shoulder_lift_joint, elbow_joint, wrist_1_joint, wrist_2_joint,","[1.4048062562942505, -1.1718724409686487, 2.4831182956695557, -2.8627432028399866, -1.5669100920306605, 2.7207183837890625]","[0.0, 0.0, -0.0, 0.0, 0.0, 0.0]","[-0.1007080152630806, -2.636718988418579, -1.098487138748169, -0.4822540879249573, 0.1211242824792862, 0.0381317175924778]"
1584444207873931596,,289461,,1584444207,873593865,'',"[shoulder_pan_joint, shoulder_lift_joint, elbow_joint, wrist_1_joint, wrist_2_joint,","[1.4047702550888062, -1.1718485991107386, 2.483034372329712, -2.8627312819110315, -1.5669100920306605, 2.7207422256469727]","[0.0, 0.0, -0.0, 0.0, 0.0, 0.0]","[-0.0595092847943306, -2.627563714981079, -1.085036277770996, -0.4889832139015198, 0.1278534084558487, 0.0471038855612278]"
1584444207985990874,,289475,,1584444207,985615985,'',"[shoulder_pan_joint, shoulder_lift_joint, elbow_joint, wrist_1_joint, wrist_2_joint,","[1.4047822952270508, -1.1718362013446253, 2.483046531677246, -2.8627198378192347, -1.566873852406637, 2.720754384994507]","[0.0, 0.0, -0.0, 0.0, 0.0, 0.0]","[-0.0823974683880806, -2.682495355606079, -1.102970838546753, -0.4777680039405823, 0.1300964504480362, 0.0426178015768528]"
1584444208097988288,,289489,,1584444208,97635450,'',"[shoulder_pan_joint, shoulder_lift_joint, elbow_joint, wrist_1_joint, wrist_2_joint,","[1.4047702550888062, -1.1718247572528284, 2.4830703735351562, -2.8627432028399866, -1.566885773335592, 2.720754384994507]","[0.0, 0.0, -0.0, 0.0, 0.0, 0.0]","[-0.0823974683880806, -2.645874261856079, -1.1096962690353394, -0.4822540879249573, 0.1435547024011612, 0.0403747595846653]"
1584444208210011069,,289503,,1584444208,209634216,'',"[shoulder_pan_joint, shoulder_lift_joint, elbow_joint, wrist_1_joint, wrist_2_joint,","[1.4048062562942505, -1.1718362013446253, 2.4830703735351562, -2.8627198378192347, -1.566873852406637, 2.7207303047180176]","[0.0, 0.0, -0.0, 0.0, 0.0, 0.0]","[-0.0869751051068306, -2.613830804824829, -1.1119379997253418, -0.4934692978858948, 0.1278534084558487, 0.0426178015768528]"
1584444208321994977,,289517,,1584444208,321663860,'',"[shoulder_pan_joint, shoulder_lift_joint, elbow_joint, wrist_1_joint, wrist_2_joint,","[1.4047702550888062, -1.1718362013446253, 2.483058452606201, -2.8627198378192347, -1.566873852406637, 2.7207422256469727]","[0.0, 0.0, -0.0, 0.0, 0.0, 0.0]","[-0.0595092847943306, -2.641296625137329, -1.098487138748169, -0.4844971299171448, 0.1256103664636612, 0.0314025916159153]"
1584444208433897404,,289531,,1584444208,433573189,'',"[shoulder_pan_joint, shoulder_lift_joint, elbow_joint, wrist_1_joint, wrist_2_joint,","[1.4047702550888062, -1.1718605200396937, 2.4830822944641113, -2.8627198378192347, -1.5669220129596155, 2.7207064628601074]","[0.0, 0.0, -0.0, 0.0, 0.0, 0.0]","[-0.0595092847943306, -2.655029535293579, -1.1074544191360474, -0.4822540879249573, 0.1121521145105362, 0.0381317175924778]"
1584444208545847950,,289545,,1584444208,545556726,'',"[shoulder_pan_joint, shoulder_lift_joint, elbow_joint, wrist_1_joint, wrist_2_joint,","[1.4047462940216064, -1.1718485991107386, 2.4831063747406006, -2.8627198378192347, -1.566873852406637, 2.7207422256469727]","[0.0, 0.0, -0.0, 0.0, 0.0, 0.0]","[-0.0686645582318306, -2.677917718887329, -1.102970838546753, -0.4979553818702698, 0.1368255764245987, 0.0381317175924778]"
1584444208657973853,,289559,,1584444208,657584026,'',"[shoulder_pan_joint, shoulder_lift_joint, elbow_joint, wrist_1_joint, wrist_2_joint,","[1.4047702550888062, -1.1718247572528284, 2.4830822944641113, -2.8627198378192347, -1.566885773335592, 2.7207183837890625]","[0.0, 0.0, -0.0, 0.0, 0.0, 0.0]","[-0.0503540076315403, -2.659607172012329, -1.1052125692367554, -0.4889832139015198, 0.1166381984949112, 0.0403747595846653]"
1584444208769871070,,289573,,1584444208,769557154,'',"[shoulder_pan_joint, shoulder_lift_joint, elbow_joint, wrist_1_joint, wrist_2_joint,","[1.404758334159851, -1.1718485991107386, 2.4830822944641113, -2.8627198378192347, -1.5669100920306605, 2.7207303047180176]","[0.0, 0.0, -0.0, 0.0, 0.0, 0.0]","[-0.1007080152630806, -2.650451898574829, -1.098487138748169, -0.4777680039405823, 0.1323394924402237, 0.0336456336081028]"
1584444208881873012,,289587,,1584444208,881542926,'',"[shoulder_pan_joint, shoulder_lift_joint, elbow_joint, wrist_1_joint, wrist_2_joint,","[1.4047942161560059, -1.1718605200396937, 2.4830822944641113, -2.862767521535055, -1.5669100920306605, 2.7207183837890625]","[0.0, 0.0, -0.0, 0.0, 0.0, 0.0]","[-0.1052856519818306, -2.668762445449829, -1.098487138748169, -0.4844971299171448, 0.1278534084558487, 0.0381317175924778]"
1584444208993887287,,289601,,1584444208,993583300,'',"[shoulder_pan_joint, shoulder_lift_joint, elbow_joint, wrist_1_joint, wrist_2_joint,","[1.4047942161560059, -1.1718724409686487, 2.4830703735351562, -2.8627079168902796, -1.566873852406637, 2.7207303047180176]","[0.0, 0.0, -0.0, 0.0, 0.0, 0.0]","[-0.0915527418255806, -2.659607172012329, -1.0940035581588745, -0.4800110459327698, 0.1054229810833931, 0.0403747595846653]"
1584444209105869362,,289615,,1584444209,105543594,'',"[shoulder_pan_joint, shoulder_lift_joint, elbow_joint, wrist_1_joint, wrist_2_joint,","[1.404758334159851, -1.1718247572528284, 2.4830703735351562, -2.8627551237689417, -1.566885773335592, 2.7207422256469727]","[0.0, 0.0, -0.0, 0.0, 0.0, 0.0]","[-0.0503540076315403, -2.677917718887329, -1.0805526971817017, -0.4822540879249573, 0.1300964504480362, 0.0381317175924778]"
1584444209217859763,,289629,,1584444209,217541268,'',"[shoulder_pan_joint, shoulder_lift_joint, elbow_joint, wrist_1_joint, wrist_2_joint,","[1.4047942161560059, -1.1718362013446253, 2.4831063747406006, -2.8627432028399866, -1.566885773335592, 2.7207183837890625]","[0.0, 0.0, -0.0, 0.0, 0.0, 0.0]","[-0.0503540076315403, -2.659607172012329, -1.0962454080581665, -0.4822540879249573, 0.1413116604089737, 0.0471038855612278]"
1584444209329927838,,289643,,1584444209,329558008,'',"[shoulder_pan_joint, shoulder_lift_joint, elbow_joint, wrist_1_joint, wrist_2_joint,","[1.4047822952270508, -1.1718247572528284, 2.4830944538116455, -2.8627198378192347, -1.5668981711017054, 2.7207183837890625]","[0.0, 0.0, -0.0, 0.0, 0.0, 0.0]","[-0.0503540076315403, -2.687072992324829, -1.102970838546753, -0.4889832139015198, 0.1525268703699112, 0.0381317175924778]"
1584444209441919250,,289657,,1584444209,441535975,'',"[shoulder_pan_joint, shoulder_lift_joint, elbow_joint, wrist_1_joint, wrist_2_joint,","[1.4047942161560059, -1.1718247572528284, 2.4830944538116455, -2.8627198378192347, -1.566885773335592, 2.7207303047180176]","[0.0, 0.0, -0.0, 0.0, 0.0, 0.0]","[-0.0961303785443306, -2.673340082168579, -1.1096962690353394, -0.4867401719093323, 0.1525268703699112, 0.0381317175924778]"
1584444209554047949,,289671,,1584444209,553572322,'',"[shoulder_pan_joint, shoulder_lift_joint, elbow_joint, wrist_1_joint, wrist_2_joint,","[1.4047942161560059, -1.1718123594867151, 2.4831063747406006, -2.862767521535055, -1.566885773335592, 2.7207303047180176]","[0.0, 0.0, -0.0, 0.0, 0.0, 0.0]","[-0.0869751051068306, -2.700805902481079, -1.1096962690353394, -0.4844971299171448, 0.1435547024011612, 0.0269165076315403]"
1584444209665944043,,289685,,1584444209,665560177,'',"[shoulder_pan_joint, shoulder_lift_joint, elbow_joint, wrist_1_joint, wrist_2_joint,","[1.4047702550888062, -1.1718485991107386, 2.4830822944641113, -2.8627312819110315, -1.5669220129596155, 2.7207303047180176]","[0.0, 0.0, -0.0, 0.0, 0.0, 0.0]","[-0.0961303785443306, -2.636718988418579, -1.1186634302139282, -0.4912262558937073, 0.1390686184167862, 0.0291595496237278]"
1584444209778111084,,289699,,1584444209,777625808,'',"[shoulder_pan_joint, shoulder_lift_joint, elbow_joint, wrist_1_joint, wrist_2_joint,","[1.4047702550888062, -1.1718485991107386, 2.4830703735351562, -2.8627198378192347, -1.566873852406637, 2.7207064628601074]","[0.0, 0.0, -0.0, 0.0, 0.0, 0.0]","[-0.0961303785443306, -2.636718988418579, -1.0917617082595825, -0.4732819199562073, 0.1390686184167862, 0.0448608435690403]"
1584444209889906009,,289713,,1584444209,889564863,'',"[shoulder_pan_joint, shoulder_lift_joint, elbow_joint, wrist_1_joint, wrist_2_joint,","[1.4047702550888062, -1.1718247572528284, 2.483046531677246, -2.8627312819110315, -1.566885773335592, 2.7207183837890625]","[0.0, 0.0, -0.0, 0.0, 0.0, 0.0]","[-0.0595092847943306, -2.664184808731079, -1.102970838546753, -0.4777680039405823, 0.1547699123620987, 0.0448608435690403]"
1584444210001969366,,289727,,1584444210,1565052,'',"[shoulder_pan_joint, shoulder_lift_joint, elbow_joint, wrist_1_joint, wrist_2_joint,","[1.4047822952270508, -1.1718485991107386, 2.4830822944641113, -2.8627198378192347, -1.566885773335592, 2.7207064628601074]","[0.0, 0.0, -0.0, 0.0, 0.0, 0.0]","[-0.0869751051068306, -2.636718988418579, -1.0940035581588745, -0.4934692978858948, 0.1906585842370987, 0.0471038855612278]"
1584444210113904454,,289741,,1584444210,113516129,'',"[shoulder_pan_joint, shoulder_lift_joint, elbow_joint, wrist_1_joint, wrist_2_joint,","[1.404758334159851, -1.1718605200396937, 2.4831063747406006, -2.8627312819110315, -1.5668981711017054, 2.7207422256469727]","[0.0, 0.0, -0.0, 0.0, 0.0, 0.0]","[-0.0732421949505806, -2.673340082168579, -1.1186634302139282, -0.4822540879249573, 0.1525268703699112, 0.0381317175924778]"
1584444210225906235,,289755,,1584444210,225526146,'',"[shoulder_pan_joint, shoulder_lift_joint, elbow_joint, wrist_1_joint, wrist_2_joint,","[1.4047702550888062, -1.1718485991107386, 2.4831063747406006, -2.8627079168902796, -1.5669220129596155, 2.7207303047180176]","[0.0, 0.0, -0.0, 0.0, 0.0, 0.0]","[-0.0961303785443306, -2.682495355606079, -1.1052125692367554, -0.4822540879249573, 0.1188812404870987, 0.0381317175924778]"
1584444210337868423,,289769,,1584444210,337520814,'',"[shoulder_pan_joint, shoulder_lift_joint, elbow_joint, wrist_1_joint, wrist_2_joint,","[1.4047462940216064, -1.1718123594867151, 2.4830822944641113, -2.8627312819110315, -1.5669339338885706, 2.7207183837890625]","[0.0, 0.0, -0.0, 0.0, 0.0, 0.0]","[-0.1235962063074112, -2.650451898574829, -1.098487138748169, -0.4844971299171448, 0.1121521145105362, 0.0403747595846653]"
1584444210449863662,,289783,,1584444210,449474326,'',"[shoulder_pan_joint, shoulder_lift_joint, elbow_joint, wrist_1_joint, wrist_2_joint,","[1.4047822952270508, -1.1718362013446253, 2.4830944538116455, -2.8627432028399866, -1.5669220129596155, 2.7207303047180176]","[0.0, 0.0, -0.0, 0.0, 0.0, 0.0]","[-0.0595092847943306, -2.659607172012329, -1.1119379997253418, -0.4822540879249573, 0.1323394924402237, 0.0471038855612278]"
1584444210561830730,,289797,,1584444210,561448627,'',"[shoulder_pan_joint, shoulder_lift_joint, elbow_joint, wrist_1_joint, wrist_2_joint,","[1.404758334159851, -1.1718485991107386, 2.4831063747406006, -2.862767521535055, -1.5668500105487269, 2.7207064628601074]","[0.0, 0.0, -0.0, 0.0, 0.0, 0.0]","[-0.0732421949505806, -2.641296625137329, -1.1164216995239258, -0.4912262558937073, 0.1233673244714737, 0.0381317175924778]"
1584444210673872276,,289811,,1584444210,673487828,'',"[shoulder_pan_joint, shoulder_lift_joint, elbow_joint, wrist_1_joint, wrist_2_joint,","[1.404758334159851, -1.1718724409686487, 2.4831063747406006, -2.8627312819110315, -1.5668981711017054, 2.7207422256469727]","[0.0, 0.0, -0.0, 0.0, 0.0, 0.0]","[-0.0915527418255806, -2.659607172012329, -1.1164216995239258, -0.4979553818702698, 0.1457977443933487, 0.0269165076315403]"
1584444210785966680,,289825,,1584444210,785550684,'',"[shoulder_pan_joint, shoulder_lift_joint, elbow_joint, wrist_1_joint, wrist_2_joint,","[1.4047942161560059, -1.1718605200396937, 2.4830822944641113, -2.8627312819110315, -1.566885773335592, 2.720754384994507]","[0.0, 0.0, -0.0, 0.0, 0.0, 0.0]","[-0.0366210974752903, -2.677917718887329, -1.1164216995239258, -0.4912262558937073, 0.1413116604089737, 0.0358886756002903]"
1584444210897814635,,289839,,1584444210,897456527,'',"[shoulder_pan_joint, shoulder_lift_joint, elbow_joint, wrist_1_joint, wrist_2_joint,","[1.4047702550888062, -1.1718724409686487, 2.483046531677246, -2.8627432028399866, -1.566885773335592, 2.7207422256469727]","[0.0, 0.0, -0.0, 0.0, 0.0, 0.0]","[-0.0915527418255806, -2.691650629043579, -1.1096962690353394, -0.4889832139015198, 0.1300964504480362, 0.0358886756002903]"
1584444211009914630,,289853,,1584444211,9504835,'',"[shoulder_pan_joint, shoulder_lift_joint, elbow_joint, wrist_1_joint, wrist_2_joint,","[1.4047702550888062, -1.1718247572528284, 2.4830822944641113, -2.8627079168902796, -1.5669100920306605, 2.7207183837890625]","[0.0, 0.0, -0.0, 0.0, 0.0, 0.0]","[-0.1098632961511612, -2.632141351699829, -1.1052125692367554, -0.4844971299171448, 0.1390686184167862, 0.0448608435690403]"
1584444211121776420,,289867,,1584444211,121494334,'',"[shoulder_pan_joint, shoulder_lift_joint, elbow_joint, wrist_1_joint, wrist_2_joint,","[1.4047702550888062, -1.1718485991107386, 2.4830703735351562, -2.8626835981952112, -1.566873852406637, 2.7207183837890625]","[0.0, 0.0, -0.0, 0.0, 0.0, 0.0]","[-0.0457763709127903, -2.664184808731079, -1.1052125692367554, -0.4934692978858948, 0.1457977443933487, 0.0403747595846653]"
1584444211233860887,,289881,,1584444211,233519570,'',"[shoulder_pan_joint, shoulder_lift_joint, elbow_joint, wrist_1_joint, wrist_2_joint,","[1.4047702550888062, -1.1718485991107386, 2.4830822944641113, -2.8627312819110315, -1.566873852406637, 2.7207183837890625]","[0.0, 0.0, -0.0, 0.0, 0.0, 0.0]","[-0.1098632961511612, -2.705383539199829, -1.1052125692367554, -0.4889832139015198, 0.1256103664636612, 0.0403747595846653]"
1584444211345713930,,289895,,1584444211,345420663,'',"[shoulder_pan_joint, shoulder_lift_joint, elbow_joint, wrist_1_joint, wrist_2_joint,","[1.4047942161560059, -1.1718485991107386, 2.4830703735351562, -2.8627079168902796, -1.566885773335592, 2.720754384994507]","[0.0, 0.0, -0.0, 0.0, 0.0, 0.0]","[-0.0366210974752903, -2.636718988418579, -1.102970838546753, -0.4912262558937073, 0.1143951565027237, 0.0403747595846653]"
1584444211457783318,,289909,,1584444211,457460556,'',"[shoulder_pan_joint, shoulder_lift_joint, elbow_joint, wrist_1_joint, wrist_2_joint,","[1.404758334159851, -1.1718605200396937, 2.4830822944641113, -2.8626959959613245, -1.566885773335592, 2.7207303047180176]","[0.0, 0.0, -0.0, 0.0, 0.0, 0.0]","[-0.0915527418255806, -2.696228265762329, -1.1119379997253418, -0.4777680039405823, 0.1278534084558487, 0.0403747595846653]"
1584444211569672510,,289923,,1584444211,569421792,'',"[shoulder_pan_joint, shoulder_lift_joint, elbow_joint, wrist_1_joint, wrist_2_joint,","[1.4047702550888062, -1.1718605200396937, 2.482722520828247, -2.862623993550436, -1.5668981711017054, 2.719604969024658]","[0.0, 0.0, -0.0019558256026357412, 0.0009779128013178706, 0.0, -0.026921363547444344]","[-0.3662109673023224, -3.346252679824829, -1.5401238203048706, -0.3386993706226349, 0.0314025916159153, -0.3499145805835724]"
1584444211681854979,,289937,,1584444211,681437370,'',"[shoulder_pan_joint, shoulder_lift_joint, elbow_joint, wrist_1_joint, wrist_2_joint,","[1.4049979448318481, -1.1718962828265589, 2.482734441757202, -2.8625639120685022, -1.5669100920306605, 2.718264102935791]","[0.0005496764788404107, 0.0, -0.0005624596378766, 0.00023009712458588183, 0.0, -0.006423544604331255]","[0.0549316480755806, -3.501892328262329, -1.3921643495559692, -0.4059906303882599, 0.0448608435690403, -0.3028106987476349]"
1584444211793860598,,289951,,1584444211,793502490,'',"[shoulder_pan_joint, shoulder_lift_joint, elbow_joint, wrist_1_joint, wrist_2_joint,","[1.4051780700683594, -1.1718843618976038, 2.482710599899292, -2.8625877539264124, -1.5669100920306605, 2.721736192703247]","[-0.0013294500531628728, 0.0, -8.948221511673182e-05, 0.00013422331539914012, 0.0, 0.02557913027703762]","[-0.2243042290210724, -3.602600574493408, -1.3809553384780884, -0.4149627983570099, 0.0448608435690403, 0.3858032524585724]"
1584444211905774967,,289965,,1584444211,905418101,'',"[shoulder_pan_joint, shoulder_lift_joint, elbow_joint, wrist_1_joint, wrist_2_joint,","[1.405190110206604, -1.1718724409686487, 2.482698440551758, -2.8626001516925257, -1.5669100920306605, 2.7235443592071533]","[-0.0015595471486449242, 0.0, -8.948221511673182e-05, 5.752428114647046e-05, 0.0, 0.006155097857117653]","[-0.1739502102136612, -3.634644031524658, -1.3092173337936401, -0.4553375840187073, 0.0493469275534153, 0.2781372368335724]"
1584444212017696238,,289979,,1584444212,17387462,'',"[shoulder_pan_joint, shoulder_lift_joint, elbow_joint, wrist_1_joint, wrist_2_joint,","[1.4048781394958496, -1.1718843618976038, 2.482698440551758, -2.8626001516925257, -1.5669220129596155, 2.720155954360962]","[-0.0027867318131029606, 0.0, -0.00024288029817398638, 0.0, 0.0, -0.050161171704530716]","[-0.5401611924171448, -3.474426507949829, -1.4235496520996094, -0.4082336723804474, 0.0426178015768528, -0.3588867485523224]"
1584444212129705954,,289993,,1584444212,129385937,'',"[shoulder_pan_joint, shoulder_lift_joint, elbow_joint, wrist_1_joint, wrist_2_joint,","[1.4055020809173584, -1.1718724409686487, 2.482710599899292, -2.8625877539264124, -1.5668981711017054, 2.716946601867676]","[0.01002200786024332, 0.0, -0.0, 0.0, 0.0, -0.015550730749964714]","[0.7781983017921448, -3.538513660430908, -1.4437259435653687, -0.4037475883960724, 0.0471038855612278, -0.3005676567554474]"
1584444212241851735,,290007,,1584444212,241464683,'',"[shoulder_pan_joint, shoulder_lift_joint, elbow_joint, wrist_1_joint, wrist_2_joint,","[1.4063537120819092, -1.1718724409686487, 2.482590675354004, -2.862516228352682, -1.5669577757464808, 2.7169227600097656]","[0.0074142408557236195, 0.0, -0.0032597093377262354, 1.917476038215682e-05, 0.0, 0.045233260840177536]","[0.9109498262405396, -3.515625476837158, -1.4235496520996094, -0.3880462944507599, 0.0560760572552681, 0.2758941948413849]"
1584444212353766475,,290021,,1584444212,353449653,'',"[shoulder_pan_joint, shoulder_lift_joint, elbow_joint, wrist_1_joint, wrist_2_joint,","[1.4063537120819092, -1.1716325918780726, 2.480118989944458, -2.8607919851886194, -1.5669696966754358, 2.7212932109832764]","[-0.0017385116079822183, 0.007746603339910507, -0.042989812791347504, 0.030046848580241203, 0.0, 0.03334490954875946]","[-0.2059936672449112, -2.449035882949829, -1.739645004272461, -0.1884155422449112, 0.0605621412396431, 0.3409424126148224]"
1584444212465764850,,290035,,1584444212,465386925,'',"[shoulder_pan_joint, shoulder_lift_joint, elbow_joint, wrist_1_joint, wrist_2_joint,","[1.4064136743545532, -1.1695225874530237, 2.4720685482025146, -2.8568409124957483, -1.5669458548175257, 2.72493314743042]","[0.0016745957545936108, 0.03484693169593811, -0.10924500226974487, 0.047035686671733856, -0.00017257283616345376, 0.0327313169836998]","[0.1510620266199112, -2.645874261856079, -1.5311566591262817, -0.1749572902917862, 0.0403747595846653, 0.3521576225757599]"
1584444212577781229,,290049,,1584444212,577409766,'',"[shoulder_pan_joint, shoulder_lift_joint, elbow_joint, wrist_1_joint, wrist_2_joint,","[1.4064855575561523, -1.1641390959369105, 2.4571313858032227, -2.849035088215963, -1.5670297781573694, 2.7285733222961426]","[0.0, 0.05494207888841629, -0.1548553705215454, 0.08346772938966751, -0.0002109223569277674, 0.03349830582737923]","[0.0915527418255806, -2.458191156387329, -1.6723906993865967, -0.1099090725183487, 0.008972168900072575, 0.2646789848804474]"
1584444212689791717,,290063,,1584444212,689422458,'',"[shoulder_pan_joint, shoulder_lift_joint, elbow_joint, wrist_1_joint, wrist_2_joint,","[1.406509518623352, -1.1563099066363733, 2.4390859603881836, -2.8388941923724573, -1.5670416990863245, 2.7335422039031982]","[0.0010098706698045135, 0.07634111493825912, -0.1592399924993515, 0.0954519584774971, -0.0004218447138555348, 0.05531918257474899]","[0.2243042290210724, -2.787781000137329, -1.8629446029663086, -0.1704712063074112, -0.006729126907885075, 0.3050537407398224]"
1584444212801786055,,290077,,1584444212,801486907,'',"[shoulder_pan_joint, shoulder_lift_joint, elbow_joint, wrist_1_joint, wrist_2_joint,","[1.4069652557373047, -1.1488640944110315, 2.4221200942993164, -2.8288257757769983, -1.5671137014972132, 2.739708423614502]","[0.014240454882383347, 0.050161171704530716, -0.14657187461853027, 0.08172282576560974, -0.0009779128013178706, 0.05104321241378784]","[0.4989624619483948, -2.806091547012329, -1.961584210395813, -0.0852356031537056, 0.0, 0.3274841606616974]"
1584444212913746830,,290091,,1584444212,913407267,'',"[shoulder_pan_joint, shoulder_lift_joint, elbow_joint, wrist_1_joint, wrist_2_joint,","[1.4119552373886108, -1.1418622175799769, 2.406126022338867, -2.819583241139547, -1.5671494642840784, 2.7453725337982178]","[0.07370778173208237, 0.06203674152493477, -0.14604775607585907, 0.08398544788360596, -0.00023009712458588183, 0.057140786200761795]","[0.8331299424171448, -3.067016839981079, -1.966067910194397, -0.0515899695456028, 0.01570129580795765, 0.2691650688648224]"
1584444213025740857,,290105,,1584444213,25396555,'',"[shoulder_pan_joint, shoulder_lift_joint, elbow_joint, wrist_1_joint, wrist_2_joint,","[1.422270655632019, -1.1352208296405237, 2.389747381210327, -2.8102334181415003, -1.5671613852130335, 2.7525570392608643]","[0.10385049879550934, 0.061717160046100616, -0.14719824492931366, 0.08592209964990616, -0.00013422331539914012, 0.06250971555709839]","[0.7781983017921448, -2.828979730606079, -1.8741536140441895, -0.2086029201745987, 0.0314025916159153, 0.3274841606616974]"
1584444213137783375,,290119,,1584444213,137470391,'',"[shoulder_pan_joint, shoulder_lift_joint, elbow_joint, wrist_1_joint, wrist_2_joint,","[1.4352487325668335, -1.1278107802020472, 2.3722047805786133, -2.800284210835592, -1.5671494642840784, 2.758364200592041]","[0.12128674983978271, 0.0639030858874321, -0.16458335518836975, 0.08935438096523285, -7.669904152862728e-05, 0.03827282041311264]","[0.8834840059280396, -3.021240472793579, -1.9884859323501587, -0.1143951565027237, 0.0471038855612278, 0.3790741264820099]"
1584444213249682605,,290133,,1584444213,249367527,'',"[shoulder_pan_joint, shoulder_lift_joint, elbow_joint, wrist_1_joint, wrist_2_joint,","[1.4491145610809326, -1.1198018232928675, 2.3531014919281006, -2.7893298308001917, -1.5671256224261683, 2.7625908851623535]","[0.11846166849136353, 0.07778561115264893, -0.17851701378822327, 0.09547112882137299, -5.752428114647046e-05, 0.04392937570810318]","[1.1444092988967896, -3.076172113418579, -1.867428183555603, -0.1233673244714737, 0.0493469275534153, 0.3028106987476349]"
1584444213361739360,,290147,,1584444213,361368728,'',"[shoulder_pan_joint, shoulder_lift_joint, elbow_joint, wrist_1_joint, wrist_2_joint,","[1.4617332220077515, -1.1110976378070276, 2.3317415714263916, -2.777728859578268, -1.5671256224261683, 2.7676076889038086]","[0.1121467798948288, 0.08410049974918365, -0.20584744215011597, 0.11408982425928116, -5.752428114647046e-05, 0.042644668370485306]","[0.9750367403030396, -2.998352289199829, -1.9503751993179321, -0.1816864162683487, 0.0515899695456028, 0.3207550346851349]"
1584444213473710645,,290161,,1584444213,473357816,'',"[shoulder_pan_joint, shoulder_lift_joint, elbow_joint, wrist_1_joint, wrist_2_joint,","[1.4738001823425293, -1.1005709807025355, 2.3066015243530273, -2.7635539213763636, -1.5671375433551233, 2.771906614303589]","[0.09975988417863846, 0.10052687674760818, -0.23802268505096436, 0.1354888528585434, -3.834952076431364e-05, 0.03599102422595024]","[1.0574342012405396, -3.094482660293579, -2.01090407371521, -0.1973877102136612, 0.0381317175924778, 0.3386993706226349]"
1584444213585617469,,290175,,1584444213,585324903,'',"[shoulder_pan_joint, shoulder_lift_joint, elbow_joint, wrist_1_joint, wrist_2_joint,","[1.4837557077407837, -1.0881503264056605, 2.278724193572998, -2.7482779661761683, -1.5671256224261683, 2.775726318359375]","[0.07547185570001602, 0.10996086150407791, -0.2565455138683319, 0.14235341548919678, -3.834952076431364e-05, 0.03269296512007713]","[0.9887696504592896, -3.350830316543579, -2.080400228500366, -0.1749572902917862, 0.0358886756002903, 0.2871094048023224]"
1584444213697566282,,290189,,1584444213,697339870,'',"[shoulder_pan_joint, shoulder_lift_joint, elbow_joint, wrist_1_joint, wrist_2_joint,","[1.491995930671692, -1.0753338972674769, 2.2498984336853027, -2.7320082823382776, -1.5671256224261683, 2.7800967693328857]","[0.07159855216741562, 0.11249192804098129, -0.25834792852401733, 0.14626507461071014, -1.917476038215682e-05, 0.04385267570614815]","[0.9292603731155396, -3.364563226699829, -2.300097703933716, -0.1951446682214737, 0.006729126907885075, 0.3185119926929474]"
1584444213809766394,,290203,,1584444213,809472145,'',"[shoulder_pan_joint, shoulder_lift_joint, elbow_joint, wrist_1_joint, wrist_2_joint,","[1.4995044469833374, -1.0625179449664515, 2.2218995094299316, -2.7166484037982386, -1.5671375433551233, 2.784850835800171]","[0.06827493011951447, 0.11074063181877136, -0.2430848330259323, 0.13838423788547516, -1.917476038215682e-05, 0.040477920323610306]","[0.9658814668655396, -3.533936023712158, -2.3471755981445312, -0.2198181450366974, -0.006729126907885075, 0.3409424126148224]"
1584444213921629056,,290217,,1584444213,921327984,'',"[shoulder_pan_joint, shoulder_lift_joint, elbow_joint, wrist_1_joint, wrist_2_joint,","[1.5071810483932495, -1.0505288282977503, 2.195387363433838, -2.701839272175924, -1.5671375433551233, 2.789041519165039]","[0.061768293380737305, 0.09960649162530899, -0.2241785079240799, 0.12856677174568176, -1.917476038215682e-05, 0.033785928040742874]","[1.1901856660842896, -3.703308582305908, -2.443573474884033, -0.1996307522058487, -0.011215210892260075, 0.3072967827320099]"
1584444214033611692,,290231,,1584444214,33312644,'',"[shoulder_pan_joint, shoulder_lift_joint, elbow_joint, wrist_1_joint, wrist_2_joint,","[1.513861894607544, -1.0391996542560022, 2.1700758934020996, -2.6881802717791956, -1.5671256224261683, 2.7932326793670654]","[0.06157654523849487, 0.09756118059158325, -0.22361604869365692, 0.12300609052181244, -1.917476038215682e-05, 0.04601942375302315]","[1.1581422090530396, -3.808594226837158, -2.4233973026275635, -0.1323394924402237, -0.01345825381577015, 0.2669220268726349]"
1584444214145786096,,290245,,1584444214,145397601,'',"[shoulder_pan_joint, shoulder_lift_joint, elbow_joint, wrist_1_joint, wrist_2_joint,","[1.5203629732131958, -1.0274861494647425, 2.143130302429199, -2.6741135756122034, -1.5671494642840784, 2.79864501953125]","[0.057076871395111084, 0.10980746150016785, -0.247929647564888, 0.13539297878742218, -1.917476038215682e-05, 0.04881893843412399]","[0.9796143770217896, -3.849792957305908, -2.4077045917510986, -0.0538330152630806, -0.0291595496237278, 0.3274841606616974]"
1584444214257800912,,290259,,1584444214,257378173,'',"[shoulder_pan_joint, shoulder_lift_joint, elbow_joint, wrist_1_joint, wrist_2_joint,","[1.527235984802246, -1.014515225087301, 2.1132678985595703, -2.6582396666156214, -1.5671613852130335, 2.803422689437866]","[0.06432493031024933, 0.12034079432487488, -0.2818434238433838, 0.1487194448709488, -1.917476038215682e-05, 0.03441869467496872]","[1.0528565645217896, -3.831482410430908, -2.4816842079162598, -0.0493469275534153, -0.0471038855612278, 0.3499145805835724]"
1584444214369792545,,290273,,1584444214,369350600,'',"[shoulder_pan_joint, shoulder_lift_joint, elbow_joint, wrist_1_joint, wrist_2_joint,","[1.534001111984253, -0.999829117451803, 2.080716609954834, -2.6406777540790003, -1.5671737829791468, 2.806978940963745]","[0.05602864921092987, 0.13799436390399933, -0.29354000091552734, 0.16350318491458893, -9.58738019107841e-05, 0.029375731945037842]","[0.8972169160842896, -3.959656238555908, -2.542213201522827, -0.1323394924402237, -0.0560760572552681, 0.2915954887866974]"
1584444214481695001,,290287,,1584444214,481287020,'',"[shoulder_pan_joint, shoulder_lift_joint, elbow_joint, wrist_1_joint, wrist_2_joint,","[1.5407781600952148, -0.9842918554889124, 2.0468435287475586, -2.622481171284811, -1.5672577063189905, 2.8110384941101074]","[0.061461497098207474, 0.13649871945381165, -0.30094146728515625, 0.16419346630573273, -0.0008053399506025016, 0.03925073519349098]","[0.8926392793655396, -3.799438953399658, -2.544455051422119, -0.1839294582605362, -0.0583190992474556, 0.3409424126148224]"
1584444214593655767,,290301,,1584444214,593247234,'',"[shoulder_pan_joint, shoulder_lift_joint, elbow_joint, wrist_1_joint, wrist_2_joint,","[1.5472792387008667, -0.9684556166278284, 2.013437271118164, -2.6043809095965784, -1.5673053900348108, 2.815133810043335]","[0.057677678763866425, 0.14157365262508392, -0.29839763045310974, 0.15970657765865326, -0.0003451456723269075, 0.03242452070116997]","[1.0116578340530396, -4.412842273712158, -2.7753615379333496, -0.1166381984949112, -0.0807495191693306, 0.4418793320655823]"
1584444214705793001,,290315,,1584444214,705334666,'',"[shoulder_pan_joint, shoulder_lift_joint, elbow_joint, wrist_1_joint, wrist_2_joint,","[1.5545356273651123, -0.9531229178058069, 1.9799108505249023, -2.586531464253561, -1.5673649946795862, 2.818126916885376]","[0.0697961300611496, 0.13570617139339447, -0.30648937821388245, 0.1617199331521988, -0.0004410194815136492, 0.02774587832391262]","[0.7919312119483948, -4.348755359649658, -2.6206765174865723, -0.1211242824792862, -0.0785064771771431, 0.3566437065601349]"
1584444214817771179,,290329,,1584444214,817386130,'',"[shoulder_pan_joint, shoulder_lift_joint, elbow_joint, wrist_1_joint, wrist_2_joint,","[1.5626680850982666, -0.9371188322650355, 1.944258213043213, -2.5677488485919397, -1.567460838948385, 2.8211207389831543]","[0.08075130730867386, 0.14638012647628784, -0.31279146671295166, 0.1610296368598938, -0.000997087568975985, 0.02504223771393299]","[0.9933472871780396, -4.536438465118408, -2.643094539642334, -0.01345825381577015, -0.0785064771771431, 0.3274841606616974]"
1584444214929690116,,290343,,1584444214,929282265,'',"[shoulder_pan_joint, shoulder_lift_joint, elbow_joint, wrist_1_joint, wrist_2_joint,","[1.572323203086853, -0.9208634535418909, 1.9086532592773438, -2.5494211355792444, -1.5675089995013636, 2.8243658542633057]","[0.08665713667869568, 0.1436445266008377, -0.31266364455223083, 0.16848862171173096, -0.0004410194815136492, 0.03869466483592987]","[0.7553101181983948, -4.380798816680908, -2.746217966079712, -0.0829925611615181, -0.0785064771771431, 0.2669220268726349]"
1584444215041656442,,290357,,1584444215,41293815,'',"[shoulder_pan_joint, shoulder_lift_joint, elbow_joint, wrist_1_joint, wrist_2_joint,","[1.582170844078064, -0.9044039885150355, 1.8730716705322266, -2.5305307547198694, -1.5675089995013636, 2.829359531402588]","[0.08782040327787399, 0.14864274859428406, -0.31589779257774353, 0.1742410510778427, -0.00023009712458588183, 0.04670971632003784]","[0.9887696504592896, -4.948425769805908, -2.7776033878326416, -0.2310333549976349, -0.0897216871380806, 0.3409424126148224]"
1584444215153687929,,290371,,1584444215,153267304,'',"[shoulder_pan_joint, shoulder_lift_joint, elbow_joint, wrist_1_joint, wrist_2_joint,","[1.5926061868667603, -0.887824837361471, 1.8374528884887695, -2.5112937132464808, -1.5675328413592737, 2.834340810775757]","[0.09807250648736954, 0.14700649678707123, -0.3241301476955414, 0.1738000214099884, -0.00023009712458588183, 0.041494179517030716]","[0.7827759385108948, -4.733276844024658, -2.923321008682251, -0.1525268703699112, -0.0986938551068306, 0.3970184624195099]"
1584444215265737740,,290385,,1584444215,265328246,'',"[shoulder_pan_joint, shoulder_lift_joint, elbow_joint, wrist_1_joint, wrist_2_joint,","[1.6039047241210938, -0.870910946522848, 1.8011255264282227, -2.492451016102926, -1.5675447622882288, 2.838627338409424]","[0.10085923969745636, 0.15399889647960663, -0.3344973027706146, 0.17086629569530487, -0.00017257283616345376, 0.038656316697597504]","[0.8697510361671448, -4.907227039337158, -2.9816079139709473, -0.1278534084558487, -0.0986938551068306, 0.2691650688648224]"
1584444215377684179,,290399,,1584444215,377258314,'',"[shoulder_pan_joint, shoulder_lift_joint, elbow_joint, wrist_1_joint, wrist_2_joint,","[1.6147234439849854, -0.8539002577411097, 1.7647857666015625, -2.4730222860919397, -1.567580525075094, 2.8433337211608887]","[0.10060357302427292, 0.150854229927063, -0.32970359921455383, 0.1650371551513672, -0.00017257283616345376, 0.040708016604185104]","[0.8834840059280396, -5.158997058868408, -3.1407766342163086, -0.006729126907885075, -0.0986938551068306, 0.3252411186695099]"
1584444215489679558,,290413,,1584444215,489259194,'',"[shoulder_pan_joint, shoulder_lift_joint, elbow_joint, wrist_1_joint, wrist_2_joint,","[1.6264058351516724, -0.8368309179889124, 1.729261875152588, -2.4542515913592737, -1.5676286856280726, 2.847656488418579]","[0.11177606880664825, 0.14868108928203583, -0.30936557054519653, 0.16336895525455475, -0.00017257283616345376, 0.03395850211381912]","[0.9521485567092896, -5.415344715118408, -3.203547239303589, -0.0964508131146431, -0.0964508131146431, 0.3319702446460724]"
1584444215601718319,,290427,,1584444215,601307452,'',"[shoulder_pan_joint, shoulder_lift_joint, elbow_joint, wrist_1_joint, wrist_2_joint,","[1.639839768409729, -0.8214028517352503, 1.696871280670166, -2.436930004750387, -1.5676167646991175, 2.8518474102020264]","[0.12726926803588867, 0.13284273445606232, -0.2719108760356903, 0.1442708969116211, -0.00017257283616345376, 0.040535442531108856]","[0.6591797471046448, -5.296326160430908, -3.378408432006836, -0.1570129543542862, -0.0852356031537056, 0.3454284965991974]"
1584444215713776226,,290441,,1584444215,713373935,'',"[shoulder_pan_joint, shoulder_lift_joint, elbow_joint, wrist_1_joint, wrist_2_joint,","[1.6551803350448608, -0.8077262083636683, 1.6683940887451172, -2.4219420591937464, -1.5676763693438929, 2.8574039936065674]","[0.15327024459838867, 0.1168893352150917, -0.2353893518447876, 0.12724371254444122, -0.00013422331539914012, 0.06525170803070068]","[0.4943848252296448, -5.676270008087158, -3.282010555267334, -0.1323394924402237, -0.0672912672162056, 0.3229980766773224]"
1584444215825729276,,290455,,1584444215,825333939,'',"[shoulder_pan_joint, shoulder_lift_joint, elbow_joint, wrist_1_joint, wrist_2_joint,","[1.6741670370101929, -0.7966621557818812, 1.6444673538208008, -2.4089773336993616, -1.5676644484149378, 2.864840269088745]","[0.1799870878458023, 0.08629920333623886, -0.18568837642669678, 0.09470414370298386, -0.00013422331539914012, 0.057869426906108856]","[0.6820679306983948, -5.470276355743408, -3.447904586791992, -0.0560760572552681, -0.0336456336081028, 0.4104767143726349]"
1584444215937668261,,290469,,1584444215,937255902,'',"[shoulder_pan_joint, shoulder_lift_joint, elbow_joint, wrist_1_joint, wrist_2_joint,","[1.694292664527893, -0.7884276548968714, 1.6273589134216309, -2.399628464375631, -1.5676525274859827, 2.8687920570373535]","[0.17579419910907745, 0.055747419595718384, -0.11724726855754852, 0.06392864882946014, -0.00013422331539914012, 0.01612597331404686]","[0.3890991508960724, -5.776978015899658, -3.6160404682159424, -0.1076660305261612, 0.0022430422250181437, 0.2983246147632599]"
1584444216049686153,,290483,,1584444216,49275436,'',"[shoulder_pan_joint, shoulder_lift_joint, elbow_joint, wrist_1_joint, wrist_2_joint,","[1.7129075527191162, -0.7842438856707972, 1.6196393966674805, -2.3951032797442835, -1.5676763693438929, 2.869929552078247]","[0.16404646635055542, 0.01569773629307747, -0.012080098502337933, 0.015052187256515026, -7.669904152862728e-05, 0.012923788279294968]","[0.7919312119483948, -6.019592761993408, -3.6250076293945312, -0.0650482252240181, 0.0269165076315403, 0.2512207329273224]"
1584444216161727989,,290497,,1584444216,161270676,'',"[shoulder_pan_joint, shoulder_lift_joint, elbow_joint, wrist_1_joint, wrist_2_joint,","[1.7316418886184692, -0.7853944937335413, 1.6232647895812988, -2.3972342650042933, -1.5676406065570276, 2.8714983463287354]","[0.16425099968910217, -0.023073628544807434, 0.06151263043284416, -0.0322711206972599, -5.752428114647046e-05, 0.011888351291418076]","[0.0778198316693306, -7.804871559143066, -2.64982008934021, -0.6011353135108948, 0.0785064771771431, 0.2781372368335724]"
1584444216273570123,,290511,,1584444216,273187399,'',"[shoulder_pan_joint, shoulder_lift_joint, elbow_joint, wrist_1_joint, wrist_2_joint,","[1.7494646310806274, -0.7885111013995569, 1.6296520233154297, -2.400693718587057, -1.5676644484149378, 2.8729352951049805]","[0.16065892577171326, -0.027151459828019142, 0.04518852010369301, -0.024869663640856743, -5.752428114647046e-05, 0.016988838091492653]","[0.2975464165210724, -7.978821754455566, -2.6027419567108154, -0.7693634629249573, 0.1143951565027237, 0.3342132866382599]"
1584444216385661803,,290525,,1584444216,385236860,'',"[shoulder_pan_joint, shoulder_lift_joint, elbow_joint, wrist_1_joint, wrist_2_joint,","[1.7675870656967163, -0.7912200132953089, 1.63441801071167, -2.402764622365133, -1.5676286856280726, 2.8746719360351562]","[0.1623079478740692, -0.02587314322590828, 0.04465162381529808, -0.019634954631328583, -3.834952076431364e-05, 0.013671603985130787]","[-0.0549316480755806, -7.974244117736816, -2.665512800216675, -0.7873077988624573, 0.1592559963464737, 0.2983246147632599]"
1584444216497647715,,290539,,1584444216,497234293,'',"[shoulder_pan_joint, shoulder_lift_joint, elbow_joint, wrist_1_joint, wrist_2_joint,","[1.785637617111206, -0.7937377134906214, 1.638716220855713, -2.40466815630068, -1.5676525274859827, 2.876551389694214]","[0.16301102936267853, -0.011581555008888245, 0.02136068232357502, -0.012060924433171749, 0.0, 0.018637867644429207]","[0.02288818545639515, -7.955933570861816, -2.6229183673858643, -0.7940369248390198, 0.1502838283777237, 0.3095398247241974]"
1584444216609614030,,290553,,1584444216,609207552,'',"[shoulder_pan_joint, shoulder_lift_joint, elbow_joint, wrist_1_joint, wrist_2_joint,","[1.8036280870437622, -0.7941568533526819, 1.6400365829467773, -2.4049790541278284, -1.5676167646991175, 2.8783719539642334]","[0.15665778517723083, -0.0005113269435241818, 0.0024288028944283724, 0.00011504856229294091, 0.0, 0.016279371455311775]","[0.1464843899011612, -7.676697731018066, -2.9905753135681152, -0.5809479355812073, 0.1502838283777237, 0.3633728325366974]"
1584444216721740785,,290567,,1584444216,721324368,'',"[shoulder_pan_joint, shoulder_lift_joint, elbow_joint, wrist_1_joint, wrist_2_joint,","[1.8213063478469849, -0.7940972487079065, 1.6400485038757324, -2.4047635237323206, -1.5676406065570276, 2.8807790279388428]","[0.15842187404632568, 0.00015339808305725455, 0.0003323625132907182, 0.0015723303658887744, 0.0, 0.027477432042360306]","[0.0823974683880806, -7.722474098205566, -3.004026174545288, -0.6011353135108948, 0.1794433742761612, 0.3790741264820099]"
1584444216833746725,,290581,,1584444216,833309679,'',"[shoulder_pan_joint, shoulder_lift_joint, elbow_joint, wrist_1_joint, wrist_2_joint,","[1.8390085697174072, -0.7941091696368616, 1.639976978302002, -2.404680077229635, -1.5676286856280726, 2.8846707344055176]","[0.1628192812204361, 0.0, 0.00026844663079828024, 0.0008436894277110696, 0.0, 0.04189684987068176]","[0.2426147758960724, -7.351685523986816, -3.544302463531494, -0.3970184624195099, 0.1772003322839737, 0.3005676567554474]"
1584444216945557520,,290595,,1584444216,945205633,'',"[shoulder_pan_joint, shoulder_lift_joint, elbow_joint, wrist_1_joint, wrist_2_joint,","[1.8574897050857544, -0.7941449324237269, 1.6400971412658691, -2.4047277609454554, -1.5676167646991175, 2.890730381011963]","[0.16269144415855408, -2.5566347176209092e-05, 0.002416019793599844, 0.0, 0.0, 0.061781078577041626]","[0.0457763709127903, -7.809449195861816, -3.1654365062713623, -0.5271149277687073, 0.2220611870288849, 0.3386993706226349]"
1584444217057637758,,290609,,1584444217,57257960,'',"[shoulder_pan_joint, shoulder_lift_joint, elbow_joint, wrist_1_joint, wrist_2_joint,","[1.8758515119552612, -0.7941330114947718, 1.6400127410888672, -2.40469199815859, -1.5676406065570276, 2.897400379180908]","[0.16822656989097595, 0.0, -8.948221511673182e-05, 0.0, 0.0, 0.050525493919849396]","[0.0869751051068306, -7.713318824768066, -3.3089122772216797, -0.4665527939796448, 0.1772003322839737, 0.3678589165210724]"
1584444217169593013,,290623,,1584444217,169192896,'',"[shoulder_pan_joint, shoulder_lift_joint, elbow_joint, wrist_1_joint, wrist_2_joint,","[1.8947044610977173, -0.7941568533526819, 1.6400246620178223, -2.40469199815859, -1.5676167646991175, 2.9020583629608154]","[0.16644969582557678, -0.0001661812566453591, 0.0003707120195031166, 0.0, 0.0, 0.04051626846194267]","[-0.0640869215130806, -7.621766090393066, -3.5129170417785645, -0.4037475883960724, 0.2130890041589737, 0.3072967827320099]"
1584444217281542537,,290637,,1584444217,281112044,'',"[shoulder_pan_joint, shoulder_lift_joint, elbow_joint, wrist_1_joint, wrist_2_joint,","[1.9133658409118652, -0.794168774281637, 1.640000820159912, -2.40469199815859, -1.5676406065570276, 2.9066214561462402]","[0.16624517738819122, -0.0001661812566453591, -0.0, 0.0, 0.0, 0.039384957402944565]","[0.1556396633386612, -7.910157203674316, -3.2438998222351074, -0.4867401719093323, 0.2243042290210724, 0.3611297905445099]"
1584444217393416881,,290651,,1584444217,393133382,'',"[shoulder_pan_joint, shoulder_lift_joint, elbow_joint, wrist_1_joint, wrist_2_joint,","[1.9315942525863647, -0.7941330114947718, 1.6400246620178223, -2.4045961538897913, -1.5675447622882288, 2.9108004570007324]","[0.16001977026462555, -0.00010226538870483637, -0.0, 0.0004410194815136492, 0.002684466540813446, 0.03821529820561409]","[0.2700805962085724, -7.612610816955566, -3.725889205932617, -0.3476715385913849, 0.2579498589038849, 0.3409424126148224]"
1584444217505516716,,290665,,1584444217,505163377,'',"[shoulder_pan_joint, shoulder_lift_joint, elbow_joint, wrist_1_joint, wrist_2_joint,","[1.9494274854660034, -0.7941449324237269, 1.6400246620178223, -2.4045241514789026, -1.5675209204303187, 2.91538667678833]","[0.15610811114311218, -6.391586794052273e-05, -0.00020453077740967274, 0.0008436894277110696, 0.00046019424917176366, 0.04364175349473953]","[0.6317139267921448, -7.933045387268066, -3.4097938537597656, -0.4530945420265198, 0.2355194389820099, 0.3095398247241974]"
1584444217617513749,,290679,,1584444217,617181169,'',"[shoulder_pan_joint, shoulder_lift_joint, elbow_joint, wrist_1_joint, wrist_2_joint,","[1.9660133123397827, -0.794168774281637, 1.639976978302002, -2.404393021260397, -1.5675209204303187, 2.9216859340667725]","[0.14416863024234772, 0.0, -0.0021092237439006567, 0.0024351945612579584, 0.00023009712458588183, 0.06356433033943176]","[0.2792358696460724, -7.887269020080566, -3.4927408695220947, -0.4553375840187073, 0.2848663628101349, 0.3319702446460724]"
1584444217729508007,,290693,,1584444217,729171308,'',"[shoulder_pan_joint, shoulder_lift_joint, elbow_joint, wrist_1_joint, wrist_2_joint,","[1.9820231199264526, -0.7941449324237269, 1.6399049758911133, -2.4042251745807093, -1.5675089995013636, 2.9284400939941406]","[0.1375086009502411, -0.0003962783666793257, -0.0003707120195031166, 0.003892476437613368, 0.00013422331539914012, 0.05060219392180443]","[0.2609253227710724, -7.557679176330566, -3.8940248489379883, -0.3454284965991974, 0.3207550346851349, 0.3588867485523224]"
1584444217841567186,,290707,,1584444217,841183680,'',"[shoulder_pan_joint, shoulder_lift_joint, elbow_joint, wrist_1_joint, wrist_2_joint,","[1.9971097707748413, -0.7941930929767054, 1.6399288177490234, -2.4041650930987757, -1.5674966017352503, 2.933960437774658]","[0.13487526774406433, 0.0, -0.00029401297797448933, -0.00036432043998502195, 9.58738019107841e-05, 0.05531918257474899]","[0.4211426079273224, -8.001709938049316, -3.5286097526550293, -0.4216919243335724, 0.2400055229663849, 0.3028106987476349]"
1584444217953612258,,290721,,1584444217,953229333,'',"[shoulder_pan_joint, shoulder_lift_joint, elbow_joint, wrist_1_joint, wrist_2_joint,","[2.012495517730713, -0.7941811720477503, 1.6399407386779785, -2.4040096441852015, -1.5675328413592737, 2.94033145904541]","[0.1356039047241211, 0.0, -0.00021731395099777728, 0.005062136799097061, 9.58738019107841e-05, 0.053037386387586594]","[0.5264282822608948, -7.901001930236816, -3.7057127952575684, -0.4216919243335724, 0.3207550346851349, 0.3790741264820099]"
1584444218065499636,,290735,,1584444218,65178627,'',"[shoulder_pan_joint, shoulder_lift_joint, elbow_joint, wrist_1_joint, wrist_2_joint,","[2.0267422199249268, -0.7941930929767054, 1.6401448249816895, -2.4033153692828577, -1.5676763693438929, 2.9450979232788086]","[0.12248837202787399, -0.00020453077740967274, 0.001597896683961153, 0.01464951690286398, 9.58738019107841e-05, 0.035952676087617874]","[0.5813599228858948, -7.864380836486816, -3.8021106719970703, -0.5607605576515198, 0.3185119926929474, 0.3835602104663849]"
1584444218177480399,,290749,,1584444218,177128522,'',"[shoulder_pan_joint, shoulder_lift_joint, elbow_joint, wrist_1_joint, wrist_2_joint,","[2.0401132106781006, -0.794504467641012, 1.6420416831970215, -2.4026806990252894, -1.5677250067340296, 2.9491336345672607]","[0.11246635764837265, -0.016694825142621994, 0.05753706395626068, -0.002070874208584428, -0.0005752427969127893, 0.03973010182380676]","[0.4806519150733948, -8.793641090393066, -3.4232447147369385, -0.9824525117874146, 0.3476715385913849, 0.3140259087085724]"
1584444218289413963,,290763,,1584444218,289118883,'',"[shoulder_pan_joint, shoulder_lift_joint, elbow_joint, wrist_1_joint, wrist_2_joint,","[2.0523693561553955, -0.7995150724994105, 1.6535673141479492, -2.405613724385397, -1.5676887671100062, 2.9534687995910645]","[0.11269645392894745, -0.07296635210514069, 0.13455568253993988, -0.051656804978847504, -0.00015339808305725455, 0.03438034653663635]","[0.3112793266773224, -8.692933082580566, -3.174403667449951, -1.1708680391311646, 0.3768310844898224, 0.3768310844898224]"
1584444218401406187,,290777,,1584444218,401088825,'',"[shoulder_pan_joint, shoulder_lift_joint, elbow_joint, wrist_1_joint, wrist_2_joint,","[2.0654520988464355, -0.8089245001422327, 1.6691021919250488, -2.4133108297931116, -1.5676763693438929, 2.9562952518463135]","[0.12270568311214447, -0.08171004801988602, 0.12857316434383392, -0.0737844780087471, -0.00015339808305725455, 0.014342720620334148]","[0.3662109673023224, -8.102417945861816, -2.7843286991119385, -0.980209469795227, 0.4284210503101349, 0.3566437065601349]"
1584444218513385637,,290791,,1584444218,513095686,'',"[shoulder_pan_joint, shoulder_lift_joint, elbow_joint, wrist_1_joint, wrist_2_joint,","[2.0791709423065186, -0.8174236456500452, 1.6829805374145508, -2.4203618208514612, -1.5676644484149378, 2.9552409648895264]","[0.11458836495876312, -0.07094661146402359, 0.12471263855695724, -0.054858990013599396, -0.00013422331539914012, -0.04569345340132713]","[0.6454468369483948, -7.978821754455566, -3.0376532077789307, -1.2157288789749146, 0.3701019585132599, -0.2422485649585724]"
1584444218625448794,,290805,,1584444218,625143704,'',"[shoulder_pan_joint, shoulder_lift_joint, elbow_joint, wrist_1_joint, wrist_2_joint,","[2.0906944274902344, -0.8243878523456019, 1.6953587532043457, -2.4272573629962366, -1.5676286856280726, 2.9507741928100586]","[0.09508124738931656, -0.05351036414504051, 0.09997720271348953, -0.058828163892030716, 9.58738019107841e-05, -0.03317233547568321]","[0.5035400986671448, -7.804871559143066, -2.81795597076416, -0.953292965888977, 0.3813171684741974, -0.2915954887866974]"
1584444218737431881,,290819,,1584444218,737097006,'',"[shoulder_pan_joint, shoulder_lift_joint, elbow_joint, wrist_1_joint, wrist_2_joint,","[2.1008994579315186, -0.8300102392779749, 1.7055869102478027, -2.432835404072897, -1.5676286856280726, 2.947613000869751]","[0.08802492916584015, -0.04987994208931923, 0.08150551468133926, -0.043354131281375885, 9.58738019107841e-05, -0.021322334185242653]","[0.5310059189796448, -7.864380836486816, -2.7708778381347656, -1.0856324434280396, 0.4059906303882599, -0.3095398247241974]"
1584444218849476532,,290833,,1584444218,849093898,'',"[shoulder_pan_joint, shoulder_lift_joint, elbow_joint, wrist_1_joint, wrist_2_joint,","[2.11002516746521, -0.8345769087420862, 1.7151432037353516, -2.43781549135317, -1.5676406065570276, 2.9455649852752686]","[0.07323480397462845, -0.03603576496243477, 0.08057234436273575, -0.04784102737903595, 9.58738019107841e-05, -0.01950073055922985]","[0.7461548447608948, -7.786561012268066, -2.914353609085083, -1.065445065498352, 0.4037475883960724, -0.2355194389820099]"
1584444218961525492,,290847,,1584444218,961156373,'',"[shoulder_pan_joint, shoulder_lift_joint, elbow_joint, wrist_1_joint, wrist_2_joint,","[2.116908073425293, -0.8389046827899378, 1.7250003814697266, -2.4434660116778772, -1.5675209204303187, 2.942906379699707]","[0.04958593100309372, -0.04049709439277649, 0.09490227699279785, -0.059614330530166626, 9.58738019107841e-05, -0.02341238223016262]","[0.8331299424171448, -8.129883766174316, -2.8717594146728516, -0.8164673447608948, 0.3835602104663849, -0.2534637749195099]"
1584444219073510813,,290861,,1584444219,73099165,'',"[shoulder_pan_joint, shoulder_lift_joint, elbow_joint, wrist_1_joint, wrist_2_joint,","[2.1219444274902344, -0.843783203755514, 1.7341842651367188, -2.449331585560934, -1.5675209204303187, 2.9394214153289795]","[0.04869110882282257, -0.04008803144097328, 0.08160778135061264, -0.04822452366352081, 0.00032597093377262354, -0.03833034634590149]","[0.4669190049171448, -7.754517555236816, -2.921079158782959, -0.8747864961624146, 0.3544006645679474, -0.2646789848804474]"
1584444219185351795,,290875,,1584444219,185067524,'',"[shoulder_pan_joint, shoulder_lift_joint, elbow_joint, wrist_1_joint, wrist_2_joint,","[2.1284677982330322, -0.8473790327655237, 1.7422642707824707, -2.4544675985919397, -1.567460838948385, 2.9352424144744873]","[0.06548819690942764, -0.028966670855879784, 0.060144830495119095, -0.03608689829707146, 0.0003067961661145091, -0.03430364653468132]","[0.5538941025733948, -7.754517555236816, -2.735008955001831, -0.8074951767921448, 0.3835602104663849, -0.2848663628101349]"
1584444219297335162,,290889,,1584444219,297058937,'',"[shoulder_pan_joint, shoulder_lift_joint, elbow_joint, wrist_1_joint, wrist_2_joint,","[2.136538028717041, -0.8508313337909144, 1.7503676414489746, -2.458872143422262, -1.567460838948385, 2.931649684906006]","[0.0790383592247963, -0.03281440585851669, 0.0756891667842865, -0.04506068676710129, 0.00015339808305725455, -0.027707528322935104]","[0.6225586533546448, -8.161927223205566, -2.833648443222046, -0.7514191269874573, 0.4575806260108948, -0.2938385307788849]"
1584444219409430138,,290903,,1584444219,409061860,'',"[shoulder_pan_joint, shoulder_lift_joint, elbow_joint, wrist_1_joint, wrist_2_joint,","[2.1451354026794434, -0.8550394217120569, 1.7580389976501465, -2.4628708998309534, -1.56744891801943, 2.928140640258789]","[0.07001344114542007, -0.0406760573387146, 0.07828415185213089, -0.03593350201845169, 0.00013422331539914012, -0.03587597608566284]","[0.6683350205421448, -7.795716285705566, -2.8807265758514404, -0.8972169160842896, 0.4643097519874573, -0.2534637749195099]"
1584444219521445545,,290917,,1584444219,521050308,'',"[shoulder_pan_joint, shoulder_lift_joint, elbow_joint, wrist_1_joint, wrist_2_joint,","[2.15330171585083, -0.8591392675982874, 1.766202449798584, -2.466893021260397, -1.56744891801943, 2.9233627319335938]","[0.07212266325950623, -0.030730748549103737, 0.06276538223028183, -0.03392015025019646, 0.00013422331539914012, -0.0522320456802845]","[0.5355835556983948, -7.768250465393066, -2.8874518871307373, -0.953292965888977, 0.4396362900733948, -0.3028106987476349]"
1584444219633473004,,290931,,1584444219,633029707,'',"[shoulder_pan_joint, shoulder_lift_joint, elbow_joint, wrist_1_joint, wrist_2_joint,","[2.1614434719085693, -0.8628428618060511, 1.7740659713745117, -2.4707115332232874, -1.567436997090475, 2.918320655822754]","[0.07567638903856277, -0.037825409322977066, 0.0776577815413475, -0.04024782031774521, 0.00011504856229294091, -0.03925073519349098]","[0.7919312119483948, -7.887269020080566, -2.7708778381347656, -0.894973874092102, 0.4979553818702698, -0.3364563286304474]"
1584444219745481549,,290945,,1584444219,745069600,'',"[shoulder_pan_joint, shoulder_lift_joint, elbow_joint, wrist_1_joint, wrist_2_joint,","[2.169501304626465, -0.867446247731344, 1.7825775146484375, -2.4751771132098597, -1.567436997090475, 2.914907693862915]","[0.06307217478752136, -0.047451138496398926, 0.0830267146229744, -0.04494563862681389, 7.669904152862728e-05, -0.026326945051550865]","[0.8468628525733948, -7.695008277893066, -2.730525255203247, -0.7828217148780823, 0.4104767143726349, -0.2624359428882599]"
1584444219857412328,,290959,,1584444219,857014346,'',"[shoulder_pan_joint, shoulder_lift_joint, elbow_joint, wrist_1_joint, wrist_2_joint,","[2.176276445388794, -0.8717015425311487, 1.7912096977233887, -2.4798572699176233, -1.5674007574664515, 2.9112915992736816]","[0.056182049214839935, -0.029209552332758904, 0.061461497098207474, -0.031216509640216827, 7.669904152862728e-05, -0.03714150935411453]","[0.7141113877296448, -7.736207008361816, -2.808988571166992, -0.894973874092102, 0.4396362900733948, -0.2579498589038849]"
1584444219969433977,,290973,,1584444219,969002742,'',"[shoulder_pan_joint, shoulder_lift_joint, elbow_joint, wrist_1_joint, wrist_2_joint,","[2.1815521717071533, -0.8750346342669886, 1.7983522415161133, -2.483664337788717, -1.567329231892721, 2.9060821533203125]","[0.0420055091381073, -0.03027055412530899, 0.06735453754663467, -0.03696893900632858, 0.0018024274613708258, -0.05014199763536453]","[0.6317139267921448, -7.736207008361816, -2.6856889724731445, -0.917404294013977, 0.4732819199562073, -0.3095398247241974]"
1584444220081423917,,290987,,1584444220,81014393,'',"[shoulder_pan_joint, shoulder_lift_joint, elbow_joint, wrist_1_joint, wrist_2_joint,","[2.186648368835449, -0.8779953161822718, 1.8038749694824219, -2.486908260975973, -1.5672934691058558, 2.9011123180389404]","[0.04940696433186531, -0.026767965406179428, 0.04250405356287956, -0.02274126559495926, 0.0003067961661145091, -0.03963422775268555]","[0.6637573838233948, -7.626343727111816, -2.7058653831481934, -0.8209534287452698, 0.4710388779640198, -0.3252411186695099]"
1584444220193423354,,291001,,1584444220,193004612,'',"[shoulder_pan_joint, shoulder_lift_joint, elbow_joint, wrist_1_joint, wrist_2_joint,","[2.192164182662964, -0.8810761610614222, 1.8102498054504395, -2.4899967352496546, -1.5672815481769007, 2.8968610763549805]","[0.04430647939443588, -0.029529130086302757, 0.07328593730926514, -0.0392315611243248, 0.00017257283616345376, -0.03925073519349098]","[0.8377075791358948, -7.653809547424316, -2.7753615379333496, -0.7738495469093323, 0.4373932480812073, -0.2601929008960724]"
1584444220305446816,,291015,,1584444220,305041710,'',"[shoulder_pan_joint, shoulder_lift_joint, elbow_joint, wrist_1_joint, wrist_2_joint,","[2.1971163749694824, -0.8840130011187952, 1.8175487518310547, -2.4941628615008753, -1.567209545766012, 2.8917717933654785]","[0.045891594141721725, -0.025361815467476845, 0.05435405299067497, -0.031082285568118095, 0.00036432043998502195, -0.049796853214502335]","[0.7186890244483948, -7.630921363830566, -2.5960166454315186, -0.8837586641311646, 0.4441223740577698, -0.2915954887866974]"
1584444220417424583,,291029,,1584444220,417003929,'',"[shoulder_pan_joint, shoulder_lift_joint, elbow_joint, wrist_1_joint, wrist_2_joint,","[2.2017807960510254, -0.8868659178363245, 1.8235392570495605, -2.4971912542926233, -1.5671494642840784, 2.88686203956604]","[0.03098641335964203, -0.024351945146918297, 0.04530356824398041, -0.024102672934532166, 0.0007094661123119295, -0.036201946437358856]","[0.8285523056983948, -7.695008277893066, -2.5960166454315186, -0.9196473360061646, 0.4306641221046448, -0.3297272026538849]"
1584444220529338361,,291043,,1584444220,528984901,'',"[shoulder_pan_joint, shoulder_lift_joint, elbow_joint, wrist_1_joint, wrist_2_joint,","[2.2041068077087402, -0.8886759916888636, 1.8259644508361816, -2.498723808919088, -1.5671137014972132, 2.8835806846618652]","[0.01164547074586153, -0.0027867318131029606, 0.004793690051883459, -0.0015339808305725455, 0.00028762139845639467, -0.026633741334080696]","[0.9063721895217896, -7.283020973205566, -2.840373992919922, -0.7200165390968323, 0.4373932480812073, -0.2758941948413849]"
1584444220641366522,,291057,,1584444220,640993406,'',"[shoulder_pan_joint, shoulder_lift_joint, elbow_joint, wrist_1_joint, wrist_2_joint,","[2.2052221298217773, -0.8886283079730433, 1.8260002136230469, -2.4986756483661097, -1.567089859639303, 2.8804073333740234]","[0.010188189335167408, -0.00026844663079828024, -0.0, 0.0002109223569277674, 0.00013422331539914012, -0.02617354691028595]","[0.7095337510108948, -6.724548816680908, -3.443420886993408, -0.5674896836280823, 0.3880462944507599, -0.2826233208179474]"
1584444220753341283,,291071,,1584444220,752991310,'',"[shoulder_pan_joint, shoulder_lift_joint, elbow_joint, wrist_1_joint, wrist_2_joint,","[2.206876754760742, -0.8886521498309534, 1.8260364532470703, -2.498603645955221, -1.5671256224261683, 2.876659393310547]","[0.020325245335698128, -0.00011504856229294091, -0.0, 0.0, 9.58738019107841e-05, -0.03984514996409416]","[0.6683350205421448, -6.953430652618408, -3.270801544189453, -0.5652466416358948, 0.4261780083179474, -0.3028106987476349]"
1584444220865489739,,291085,,1584444220,865054406,'',"[shoulder_pan_joint, shoulder_lift_joint, elbow_joint, wrist_1_joint, wrist_2_joint,","[2.2101259231567383, -0.8886283079730433, 1.8260245323181152, -2.4985440413104456, -1.5671494642840784, 2.87251615524292]","[0.04054822772741318, -7.669904152862728e-05, -0.0, 0.0, 7.669904152862728e-05, -0.03528155758976936]","[0.8697510361671448, -7.003784656524658, -3.2506253719329834, -0.5809479355812073, 0.4284210503101349, -0.2803802788257599]"
1584444220977376055,,291099,,1584444220,976971831,'',"[shoulder_pan_joint, shoulder_lift_joint, elbow_joint, wrist_1_joint, wrist_2_joint,","[2.21541428565979, -0.8886283079730433, 1.8261561393737793, -2.4984124342547815, -1.567209545766012, 2.868516445159912]","[0.04970097914338112, -5.1132694352418184e-05, 0.0023648871574550867, 0.00138058268930763, 3.834952076431364e-05, -0.03395850211381912]","[0.6317139267921448, -6.999207019805908, -3.270801544189453, -0.6370239853858948, 0.4575806260108948, -0.2803802788257599]"
1584444221089447006,,291113,,1584444221,88976968,'',"[shoulder_pan_joint, shoulder_lift_joint, elbow_joint, wrist_1_joint, wrist_2_joint,","[2.220773935317993, -0.8893235365497034, 1.8295297622680664, -2.4990347067462366, -1.567197624837057, 2.863786458969116]","[0.05354871228337288, -0.022370554506778717, 0.06832606345415115, -0.018196847289800644, 3.834952076431364e-05, -0.04933665692806244]","[0.6271362900733948, -7.965088844299316, -2.8740010261535645, -1.0273133516311646, 0.4665527939796448, -0.2422485649585724]"
1584444221201378627,,291127,,1584444221,200967600,'',"[shoulder_pan_joint, shoulder_lift_joint, elbow_joint, wrist_1_joint, wrist_2_joint,","[2.227224826812744, -0.8942864576922815, 1.8415703773498535, -2.504266087208883, -1.567089859639303, 2.857356071472168]","[0.05403447523713112, -0.06077120825648308, 0.13073351979255676, -0.07420632243156433, 1.917476038215682e-05, -0.056354619562625885]","[0.7186890244483948, -7.951355934143066, -2.8650338649749756, -0.8837586641311646, 0.5158997178077698, -0.3319702446460724]"
1584444221313405174,,291141,,1584444221,312994007,'',"[shoulder_pan_joint, shoulder_lift_joint, elbow_joint, wrist_1_joint, wrist_2_joint,","[2.2318053245544434, -0.9017546812640589, 1.8556885719299316, -2.51270562807192, -1.5668018499957483, 2.8517515659332275]","[0.03134434297680855, -0.06693269312381744, 0.0937773585319519, -0.06360267847776413, 0.0031254859641194344, -0.047400008887052536]","[0.9658814668655396, -7.525635719299316, -2.374077320098877, -0.9106751680374146, 0.4486084580421448, -0.2489776909351349]"
1584444221425358386,,291155,,1584444221,424967416,'',"[shoulder_pan_joint, shoulder_lift_joint, elbow_joint, wrist_1_joint, wrist_2_joint,","[2.234431028366089, -0.9071973005877894, 1.8617873191833496, -2.517243210469381, -1.566634480153219, 2.845381259918213]","[0.018152106553316116, -0.016886571422219276, 0.00586747657507658, -0.014917963184416294, 0.0006519418675452471, -0.06816627085208893]","[0.9841920137405396, -7.063294410705566, -2.4099464416503906, -0.8030090928077698, 0.4172058403491974, -0.3005676567554474]"
1584444221537335962,,291169,,1584444221,536958658,'',"[shoulder_pan_joint, shoulder_lift_joint, elbow_joint, wrist_1_joint, wrist_2_joint,","[2.2358338832855225, -0.9070771376239222, 1.860694408416748, -2.516632382069723, -1.566634480153219, 2.838184356689453]","[0.006493852008134127, 0.00199417513795197, -0.013575729914009571, 0.010776215232908726, 0.0002109223569277674, -0.06214539706707001]","[0.9063721895217896, -5.717468738555908, -3.443420886993408, -0.3499145805835724, 0.3745880424976349, -0.3364563286304474]"
1584444221649359875,,291183,,1584444221,648985036,'',"[shoulder_pan_joint, shoulder_lift_joint, elbow_joint, wrist_1_joint, wrist_2_joint,","[2.2358100414276123, -0.9070408979998987, 1.8608264923095703, -2.5165966192828577, -1.5666583220111292, 2.8319454193115234]","[-0.001035437104292214, 0.00023009712458588183, 0.003579288488253951, -0.0016490294365212321, 0.00011504856229294091, -0.03654709458351135]","[-0.0595092847943306, -6.568909168243408, -2.7955377101898193, -0.6123505234718323, 0.4284210503101349, -0.2108459621667862]"
1584444221761322734,,291197,,1584444221,760986056,'',"[shoulder_pan_joint, shoulder_lift_joint, elbow_joint, wrist_1_joint, wrist_2_joint,","[2.2357981204986572, -0.9070528189288538, 1.8607063293457031, -2.5165846983539026, -1.566766087208883, 2.830820083618164]","[-0.00017896443023346364, 0.00010226538870483637, -0.0005113269435241818, 0.0044293696992099285, -0.008858739398419857, 0.0015339808305725455]","[0.2334595024585724, -6.358337879180908, -2.826923131942749, -0.4172058403491974, 0.1278534084558487, 0.0381317175924778]"
1584444221873394947,,291211,,1584444221,873044584,'',"[shoulder_pan_joint, shoulder_lift_joint, elbow_joint, wrist_1_joint, wrist_2_joint,","[2.235750198364258, -0.9070408979998987, 1.860682487487793, -2.5165608564959925, -1.5668261686908167, 2.830820083618164]","[-8.948221511673182e-05, 6.391586794052273e-05, -0.0003579288604669273, 0.00028762139845639467, -0.0003067961661145091, 0.00024927189224399626]","[0.2563476860523224, -6.340027332305908, -2.824681282043457, -0.4127197563648224, 0.0919647291302681, 0.0448608435690403]"
1584444221985226381,,291225,,1584444221,984951448,'',"[shoulder_pan_joint, shoulder_lift_joint, elbow_joint, wrist_1_joint, wrist_2_joint,","[2.2357261180877686, -0.9071133772479456, 1.8606343269348145, -2.5165608564959925, -1.5668142477618616, 2.830832004547119]","[-6.391586794052273e-05, 5.1132694352418184e-05, -6.391586794052273e-05, 0.00017257283616345376, -0.00015339808305725455, 0.00013422331539914012]","[0.2151489406824112, -6.312561511993408, -2.813472270965576, -0.4082336723804474, 0.1256103664636612, 0.0381317175924778]"
1584444222097380217,,291239,,1584444222,97035274,'',"[shoulder_pan_joint, shoulder_lift_joint, elbow_joint, wrist_1_joint, wrist_2_joint,","[2.235762119293213, -0.9070528189288538, 1.8606462478637695, -2.516548458729879, -1.5668142477618616, 2.830843925476074]","[-5.1132694352418184e-05, 3.834952076431364e-05, -6.391586794052273e-05, 0.00017257283616345376, -9.58738019107841e-05, 9.58738019107841e-05]","[0.2197265923023224, -6.321716785430908, -2.813472270965576, -0.3970184624195099, 0.2153320610523224, 0.0403747595846653]"
1584444222209254651,,291253,,1584444222,208956465,'',"[shoulder_pan_joint, shoulder_lift_joint, elbow_joint, wrist_1_joint, wrist_2_joint,","[2.235762119293213, -0.9070890585528772, 1.8606462478637695, -2.516536537800924, -1.5668018499957483, 2.830820083618164]","[-3.834952076431364e-05, 2.5566347176209092e-05, -6.391586794052273e-05, 0.00011504856229294091, -7.669904152862728e-05, 5.752428114647046e-05]","[0.2609253227710724, -6.349182605743408, -2.7865705490112305, -0.4216919243335724, 0.2848663628101349, 0.0515899695456028]"
1584444222321255661,,291267,,1584444222,320876193,'',"[shoulder_pan_joint, shoulder_lift_joint, elbow_joint, wrist_1_joint, wrist_2_joint,","[2.235750198364258, -0.9070771376239222, 1.8606104850769043, -2.516536537800924, -1.566754166279928, 2.830843925476074]","[-2.5566347176209092e-05, 2.5566347176209092e-05, -6.391586794052273e-05, 7.669904152862728e-05, 0.001208009896799922, 5.752428114647046e-05]","[0.2380371391773224, -6.312561511993408, -2.732767105102539, -0.4351502060890198, 0.3521576225757599, 0.0426178015768528]"
1584444222433231384,,291281,,1584444222,432904364,'',"[shoulder_pan_joint, shoulder_lift_joint, elbow_joint, wrist_1_joint, wrist_2_joint,","[2.235762119293213, -0.9071009794818323, 1.860670566558838, -2.516548458729879, -1.5667303244220179, 2.830820083618164]","[-2.5566347176209092e-05, 2.5566347176209092e-05, -0.0, 5.752428114647046e-05, 0.00024927189224399626, 3.834952076431364e-05]","[0.2334595024585724, -6.390381336212158, -2.728283405303955, -0.4934692978858948, 0.2960815727710724, 0.0426178015768528]"
1584444222545284482,,291295,,1584444222,544878705,'',"[shoulder_pan_joint, shoulder_lift_joint, elbow_joint, wrist_1_joint, wrist_2_joint,","[2.2357380390167236, -0.9070528189288538, 1.8605866432189941, -2.5164650122271937, -1.5668261686908167, 2.830436944961548]","[-2.5566347176209092e-05, 1.2783173588104546e-05, -0.0012655341997742653, 0.0013614079216495156, -0.0011696603614836931, -0.02105388604104519]","[-0.1785278469324112, -6.394958972930908, -2.6946563720703125, -0.4486084580421448, 0.0628051832318306, -0.2601929008960724]"
1584444222657223657,,291309,,1584444222,656911455,'',"[shoulder_pan_joint, shoulder_lift_joint, elbow_joint, wrist_1_joint, wrist_2_joint,","[2.2356302738189697, -0.9070647398578089, 1.8606343269348145, -2.5164526144610804, -1.5668380896197718, 2.826916456222534]","[-0.0006647250265814364, 1.2783173588104546e-05, -0.0, 0.00046019424917176366, -0.0004410194815136492, -0.03447622060775757]","[-0.01373291201889515, -6.207275867462158, -2.9412553310394287, -0.3544006645679474, 0.0471038855612278, -0.3207550346851349]"
1584444222769246298,,291323,,1584444222,768982295,'',"[shoulder_pan_joint, shoulder_lift_joint, elbow_joint, wrist_1_joint, wrist_2_joint,","[2.235642194747925, -0.9070289770709437, 1.8606586456298828, -2.5164406935321253, -1.5668018499957483, 2.822964668273926]","[-0.0001661812566453591, 1.2783173588104546e-05, -0.0, 0.00017257283616345376, -0.0001917476038215682, -0.03154247999191284]","[0.02288818545639515, -6.394958972930908, -2.7125906944274902, -0.4373932480812073, 0.0583190992474556, -0.3229980766773224]"
1584444222881212864,,291337,,1584444222,880921931,'',"[shoulder_pan_joint, shoulder_lift_joint, elbow_joint, wrist_1_joint, wrist_2_joint,","[2.23565411567688, -0.9070528189288538, 1.8606586456298828, -2.51642877260317, -1.566873852406637, 2.819312572479248]","[-8.948221511673182e-05, 1.2783173588104546e-05, -0.0, 0.00011504856229294091, -0.00011504856229294091, -0.03461044281721115]","[-0.004577637184411287, -6.262207508087158, -2.8941774368286133, -0.3768310844898224, 0.0515899695456028, -0.2848663628101349]"
1584444222993184198,,291351,,1584444222,992913473,'',"[shoulder_pan_joint, shoulder_lift_joint, elbow_joint, wrist_1_joint, wrist_2_joint,","[2.235642194747925, -0.9070528189288538, 1.8606462478637695, -2.51638108888735, -1.5668142477618616, 2.814546585083008]","[-6.391586794052273e-05, 1.2783173588104546e-05, -0.0, 0.00011504856229294091, -7.669904152862728e-05, -0.05482063814997673]","[0.01373291201889515, -6.367493152618408, -2.7843286991119385, -0.4239349663257599, 0.0515899695456028, -0.3050537407398224]"
1584444223105190118,,291365,,1584444223,104908432,'',"[shoulder_pan_joint, shoulder_lift_joint, elbow_joint, wrist_1_joint, wrist_2_joint,","[2.2356302738189697, -0.9070289770709437, 1.8606462478637695, -2.5164054075824183, -1.566861931477682, 2.80839204788208]","[-5.1132694352418184e-05, 1.2783173588104546e-05, -0.0, 0.00011504856229294091, -5.752428114647046e-05, -0.05842549353837967]","[-0.0366210974752903, -6.344604969024658, -2.7910542488098145, -0.4127197563648224, 0.0471038855612278, -0.3476715385913849]"
1584444223217104697,,291379,,1584444223,216847357,'',"[shoulder_pan_joint, shoulder_lift_joint, elbow_joint, wrist_1_joint, wrist_2_joint,","[2.235642194747925, -0.9070170561419886, 1.8606462478637695, -2.516393486653463, -1.5668500105487269, 2.8021655082702637]","[-3.834952076431364e-05, 1.2783173588104546e-05, -0.0, 9.58738019107841e-05, -3.834952076431364e-05, -0.06218374893069267]","[0.004577637184411287, -6.294250965118408, -2.8515830039978027, -0.4015045464038849, 0.0426178015768528, -0.2781372368335724]"
1584444223329260156,,291393,,1584444223,328906415,'',"[shoulder_pan_joint, shoulder_lift_joint, elbow_joint, wrist_1_joint, wrist_2_joint,","[2.2356302738189697, -0.9070289770709437, 1.8606586456298828, -2.516393486653463, -1.5668261686908167, 2.794585704803467]","[-2.5566347176209092e-05, 1.2783173588104546e-05, -0.0, 7.669904152862728e-05, -3.834952076431364e-05, -0.06421627104282379]","[0.0457763709127903, -6.294250965118408, -2.83813214302063, -0.3902893364429474, 0.0471038855612278, -0.3409424126148224]"
1584444223441245296,,291407,,1584444223,440926562,'',"[shoulder_pan_joint, shoulder_lift_joint, elbow_joint, wrist_1_joint, wrist_2_joint,","[2.235642194747925, -0.9070528189288538, 1.860670566558838, -2.516393486653463, -1.5668261686908167, 2.7879037857055664]","[-2.5566347176209092e-05, 1.2783173588104546e-05, -0.0, 5.752428114647046e-05, -3.834952076431364e-05, -0.057198308408260345]","[-0.0503540076315403, -6.280518054962158, -2.824681282043457, -0.4015045464038849, 0.0471038855612278, -0.2848663628101349]"
1584444223553250053,,291421,,1584444223,552874673,'',"[shoulder_pan_joint, shoulder_lift_joint, elbow_joint, wrist_1_joint, wrist_2_joint,","[2.2356302738189697, -0.9070170561419886, 1.860670566558838, -2.516369167958395, -1.566873852406637, 2.780707597732544]","[-2.5566347176209092e-05, 0.0, -0.0, 3.834952076431364e-05, -1.917476038215682e-05, -0.061474282294511795]","[0.004577637184411287, -6.298828601837158, -2.831406831741333, -0.4015045464038849, 0.0560760572552681, -0.3342132866382599]"
1584444223665179330,,291435,,1584444223,664821001,'',"[shoulder_pan_joint, shoulder_lift_joint, elbow_joint, wrist_1_joint, wrist_2_joint,","[2.2356183528900146, -0.9070289770709437, 1.8606462478637695, -2.516393486653463, -1.5668261686908167, 2.7749719619750977]","[-1.2783173588104546e-05, 0.0, -0.0, 3.834952076431364e-05, -1.917476038215682e-05, -0.04072719067335129]","[0.0732421949505806, -6.312561511993408, -2.8560667037963867, -0.3902893364429474, 0.0515899695456028, -0.3050537407398224]"
1584444223777230274,,291449,,1584444223,776908283,'',"[shoulder_pan_joint, shoulder_lift_joint, elbow_joint, wrist_1_joint, wrist_2_joint,","[2.2356061935424805, -0.9070170561419886, 1.8606586456298828, -2.5164054075824183, -1.5668500105487269, 2.7703378200531006]","[-1.2783173588104546e-05, 0.0, -0.0, 3.834952076431364e-05, -1.917476038215682e-05, -0.04389102756977081]","[-0.02288818545639515, -6.294250965118408, -2.8470993041992188, -0.3633728325366974, 0.0493469275534153, -0.2691650688648224]"
1584444223889161203,,291463,,1584444223,888840284,'',"[shoulder_pan_joint, shoulder_lift_joint, elbow_joint, wrist_1_joint, wrist_2_joint,","[2.2356061935424805, -0.9070408979998987, 1.860694408416748, -2.516369167958395, -1.5668018499957483, 2.7649738788604736]","[-1.2783173588104546e-05, 0.0, -0.0, 1.917476038215682e-05, -1.917476038215682e-05, -0.04205024987459183]","[0.0366210974752903, -6.321716785430908, -2.81795597076416, -0.4082336723804474, 0.0515899695456028, -0.3185119926929474]"
1584444224001253314,,291477,,1584444224,852285,'',"[shoulder_pan_joint, shoulder_lift_joint, elbow_joint, wrist_1_joint, wrist_2_joint,","[2.2356183528900146, -0.9070289770709437, 1.860682487487793, -2.51638108888735, -1.566861931477682, 2.7611782550811768]","[-1.2783173588104546e-05, 0.0, -0.0, 1.917476038215682e-05, -1.917476038215682e-05, -0.02490801364183426]","[0.0320434607565403, -6.344604969024658, -2.808988571166992, -0.4127197563648224, 0.0381317175924778, -0.3521576225757599]"
1584444224113179233,,291491,,1584444224,112833628,'',"[shoulder_pan_joint, shoulder_lift_joint, elbow_joint, wrist_1_joint, wrist_2_joint,","[2.2356302738189697, -0.9070408979998987, 1.860670566558838, -2.51638108888735, -1.566861931477682, 2.758735418319702]","[-1.2783173588104546e-05, 0.0, -0.0, 1.917476038215682e-05, -1.917476038215682e-05, -0.023143935948610306]","[-0.02288818545639515, -6.303406238555908, -2.835890293121338, -0.4127197563648224, 0.0448608435690403, -0.2646789848804474]"
1584444224225099052,,291505,,1584444224,224824490,'',"[shoulder_pan_joint, shoulder_lift_joint, elbow_joint, wrist_1_joint, wrist_2_joint,","[2.2356061935424805, -0.9070051352130335, 1.8606586456298828, -2.516393486653463, -1.5668500105487269, 2.7556700706481934]","[-1.2783173588104546e-05, 0.0, -0.0, 1.917476038215682e-05, -1.917476038215682e-05, -0.025770878419280052]","[0.004577637184411287, -6.326294422149658, -2.840373992919922, -0.4127197563648224, 0.0471038855612278, -0.2534637749195099]"
1584444224337115191,,291519,,1584444224,336800584,'',"[shoulder_pan_joint, shoulder_lift_joint, elbow_joint, wrist_1_joint, wrist_2_joint,","[2.235642194747925, -0.9070528189288538, 1.8606586456298828, -2.5164054075824183, -1.5668380896197718, 2.754316806793213]","[-1.2783173588104546e-05, 0.0, -0.0, 1.917476038215682e-05, -1.917476038215682e-05, -0.0008053399506025016]","[0.004577637184411287, -6.321716785430908, -2.824681282043457, -0.3992615044116974, 0.0493469275534153, 0.0560760572552681]"
1584444224449178047,,291533,,1584444224,448845736,'',"[shoulder_pan_joint, shoulder_lift_joint, elbow_joint, wrist_1_joint, wrist_2_joint,","[2.235666275024414, -0.9069808165179651, 1.860670566558838, -2.5163453261004847, -1.5668261686908167, 2.7543528079986572]","[-1.2783173588104546e-05, 0.0, -0.0, 1.917476038215682e-05, 0.0, 0.0003067961661145091]","[0.2700805962085724, -6.317139148712158, -2.8470993041992188, -0.3701019585132599, 0.0336456336081028, 0.0381317175924778]"
1584444224561165041,,291547,,1584444224,560847629,'',"[shoulder_pan_joint, shoulder_lift_joint, elbow_joint, wrist_1_joint, wrist_2_joint,","[2.2356302738189697, -0.9070170561419886, 1.8606586456298828, -2.51638108888735, -1.5668500105487269, 2.754340887069702]","[-1.2783173588104546e-05, 0.0, -0.0, 1.917476038215682e-05, 0.0, 0.00015339808305725455]","[0.2883911430835724, -6.285095691680908, -2.842615842819214, -0.3970184624195099, 0.0426178015768528, 0.0426178015768528]"
1584444224673178755,,291561,,1584444224,672823201,'',"[shoulder_pan_joint, shoulder_lift_joint, elbow_joint, wrist_1_joint, wrist_2_joint,","[2.235642194747925, -0.9070170561419886, 1.860682487487793, -2.516393486653463, -1.5668500105487269, 2.7543528079986572]","[0.0, 0.0, -0.0, 1.917476038215682e-05, 0.0, 9.58738019107841e-05]","[0.3112793266773224, -6.303406238555908, -2.844857692718506, -0.3970184624195099, 0.0471038855612278, 0.0403747595846653]"
1584444224785240759,,291575,,1584444224,784882801,'',"[shoulder_pan_joint, shoulder_lift_joint, elbow_joint, wrist_1_joint, wrist_2_joint,","[2.2356183528900146, -0.9070408979998987, 1.860694408416748, -2.51638108888735, -1.5668380896197718, 2.7543528079986572]","[0.0, 0.0, -0.0, 0.0, 0.0, 7.669904152862728e-05]","[0.2700805962085724, -6.298828601837158, -2.835890293121338, -0.4059906303882599, 0.0515899695456028, 0.0381317175924778]"
1584444224897081941,,291589,,1584444224,896830302,'',"[shoulder_pan_joint, shoulder_lift_joint, elbow_joint, wrist_1_joint, wrist_2_joint,","[2.235666275024414, -0.9070289770709437, 1.860694408416748, -2.51638108888735, -1.5668500105487269, 2.7543528079986572]","[0.0, 0.0, -0.0, 0.0, 0.0, 5.752428114647046e-05]","[0.2792358696460724, -6.376648426055908, -2.8493411540985107, -0.3768310844898224, 0.0448608435690403, 0.0403747595846653]"
1584444225009104782,,291603,,1584444225,8816364,'',"[shoulder_pan_joint, shoulder_lift_joint, elbow_joint, wrist_1_joint, wrist_2_joint,","[2.2356061935424805, -0.9070051352130335, 1.860694408416748, -2.5163453261004847, -1.5668261686908167, 2.7524971961975098]","[0.0, 0.0, -0.0, 0.0, 0.0, -0.035473305732011795]","[-0.01831054873764515, -6.381226062774658, -2.735008955001831, -0.4261780083179474, 0.0381317175924778, -0.3028106987476349]"
1584444225121191182,,291617,,1584444225,120886353,'',"[shoulder_pan_joint, shoulder_lift_joint, elbow_joint, wrist_1_joint, wrist_2_joint,","[2.2356183528900146, -0.9070170561419886, 1.860682487487793, -2.5163334051715296, -1.5668380896197718, 2.748162269592285]","[0.0, 0.0, -0.0, 0.0, 0.0, -0.040708016604185104]","[-0.004577637184411287, -6.340027332305908, -2.808988571166992, -0.3902893364429474, 0.0426178015768528, -0.3319702446460724]"
1584444225233068261,,291631,,1584444225,232778540,'',"[shoulder_pan_joint, shoulder_lift_joint, elbow_joint, wrist_1_joint, wrist_2_joint,","[2.23565411567688, -0.9070408979998987, 1.860694408416748, -2.5163572470294397, -1.5668500105487269, 2.7434566020965576]","[0.0, 0.0, -0.0, 0.0, 0.0, -0.042452920228242874]","[-0.01831054873764515, -6.303406238555908, -2.835890293121338, -0.3858032524585724, 0.0403747595846653, -0.2669220268726349]"
1584444225345086513,,291645,,1584444225,344798867,'',"[shoulder_pan_joint, shoulder_lift_joint, elbow_joint, wrist_1_joint, wrist_2_joint,","[2.235642194747925, -0.9070408979998987, 1.860682487487793, -2.516416851674215, -1.5668380896197718, 2.7377572059631348]","[0.0, 0.0, -0.0, 0.0, 0.0, -0.062375493347644806]","[-0.0503540076315403, -6.349182605743408, -2.7686359882354736, -0.4104767143726349, 0.0358886756002903, -0.2601929008960724]"
1584444225457173975,,291659,,1584444225,456825004,'',"[shoulder_pan_joint, shoulder_lift_joint, elbow_joint, wrist_1_joint, wrist_2_joint,","[2.235642194747925, -0.9070289770709437, 1.8606586456298828, -2.5163334051715296, -1.5668380896197718, 2.7304768562316895]","[0.0, 0.0, -0.0, 0.0, 0.0, -0.06291238963603973]","[0.0411987341940403, -6.367493152618408, -2.813472270965576, -0.4194488823413849, 0.0381317175924778, -0.3319702446460724]"
1584444225569084647,,291673,,1584444225,568767304,'',"[shoulder_pan_joint, shoulder_lift_joint, elbow_joint, wrist_1_joint, wrist_2_joint,","[2.2356302738189697, -0.9070408979998987, 1.860682487487793, -2.5163572470294397, -1.5668380896197718, 2.7238316535949707]","[0.0, 0.0, -0.0, 0.0, 0.0, -0.0634109303355217]","[0.009155274368822575, -6.285095691680908, -2.8717594146728516, -0.3588867485523224, 0.0336456336081028, -0.2714081108570099]"
1584444225681196644,,291687,,1584444225,680826313,'',"[shoulder_pan_joint, shoulder_lift_joint, elbow_joint, wrist_1_joint, wrist_2_joint,","[2.23565411567688, -0.9070170561419886, 1.860670566558838, -2.51638108888735, -1.5668500105487269, 2.7163243293762207]","[0.0, 0.0, -0.0, 0.0, 0.0, -0.05792694911360741]","[0.0274658240377903, -6.372070789337158, -2.752943277359009, -0.4104767143726349, 0.0381317175924778, -0.3588867485523224]"
1584444225793265220,,291701,,1584444225,792827964,'',"[shoulder_pan_joint, shoulder_lift_joint, elbow_joint, wrist_1_joint, wrist_2_joint,","[2.2356183528900146, -0.9070051352130335, 1.860694408416748, -2.5163453261004847, -1.5668500105487269, 2.7112114429473877]","[0.0, 0.0, -0.0, 0.0, 0.0, -0.03971092775464058]","[-0.0274658240377903, -6.340027332305908, -2.8067467212677, -0.4082336723804474, 0.0358886756002903, -0.2960815727710724]"
1584444225905137791,,291715,,1584444225,904793619,'',"[shoulder_pan_joint, shoulder_lift_joint, elbow_joint, wrist_1_joint, wrist_2_joint,","[2.2356061935424805, -0.9070289770709437, 1.8606343269348145, -2.516393486653463, -1.566861931477682, 2.7069249153137207]","[0.0, 0.0, -0.0, 0.0, 0.0, -0.04224199801683426]","[-0.009155274368822575, -6.243896961212158, -2.8986611366271973, -0.3611297905445099, 0.0426178015768528, -0.2601929008960724]"
1584444226017218921,,291729,,1584444226,16825988,'',"[shoulder_pan_joint, shoulder_lift_joint, elbow_joint, wrist_1_joint, wrist_2_joint,","[2.2356302738189697, -0.9070408979998987, 1.860670566558838, -2.516369167958395, -1.5668380896197718, 2.701931953430176]","[0.0, 0.0, -0.0, 0.0, 0.0, -0.039020638912916183]","[0.004577637184411287, -6.358337879180908, -2.7753615379333496, -0.4037475883960724, 0.0381317175924778, -0.3117828667163849]"
1584444226129131246,,291743,,1584444226,128787514,'',"[shoulder_pan_joint, shoulder_lift_joint, elbow_joint, wrist_1_joint, wrist_2_joint,","[2.2356302738189697, -0.9070289770709437, 1.8606586456298828, -2.516369167958395, -1.5668142477618616, 2.6982321739196777]","[0.0, 0.0, -0.0, 0.0, 0.0, -0.024045148864388466]","[0.0732421949505806, -6.312561511993408, -2.820197582244873, -0.3745880424976349, 0.0336456336081028, -0.3207550346851349]"
1584444226241069038,,291757,,1584444226,240758579,'',"[shoulder_pan_joint, shoulder_lift_joint, elbow_joint, wrist_1_joint, wrist_2_joint,","[2.235666275024414, -0.9070647398578089, 1.860682487487793, -2.51638108888735, -1.5668380896197718, 2.6954665184020996]","[0.0, 0.0, -0.0, 0.0, 0.0, -0.02912646159529686]","[0.01831054873764515, -6.326294422149658, -2.824681282043457, -0.3970184624195099, 0.0403747595846653, -0.2983246147632599]"
1584444226353126103,,291771,,1584444226,352749220,'',"[shoulder_pan_joint, shoulder_lift_joint, elbow_joint, wrist_1_joint, wrist_2_joint,","[2.235642194747925, -0.9070051352130335, 1.8606586456298828, -2.5164054075824183, -1.566885773335592, 2.692305326461792]","[0.0, 0.0, -0.0, 0.0, 0.0, -0.024217722937464714]","[0.009155274368822575, -6.317139148712158, -2.8022632598876953, -0.3925323784351349, 0.0403747595846653, -0.2265472710132599]"
1584444226465110773,,291785,,1584444226,464763154,'',"[shoulder_pan_joint, shoulder_lift_joint, elbow_joint, wrist_1_joint, wrist_2_joint,","[2.2356183528900146, -0.9070289770709437, 1.860574722290039, -2.516369167958395, -1.5668500105487269, 2.691323757171631]","[0.0, 0.0, -0.0, 0.0, 0.0, 0.0027228158432990313]","[0.2792358696460724, -6.340027332305908, -2.7932958602905273, -0.3790741264820099, 0.0515899695456028, 0.0314025916159153]"
1584444226577159012,,291799,,1584444226,576747844,'',"[shoulder_pan_joint, shoulder_lift_joint, elbow_joint, wrist_1_joint, wrist_2_joint,","[2.23565411567688, -0.9070647398578089, 1.8606343269348145, -2.5163572470294397, -1.5668261686908167, 2.691323757171631]","[0.0, 0.0, -1.2783173588104546e-05, 0.0, 0.0, 0.00026844663079828024]","[0.2655029594898224, -6.294250965118408, -2.815714120864868, -0.3835602104663849, 0.0426178015768528, 0.0560760572552681]"
1584444226689160673,,291813,,1584444226,688774061,'',"[shoulder_pan_joint, shoulder_lift_joint, elbow_joint, wrist_1_joint, wrist_2_joint,","[2.235642194747925, -0.9070647398578089, 1.8606104850769043, -2.51642877260317, -1.5668380896197718, 2.691335678100586]","[0.0, 0.0, -1.2783173588104546e-05, 0.0, 0.0, 0.00013422331539914012]","[0.2609253227710724, -6.275940418243408, -2.8000214099884033, -0.3880462944507599, 0.0403747595846653, 0.0538330152630806]"
1584444226801105228,,291827,,1584444226,800735268,'',"[shoulder_pan_joint, shoulder_lift_joint, elbow_joint, wrist_1_joint, wrist_2_joint,","[2.2356061935424805, -0.9070647398578089, 1.8606104850769043, -2.51638108888735, -1.566861931477682, 2.691335678100586]","[0.0, 0.0, -1.2783173588104546e-05, 0.0, 0.0, 9.58738019107841e-05]","[0.2426147758960724, -6.289673328399658, -2.7955377101898193, -0.3835602104663849, 0.0471038855612278, 0.0493469275534153]"
1584444226913074429,,291841,,1584444226,912745775,'',"[shoulder_pan_joint, shoulder_lift_joint, elbow_joint, wrist_1_joint, wrist_2_joint,","[2.2356183528900146, -0.9070647398578089, 1.8605866432189941, -2.5164406935321253, -1.5668142477618616, 2.691335678100586]","[0.0, 0.0, -1.2783173588104546e-05, 0.0, 0.0, 7.669904152862728e-05]","[0.2792358696460724, -6.312561511993408, -2.8067467212677, -0.3723450005054474, 0.0538330152630806, 0.0493469275534153]"
1584444227025014756,,291855,,1584444227,24709616,'',"[shoulder_pan_joint, shoulder_lift_joint, elbow_joint, wrist_1_joint, wrist_2_joint,","[2.235666275024414, -0.9070408979998987, 1.8605985641479492, -2.516393486653463, -1.566861931477682, 2.6913115978240967]","[0.0, 0.0, -1.2783173588104546e-05, 0.0, 0.0, 5.752428114647046e-05]","[0.2746582329273224, -6.289673328399658, -2.7977795600891113, -0.3813171684741974, 0.0336456336081028, 0.0493469275534153]"
1584444227137008172,,291869,,1584444227,136711649,'',"[shoulder_pan_joint, shoulder_lift_joint, elbow_joint, wrist_1_joint, wrist_2_joint,","[2.2356183528900146, -0.9070051352130335, 1.8605985641479492, -2.5164054075824183, -1.5668380896197718, 2.691359519958496]","[0.0, 0.0, -1.2783173588104546e-05, 0.0, 0.0, 3.834952076431364e-05]","[0.2655029594898224, -6.303406238555908, -2.7865705490112305, -0.3902893364429474, 0.0448608435690403, 0.0493469275534153]"
1584444227249022667,,291883,,1584444227,248701408,'',"[shoulder_pan_joint, shoulder_lift_joint, elbow_joint, wrist_1_joint, wrist_2_joint,","[2.2356302738189697, -0.9070528189288538, 1.8606224060058594, -2.5164054075824183, -1.5668380896197718, 2.691359519958496]","[0.0, 0.0, -1.2783173588104546e-05, 0.0, 0.0, 3.834952076431364e-05]","[0.2700805962085724, -6.289673328399658, -2.7843286991119385, -0.3813171684741974, 0.0426178015768528, 0.0560760572552681]"
1584444227361169740,,291897,,1584444227,360789992,'',"[shoulder_pan_joint, shoulder_lift_joint, elbow_joint, wrist_1_joint, wrist_2_joint,","[2.2356183528900146, -0.9070647398578089, 1.8605866432189941, -2.516416851674215, -1.5668380896197718, 2.690868616104126]","[0.0, 0.0, -1.2783173588104546e-05, 0.0, 0.0, -0.023604130372405052]","[-0.1831054836511612, -6.381226062774658, -2.728283405303955, -0.4306641221046448, 0.02467346377670765, -0.2534637749195099]"
1584444227473089479,,291911,,1584444227,472733605,'',"[shoulder_pan_joint, shoulder_lift_joint, elbow_joint, wrist_1_joint, wrist_2_joint,","[2.235666275024414, -0.9070289770709437, 1.8605985641479492, -2.51638108888735, -1.5668500105487269, 2.6869890689849854]","[0.0, 0.0, -1.2783173588104546e-05, 0.0, 0.0, -0.03961505368351936]","[0.01373291201889515, -6.317139148712158, -2.813472270965576, -0.3992615044116974, 0.0471038855612278, -0.3229980766773224]"
1584444227585163415,,291925,,1584444227,584808754,'',"[shoulder_pan_joint, shoulder_lift_joint, elbow_joint, wrist_1_joint, wrist_2_joint,","[2.2356302738189697, -0.9070528189288538, 1.8605504035949707, -2.51638108888735, -1.5668018499957483, 2.6822597980499268]","[0.0, 0.0, -1.2783173588104546e-05, 0.0, 0.0, -0.038291994482278824]","[0.0549316480755806, -6.303406238555908, -2.8515830039978027, -0.3723450005054474, 0.0358886756002903, -0.3140259087085724]"
1584444227697048510,,291939,,1584444227,696713805,'',"[shoulder_pan_joint, shoulder_lift_joint, elbow_joint, wrist_1_joint, wrist_2_joint,","[2.2356302738189697, -0.9070408979998987, 1.8606104850769043, -2.51638108888735, -1.5668142477618616, 2.677410840988159]","[0.0, 0.0, -1.2783173588104546e-05, 0.0, 0.0, -0.05284563824534416]","[-0.009155274368822575, -6.330872058868408, -2.8045051097869873, -0.4082336723804474, 0.0358886756002903, -0.2624359428882599]"
1584444227809075889,,291953,,1584444227,808718802,'',"[shoulder_pan_joint, shoulder_lift_joint, elbow_joint, wrist_1_joint, wrist_2_joint,","[2.2356183528900146, -0.9070647398578089, 1.8606104850769043, -2.516393486653463, -1.5668142477618616, 2.6704659461975098]","[0.0, 0.0, -1.2783173588104546e-05, 0.0, 0.0, -0.05992112681269646]","[0.01373291201889515, -6.307983875274658, -2.844857692718506, -0.3745880424976349, 0.0493469275534153, -0.3611297905445099]"
1584444227920947247,,291967,,1584444227,920667976,'',"[shoulder_pan_joint, shoulder_lift_joint, elbow_joint, wrist_1_joint, wrist_2_joint,","[2.2356302738189697, -0.9070289770709437, 1.8605985641479492, -2.5164054075824183, -1.5668380896197718, 2.6642637252807617]","[0.0, 0.0, -1.2783173588104546e-05, 0.0, 0.0, -0.048895638436079025]","[0.0778198316693306, -6.307983875274658, -2.8538248538970947, -0.3588867485523224, 0.0381317175924778, -0.3185119926929474]"
1584444228033086075,,291981,,1584444228,32738336,'',"[shoulder_pan_joint, shoulder_lift_joint, elbow_joint, wrist_1_joint, wrist_2_joint,","[2.2356302738189697, -0.9070771376239222, 1.8605866432189941, -2.51642877260317, -1.5668142477618616, 2.6587202548980713]","[0.0, 0.0, -1.2783173588104546e-05, 0.0, 0.0, -0.052864812314510345]","[-0.01831054873764515, -6.312561511993408, -2.813472270965576, -0.3992615044116974, 0.0381317175924778, -0.3274841606616974]"
1584444228145105670,,291995,,1584444228,144725280,'',"[shoulder_pan_joint, shoulder_lift_joint, elbow_joint, wrist_1_joint, wrist_2_joint,","[2.2356302738189697, -0.9070408979998987, 1.8606224060058594, -2.516369167958395, -1.5668261686908167, 2.654026985168457]","[0.0, 0.0, -1.2783173588104546e-05, 0.0, 0.0, -0.0346679650247097]","[0.0366210974752903, -6.358337879180908, -2.7753615379333496, -0.4216919243335724, 0.0381317175924778, -0.3656158745288849]"
1584444228257067177,,292009,,1584444228,256712445,'',"[shoulder_pan_joint, shoulder_lift_joint, elbow_joint, wrist_1_joint, wrist_2_joint,","[2.2356302738189697, -0.9070647398578089, 1.860562801361084, -2.516416851674215, -1.5668018499957483, 2.6513569355010986]","[0.0, 0.0, -1.2783173588104546e-05, 0.0, 0.0, -0.015052187256515026]","[0.0549316480755806, -6.257629871368408, -2.907628297805786, -0.3880462944507599, 0.0358886756002903, -0.3095398247241974]"
1584444228368967960,,292023,,1584444228,368638775,'',"[shoulder_pan_joint, shoulder_lift_joint, elbow_joint, wrist_1_joint, wrist_2_joint,","[2.2356183528900146, -0.9070647398578089, 1.860574722290039, -2.5164054075824183, -1.5668380896197718, 2.64988374710083]","[0.0, 0.0, -1.2783173588104546e-05, 0.0, 0.0, -0.014208497479557991]","[0.02288818545639515, -6.298828601837158, -2.811230421066284, -0.3970184624195099, 0.0403747595846653, -0.2624359428882599]"
1584444228481007993,,292037,,1584444228,480679470,'',"[shoulder_pan_joint, shoulder_lift_joint, elbow_joint, wrist_1_joint, wrist_2_joint,","[2.2356183528900146, -0.9070528189288538, 1.8605985641479492, -2.5164054075824183, -1.5668261686908167, 2.6483991146087646]","[0.0, 0.0, -0.0, 0.0, 0.0, -0.0041609229519963264]","[0.01831054873764515, -6.317139148712158, -2.815714120864868, -0.4239349663257599, 0.0336456336081028, -0.1682281643152237]"
1584444228593139887,,292051,,1584444228,592732437,'',"[shoulder_pan_joint, shoulder_lift_joint, elbow_joint, wrist_1_joint, wrist_2_joint,","[2.2356183528900146, -0.9070528189288538, 1.8605985641479492, -2.516416851674215, -1.5668142477618616, 2.6483876705169678]","[0.0, 0.0, -0.0, 0.0, 0.0, 0.00023009712458588183]","[0.2517700493335724, -6.321716785430908, -2.835890293121338, -0.4059906303882599, 0.0403747595846653, 0.0291595496237278]"
1584444228705110882,,292065,,1584444228,704738928,'',"[shoulder_pan_joint, shoulder_lift_joint, elbow_joint, wrist_1_joint, wrist_2_joint,","[2.23565411567688, -0.9070408979998987, 1.8606104850769043, -2.516393486653463, -1.5668018499957483, 2.648435115814209]","[0.0, 0.0, -0.0, 0.0, 0.0, 0.00017257283616345376]","[0.2517700493335724, -6.317139148712158, -2.835890293121338, -0.3992615044116974, 0.0381317175924778, 0.0314025916159153]"
1584444228817068281,,292079,,1584444228,816642036,'',"[shoulder_pan_joint, shoulder_lift_joint, elbow_joint, wrist_1_joint, wrist_2_joint,","[2.2356302738189697, -0.9070528189288538, 1.860562801361084, -2.51638108888735, -1.5668018499957483, 2.648435115814209]","[0.0, 0.0, -0.0, 0.0, 0.0, 0.00011504856229294091]","[0.2426147758960724, -6.303406238555908, -2.844857692718506, -0.3880462944507599, 0.0336456336081028, 0.02467346377670765]"
1584444228929031570,,292093,,1584444228,928680485,'',"[shoulder_pan_joint, shoulder_lift_joint, elbow_joint, wrist_1_joint, wrist_2_joint,","[2.235642194747925, -0.9070771376239222, 1.860574722290039, -2.516416851674215, -1.5668261686908167, 2.648411273956299]","[0.0, 0.0, -0.0, 0.0, 0.0, 7.669904152862728e-05]","[0.2929687798023224, -6.330872058868408, -2.840373992919922, -0.3902893364429474, 0.0381317175924778, 0.0314025916159153]"
1584444229040927264,,292107,,1584444229,40590576,'',"[shoulder_pan_joint, shoulder_lift_joint, elbow_joint, wrist_1_joint, wrist_2_joint,","[2.2356183528900146, -0.9070408979998987, 1.860562801361084, -2.516416851674215, -1.5668380896197718, 2.648411273956299]","[0.0, 0.0, -0.0, 0.0, 0.0, 5.752428114647046e-05]","[0.2746582329273224, -6.317139148712158, -2.820197582244873, -0.3701019585132599, 0.0381317175924778, 0.0381317175924778]"
1584444229153011139,,292121,,1584444229,152644585,'',"[shoulder_pan_joint, shoulder_lift_joint, elbow_joint, wrist_1_joint, wrist_2_joint,","[2.235642194747925, -0.9070289770709437, 1.860562801361084, -2.51638108888735, -1.566861931477682, 2.648423194885254]","[0.0, 0.0, -0.0, 0.0, 0.0, 3.834952076431364e-05]","[0.2243042290210724, -6.312561511993408, -2.822439432144165, -0.3925323784351349, 0.0403747595846653, 0.0358886756002903]"
1584444229264967506,,292135,,1584444229,264633703,'',"[shoulder_pan_joint, shoulder_lift_joint, elbow_joint, wrist_1_joint, wrist_2_joint,","[2.235642194747925, -0.9070289770709437, 1.8605866432189941, -2.51642877260317, -1.566861931477682, 2.6483876705169678]","[0.0, 0.0, -0.0, 0.0, 0.0, 3.834952076431364e-05]","[0.3112793266773224, -6.298828601837158, -2.81795597076416, -0.3566437065601349, 0.0448608435690403, 0.0314025916159153]"
1584444229377116082,,292149,,1584444229,376625687,'',"[shoulder_pan_joint, shoulder_lift_joint, elbow_joint, wrist_1_joint, wrist_2_joint,","[2.235642194747925, -0.9070771376239222, 1.8605985641479492, -2.516393486653463, -1.5668261686908167, 2.648423194885254]","[0.0, 0.0, -0.0, 0.0, 0.0, 3.834952076431364e-05]","[0.2838135063648224, -6.312561511993408, -2.829164981842041, -0.4059906303882599, 0.0471038855612278, 0.0314025916159153]"
1584444229488987791,,292163,,1584444229,488608804,'',"[shoulder_pan_joint, shoulder_lift_joint, elbow_joint, wrist_1_joint, wrist_2_joint,","[2.235642194747925, -0.9070771376239222, 1.8605866432189941, -2.516369167958395, -1.5668380896197718, 2.6483991146087646]","[0.0, 0.0, -0.0, 0.0, 0.0, 1.917476038215682e-05]","[0.2883911430835724, -6.303406238555908, -2.83813214302063, -0.3902893364429474, 0.0381317175924778, 0.0314025916159153]"
1584444229601046950,,292177,,1584444229,600635011,'',"[shoulder_pan_joint, shoulder_lift_joint, elbow_joint, wrist_1_joint, wrist_2_joint,","[2.2356302738189697, -0.9070528189288538, 1.860574722290039, -2.516416851674215, -1.5668380896197718, 2.648423194885254]","[0.0, 0.0, -0.0, 0.0, 0.0, 1.917476038215682e-05]","[0.2655029594898224, -6.335449695587158, -2.835890293121338, -0.3880462944507599, 0.0314025916159153, 0.0291595496237278]"
1584444229712982818,,292191,,1584444229,712598932,'',"[shoulder_pan_joint, shoulder_lift_joint, elbow_joint, wrist_1_joint, wrist_2_joint,","[2.235642194747925, -0.9070771376239222, 1.8605866432189941, -2.516416851674215, -1.5668261686908167, 2.647944450378418]","[0.0, 0.0, -0.0, 0.0, 0.0, -0.007804127410054207]","[0.0595092847943306, -6.239319324493408, -2.8762428760528564, -0.3701019585132599, 0.0358886756002903, -0.2534637749195099]"
1584444229825121426,,292205,,1584444229,824724896,'',"[shoulder_pan_joint, shoulder_lift_joint, elbow_joint, wrist_1_joint, wrist_2_joint,","[2.23565411567688, -0.9070408979998987, 1.860562801361084, -2.51638108888735, -1.5668142477618616, 2.6466753482818604]","[0.0, 0.0, -0.0, 0.0, 0.0, -0.015838351100683212]","[0.0274658240377903, -6.362915515899658, -2.7708778381347656, -0.4015045464038849, 0.0448608435690403, -0.2736511528491974]"
1584444229936960474,,292219,,1584444229,936621612,'',"[shoulder_pan_joint, shoulder_lift_joint, elbow_joint, wrist_1_joint, wrist_2_joint,","[2.235642194747925, -0.9070289770709437, 1.860562801361084, -2.516393486653463, -1.5668142477618616, 2.6439332962036133]","[0.0, 0.0, -0.0, 0.0, 0.0, -0.0348980650305748]","[-0.02288818545639515, -6.349182605743408, -2.835890293121338, -0.4149627983570099, 0.0381317175924778, -0.3117828667163849]"
1584444230048959841,,292233,,1584444230,48618093,'',"[shoulder_pan_joint, shoulder_lift_joint, elbow_joint, wrist_1_joint, wrist_2_joint,","[2.2356302738189697, -0.9070408979998987, 1.8605866432189941, -2.516416851674215, -1.5668261686908167, 2.639958143234253]","[0.0, 0.0, -0.0, 0.0, 0.0, -0.032884713262319565]","[0.0320434607565403, -6.298828601837158, -2.844857692718506, -0.3992615044116974, 0.0403747595846653, -0.3297272026538849]"
1584444230160957435,,292247,,1584444230,160569822,'',"[shoulder_pan_joint, shoulder_lift_joint, elbow_joint, wrist_1_joint, wrist_2_joint,","[2.2356183528900146, -0.9070408979998987, 1.8606104850769043, -2.51642877260317, -1.5668380896197718, 2.6365699768066406]","[0.0, 0.0, -0.0, 0.0, 0.0, -0.025003887712955475]","[0.004577637184411287, -6.321716785430908, -2.824681282043457, -0.4015045464038849, 0.0381317175924778, -0.3454284965991974]"
