PorkPy/robot-pulling-data/deg60_stops2/joint_states_throttle.csv
rosbagTimestamp,header,seq,stamp,secs,nsecs,frame_id,name,wrist_3_joint],position,velocity,effort
1584444555170064294,,332875,,1584444555,169544925,'',"[shoulder_pan_joint, shoulder_lift_joint, elbow_joint, wrist_1_joint, wrist_2_joint,","[1.404758334159851, -1.1718485991107386, 2.4830703735351562, -2.862863365803854, -1.5669458548175257, 2.7207303047180176]","[0.0, 0.0, -0.0, 0.0, 0.0, 0.0]","[-0.6408692002296448, -2.549743890762329, -1.102970838546753, -0.3768310844898224, 0.006729126907885075, 0.0291595496237278]"
1584444555281882153,,332889,,1584444555,281554591,'',"[shoulder_pan_joint, shoulder_lift_joint, elbow_joint, wrist_1_joint, wrist_2_joint,","[1.4047223329544067, -1.1718605200396937, 2.4830822944641113, -2.862875286732809, -1.5669458548175257, 2.7207303047180176]","[0.0, 0.0, -0.0, 0.0, 0.0, 0.0]","[-0.6637573838233948, -2.568054437637329, -1.1186634302139282, -0.3723450005054474, -0.004486084450036287, 0.0403747595846653]"
1584444555393842778,,332903,,1584444555,393528261,'',"[shoulder_pan_joint, shoulder_lift_joint, elbow_joint, wrist_1_joint, wrist_2_joint,","[1.4047822952270508, -1.1718362013446253, 2.483058452606201, -2.862887207661764, -1.5669458548175257, 2.7207064628601074]","[0.0, 0.0, -0.0, 0.0, 0.0, 0.0]","[-0.6362915635108948, -2.540588617324829, -1.1209052801132202, -0.3790741264820099, -0.004486084450036287, 0.0336456336081028]"
1584444555505821907,,332917,,1584444555,505513842,'',"[shoulder_pan_joint, shoulder_lift_joint, elbow_joint, wrist_1_joint, wrist_2_joint,","[1.4047702550888062, -1.1718485991107386, 2.4830703735351562, -2.862887207661764, -1.566981617604391, 2.720766305923462]","[0.0, 0.0, -0.0, 0.0, 0.0, 0.0]","[-0.6362915635108948, -2.568054437637329, -1.1253888607025146, -0.3723450005054474, 0.0, 0.0314025916159153]"
1584444555617840580,,332931,,1584444555,617536523,'',"[shoulder_pan_joint, shoulder_lift_joint, elbow_joint, wrist_1_joint, wrist_2_joint,","[1.4047462940216064, -1.1718123594867151, 2.4830703735351562, -2.862875286732809, -1.566981617604391, 2.7207064628601074]","[0.0, 0.0, -0.0, 0.0, 0.0, 0.0]","[-0.6271362900733948, -2.540588617324829, -1.1253888607025146, -0.3858032524585724, 0.0022430422250181437, 0.0269165076315403]"
1584444555729907103,,332945,,1584444555,729506405,'',"[shoulder_pan_joint, shoulder_lift_joint, elbow_joint, wrist_1_joint, wrist_2_joint,","[1.4047702550888062, -1.1718123594867151, 2.4830703735351562, -2.862899128590719, -1.5669577757464808, 2.7207303047180176]","[0.0, 0.0, -0.0, 0.0, 0.0, 0.0]","[-0.6271362900733948, -2.590942621231079, -1.1209052801132202, -0.3790741264820099, 0.006729126907885075, 0.0291595496237278]"
1584444555841827873,,332959,,1584444555,841518496,'',"[shoulder_pan_joint, shoulder_lift_joint, elbow_joint, wrist_1_joint, wrist_2_joint,","[1.4047702550888062, -1.1718724409686487, 2.483058452606201, -2.862887207661764, -1.5669577757464808, 2.7207183837890625]","[0.0, 0.0, -0.0, 0.0, 0.0, 0.0]","[-0.6179810166358948, -2.563476800918579, -1.1141798496246338, -0.3768310844898224, -0.0022430422250181437, 0.02018737979233265]"
1584444555953851877,,332973,,1584444555,953525588,'',"[shoulder_pan_joint, shoulder_lift_joint, elbow_joint, wrist_1_joint, wrist_2_joint,","[1.4047702550888062, -1.1718362013446253, 2.4830944538116455, -2.862899128590719, -1.5669577757464808, 2.7207064628601074]","[0.0, 0.0, -0.0, 0.0, 0.0, 0.0]","[-0.6408692002296448, -2.563476800918579, -1.1231471300125122, -0.3723450005054474, 0.004486084450036287, 0.0269165076315403]"
1584444556065992497,,332987,,1584444556,65544642,'',"[shoulder_pan_joint, shoulder_lift_joint, elbow_joint, wrist_1_joint, wrist_2_joint,","[1.4047942161560059, -1.1718605200396937, 2.4830703735351562, -2.862899128590719, -1.5669458548175257, 2.7207064628601074]","[0.0, 0.0, -0.0, 0.0, 0.0, 0.0]","[-0.6408692002296448, -2.549743890762329, -1.1276307106018066, -0.3745880424976349, 0.0, 0.0269165076315403]"
1584444556177864197,,333001,,1584444556,177504996,'',"[shoulder_pan_joint, shoulder_lift_joint, elbow_joint, wrist_1_joint, wrist_2_joint,","[1.4047462940216064, -1.1718485991107386, 2.4830822944641113, -2.862887207661764, -1.5669339338885706, 2.7207422256469727]","[0.0, 0.0, -0.0, 0.0, 0.0, 0.0]","[-0.6958008408546448, -2.568054437637329, -1.1231471300125122, -0.3858032524585724, 0.004486084450036287, 0.02243042178452015]"
1584444556289819742,,333015,,1584444556,289495637,'',"[shoulder_pan_joint, shoulder_lift_joint, elbow_joint, wrist_1_joint, wrist_2_joint,","[1.404758334159851, -1.1718247572528284, 2.4830822944641113, -2.862875286732809, -1.566981617604391, 2.7207064628601074]","[0.0, 0.0, -0.0, 0.0, 0.0, 0.0]","[-0.6774902939796448, -2.600097894668579, -1.1231471300125122, -0.3835602104663849, -0.004486084450036287, 0.02243042178452015]"
1584444556401900571,,333029,,1584444556,401486539,'',"[shoulder_pan_joint, shoulder_lift_joint, elbow_joint, wrist_1_joint, wrist_2_joint,","[1.4047822952270508, -1.1718247572528284, 2.4831063747406006, -2.862899128590719, -1.5669696966754358, 2.7207064628601074]","[0.0, 0.0, -0.0, 0.0, 0.0, 0.0]","[-0.6362915635108948, -2.586364984512329, -1.1253888607025146, -0.3813171684741974, 0.011215210892260075, 0.02467346377670765]"
1584444556513915768,,333043,,1584444556,513527994,'',"[shoulder_pan_joint, shoulder_lift_joint, elbow_joint, wrist_1_joint, wrist_2_joint,","[1.404758334159851, -1.1718485991107386, 2.4830944538116455, -2.862887207661764, -1.5669458548175257, 2.7207064628601074]","[0.0, 0.0, -0.0, 0.0, 0.0, 0.0]","[-0.6774902939796448, -2.540588617324829, -1.1186634302139282, -0.3768310844898224, -0.0022430422250181437, 0.0269165076315403]"
1584444556625869560,,333057,,1584444556,625514297,'',"[shoulder_pan_joint, shoulder_lift_joint, elbow_joint, wrist_1_joint, wrist_2_joint,","[1.404758334159851, -1.1718247572528284, 2.4830822944641113, -2.862887207661764, -1.5669696966754358, 2.7207303047180176]","[0.0, 0.0, -0.0, 0.0, 0.0, 0.0]","[-0.6546021103858948, -2.572632074356079, -1.136597990989685, -0.3858032524585724, 0.008972168900072575, 0.02467346377670765]"
1584444556737906528,,333071,,1584444556,737551265,'',"[shoulder_pan_joint, shoulder_lift_joint, elbow_joint, wrist_1_joint, wrist_2_joint,","[1.404758334159851, -1.1718605200396937, 2.4830944538116455, -2.8628514448748987, -1.5669577757464808, 2.7207422256469727]","[0.0, 0.0, -0.0, 0.0, 0.0, 0.0]","[-0.6683350205421448, -2.581787347793579, -1.1209052801132202, -0.3858032524585724, -0.004486084450036287, 0.0269165076315403]"
1584444556849882852,,333085,,1584444556,849504456,'',"[shoulder_pan_joint, shoulder_lift_joint, elbow_joint, wrist_1_joint, wrist_2_joint,","[1.404758334159851, -1.1718247572528284, 2.4830822944641113, -2.862863365803854, -1.5669577757464808, 2.7206943035125732]","[0.0, 0.0, -0.0, 0.0, 0.0, 0.0]","[-0.6591797471046448, -2.549743890762329, -1.1209052801132202, -0.3723450005054474, 0.0, 0.0269165076315403]"
1584444556961920240,,333099,,1584444556,961528759,'',"[shoulder_pan_joint, shoulder_lift_joint, elbow_joint, wrist_1_joint, wrist_2_joint,","[1.4047702550888062, -1.1718247572528284, 2.4830703735351562, -2.862863365803854, -1.5669339338885706, 2.7206943035125732]","[0.0, 0.0, -0.0, 0.0, 0.0, 0.0]","[-0.6454468369483948, -2.590942621231079, -1.132114291191101, -0.3633728325366974, 0.0022430422250181437, 0.0336456336081028]"
1584444557073854857,,333113,,1584444557,73485427,'',"[shoulder_pan_joint, shoulder_lift_joint, elbow_joint, wrist_1_joint, wrist_2_joint,","[1.404758334159851, -1.1718247572528284, 2.4830822944641113, -2.8628390471087855, -1.5669696966754358, 2.7207303047180176]","[0.0, 0.0, -0.0, 0.0, 0.0, 0.0]","[-0.6546021103858948, -2.545166254043579, -1.1231471300125122, -0.3701019585132599, 0.004486084450036287, 0.0269165076315403]"
1584444557185845908,,333127,,1584444557,185479464,'',"[shoulder_pan_joint, shoulder_lift_joint, elbow_joint, wrist_1_joint, wrist_2_joint,","[1.4047343730926514, -1.1718247572528284, 2.4830944538116455, -2.862887207661764, -1.5669696966754358, 2.7207064628601074]","[0.0, 0.0, -0.0, 0.0, 0.0, 0.0]","[-0.6362915635108948, -2.604675531387329, -1.1253888607025146, -0.3790741264820099, 0.004486084450036287, 0.0291595496237278]"
1584444557297848091,,333141,,1584444557,297467681,'',"[shoulder_pan_joint, shoulder_lift_joint, elbow_joint, wrist_1_joint, wrist_2_joint,","[1.404758334159851, -1.1718362013446253, 2.4830703735351562, -2.862887207661764, -1.5669577757464808, 2.7207422256469727]","[0.0, 0.0, -0.0, 0.0, 0.0, 0.0]","[-0.6637573838233948, -2.522278070449829, -1.1276307106018066, -0.3768310844898224, 0.004486084450036287, 0.0269165076315403]"
1584444557409849161,,333155,,1584444557,409445749,'',"[shoulder_pan_joint, shoulder_lift_joint, elbow_joint, wrist_1_joint, wrist_2_joint,","[1.4047462940216064, -1.1718605200396937, 2.4831063747406006, -2.862911049519674, -1.5669577757464808, 2.7207064628601074]","[0.0, 0.0, -0.0, 0.0, 0.0, 0.0]","[-0.6820679306983948, -2.545166254043579, -1.1209052801132202, -0.3768310844898224, 0.0022430422250181437, 0.0336456336081028]"
1584444557521860090,,333169,,1584444557,521476524,'',"[shoulder_pan_joint, shoulder_lift_joint, elbow_joint, wrist_1_joint, wrist_2_joint,","[1.404758334159851, -1.1718485991107386, 2.4830822944641113, -2.862911049519674, -1.5669458548175257, 2.7207064628601074]","[0.0, 0.0, -0.0, 0.0, 0.0, 0.0]","[-0.6408692002296448, -2.568054437637329, -1.1253888607025146, -0.3723450005054474, 0.0022430422250181437, 0.0381317175924778]"
1584444557633967288,,333183,,1584444557,633558335,'',"[shoulder_pan_joint, shoulder_lift_joint, elbow_joint, wrist_1_joint, wrist_2_joint,","[1.4047462940216064, -1.1718485991107386, 2.483046531677246, -2.862875286732809, -1.5669696966754358, 2.7207183837890625]","[0.0, 0.0, -0.0, 0.0, 0.0, 0.0]","[-0.6683350205421448, -2.568054437637329, -1.132114291191101, -0.3656158745288849, 0.004486084450036287, 0.02018737979233265]"
1584444557745839959,,333197,,1584444557,745423482,'',"[shoulder_pan_joint, shoulder_lift_joint, elbow_joint, wrist_1_joint, wrist_2_joint,","[1.4047702550888062, -1.1718362013446253, 2.4830822944641113, -2.862875286732809, -1.566981617604391, 2.7207183837890625]","[0.0, 0.0, -0.0, 0.0, 0.0, 0.0]","[-0.6500244736671448, -2.577209711074829, -1.136597990989685, -0.3858032524585724, -0.0022430422250181437, 0.0314025916159153]"
1584444557857841441,,333211,,1584444557,857440823,'',"[shoulder_pan_joint, shoulder_lift_joint, elbow_joint, wrist_1_joint, wrist_2_joint,","[1.4047462940216064, -1.1718605200396937, 2.4830822944641113, -2.862887207661764, -1.5669458548175257, 2.7206943035125732]","[0.0, 0.0, -0.0, 0.0, 0.0, 0.0]","[-0.6683350205421448, -2.568054437637329, -1.1186634302139282, -0.3768310844898224, 0.004486084450036287, 0.0269165076315403]"
1584444557969856908,,333225,,1584444557,969470587,'',"[shoulder_pan_joint, shoulder_lift_joint, elbow_joint, wrist_1_joint, wrist_2_joint,","[1.404758334159851, -1.1718247572528284, 2.4831063747406006, -2.862863365803854, -1.5669339338885706, 2.7207183837890625]","[0.0, 0.0, -0.0, 0.0, 0.0, 0.0]","[-0.6317139267921448, -2.581787347793579, -1.1119379997253418, -0.3768310844898224, 0.0022430422250181437, 0.02467346377670765]"
1584444558081811041,,333239,,1584444558,81432925,'',"[shoulder_pan_joint, shoulder_lift_joint, elbow_joint, wrist_1_joint, wrist_2_joint,","[1.404758334159851, -1.1718362013446253, 2.4830822944641113, -2.862863365803854, -1.5669458548175257, 2.7207303047180176]","[0.0, 0.0, -0.0, 0.0, 0.0, 0.0]","[-0.6912232041358948, -2.586364984512329, -1.132114291191101, -0.3723450005054474, 0.0022430422250181437, 0.0269165076315403]"
1584444558193838811,,333253,,1584444558,193454714,'',"[shoulder_pan_joint, shoulder_lift_joint, elbow_joint, wrist_1_joint, wrist_2_joint,","[1.404758334159851, -1.1718247572528284, 2.4830703735351562, -2.862899128590719, -1.5669577757464808, 2.7206943035125732]","[0.0, 0.0, -0.0, 0.0, 0.0, 0.0]","[-0.6454468369483948, -2.540588617324829, -1.1253888607025146, -0.3768310844898224, 0.004486084450036287, 0.02467346377670765]"
1584444558305787253,,333267,,1584444558,305400812,'',"[shoulder_pan_joint, shoulder_lift_joint, elbow_joint, wrist_1_joint, wrist_2_joint,","[1.4047462940216064, -1.1718247572528284, 2.4830944538116455, -2.862863365803854, -1.5669339338885706, 2.7207183837890625]","[0.0, 0.0, -0.0, 0.0, 0.0, 0.0]","[-0.6134033799171448, -2.558899164199829, -1.1209052801132202, -0.3790741264820099, 0.0022430422250181437, 0.0291595496237278]"
1584444558417819031,,333281,,1584444558,417429494,'',"[shoulder_pan_joint, shoulder_lift_joint, elbow_joint, wrist_1_joint, wrist_2_joint,","[1.404758334159851, -1.1718724409686487, 2.4830822944641113, -2.862875286732809, -1.5669696966754358, 2.7207422256469727]","[0.0, 0.0, -0.0, 0.0, 0.0, 0.0]","[-0.6454468369483948, -2.545166254043579, -1.1298725605010986, -0.3768310844898224, -0.0022430422250181437, 0.0314025916159153]"
1584444558529805344,,333295,,1584444558,529415727,'',"[shoulder_pan_joint, shoulder_lift_joint, elbow_joint, wrist_1_joint, wrist_2_joint,","[1.404758334159851, -1.1718123594867151, 2.4830703735351562, -2.862875286732809, -1.5669339338885706, 2.7207064628601074]","[0.0, 0.0, -0.0, 0.0, 0.0, 0.0]","[-0.6317139267921448, -2.590942621231079, -1.1253888607025146, -0.3790741264820099, 0.0022430422250181437, 0.0269165076315403]"
1584444558641934874,,333309,,1584444558,641496576,'',"[shoulder_pan_joint, shoulder_lift_joint, elbow_joint, wrist_1_joint, wrist_2_joint,","[1.404758334159851, -1.17180043855776, 2.4831063747406006, -2.862887207661764, -1.5669696966754358, 2.7207183837890625]","[0.0, 0.0, -0.0, 0.0, 0.0, 0.0]","[-0.6500244736671448, -2.549743890762329, -1.150048851966858, -0.3790741264820099, 0.0022430422250181437, 0.0358886756002903]"
1584444558753804078,,333323,,1584444558,753381019,'',"[shoulder_pan_joint, shoulder_lift_joint, elbow_joint, wrist_1_joint, wrist_2_joint,","[1.404758334159851, -1.1718123594867151, 2.4830822944641113, -2.862875286732809, -1.5669339338885706, 2.7207183837890625]","[0.0, 0.0, -0.0, 0.0, 0.0, 0.0]","[-0.6591797471046448, -2.554321527481079, -1.1433234214782715, -0.3745880424976349, -0.006729126907885075, 0.0314025916159153]"
1584444558865929400,,333337,,1584444558,865483518,'',"[shoulder_pan_joint, shoulder_lift_joint, elbow_joint, wrist_1_joint, wrist_2_joint,","[1.4047702550888062, -1.1718362013446253, 2.4830822944641113, -2.862887207661764, -1.5669577757464808, 2.7206943035125732]","[0.0, 0.0, -0.0, 0.0, 0.0, 0.0]","[-0.6500244736671448, -2.531433343887329, -1.1522905826568604, -0.3813171684741974, 0.008972168900072575, 0.0314025916159153]"
1584444558977750675,,333351,,1584444558,977368973,'',"[shoulder_pan_joint, shoulder_lift_joint, elbow_joint, wrist_1_joint, wrist_2_joint,","[1.4047462940216064, -1.17180043855776, 2.4830703735351562, -2.862875286732809, -1.5669577757464808, 2.7207422256469727]","[0.0, 0.0, -0.0, 0.0, 0.0, 0.0]","[-0.6591797471046448, -2.572632074356079, -1.1186634302139282, -0.3790741264820099, -0.004486084450036287, 0.0314025916159153]"
1584444559089798583,,333365,,1584444559,89345398,'',"[shoulder_pan_joint, shoulder_lift_joint, elbow_joint, wrist_1_joint, wrist_2_joint,","[1.4063293933868408, -1.1718485991107386, 2.4820022583007812, -2.8622286955462855, -1.5669696966754358, 2.7202038764953613]","[0.011709386482834816, 0.0, -0.012629775330424309, 0.008551943115890026, 0.0, -0.0326162688434124]","[0.7919312119483948, -2.970886468887329, -1.869670033454895, -0.2108459621667862, 0.0538330152630806, -0.2624359428882599]"
1584444559201727860,,333379,,1584444559,201371174,'',"[shoulder_pan_joint, shoulder_lift_joint, elbow_joint, wrist_1_joint, wrist_2_joint,","[1.4062094688415527, -1.1718962828265589, 2.481978416442871, -2.862300697957174, -1.5669577757464808, 2.7177369594573975]","[-0.0226773489266634, -0.0021731394808739424, 0.008564726449549198, -0.0057716029696166515, 0.0, -0.014304371550679207]","[-0.9155274629592896, -3.849792957305908, -1.051409125328064, -0.5607605576515198, 0.0426178015768528, -0.3162689507007599]"
1584444559313753837,,333393,,1584444559,313365803,'',"[shoulder_pan_joint, shoulder_lift_joint, elbow_joint, wrist_1_joint, wrist_2_joint,","[1.4037026166915894, -1.1719682852374476, 2.4820382595062256, -2.8623603026019495, -1.5669458548175257, 2.718228340148926]","[-0.01507136132568121, -0.0002556634717620909, -0.0016745957545936108, -0.0004793690168298781, 0.0, 0.03867549076676369]","[-1.0116578340530396, -3.327942132949829, -1.499771237373352, -0.3723450005054474, 0.0314025916159153, 0.2646789848804474]"
1584444559425738266,,333407,,1584444559,425358587,'',"[shoulder_pan_joint, shoulder_lift_joint, elbow_joint, wrist_1_joint, wrist_2_joint,","[1.4029347896575928, -1.1719325224505823, 2.4820144176483154, -2.8623841444598597, -1.5669458548175257, 2.7212212085723877]","[0.0018024274613708258, -0.00011504856229294091, -0.0004985437844879925, -0.00023009712458588183, 0.0, 0.01315388549119234]","[-0.02288818545639515, -3.451538324356079, -1.4818367958068848, -0.3880462944507599, 0.0291595496237278, 0.3835602104663849]"
1584444559538131568,,333421,,1584444559,537343818,'',"[shoulder_pan_joint, shoulder_lift_joint, elbow_joint, wrist_1_joint, wrist_2_joint,","[1.4033067226409912, -1.1719563643084925, 2.4820263385772705, -2.8623960653888147, -1.5669339338885706, 2.719473123550415]","[0.0005752427969127893, -7.669904152862728e-05, -0.0, -0.00013422331539914012, 0.0, -0.04135995730757713]","[0.2105713039636612, -3.474426507949829, -1.421307921409607, -0.4104767143726349, 0.0381317175924778, -0.3588867485523224]"
1584444559649784349,,333435,,1584444559,649467408,'',"[shoulder_pan_joint, shoulder_lift_joint, elbow_joint, wrist_1_joint, wrist_2_joint,","[1.4033186435699463, -1.1719325224505823, 2.4820501804351807, -2.8623722235309046, -1.5669577757464808, 2.716599464416504]","[0.0006775081856176257, -5.1132694352418184e-05, -0.0, -7.669904152862728e-05, 0.0, -0.016720391809940338]","[-0.0274658240377903, -3.561401844024658, -1.2957664728164673, -0.4441223740577698, 0.0358886756002903, -0.3499145805835724]"
1584444559761836545,,333449,,1584444559,761418725,'',"[shoulder_pan_joint, shoulder_lift_joint, elbow_joint, wrist_1_joint, wrist_2_joint,","[1.403450846672058, -1.1719325224505823, 2.482062339782715, -2.8623722235309046, -1.5669577757464808, 2.7187068462371826]","[0.0008948221220634878, -3.834952076431364e-05, -0.0, -5.752428114647046e-05, 0.0, 0.04084223881363869]","[0.1510620266199112, -3.565979480743408, -1.3047337532043457, -0.4508515000343323, 0.0403747595846653, 0.3342132866382599]"
1584444559873800696,,333463,,1584444559,873415738,'',"[shoulder_pan_joint, shoulder_lift_joint, elbow_joint, wrist_1_joint, wrist_2_joint,","[1.4034268856048584, -1.1719682852374476, 2.4820022583007812, -2.8623483816729944, -1.5669577757464808, 2.721484661102295]","[-5.1132694352418184e-05, -3.834952076431364e-05, -0.0, -5.752428114647046e-05, 0.0, 0.008954613469541073]","[-0.1007080152630806, -3.570557117462158, -1.3562953472137451, -0.4396362900733948, 0.0493469275534153, 0.3409424126148224]"
1584444559985738709,,333477,,1584444559,985356025,'',"[shoulder_pan_joint, shoulder_lift_joint, elbow_joint, wrist_1_joint, wrist_2_joint,","[1.4027910232543945, -1.1719444433795374, 2.4820382595062256, -2.8623841444598597, -1.5669458548175257, 2.71887469291687]","[-0.008871522732079029, -2.5566347176209092e-05, 0.0005368932615965605, -3.834952076431364e-05, 0.0, -0.04406359791755676]","[-0.9201050996780396, -3.446960687637329, -1.405615210533142, -0.4239349663257599, 0.0336456336081028, -0.3499145805835724]"
1584444560097834206,,333491,,1584444560,97323443,'',"[shoulder_pan_joint, shoulder_lift_joint, elbow_joint, wrist_1_joint, wrist_2_joint,","[1.4028029441833496, -1.1719682852374476, 2.4820022583007812, -2.8623722235309046, -1.5669696966754358, 2.7159411907196045]","[0.011185277253389359, -2.5566347176209092e-05, -0.0, -3.834952076431364e-05, 0.0, -0.009433981962502003]","[0.6774902939796448, -3.511047601699829, -1.4302750825881958, -0.4037475883960724, 0.0291595496237278, -0.3185119926929474]"
1584444560209654319,,333505,,1584444560,209288145,'',"[shoulder_pan_joint, shoulder_lift_joint, elbow_joint, wrist_1_joint, wrist_2_joint,","[1.4050699472427368, -1.1719444433795374, 2.4820501804351807, -2.8623364607440394, -1.566981617604391, 2.720059871673584]","[0.019302591681480408, -1.2783173588104546e-05, -0.0, -1.917476038215682e-05, 0.0, 0.04417864605784416]","[0.8056641221046448, -3.556824207305908, -1.3899224996566772, -0.4216919243335724, 0.0583190992474556, 0.3701019585132599]"
1584444560321678682,,333519,,1584444560,321309393,'',"[shoulder_pan_joint, shoulder_lift_joint, elbow_joint, wrist_1_joint, wrist_2_joint,","[1.4069652557373047, -1.1719444433795374, 2.4820144176483154, -2.8623483816729944, -1.5669696966754358, 2.7240352630615234]","[0.011990617029368877, -1.2783173588104546e-05, -0.0, -1.917476038215682e-05, 0.0, 0.026672091335058212]","[0.8972169160842896, -3.556824207305908, -1.3562953472137451, -0.4261780083179474, 0.0471038855612278, 0.3140259087085724]"
1584444560433807311,,333533,,1584444560,433379623,'',"[shoulder_pan_joint, shoulder_lift_joint, elbow_joint, wrist_1_joint, wrist_2_joint,","[1.406389594078064, -1.1719325224505823, 2.482062339782715, -2.8623483816729944, -1.566981617604391, 2.7247776985168457]","[-0.032341428101062775, -1.2783173588104546e-05, 0.0005496764788404107, -1.917476038215682e-05, 0.0, -0.04970097914338112]","[-1.0345460176467896, -3.520203113555908, -1.280073881149292, -0.4687958359718323, 0.0448608435690403, -0.2332763969898224]"
1584444560545844789,,333547,,1584444560,545422531,'',"[shoulder_pan_joint, shoulder_lift_joint, elbow_joint, wrist_1_joint, wrist_2_joint,","[1.4025872945785522, -1.1719563643084925, 2.4820144176483154, -2.8623841444598597, -1.5669458548175257, 2.7186951637268066]","[-0.027905667200684547, -1.2783173588104546e-05, 0.0003195793251506984, -1.917476038215682e-05, 0.0, -0.0431048609316349]","[-0.9063721895217896, -3.437805414199829, -1.3809553384780884, -0.4373932480812073, 0.0314025916159153, -0.3431854546070099]"
1584444560657846361,,333561,,1584444560,657411729,'',"[shoulder_pan_joint, shoulder_lift_joint, elbow_joint, wrist_1_joint, wrist_2_joint,","[1.4002121686935425, -1.1719563643084925, 2.4820144176483154, -2.8623603026019495, -1.5669458548175257, 2.7147679328918457]","[-0.012105665169656277, -1.2783173588104546e-05, 0.00015339808305725455, -1.917476038215682e-05, 0.0, -0.0218975767493248]","[-1.1032105684280396, -3.392029047012329, -1.4145824909210205, -0.4059906303882599, 0.0291595496237278, -0.3499145805835724]"
1584444560769704514,,333575,,1584444560,769302284,'',"[shoulder_pan_joint, shoulder_lift_joint, elbow_joint, wrist_1_joint, wrist_2_joint,","[1.4013038873672485, -1.1719325224505823, 2.4819183349609375, -2.862300697957174, -1.5669339338885706, 2.7179641723632812]","[0.03283997252583504, -1.2783173588104546e-05, -0.001035437104292214, 0.0011121360585093498, 0.0, 0.06661311537027359]","[1.0986329317092896, -3.382873773574829, -1.4863203763961792, -0.3768310844898224, 0.0560760572552681, 0.3454284965991974]"
1584444560881743615,,333589,,1584444560,881336175,'',"[shoulder_pan_joint, shoulder_lift_joint, elbow_joint, wrist_1_joint, wrist_2_joint,","[1.4047223329544067, -1.171920124684469, 2.481954336166382, -2.862276856099264, -1.5669696966754358, 2.723520517349243]","[0.027061978355050087, -1.2783173588104546e-05, 0.000472977408207953, 0.0003451456723269075, 0.0, 0.03635534644126892]","[0.8651733994483948, -3.639221668243408, -1.3293936252593994, -0.4373932480812073, 0.0605621412396431, 0.3095398247241974]"
1584444560993692418,,333603,,1584444560,993310516,'',"[shoulder_pan_joint, shoulder_lift_joint, elbow_joint, wrist_1_joint, wrist_2_joint,","[1.4073132276535034, -1.1719444433795374, 2.481966495513916, -2.862288777028219, -1.5669696966754358, 2.7274959087371826]","[0.016592558473348618, -1.2783173588104546e-05, 0.0001917476038215682, 0.00015339808305725455, 0.0, 0.03328738361597061]","[1.0437012910842896, -3.565979480743408, -1.3473281860351562, -0.4261780083179474, 0.0538330152630806, 0.3252411186695099]"
1584444561105810677,,333617,,1584444561,105350459,'',"[shoulder_pan_joint, shoulder_lift_joint, elbow_joint, wrist_1_joint, wrist_2_joint,","[1.4077810049057007, -1.1719563643084925, 2.481990337371826, -2.862288777028219, -1.5669940153705042, 2.7306926250457764]","[-0.01727006770670414, -1.2783173588104546e-05, -0.0, 0.0, 0.0, 0.02653786912560463]","[-0.6042481064796448, -3.565979480743408, -1.2531720399856567, -0.4800110459327698, 0.0448608435690403, 0.2534637749195099]"
1584444561217706792,,333631,,1584444561,217300724,'',"[shoulder_pan_joint, shoulder_lift_joint, elbow_joint, wrist_1_joint, wrist_2_joint,","[1.404362440109253, -1.1719325224505823, 2.4819424152374268, -2.862312618886129, -1.5669458548175257, 2.7338414192199707]","[-0.03447622060775757, 0.0, -0.0, 0.0, 0.0, 0.0328463651239872]","[-0.8972169160842896, -3.437805414199829, -1.3652626276016235, -0.4351502060890198, 0.0314025916159153, 0.2826233208179474]"
1584444561329763697,,333645,,1584444561,329335067,'',"[shoulder_pan_joint, shoulder_lift_joint, elbow_joint, wrist_1_joint, wrist_2_joint,","[1.401087760925293, -1.1719444433795374, 2.481966495513916, -2.862300697957174, -1.5669458548175257, 2.7375175952911377]","[-0.024236897006630898, 0.0, -0.0, 0.0, 0.0, 0.02552160620689392]","[-0.9063721895217896, -3.533936023712158, -1.2419630289077759, -0.4822540879249573, 0.0381317175924778, 0.3207550346851349]"
1584444561441632811,,333659,,1584444561,441253553,'',"[shoulder_pan_joint, shoulder_lift_joint, elbow_joint, wrist_1_joint, wrist_2_joint,","[1.3991085290908813, -1.171920124684469, 2.4819304943084717, -2.8623245398150843, -1.5669458548175257, 2.7405829429626465]","[-0.010443853214383125, 0.0, -0.0, 0.0, 0.0, 0.031082285568118095]","[-1.1306763887405396, -3.419494867324829, -1.4011316299438477, -0.4194488823413849, 0.02467346377670765, 0.3162689507007599]"
1584444561553713149,,333673,,1584444561,553311289,'',"[shoulder_pan_joint, shoulder_lift_joint, elbow_joint, wrist_1_joint, wrist_2_joint,","[1.4001163244247437, -1.1719682852374476, 2.4819183349609375, -2.862300697957174, -1.5669458548175257, 2.7447736263275146]","[0.029260683804750443, 0.0, -0.0006135923322290182, -3.834952076431364e-05, 0.0, 0.041187383234500885]","[0.7736206650733948, -3.501892328262329, -1.4011316299438477, -0.4059906303882599, 0.0493469275534153, 0.3117828667163849]"
1584444561665837469,,333687,,1584444561,665409862,'',"[shoulder_pan_joint, shoulder_lift_joint, elbow_joint, wrist_1_joint, wrist_2_joint,","[1.4037744998931885, -1.171920124684469, 2.4819424152374268, -2.862276856099264, -1.5669458548175257, 2.7489049434661865]","[0.031497739255428314, 0.0, -0.00026844663079828024, -3.834952076431364e-05, 0.0, 0.02901141159236431]","[0.8468628525733948, -3.515625476837158, -1.4392423629760742, -0.3902893364429474, 0.0628051832318306, 0.3431854546070099]"
1584444561777733544,,333701,,1584444561,777308892,'',"[shoulder_pan_joint, shoulder_lift_joint, elbow_joint, wrist_1_joint, wrist_2_joint,","[1.406785488128662, -1.1719802061664026, 2.4819304943084717, -2.862288777028219, -1.5669577757464808, 2.751455307006836]","[0.0224472526460886, 0.0, -0.00014061490946915, -3.834952076431364e-05, 0.0, 0.0196733046323061]","[0.8789063692092896, -3.533936023712158, -1.4280333518981934, -0.4015045464038849, 0.0448608435690403, 0.3342132866382599]"
1584444561889684221,,333715,,1584444561,889283132,'',"[shoulder_pan_joint, shoulder_lift_joint, elbow_joint, wrist_1_joint, wrist_2_joint,","[1.408200740814209, -1.1719444433795374, 2.481954336166382, -2.862264935170309, -1.5669940153705042, 2.751826524734497]","[-0.003886084770783782, 0.0, -0.00010226538870483637, -3.834952076431364e-05, 0.0, -0.038963112980127335]","[-0.02288818545639515, -3.565979480743408, -1.2464466094970703, -0.4755249619483948, 0.0560760572552681, -0.2243042290210724]"
1584444562001734302,,333729,,1584444562,1309249,'',"[shoulder_pan_joint, shoulder_lift_joint, elbow_joint, wrist_1_joint, wrist_2_joint,","[1.4050339460372925, -1.1719325224505823, 2.4819424152374268, -2.8623245398150843, -1.5669696966754358, 2.7469289302825928]","[-0.03741635009646416, 0.0, 5.1132694352418184e-05, -3.834952076431364e-05, 0.0, -0.036010198295116425]","[-0.9887696504592896, -3.401184320449829, -1.4392423629760742, -0.4261780083179474, 0.0336456336081028, -0.3656158745288849]"
1584444562113582367,,333743,,1584444562,113232715,'',"[shoulder_pan_joint, shoulder_lift_joint, elbow_joint, wrist_1_joint, wrist_2_joint,","[1.4013038873672485, -1.1719563643084925, 2.481954336166382, -2.862312618886129, -1.5669577757464808, 2.7433128356933594]","[-0.028685441240668297, 0.0, -0.0, -3.834952076431364e-05, 0.0, -0.03374757990241051]","[-0.8880616426467896, -3.474426507949829, -1.2666230201721191, -0.4732819199562073, 0.0314025916159153, -0.2736511528491974]"
1584444562225643910,,333757,,1584444562,225245427,'',"[shoulder_pan_joint, shoulder_lift_joint, elbow_joint, wrist_1_joint, wrist_2_joint,","[1.398772954940796, -1.171920124684469, 2.4819183349609375, -2.862312618886129, -1.5669577757464808, 2.7396130561828613]","[-0.015800002962350845, 0.0, -0.0, -3.834952076431364e-05, 0.0, -0.030238596722483635]","[-1.1215211153030396, -3.474426507949829, -1.3831970691680908, -0.4329071640968323, 0.0269165076315403, -0.2736511528491974]"
1584444562337591521,,333771,,1584444562,337223475,'',"[shoulder_pan_joint, shoulder_lift_joint, elbow_joint, wrist_1_joint, wrist_2_joint,","[1.3974775075912476, -1.1719563643084925, 2.4819424152374268, -2.862312618886129, -1.5669696966754358, 2.7357099056243896]","[-0.006826214492321014, 0.0, -0.0, -3.834952076431364e-05, 0.0, -0.03622112050652504]","[-0.8880616426467896, -3.437805414199829, -1.4011316299438477, -0.4216919243335724, 0.0269165076315403, -0.3005676567554474]"
1584444562449616126,,333785,,1584444562,449233512,'',"[shoulder_pan_joint, shoulder_lift_joint, elbow_joint, wrist_1_joint, wrist_2_joint,","[1.398677110671997, -1.1719325224505823, 2.4819424152374268, -2.8623364607440394, -1.5669458548175257, 2.733147144317627]","[0.024697091430425644, 0.0, -0.0, 0.0, 0.0, -0.015052187256515026]","[0.7095337510108948, -3.506469964981079, -1.3675044775009155, -0.4216919243335724, 0.0381317175924778, -0.2714081108570099]"
1584444562561627676,,333799,,1584444562,561258046,'',"[shoulder_pan_joint, shoulder_lift_joint, elbow_joint, wrist_1_joint, wrist_2_joint,","[1.4021434783935547, -1.1719444433795374, 2.4819424152374268, -2.862288777028219, -1.5669458548175257, 2.7313992977142334]","[0.035537220537662506, 0.0, -0.0, 0.0, 0.0, -0.017794176936149597]","[1.0665894746780396, -3.634644031524658, -1.280073881149292, -0.4463654160499573, 0.0538330152630806, -0.3207550346851349]"
1584444562673708826,,333813,,1584444562,673329848,'',"[shoulder_pan_joint, shoulder_lift_joint, elbow_joint, wrist_1_joint, wrist_2_joint,","[1.4058974981307983, -1.1719444433795374, 2.481966495513916, -2.862276856099264, -1.566981617604391, 2.7300338745117188]","[0.030705181881785393, 0.0, -0.0, 0.0, 0.0, 0.0004793690168298781]","[0.8377075791358948, -3.483581781387329, -1.4325169324874878, -0.4037475883960724, 0.0560760572552681, -0.0314025916159153]"
1584444562785564114,,333827,,1584444562,785189945,'',"[shoulder_pan_joint, shoulder_lift_joint, elbow_joint, wrist_1_joint, wrist_2_joint,","[1.4089444875717163, -1.1719563643084925, 2.481954336166382, -2.862264935170309, -1.5670059362994593, 2.735529661178589]","[0.020171847194433212, 0.0, -0.0, 0.0, 0.0, 0.05771602690219879]","[0.8148193955421448, -3.547668933868408, -1.4325169324874878, -0.4059906303882599, 0.0605621412396431, 0.3633728325366974]"
1584444562897602905,,333841,,1584444562,897206455,'',"[shoulder_pan_joint, shoulder_lift_joint, elbow_joint, wrist_1_joint, wrist_2_joint,","[1.4111394882202148, -1.1719444433795374, 2.481966495513916, -2.862288777028219, -1.5669696966754358, 2.7413971424102783]","[0.02027411386370659, 0.0, -0.0, 0.0, 0.0, 0.042989812791347504]","[0.8331299424171448, -3.529358386993408, -1.3876807689666748, -0.4104767143726349, 0.0672912672162056, 0.3745880424976349]"
1584444563009541729,,333855,,1584444563,9180665,'',"[shoulder_pan_joint, shoulder_lift_joint, elbow_joint, wrist_1_joint, wrist_2_joint,","[1.4135262966156006, -1.171920124684469, 2.4819424152374268, -2.862300697957174, -1.5669577757464808, 2.745288610458374]","[0.020146280527114868, 0.0, -0.0, 0.0, 0.0, 0.02431359514594078]","[1.1352540254592896, -3.652954578399658, -1.3137010335922241, -0.4396362900733948, 0.0829925611615181, 0.2758941948413849]"
1584444563121620825,,333869,,1584444563,121220728,'',"[shoulder_pan_joint, shoulder_lift_joint, elbow_joint, wrist_1_joint, wrist_2_joint,","[1.4149898290634155, -1.171920124684469, 2.4819424152374268, -2.862288777028219, -1.566981617604391, 2.747323989868164]","[0.003847735235467553, 0.0, -0.0, 0.0, 0.0, 0.011926701292395592]","[0.5767822861671448, -3.579712390899658, -1.324910044670105, -0.4284210503101349, 0.0695343092083931, 0.2646789848804474]"
1584444563233593793,,333883,,1584444563,233197123,'',"[shoulder_pan_joint, shoulder_lift_joint, elbow_joint, wrist_1_joint, wrist_2_joint,","[1.4135621786117554, -1.1719563643084925, 2.481966495513916, -2.862276856099264, -1.5669940153705042, 2.744785785675049]","[-0.02317589335143566, 0.0, -0.0, 0.0, 0.0, -0.045520879328250885]","[-0.8422852158546448, -3.506469964981079, -1.358537197113037, -0.4418793320655823, 0.0358886756002903, -0.3095398247241974]"
1584444563345464470,,333897,,1584444563,345142699,'',"[shoulder_pan_joint, shoulder_lift_joint, elbow_joint, wrist_1_joint, wrist_2_joint,","[1.410443663597107, -1.171920124684469, 2.481978416442871, -2.862312618886129, -1.5669696966754358, 2.739565134048462]","[-0.02997654117643833, 0.0, -0.0, 0.0, 0.0, -0.046537142246961594]","[-1.0894776582717896, -3.401184320449829, -1.419066071510315, -0.4216919243335724, 0.0403747595846653, -0.2691650688648224]"
1584444563457782041,,333911,,1584444563,457291736,'',"[shoulder_pan_joint, shoulder_lift_joint, elbow_joint, wrist_1_joint, wrist_2_joint,","[1.4064735174179077, -1.1719563643084925, 2.481978416442871, -2.862300697957174, -1.5669458548175257, 2.734117031097412]","[-0.04442152753472328, 0.0, -0.0, 0.0, 0.0, -0.046076949685811996]","[-1.1169434785842896, -3.465271234512329, -1.324910044670105, -0.4665527939796448, 0.0403747595846653, -0.3252411186695099]"
1584444563569640715,,333925,,1584444563,569183142,'',"[shoulder_pan_joint, shoulder_lift_joint, elbow_joint, wrist_1_joint, wrist_2_joint,","[1.401687741279602, -1.1719325224505823, 2.4819424152374268, -2.862312618886129, -1.5668981711017054, 2.7299983501434326]","[-0.03574175387620926, 0.0, -0.0, 0.0, 0.0, -0.02985510230064392]","[-0.8102417588233948, -3.373718500137329, -1.374229907989502, -0.4396362900733948, 0.02467346377670765, -0.4015045464038849]"
1584444563681577757,,333939,,1584444563,681243343,'',"[shoulder_pan_joint, shoulder_lift_joint, elbow_joint, wrist_1_joint, wrist_2_joint,","[1.3984370231628418, -1.171920124684469, 2.4819424152374268, -2.862312618886129, -1.5669100920306605, 2.72731614112854]","[-0.02155243046581745, 0.0, -0.0, 0.0, 0.0, -0.020747089758515358]","[-1.1260987520217896, -3.414917230606079, -1.3630207777023315, -0.4396362900733948, 0.02018737979233265, -0.2669220268726349]"
1584444563793580791,,333953,,1584444563,793145499,'',"[shoulder_pan_joint, shoulder_lift_joint, elbow_joint, wrist_1_joint, wrist_2_joint,","[1.3963618278503418, -1.1719325224505823, 2.4819304943084717, -2.862312618886129, -1.5669458548175257, 2.7252326011657715]","[-0.01655421033501625, 0.0, -0.0, 0.0, 0.0, -0.01635606959462166]","[-1.0940552949905396, -3.428650140762329, -1.374229907989502, -0.4373932480812073, 0.0314025916159153, -0.2691650688648224]"
1584444563905561804,,333967,,1584444563,905151468,'',"[shoulder_pan_joint, shoulder_lift_joint, elbow_joint, wrist_1_joint, wrist_2_joint,","[1.3944429159164429, -1.1719563643084925, 2.481954336166382, -2.8623245398150843, -1.5669339338885706, 2.7227542400360107]","[-0.01840776950120926, 0.0, -0.0, 0.0, 0.0, -0.03039199486374855]","[-1.0299683809280396, -3.460693597793579, -1.3406027555465698, -0.4553375840187073, 0.02018737979233265, -0.2512207329273224]"
1584444564017429004,,333981,,1584444564,17128584,'',"[shoulder_pan_joint, shoulder_lift_joint, elbow_joint, wrist_1_joint, wrist_2_joint,","[1.392763614654541, -1.1719325224505823, 2.4819304943084717, -2.8623245398150843, -1.566885773335592, 2.719101905822754]","[-0.010814565233886242, 0.0, -0.0, 0.0, 0.0, -0.02732403390109539]","[-1.0253907442092896, -3.424072504043579, -1.374229907989502, -0.4396362900733948, 0.02467346377670765, -0.3072967827320099]"
1584444564129561099,,333995,,1584444564,129130906,'',"[shoulder_pan_joint, shoulder_lift_joint, elbow_joint, wrist_1_joint, wrist_2_joint,","[1.392427682876587, -1.1719563643084925, 2.4819424152374268, -2.862300697957174, -1.566885773335592, 2.7166833877563477]","[0.0020836573094129562, 0.0, -0.0, 0.0, 0.0, -0.019098062068223953]","[0.3158569633960724, -3.419494867324829, -1.407857060432434, -0.4104767143726349, 0.01794433780014515, -0.2803802788257599]"
1584444564241468194,,334009,,1584444564,241110747,'',"[shoulder_pan_joint, shoulder_lift_joint, elbow_joint, wrist_1_joint, wrist_2_joint,","[1.3924756050109863, -1.1719444433795374, 2.4819424152374268, -2.862288777028219, -1.5668981711017054, 2.7146120071411133]","[0.0002556634717620909, 0.0, -0.0, 0.0, 0.0, -0.015569905750453472]","[-0.2700805962085724, -3.543091297149658, -1.2935247421264648, -0.4800110459327698, 0.01570129580795765, -0.3544006645679474]"
1584444564353437906,,334023,,1584444564,353113942,'',"[shoulder_pan_joint, shoulder_lift_joint, elbow_joint, wrist_1_joint, wrist_2_joint,","[1.3935792446136475, -1.1719444433795374, 2.4819304943084717, -2.8623245398150843, -1.5669339338885706, 2.7183237075805664]","[0.015902267768979073, 0.0, -0.0, 0.0, 0.0, 0.06086068972945213]","[0.8285523056983948, -3.451538324356079, -1.374229907989502, -0.4239349663257599, 0.0269165076315403, 0.3319702446460724]"
1584444564465519276,,334037,,1584444564,465157201,'',"[shoulder_pan_joint, shoulder_lift_joint, elbow_joint, wrist_1_joint, wrist_2_joint,","[1.3951263427734375, -1.171920124684469, 2.481954336166382, -2.862288777028219, -1.5669577757464808, 2.7248375415802]","[0.01053333468735218, 0.0, -0.0, 0.0, 0.0, 0.05048714205622673]","[0.9475709199905396, -3.511047601699829, -1.3338773250579834, -0.4373932480812073, 0.02243042178452015, 0.3252411186695099]"
1584444564577486614,,334051,,1584444564,577105683,'',"[shoulder_pan_joint, shoulder_lift_joint, elbow_joint, wrist_1_joint, wrist_2_joint,","[1.3949346542358398, -1.1719563643084925, 2.481954336166382, -2.862288777028219, -1.5669458548175257, 2.729471445083618]","[-0.01817767322063446, 0.0, -0.0, 0.0, 0.0, 0.03480219095945358]","[-0.7644653916358948, -3.556824207305908, -1.280073881149292, -0.4687958359718323, 0.02467346377670765, 0.2355194389820099]"
1584444564689456616,,334065,,1584444564,689084973,'',"[shoulder_pan_joint, shoulder_lift_joint, elbow_joint, wrist_1_joint, wrist_2_joint,","[1.3928115367889404, -1.171920124684469, 2.4819183349609375, -2.8623364607440394, -1.5669458548175257, 2.734715461730957]","[-0.015390940941870213, 0.0, -0.0, 0.0, 0.0, 0.055817726999521255]","[-1.0070801973342896, -3.405761957168579, -1.3854389190673828, -0.4373932480812073, 0.01794433780014515, 0.2871094048023224]"
1584444564801540021,,334079,,1584444564,801152507,'',"[shoulder_pan_joint, shoulder_lift_joint, elbow_joint, wrist_1_joint, wrist_2_joint,","[1.3916000127792358, -1.1719563643084925, 2.4819183349609375, -2.8623245398150843, -1.5669458548175257, 2.7403197288513184]","[-0.007286408916115761, 0.0, -0.0, 0.0, 0.0, 0.03984514996409416]","[-1.0025025606155396, -3.479004144668579, -1.3652626276016235, -0.4553375840187073, 0.02018737979233265, 0.3072967827320099]"
1584444564913414755,,334093,,1584444564,913063760,'',"[shoulder_pan_joint, shoulder_lift_joint, elbow_joint, wrist_1_joint, wrist_2_joint,","[1.392007827758789, -1.171920124684469, 2.4819424152374268, -2.8623245398150843, -1.5669339338885706, 2.744917392730713]","[0.009843043982982635, 0.0, -0.0, 0.0, 0.0, 0.039749279618263245]","[0.8331299424171448, -3.483581781387329, -1.3406027555465698, -0.4261780083179474, 0.0291595496237278, 0.2893524467945099]"
1584444565025399144,,334107,,1584444565,25068547,'',"[shoulder_pan_joint, shoulder_lift_joint, elbow_joint, wrist_1_joint, wrist_2_joint,","[1.3931829929351807, -1.1719444433795374, 2.4819183349609375, -2.862276856099264, -1.5669458548175257, 2.7494077682495117]","[0.010788998566567898, 0.0, -0.0, 0.0, 0.0, 0.0348980650305748]","[0.8239746689796448, -3.533936023712158, -1.3428444862365723, -0.4441223740577698, 0.02243042178452015, 0.3386993706226349]"
1584444565137334693,,334121,,1584444565,137070720,'',"[shoulder_pan_joint, shoulder_lift_joint, elbow_joint, wrist_1_joint, wrist_2_joint,","[1.3943226337432861, -1.1719444433795374, 2.481966495513916, -2.862312618886129, -1.5669458548175257, 2.7525689601898193]","[0.009012137539684772, 0.0, -0.0, 0.0, 0.0, 0.019769178703427315]","[0.8605957627296448, -3.492737054824829, -1.3675044775009155, -0.4261780083179474, 0.0269165076315403, 0.3431854546070099]"
1584444565249324281,,334135,,1584444565,249066150,'',"[shoulder_pan_joint, shoulder_lift_joint, elbow_joint, wrist_1_joint, wrist_2_joint,","[1.3936631679534912, -1.1719325224505823, 2.4819424152374268, -2.8623364607440394, -1.5669458548175257, 2.7509403228759766]","[-0.022536734119057655, 0.0, -0.0, 0.0, 0.0, -0.04626869782805443]","[-0.9796143770217896, -3.410339593887329, -1.3988897800445557, -0.4329071640968323, 0.02018737979233265, -0.3566437065601349]"
1584444565361423696,,334149,,1584444565,361153441,'',"[shoulder_pan_joint, shoulder_lift_joint, elbow_joint, wrist_1_joint, wrist_2_joint,","[1.3917078971862793, -1.1719802061664026, 2.4819183349609375, -2.862300697957174, -1.5669220129596155, 2.746845006942749]","[-0.01375469472259283, 0.0, -0.0, 0.0, 0.0, -0.03173422813415527]","[-0.9567261934280396, -3.419494867324829, -1.3428444862365723, -0.4553375840187073, 0.02018737979233265, -0.3521576225757599]"
1584444565473606726,,334163,,1584444565,473274516,'',"[shoulder_pan_joint, shoulder_lift_joint, elbow_joint, wrist_1_joint, wrist_2_joint,","[1.3914198875427246, -1.1719563643084925, 2.4819183349609375, -2.8623364607440394, -1.5669339338885706, 2.7444026470184326]","[0.01546764001250267, 0.0, -0.0, 0.0, 0.0, -0.009683254174888134]","[0.7644653916358948, -3.433227777481079, -1.419066071510315, -0.4172058403491974, 0.02018737979233265, -0.2265472710132599]"
1584444565585295583,,334177,,1584444565,585028134,'',"[shoulder_pan_joint, shoulder_lift_joint, elbow_joint, wrist_1_joint, wrist_2_joint,","[1.3933871984481812, -1.1719563643084925, 2.481954336166382, -2.8623245398150843, -1.5669458548175257, 2.747431993484497]","[0.01858673430979252, 0.0, -0.0, 0.0, 0.0, 0.0542837455868721]","[0.8377075791358948, -3.529358386993408, -1.3764716386795044, -0.4194488823413849, 0.0269165076315403, 0.2893524467945099]"
1584444565697277468,,334191,,1584444565,697038803,'',"[shoulder_pan_joint, shoulder_lift_joint, elbow_joint, wrist_1_joint, wrist_2_joint,","[1.3951503038406372, -1.1719563643084925, 2.481978416442871, -2.862312618886129, -1.5669458548175257, 2.752772331237793]","[0.009983658790588379, 0.0, -0.0, 0.0, 0.0, 0.030161898583173752]","[1.0116578340530396, -3.529358386993408, -1.3204264640808105, -0.4373932480812073, 0.0403747595846653, 0.3745880424976349]"
1584444565809371522,,334205,,1584444565,809116275,'',"[shoulder_pan_joint, shoulder_lift_joint, elbow_joint, wrist_1_joint, wrist_2_joint,","[1.3939268589019775, -1.1719444433795374, 2.4819183349609375, -2.8623245398150843, -1.5669220129596155, 2.7514193058013916]","[-0.028122982010245323, 0.0, -0.0, 0.0, 0.0, -0.05096651241183281]","[-0.9567261934280396, -3.392029047012329, -1.4437259435653687, -0.4239349663257599, 0.0291595496237278, -0.3207550346851349]"
1584444565921288055,,334219,,1584444565,921035694,'',"[shoulder_pan_joint, shoulder_lift_joint, elbow_joint, wrist_1_joint, wrist_2_joint,","[1.3913599252700806, -1.1719682852374476, 2.4819304943084717, -2.862312618886129, -1.5669220129596155, 2.746713161468506]","[-0.017001621425151825, 0.0, -0.0, 0.0, 0.0, -0.035473305732011795]","[-1.0299683809280396, -3.387451410293579, -1.358537197113037, -0.4530945420265198, 0.006729126907885075, -0.3050537407398224]"
1584444566033414048,,334233,,1584444566,33059397,'',"[shoulder_pan_joint, shoulder_lift_joint, elbow_joint, wrist_1_joint, wrist_2_joint,","[1.390904188156128, -1.1719682852374476, 2.4819183349609375, -2.862276856099264, -1.5669220129596155, 2.744211196899414]","[0.016592558473348618, 0.0, -0.0, 0.0, 0.0, -0.0029529130551964045]","[0.6866455674171448, -3.346252679824829, -1.5266729593276978, -0.3813171684741974, 0.0269165076315403, -0.1278534084558487]"
1584444566145401663,,334247,,1584444566,145057351,'',"[shoulder_pan_joint, shoulder_lift_joint, elbow_joint, wrist_1_joint, wrist_2_joint,","[1.3932074308395386, -1.1719325224505823, 2.4819183349609375, -2.8623245398150843, -1.5669577757464808, 2.7490007877349854]","[0.01991618424654007, 0.0, -0.0, 0.0, 0.0, 0.05558763071894646]","[0.8605957627296448, -3.456115961074829, -1.416824221611023, -0.4261780083179474, 0.0314025916159153, 0.3431854546070099]"
1584444566257343964,,334261,,1584444566,257031591,'',"[shoulder_pan_joint, shoulder_lift_joint, elbow_joint, wrist_1_joint, wrist_2_joint,","[1.3950663805007935, -1.1719802061664026, 2.4819424152374268, -2.862288777028219, -1.5669696966754358, 2.753849983215332]","[0.010520551353693008, 0.0, -0.0, 0.0, 0.0, 0.026192722842097282]","[1.0162354707717896, -3.524780750274658, -1.2957664728164673, -0.4530945420265198, 0.0269165076315403, 0.3409424126148224]"
1584444566369486358,,334275,,1584444566,369102452,'',"[shoulder_pan_joint, shoulder_lift_joint, elbow_joint, wrist_1_joint, wrist_2_joint,","[1.3939987421035767, -1.1719444433795374, 2.4819304943084717, -2.862288777028219, -1.5669577757464808, 2.7521376609802246]","[-0.027458256110548973, 0.0, -0.0, 0.0, 0.0, -0.054743941873311996]","[-0.9796143770217896, -3.359985589981079, -1.4302750825881958, -0.4351502060890198, 0.02243042178452015, -0.3319702446460724]"
1584444566481347668,,334289,,1584444566,481033752,'',"[shoulder_pan_joint, shoulder_lift_joint, elbow_joint, wrist_1_joint, wrist_2_joint,","[1.3914318084716797, -1.1719325224505823, 2.4819304943084717, -2.8623483816729944, -1.5669458548175257, 2.747072458267212]","[-0.018075406551361084, 0.0, -0.0, 0.0, 0.0, -0.03714150935411453]","[-1.0070801973342896, -3.387451410293579, -1.3450863361358643, -0.4665527939796448, 0.01794433780014515, -0.3611297905445099]"
1584444566593462451,,334303,,1584444566,593130892,'',"[shoulder_pan_joint, shoulder_lift_joint, elbow_joint, wrist_1_joint, wrist_2_joint,","[1.3908323049545288, -1.1719444433795374, 2.4819424152374268, -2.8623364607440394, -1.5669458548175257, 2.7448575496673584]","[0.01504579558968544, 0.0, -0.0, 0.0, 0.0, 0.018100973218679428]","[0.6866455674171448, -3.369140863418579, -1.5446075201034546, -0.3745880424976349, 0.01794433780014515, 0.0762634351849556]"
1584444566705336564,,334317,,1584444566,705021686,'',"[shoulder_pan_joint, shoulder_lift_joint, elbow_joint, wrist_1_joint, wrist_2_joint,","[1.3931231498718262, -1.1719802061664026, 2.481954336166382, -2.862312618886129, -1.5669696966754358, 2.750521183013916]","[0.019277025014162064, 0.0, -0.0, 0.0, 0.0, 0.05236627161502838]","[0.9017945528030396, -3.488159418106079, -1.3944061994552612, -0.4194488823413849, 0.0358886756002903, 0.3431854546070099]"
1584444566817397116,,334331,,1584444566,817025402,'',"[shoulder_pan_joint, shoulder_lift_joint, elbow_joint, wrist_1_joint, wrist_2_joint,","[1.3948866128921509, -1.1719563643084925, 2.4819304943084717, -2.862312618886129, -1.5669696966754358, 2.7548437118530273]","[0.010379936546087265, 0.0, -0.0, 0.0, 0.0, 0.020478643476963043]","[0.9429932832717896, -3.506469964981079, -1.3406027555465698, -0.4373932480812073, 0.0336456336081028, 0.3409424126148224]"
1584444566929429544,,334345,,1584444566,929011103,'',"[shoulder_pan_joint, shoulder_lift_joint, elbow_joint, wrist_1_joint, wrist_2_joint,","[1.3938908576965332, -1.1719563643084925, 2.4819183349609375, -2.8623364607440394, -1.5669220129596155, 2.752868175506592]","[-0.02658900059759617, 0.0, -0.0, 0.0, 0.0, -0.057677678763866425]","[-0.9933472871780396, -3.378296136856079, -1.4437259435653687, -0.4194488823413849, 0.02018737979233265, -0.3297272026538849]"
1584444567041239017,,334359,,1584444567,40959446,'',"[shoulder_pan_joint, shoulder_lift_joint, elbow_joint, wrist_1_joint, wrist_2_joint,","[1.3914681673049927, -1.1719444433795374, 2.481954336166382, -2.8623603026019495, -1.5669458548175257, 2.7473480701446533]","[-0.01817767322063446, 0.0, -0.0, 0.0, 0.0, -0.04135995730757713]","[-0.9887696504592896, -3.446960687637329, -1.3428444862365723, -0.4530945420265198, 0.01794433780014515, -0.3588867485523224]"
1584444567153382865,,334373,,1584444567,153042229,'',"[shoulder_pan_joint, shoulder_lift_joint, elbow_joint, wrist_1_joint, wrist_2_joint,","[1.390808343887329, -1.1719444433795374, 2.4819183349609375, -2.8623245398150843, -1.5669220129596155, 2.744678258895874]","[0.014764565043151379, 0.0, -0.0, 0.0, 0.0, 0.010181797668337822]","[0.6729126572608948, -3.364563226699829, -1.546849250793457, -0.3701019585132599, 0.02467346377670765, 0.0336456336081028]"
1584444567265397219,,334387,,1584444567,265057305,'',"[shoulder_pan_joint, shoulder_lift_joint, elbow_joint, wrist_1_joint, wrist_2_joint,","[1.393159031867981, -1.1719563643084925, 2.481954336166382, -2.862300697957174, -1.5669696966754358, 2.7501022815704346]","[0.01920032687485218, 0.0, -0.0, 0.0, 0.0, 0.053593456745147705]","[0.8651733994483948, -3.524780750274658, -1.40337336063385, -0.4194488823413849, 0.0358886756002903, 0.3364563286304474]"
1584444567377367392,,334401,,1584444567,377019243,'',"[shoulder_pan_joint, shoulder_lift_joint, elbow_joint, wrist_1_joint, wrist_2_joint,","[1.3949106931686401, -1.1719563643084925, 2.481954336166382, -2.8623483816729944, -1.5669577757464808, 2.754676103591919]","[0.01022653840482235, 0.0, -0.0, 0.0, 0.0, 0.02208932302892208]","[0.9841920137405396, -3.501892328262329, -1.3293936252593994, -0.4396362900733948, 0.0381317175924778, 0.3835602104663849]"
1584444567489391155,,334415,,1584444567,489029069,'',"[shoulder_pan_joint, shoulder_lift_joint, elbow_joint, wrist_1_joint, wrist_2_joint,","[1.3938668966293335, -1.1719444433795374, 2.4819304943084717, -2.862312618886129, -1.5669458548175257, 2.75252103805542]","[-0.02665291726589203, 0.0, -0.0, 0.0, 0.0, -0.059537630528211594]","[-1.0253907442092896, -3.369140863418579, -1.419066071510315, -0.4261780083179474, 0.01570129580795765, -0.3386993706226349]"
1584444567601291968,,334429,,1584444567,600971270,'',"[shoulder_pan_joint, shoulder_lift_joint, elbow_joint, wrist_1_joint, wrist_2_joint,","[1.3914438486099243, -1.1719444433795374, 2.4819304943084717, -2.8623364607440394, -1.5669458548175257, 2.7469890117645264]","[-0.01709110289812088, 0.0, -0.0, 0.0, 0.0, -0.04066966474056244]","[-0.9658814668655396, -3.401184320449829, -1.3406027555465698, -0.4553375840187073, 0.01570129580795765, -0.3611297905445099]"
1584444567713296666,,334443,,1584444567,712990464,'',"[shoulder_pan_joint, shoulder_lift_joint, elbow_joint, wrist_1_joint, wrist_2_joint,","[1.3909640312194824, -1.1719444433795374, 2.4819183349609375, -2.8623245398150843, -1.5669100920306605, 2.7446422576904297]","[0.01842055283486843, 0.0, -0.0, 0.0, 0.0, 0.026978887617588043]","[0.7507324814796448, -3.305053949356079, -1.5244312286376953, -0.3678589165210724, 0.0314025916159153, 0.1143951565027237]"
1584444567825323524,,334457,,1584444567,824950087,'',"[shoulder_pan_joint, shoulder_lift_joint, elbow_joint, wrist_1_joint, wrist_2_joint,","[1.3932433128356934, -1.1719682852374476, 2.4819304943084717, -2.8623364607440394, -1.5669339338885706, 2.7501022815704346]","[0.01848446950316429, 0.0, -0.0, 0.0, 0.0, 0.05067889019846916]","[0.8605957627296448, -3.451538324356079, -1.374229907989502, -0.4329071640968323, 0.0471038855612278, 0.3319702446460724]"
1584444567937253512,,334471,,1584444567,936934176,'',"[shoulder_pan_joint, shoulder_lift_joint, elbow_joint, wrist_1_joint, wrist_2_joint,","[1.3948626518249512, -1.1719802061664026, 2.4819304943084717, -2.8623245398150843, -1.5669696966754358, 2.7541491985321045]","[0.009664079174399376, 0.0, -0.0, 0.0, 0.0, 0.016873789951205254]","[0.9475709199905396, -3.529358386993408, -1.3406027555465698, -0.4598236680030823, 0.0314025916159153, 0.3319702446460724]"
1584444568049299807,,334485,,1584444568,48949232,'',"[shoulder_pan_joint, shoulder_lift_joint, elbow_joint, wrist_1_joint, wrist_2_joint,","[1.3936032056808472, -1.1719444433795374, 2.4819183349609375, -2.8623483816729944, -1.5669458548175257, 2.7511916160583496]","[-0.025770878419280052, 0.0, 3.834952076431364e-05, -1.917476038215682e-05, 0.0, -0.05627791956067085]","[-1.0803223848342896, -3.401184320449829, -1.4235496520996094, -0.4194488823413849, 0.02018737979233265, -0.3499145805835724]"
1584444568161326215,,334499,,1584444568,160999705,'',"[shoulder_pan_joint, shoulder_lift_joint, elbow_joint, wrist_1_joint, wrist_2_joint,","[1.3913240432739258, -1.1719563643084925, 2.4819424152374268, -2.8623603026019495, -1.5669339338885706, 2.746354103088379]","[-0.015518772415816784, 0.0, 3.834952076431364e-05, -1.917476038215682e-05, 0.0, -0.031925976276397705]","[-1.0437012910842896, -3.405761957168579, -1.3630207777023315, -0.4486084580421448, 0.01794433780014515, -0.3745880424976349]"
1584444568273263827,,334513,,1584444568,272974787,'',"[shoulder_pan_joint, shoulder_lift_joint, elbow_joint, wrist_1_joint, wrist_2_joint,","[1.3913120031356812, -1.1719802061664026, 2.4818944931030273, -2.862312618886129, -1.5668981711017054, 2.7465338706970215]","[0.023099195212125778, 0.0, -0.0009715211926959455, 0.00015339808305725455, 0.0, 0.05788860097527504]","[0.9063721895217896, -3.405761957168579, -1.4840785264968872, -0.3633728325366974, 0.0336456336081028, 0.2781372368335724]"
1584444568385290825,,334527,,1584444568,384974645,'',"[shoulder_pan_joint, shoulder_lift_joint, elbow_joint, wrist_1_joint, wrist_2_joint,","[1.3936152458190918, -1.1719325224505823, 2.4819304943084717, -2.862276856099264, -1.5669458548175257, 2.752533197402954]","[0.017193367704749107, 0.0, 0.0003451456723269075, 0.00015339808305725455, 0.0, 0.039442483335733414]","[0.8285523056983948, -3.538513660430908, -1.3809553384780884, -0.4261780083179474, 0.0426178015768528, 0.3588867485523224]"
1584444568497199193,,334541,,1584444568,496927466,'',"[shoulder_pan_joint, shoulder_lift_joint, elbow_joint, wrist_1_joint, wrist_2_joint,","[1.3949825763702393, -1.1719682852374476, 2.481966495513916, -2.862300697957174, -1.5669458548175257, 2.7550711631774902]","[0.005305016878992319, 0.0, 0.00017896443023346364, 0.00013422331539914012, 0.0, 0.0032213598024100065]","[0.6500244736671448, -3.520203113555908, -1.3024919033050537, -0.4508515000343323, 0.0358886756002903, 0.2063598781824112]"
1584444568609238775,,334555,,1584444568,608907276,'',"[shoulder_pan_joint, shoulder_lift_joint, elbow_joint, wrist_1_joint, wrist_2_joint,","[1.3928354978561401, -1.1719325224505823, 2.4819304943084717, -2.8623722235309046, -1.5669458548175257, 2.7497549057006836]","[-0.023022495210170746, 0.0, -0.0, -0.0004410194815136492, 0.0, -0.049969423562288284]","[-0.9658814668655396, -3.277588129043579, -1.4571768045425415, -0.3858032524585724, 0.02018737979233265, -0.3521576225757599]"
1584444568721200803,,334569,,1584444568,720884683,'',"[shoulder_pan_joint, shoulder_lift_joint, elbow_joint, wrist_1_joint, wrist_2_joint,","[1.3908562660217285, -1.1719444433795374, 2.4819183349609375, -2.8623603026019495, -1.5669100920306605, 2.745408535003662]","[-0.010840130969882011, 0.0, -0.0, -0.00017257283616345376, 0.0, -0.02076626569032669]","[-1.0894776582717896, -3.364563226699829, -1.3831970691680908, -0.4261780083179474, 0.02467346377670765, -0.3633728325366974]"
1584444568833279107,,334583,,1584444568,832898848,'',"[shoulder_pan_joint, shoulder_lift_joint, elbow_joint, wrist_1_joint, wrist_2_joint,","[1.392007827758789, -1.1719444433795374, 2.4819304943084717, -2.8623364607440394, -1.5669458548175257, 2.7483179569244385]","[0.023380424827337265, 0.0, -0.00029401297797448933, 1.917476038215682e-05, 0.0, 0.060208749026060104]","[0.9887696504592896, -3.511047601699829, -1.3181846141815186, -0.4418793320655823, 0.0291595496237278, 0.3588867485523224]"
1584444568945169711,,334597,,1584444568,944879009,'',"[shoulder_pan_joint, shoulder_lift_joint, elbow_joint, wrist_1_joint, wrist_2_joint,","[1.393974781036377, -1.1719563643084925, 2.4819064140319824, -2.8623483816729944, -1.5669339338885706, 2.753502607345581]","[0.014700649306178093, 0.0, -0.00023009712458588183, 1.917476038215682e-05, 0.0, 0.029337383806705475]","[0.8926392793655396, -3.456115961074829, -1.3675044775009155, -0.4149627983570099, 0.0403747595846653, 0.3992615044116974]"
1584444569057136688,,334611,,1584444569,56877915,'',"[shoulder_pan_joint, shoulder_lift_joint, elbow_joint, wrist_1_joint, wrist_2_joint,","[1.394574761390686, -1.1719563643084925, 2.481966495513916, -2.8623364607440394, -1.566981617604391, 2.7537424564361572]","[-0.019417639821767807, 0.0, 0.0014061491237953305, 1.917476038215682e-05, 0.0, -0.054743941873311996]","[-0.8605957627296448, -3.689575672149658, -1.0760691165924072, -0.5607605576515198, 0.02467346377670765, -0.2377624809741974]"
1584444569169219050,,334625,,1584444569,168906226,'',"[shoulder_pan_joint, shoulder_lift_joint, elbow_joint, wrist_1_joint, wrist_2_joint,","[1.3921875953674316, -1.1719682852374476, 2.4819424152374268, -2.8623603026019495, -1.5669339338885706, 2.747779130935669]","[-0.019123626872897148, 0.0, 0.0003195793251506984, 1.917476038215682e-05, 0.0, -0.042280346155166626]","[-0.9246827363967896, -3.488159418106079, -1.3137010335922241, -0.4553375840187073, 0.02018737979233265, -0.3588867485523224]"
1584444569281155200,,334639,,1584444569,280879806,'',"[shoulder_pan_joint, shoulder_lift_joint, elbow_joint, wrist_1_joint, wrist_2_joint,","[1.3908562660217285, -1.1719086805926722, 2.4819424152374268, -2.8623603026019495, -1.5669220129596155, 2.7449774742126465]","[-0.001725728390738368, 0.0, -3.834952076431364e-05, 1.917476038215682e-05, 0.0, -0.005023787263780832]","[-0.4302978813648224, -3.396606683731079, -1.4706276655197144, -0.3970184624195099, 0.01345825381577015, -0.1031799390912056]"
1584444569393182740,,334653,,1584444569,392864476,'',"[shoulder_pan_joint, shoulder_lift_joint, elbow_joint, wrist_1_joint, wrist_2_joint,","[1.3929194211959839, -1.1719682852374476, 2.4818944931030273, -2.8623245398150843, -1.5669339338885706, 2.7505452632904053]","[0.0186634324491024, 0.0, -0.0004474110610317439, 0.0, 0.0, 0.05079393833875656]","[0.9017945528030396, -3.492737054824829, -1.3450863361358643, -0.4351502060890198, 0.0426178015768528, 0.3364563286304474]"
1584444569505168631,,334667,,1584444569,504887968,'',"[shoulder_pan_joint, shoulder_lift_joint, elbow_joint, wrist_1_joint, wrist_2_joint,","[1.3945387601852417, -1.1719563643084925, 2.4818944931030273, -2.862300697957174, -1.5669696966754358, 2.754424810409546]","[0.009868609718978405, 0.0, -0.0001917476038215682, 0.0, 0.0, 0.014802915044128895]","[0.9063721895217896, -3.497314691543579, -1.3473281860351562, -0.4418793320655823, 0.0381317175924778, 0.3656158745288849]"
1584444569617137552,,334681,,1584444569,616866576,'',"[shoulder_pan_joint, shoulder_lift_joint, elbow_joint, wrist_1_joint, wrist_2_joint,","[1.3935189247131348, -1.1719325224505823, 2.481990337371826, -2.8623364607440394, -1.5669577757464808, 2.7510478496551514]","[-0.023265376687049866, 0.0, 0.001252750982530415, 9.58738019107841e-05, 0.0, -0.05576020106673241]","[-1.0025025606155396, -3.446960687637329, -1.3450863361358643, -0.4643097519874573, 0.02018737979233265, -0.3476715385913849]"
1584444569729104849,,334695,,1584444569,728836308,'',"[shoulder_pan_joint, shoulder_lift_joint, elbow_joint, wrist_1_joint, wrist_2_joint,","[1.3914438486099243, -1.1719444433795374, 2.4820022583007812, -2.862312618886129, -1.5669577757464808, 2.746342182159424]","[-0.014176539145410061, 0.0, 0.0002556634717620909, 9.58738019107841e-05, 0.0, -0.027228159829974174]","[-0.9658814668655396, -3.442383050918579, -1.3450863361358643, -0.4575806260108948, 0.02018737979233265, -0.3678589165210724]"
1584444569841120507,,334709,,1584444569,840850343,'',"[shoulder_pan_joint, shoulder_lift_joint, elbow_joint, wrist_1_joint, wrist_2_joint,","[1.391743779182434, -1.1719325224505823, 2.4817986488342285, -2.8622406164752405, -1.5669577757464808, 2.747527837753296]","[0.02358495444059372, 0.0, -0.003464240115135908, 0.007497331127524376, 0.0, 0.058291271328926086]","[1.0025025606155396, -3.181457757949829, -1.690325140953064, -0.3072967827320099, 0.0358886756002903, 0.3117828667163849]"
1584444569953140824,,334723,,1584444569,952850532,'',"[shoulder_pan_joint, shoulder_lift_joint, elbow_joint, wrist_1_joint, wrist_2_joint,","[1.3938069343566895, -1.1719444433795374, 2.4818105697631836, -2.8622525374041956, -1.5669458548175257, 2.752892255783081]","[0.015863917768001556, 0.0, 0.0003067961661145091, 0.00032597093377262354, 0.0, 0.03298058733344078]","[0.8926392793655396, -3.451538324356079, -1.374229907989502, -0.4441223740577698, 0.02243042178452015, 0.3858032524585724]"
1584444570065145641,,334737,,1584444570,64849819,'',"[shoulder_pan_joint, shoulder_lift_joint, elbow_joint, wrist_1_joint, wrist_2_joint,","[1.3947185277938843, -1.1719682852374476, 2.4818944931030273, -2.8622406164752405, -1.5669458548175257, 2.753849983215332]","[-0.01213123183697462, 0.0, 0.0001917476038215682, 0.00015339808305725455, 0.0, -0.04759175330400467]","[-0.7186890244483948, -3.717041492462158, -1.0693436861038208, -0.5607605576515198, 0.02467346377670765, -0.1772003322839737]"
1584444570177133847,,334751,,1584444570,176849547,'',"[shoulder_pan_joint, shoulder_lift_joint, elbow_joint, wrist_1_joint, wrist_2_joint,","[1.3923797607421875, -1.1719563643084925, 2.481978416442871, -2.862264935170309, -1.5669339338885706, 2.7479465007781982]","[-0.018804049119353294, 0.0, 0.0004218447138555348, -0.00015339808305725455, 0.0, -0.04134078323841095]","[-0.9979249238967896, -3.469848871231079, -1.3450863361358643, -0.4620667099952698, 0.02018737979233265, -0.4149627983570099]"
1584444570289203946,,334765,,1584444570,288854514,'',"[shoulder_pan_joint, shoulder_lift_joint, elbow_joint, wrist_1_joint, wrist_2_joint,","[1.3910243511199951, -1.1719682852374476, 2.4819183349609375, -2.862264935170309, -1.5669220129596155, 2.7454323768615723]","[-0.0027867318131029606, 0.0, 0.00017896443023346364, -0.00015339808305725455, 0.0, 0.008686166256666183]","[-0.4257202446460724, -3.387451410293579, -1.4751113653182983, -0.3970184624195099, 0.01794433780014515, 0.0358886756002903]"
1584444570401300635,,334779,,1584444570,400873168,'',"[shoulder_pan_joint, shoulder_lift_joint, elbow_joint, wrist_1_joint, wrist_2_joint,","[1.3928954601287842, -1.1719563643084925, 2.4818825721740723, -2.862264935170309, -1.5669577757464808, 2.7511677742004395]","[0.016515860334038734, 0.0, -0.0006008091731928289, 1.917476038215682e-05, 0.0, 0.04851214215159416]","[0.8880616426467896, -3.543091297149658, -1.3495699167251587, -0.4486084580421448, 0.0358886756002903, 0.3611297905445099]"
1584444570513219252,,334793,,1584444570,512861965,'',"[shoulder_pan_joint, shoulder_lift_joint, elbow_joint, wrist_1_joint, wrist_2_joint,","[1.3944065570831299, -1.1719325224505823, 2.481834650039673, -2.8622286955462855, -1.5669458548175257, 2.754568099975586]","[0.009357282891869545, 0.0, -0.00024288029817398638, 0.0, 0.0, 0.01056529302150011]","[0.8514404892921448, -3.465271234512329, -1.369746208190918, -0.4329071640968323, 0.0381317175924778, 0.3521576225757599]"
1584444570625205124,,334807,,1584444570,624855782,'',"[shoulder_pan_joint, shoulder_lift_joint, elbow_joint, wrist_1_joint, wrist_2_joint,","[1.3933391571044922, -1.171920124684469, 2.4818825721740723, -2.8622525374041956, -1.5669458548175257, 2.7505931854248047]","[-0.021462948992848396, 0.0, -0.00020453077740967274, 0.0, 0.0, -0.05585607513785362]","[-1.0162354707717896, -3.387451410293579, -1.37198805809021, -0.4396362900733948, 0.011215210892260075, -0.3745880424976349]"
1584444570737180507,,334821,,1584444570,736842556,'',"[shoulder_pan_joint, shoulder_lift_joint, elbow_joint, wrist_1_joint, wrist_2_joint,","[1.3914802074432373, -1.1719444433795374, 2.481834650039673, -2.8622406164752405, -1.5669339338885706, 2.7461507320404053]","[-0.01264255866408348, 0.0, -0.00020453077740967274, 0.0, 0.0, -0.029337383806705475]","[-0.9887696504592896, -3.469848871231079, -1.3540536165237427, -0.4530945420265198, 0.01570129580795765, -0.3902893364429474]"
1584444570849179573,,334835,,1584444570,848855458,'',"[shoulder_pan_joint, shoulder_lift_joint, elbow_joint, wrist_1_joint, wrist_2_joint,","[1.3918999433517456, -1.1719682852374476, 2.4818105697631836, -2.8622525374041956, -1.5669458548175257, 2.747671365737915]","[0.02160356380045414, 0.0, -0.00048576059634797275, 0.0, 0.0, 0.05796530097723007]","[0.9475709199905396, -3.547668933868408, -1.3024919033050537, -0.4598236680030823, 0.0358886756002903, 0.3185119926929474]"
1584444570961167068,,334849,,1584444570,960832324,'',"[shoulder_pan_joint, shoulder_lift_joint, elbow_joint, wrist_1_joint, wrist_2_joint,","[1.393747091293335, -1.171920124684469, 2.4818224906921387, -2.862264935170309, -1.5669458548175257, 2.7532753944396973]","[0.013703562319278717, 0.0, -0.0003195793251506984, 0.0, 0.0, 0.03664296865463257]","[0.8148193955421448, -3.460693597793579, -1.3966479301452637, -0.4239349663257599, 0.0269165076315403, 0.4284210503101349]"
1584444571073079293,,334863,,1584444571,72807165,'',"[shoulder_pan_joint, shoulder_lift_joint, elbow_joint, wrist_1_joint, wrist_2_joint,","[1.3943945169448853, -1.1719802061664026, 2.481858491897583, -2.8622525374041956, -1.566981617604391, 2.754220962524414]","[-0.016515860334038734, 0.0, -0.00015339808305725455, 0.0, 0.0, -0.04502233862876892]","[-0.8605957627296448, -3.671265125274658, -1.08951997756958, -0.5540314316749573, 0.0291595496237278, -0.2063598781824112]"
1584444571185289433,,334877,,1584444571,184939821,'',"[shoulder_pan_joint, shoulder_lift_joint, elbow_joint, wrist_1_joint, wrist_2_joint,","[1.3921276330947876, -1.1719325224505823, 2.4818105697631836, -2.862264935170309, -1.5669100920306605, 2.7485697269439697]","[-0.01762799546122551, 0.0, 0.00010226538870483637, 0.0, 0.0, -0.04135995730757713]","[-0.9338380098342896, -3.424072504043579, -1.3518117666244507, -0.4643097519874573, 0.01345825381577015, -0.3678589165210724]"
1584444571297135765,,334891,,1584444571,296811861,'',"[shoulder_pan_joint, shoulder_lift_joint, elbow_joint, wrist_1_joint, wrist_2_joint,","[1.39101243019104, -1.171920124684469, 2.4818224906921387, -2.8622525374041956, -1.5669458548175257, 2.7456119060516357]","[0.0027867318131029606, 0.0, 0.00010226538870483637, 0.0, 0.0, -0.0034322820138186216]","[-0.0320434607565403, -3.332519769668579, -1.5199475288391113, -0.3902893364429474, 0.01570129580795765, -0.1996307522058487]"
1584444571409263331,,334905,,1584444571,408844219,'',"[shoulder_pan_joint, shoulder_lift_joint, elbow_joint, wrist_1_joint, wrist_2_joint,","[1.3930271863937378, -1.1719563643084925, 2.481834650039673, -2.8622525374041956, -1.5669696966754358, 2.7510716915130615]","[0.017167802900075912, 0.0, -0.00011504856229294091, 0.0, 0.0, 0.04887646436691284]","[0.8880616426467896, -3.515625476837158, -1.4011316299438477, -0.4261780083179474, 0.0336456336081028, 0.3297272026538849]"
1584444571521183010,,334919,,1584444571,520836714,'',"[shoulder_pan_joint, shoulder_lift_joint, elbow_joint, wrist_1_joint, wrist_2_joint,","[1.394454836845398, -1.1719563643084925, 2.481858491897583, -2.8622406164752405, -1.5669577757464808, 2.754424810409546]","[0.008526376448571682, 0.0, -0.00011504856229294091, 0.0, 0.0, 0.010085923597216606]","[0.8880616426467896, -3.515625476837158, -1.3652626276016235, -0.4508515000343323, 0.0314025916159153, 0.3319702446460724]"
1584444571633202215,,334933,,1584444571,632788112,'',"[shoulder_pan_joint, shoulder_lift_joint, elbow_joint, wrist_1_joint, wrist_2_joint,","[1.3931231498718262, -1.171920124684469, 2.481834650039673, -2.8622525374041956, -1.5669220129596155, 2.7504372596740723]","[-0.02166747860610485, 0.0, -0.0012144014472141862, 0.0, 0.0, -0.05357427895069122]","[-1.0894776582717896, -3.332519769668579, -1.4773530960083008, -0.3925323784351349, 0.02243042178452015, -0.3813171684741974]"
1584444571745132342,,334947,,1584444571,744744388,'',"[shoulder_pan_joint, shoulder_lift_joint, elbow_joint, wrist_1_joint, wrist_2_joint,","[1.3913480043411255, -1.1719444433795374, 2.4818224906921387, -2.862264935170309, -1.5669100920306605, 2.7460668087005615]","[-0.011070228181779385, 0.0, -0.0002556634717620909, 0.0, 0.0, -0.024773789569735527]","[-1.0116578340530396, -3.428650140762329, -1.3899224996566772, -0.4575806260108948, 0.01570129580795765, -0.3902893364429474]"
1584444571857113265,,334961,,1584444571,856737544,'',"[shoulder_pan_joint, shoulder_lift_joint, elbow_joint, wrist_1_joint, wrist_2_joint,","[1.392163634300232, -1.1719563643084925, 2.4818224906921387, -2.8622406164752405, -1.5669339338885706, 2.748581647872925]","[0.021526863798499107, 0.0, -0.00011504856229294091, 0.0, 0.0, 0.05886651575565338]","[0.9521485567092896, -3.529358386993408, -1.2957664728164673, -0.4463654160499573, 0.0291595496237278, 0.3386993706226349]"
1584444571969161323,,334975,,1584444571,968762569,'',"[shoulder_pan_joint, shoulder_lift_joint, elbow_joint, wrist_1_joint, wrist_2_joint,","[1.3939028978347778, -1.1719325224505823, 2.481846570968628, -2.8622286955462855, -1.5669458548175257, 2.753610610961914]","[0.012706474401056767, 0.0, -0.00011504856229294091, 0.0, 0.0, 0.024946363642811775]","[0.8514404892921448, -3.474426507949829, -1.3562953472137451, -0.4351502060890198, 0.0403747595846653, 0.3925323784351349]"
1584444572081130534,,334989,,1584444572,80769481,'',"[shoulder_pan_joint, shoulder_lift_joint, elbow_joint, wrist_1_joint, wrist_2_joint,","[1.3941668272018433, -1.1719444433795374, 2.481858491897583, -2.862264935170309, -1.5669339338885706, 2.752676486968994]","[-0.021693045273423195, 0.0, -0.00011504856229294091, 0.0, 0.0, -0.05892403796315193]","[-0.8468628525733948, -3.593445301055908, -1.192643165588379, -0.5091705918312073, 0.0269165076315403, -0.3162689507007599]"
1584444572193181047,,335003,,1584444572,192869165,'',"[shoulder_pan_joint, shoulder_lift_joint, elbow_joint, wrist_1_joint, wrist_2_joint,","[1.3920317888259888, -1.1719325224505823, 2.481834650039673, -2.862276856099264, -1.5669339338885706, 2.747192144393921]","[-0.015135277062654495, 0.0, 0.00010226538870483637, 0.0, 0.0, -0.03480219095945358]","[-0.9292603731155396, -3.414917230606079, -1.3428444862365723, -0.4620667099952698, 0.011215210892260075, -0.3947754204273224]"
1584444572305158874,,335017,,1584444572,304805535,'',"[shoulder_pan_joint, shoulder_lift_joint, elbow_joint, wrist_1_joint, wrist_2_joint,","[1.3913240432739258, -1.1719325224505823, 2.4818105697631836, -2.862264935170309, -1.5669100920306605, 2.7461507320404053]","[0.017295634374022484, 0.0, 0.00010226538870483637, 0.0, 0.0, 0.04899151250720024]","[0.8148193955421448, -3.268432855606079, -1.6634234189987183, -0.3185119926929474, 0.02243042178452015, 0.2198181450366974]"
1584444572417077891,,335031,,1584444572,416750981,'',"[shoulder_pan_joint, shoulder_lift_joint, elbow_joint, wrist_1_joint, wrist_2_joint,","[1.393363118171692, -1.1719563643084925, 2.481834650039673, -2.8622525374041956, -1.5669458548175257, 2.7519938945770264]","[0.015493206679821014, 0.0, -0.00011504856229294091, 0.0, 0.0, 0.04205024987459183]","[0.8422852158546448, -3.538513660430908, -1.360779047012329, -0.4306641221046448, 0.0336456336081028, 0.3454284965991974]"
1584444572529150014,,335045,,1584444572,528798438,'',"[shoulder_pan_joint, shoulder_lift_joint, elbow_joint, wrist_1_joint, wrist_2_joint,","[1.3945987224578857, -1.1719682852374476, 2.4818224906921387, -2.8622525374041956, -1.566981617604391, 2.754448652267456]","[0.0033364081755280495, 0.0, -0.00011504856229294091, 0.0, 0.0, -0.0036432044580578804]","[0.4440308213233948, -3.543091297149658, -1.3024919033050537, -0.4643097519874573, 0.0426178015768528, -0.0829925611615181]"
1584444572641170030,,335059,,1584444572,640814136,'',"[shoulder_pan_joint, shoulder_lift_joint, elbow_joint, wrist_1_joint, wrist_2_joint,","[1.3927156925201416, -1.1719682852374476, 2.4818224906921387, -2.8622286955462855, -1.5669339338885706, 2.7492520809173584]","[-0.01937929168343544, 0.0, 0.00010226538870483637, 0.0, 0.0, -0.04224199801683426]","[-0.9658814668655396, -3.501892328262329, -1.3450863361358643, -0.4418793320655823, 0.02018737979233265, -0.3162689507007599]"
1584444572753049133,,335073,,1584444572,752747831,'',"[shoulder_pan_joint, shoulder_lift_joint, elbow_joint, wrist_1_joint, wrist_2_joint,","[1.391180157661438, -1.1719563643084925, 2.481834650039673, -2.8622167746173304, -1.5669458548175257, 2.745887517929077]","[-0.007465373259037733, 0.0, 0.00010226538870483637, 0.0, 0.0, -0.01173495315015316]","[-0.9658814668655396, -3.414917230606079, -1.374229907989502, -0.4530945420265198, 0.02018737979233265, -0.3902893364429474]"
1584444572865153306,,335087,,1584444572,864824502,'',"[shoulder_pan_joint, shoulder_lift_joint, elbow_joint, wrist_1_joint, wrist_2_joint,","[1.3927396535873413, -1.1719682852374476, 2.481834650039673, -2.8622167746173304, -1.5669220129596155, 2.750269651412964]","[0.018740132451057434, 0.0, 0.0003707120195031166, 0.0, 0.0, 0.05092816427350044]","[0.9155274629592896, -3.520203113555908, -1.3540536165237427, -0.4463654160499573, 0.0358886756002903, 0.3476715385913849]"
1584444572977154627,,335101,,1584444572,976788474,'',"[shoulder_pan_joint, shoulder_lift_joint, elbow_joint, wrist_1_joint, wrist_2_joint,","[1.3943945169448853, -1.171920124684469, 2.4818224906921387, -2.8622048536883753, -1.5669696966754358, 2.7540297508239746]","[0.010098706930875778, 0.0, 0.00023009712458588183, 0.0, 0.0, 0.013441506773233414]","[0.8880616426467896, -3.547668933868408, -1.324910044670105, -0.4598236680030823, 0.0314025916159153, 0.3835602104663849]"
1584444573089085786,,335115,,1584444573,88776640,'',"[shoulder_pan_joint, shoulder_lift_joint, elbow_joint, wrist_1_joint, wrist_2_joint,","[1.3934710025787354, -1.1719325224505823, 2.481834650039673, -2.8622406164752405, -1.5669696966754358, 2.7504732608795166]","[-0.022958580404520035, 0.0, 0.00011504856229294091, 0.0, 0.0, -0.05543423071503639]","[-0.9887696504592896, -3.359985589981079, -1.416824221611023, -0.4306641221046448, 0.01345825381577015, -0.3656158745288849]"
1584444573201132462,,335129,,1584444573,200778251,'',"[shoulder_pan_joint, shoulder_lift_joint, elbow_joint, wrist_1_joint, wrist_2_joint,","[1.3914681673049927, -1.1719682852374476, 2.481858491897583, -2.8622286955462855, -1.5669458548175257, 2.7463061809539795]","[-0.01273204106837511, 0.0, 0.00011504856229294091, 0.0, 0.0, -0.01812014915049076]","[-0.9658814668655396, -3.410339593887329, -1.3675044775009155, -0.4553375840187073, 0.01570129580795765, -0.3701019585132599]"
1584444573313079192,,335143,,1584444573,312721765,'',"[shoulder_pan_joint, shoulder_lift_joint, elbow_joint, wrist_1_joint, wrist_2_joint,","[1.3920198678970337, -1.1719682852374476, 2.481858491897583, -2.8622525374041956, -1.5669458548175257, 2.7491562366485596]","[0.02093883790075779, 0.0, -0.00011504856229294091, 0.0, 0.0, 0.05878981575369835]","[0.9750367403030396, -3.575134754180908, -1.3002501726150513, -0.4463654160499573, 0.0358886756002903, 0.3364563286304474]"
1584444573425129093,,335157,,1584444573,424749715,'',"[shoulder_pan_joint, shoulder_lift_joint, elbow_joint, wrist_1_joint, wrist_2_joint,","[1.39375901222229, -1.1719682852374476, 2.4818224906921387, -2.8622167746173304, -1.5669696966754358, 2.753730297088623]","[0.01191391795873642, 0.0, -0.00011504856229294091, 0.0, 0.0, 0.019270634278655052]","[0.8697510361671448, -3.501892328262329, -1.3630207777023315, -0.4216919243335724, 0.0358886756002903, 0.3992615044116974]"
1584444573537107140,,335171,,1584444573,536733313,'',"[shoulder_pan_joint, shoulder_lift_joint, elbow_joint, wrist_1_joint, wrist_2_joint,","[1.3939627408981323, -1.1719563643084925, 2.4818224906921387, -2.8622406164752405, -1.5669339338885706, 2.7517426013946533]","[-0.014675083570182323, 0.0, -0.00011504856229294091, 0.0, 0.0, -0.0478985495865345]","[-0.7690430283546448, -3.488159418106079, -1.3159427642822266, -0.4687958359718323, 0.0291595496237278, -0.3072967827320099]"
1584444573649074478,,335185,,1584444573,648715327,'',"[shoulder_pan_joint, shoulder_lift_joint, elbow_joint, wrist_1_joint, wrist_2_joint,","[1.3935070037841797, -1.1719563643084925, 2.4817986488342285, -2.86219293275942, -1.5669940153705042, 2.7497191429138184]","[0.0021731394808739424, 0.0, -0.00010226538870483637, 0.0, 0.0, 0.002281796419993043]","[-0.02288818545639515, -3.460693597793579, -1.3876807689666748, -0.4306641221046448, 0.0291595496237278, 0.006729126907885075]"
1584444573761015947,,335199,,1584444573,760744370,'',"[shoulder_pan_joint, shoulder_lift_joint, elbow_joint, wrist_1_joint, wrist_2_joint,","[1.393554925918579, -1.1719682852374476, 2.481762647628784, -2.8622167746173304, -1.566981617604391, 2.7497191429138184]","[0.00021731395099777728, 0.0, -7.669904152862728e-05, 0.0, 0.0, 0.000517718552146107]","[-0.1739502102136612, -3.543091297149658, -1.468385934829712, -0.3947754204273224, 0.0515899695456028, -0.0022430422250181437]"
1584444573872977484,,335213,,1584444573,872714914,'',"[shoulder_pan_joint, shoulder_lift_joint, elbow_joint, wrist_1_joint, wrist_2_joint,","[1.393818974494934, -1.1719086805926722, 2.481546640396118, -2.862156693135397, -1.5670178572284144, 2.7502574920654297]","[0.017372332513332367, 0.0, -0.008948221802711487, 0.00017257283616345376, 0.0, 0.03533908352255821]","[0.6271362900733948, -3.378296136856079, -1.641005277633667, -0.2983246147632599, 0.0403747595846653, 0.2355194389820099]"
1584444573984944781,,335227,,1584444573,984698531,'',"[shoulder_pan_joint, shoulder_lift_joint, elbow_joint, wrist_1_joint, wrist_2_joint,","[1.3977051973342896, -1.1715009848224085, 2.4775755405426025, -2.859798256550924, -1.5670178572284144, 2.7546281814575195]","[0.048115864396095276, 0.010149839334189892, -0.059058260172605515, 0.026748791337013245, 0.0, 0.028608743101358414]","[0.7781983017921448, -2.343750238418579, -1.6208289861679077, -0.1099090725183487, 0.0381317175924778, 0.3925323784351349]"
1584444574097011624,,335241,,1584444574,96752330,'',"[shoulder_pan_joint, shoulder_lift_joint, elbow_joint, wrist_1_joint, wrist_2_joint,","[1.4052261114120483, -1.1684554258929651, 2.466909646987915, -2.854769531880514, -1.5670059362994593, 2.7568435668945312]","[0.07836085557937622, 0.04428091272711754, -0.12138901650905609, 0.06314248591661453, 0.0, 0.010296845808625221]","[0.7919312119483948, -2.430725336074829, -1.6813578605651855, -0.0785064771771431, 0.0493469275534153, 0.3633728325366974]"
1584444574208973842,,335255,,1584444574,208682689,'',"[shoulder_pan_joint, shoulder_lift_joint, elbow_joint, wrist_1_joint, wrist_2_joint,","[1.41477370262146, -1.162964169179098, 2.4515762329101562, -2.8463528792010706, -1.5670178572284144, 2.7551910877227783]","[0.09628286212682724, 0.057677678763866425, -0.15010002255439758, 0.07999709993600845, 0.0, -0.030679617077112198]","[0.8743286728858948, -2.485656976699829, -1.726194143295288, -0.004486084450036287, 0.0583190992474556, -0.2601929008960724]"
1584444574320955056,,335269,,1584444574,320682377,'',"[shoulder_pan_joint, shoulder_lift_joint, elbow_joint, wrist_1_joint, wrist_2_joint,","[1.4260610342025757, -1.1550748983966272, 2.4340224266052246, -2.8359854857074183, -1.5670059362994593, 2.7521495819091797]","[0.11467784643173218, 0.07370778173208237, -0.16237187385559082, 0.09679418802261353, 0.0, -0.021648304536938667]","[1.0986329317092896, -3.002929925918579, -1.8853626251220703, -0.1592559963464737, 0.0583190992474556, -0.2826233208179474]"
1584444574432963259,,335283,,1584444574,432671996,'',"[shoulder_pan_joint, shoulder_lift_joint, elbow_joint, wrist_1_joint, wrist_2_joint,","[1.44021475315094, -1.1473777929889124, 2.4152328968048096, -2.824959103261129, -1.5670416990863245, 2.750892400741577]","[0.14055098593235016, 0.07323480397462845, -0.17718756198883057, 0.1026424914598465, 0.0, 0.03050704300403595]","[0.9750367403030396, -2.828979730606079, -1.8158665895462036, -0.0897216871380806, 0.0807495191693306, 0.1323394924402237]"
1584444574544961825,,335297,,1584444574,544704585,'',"[shoulder_pan_joint, shoulder_lift_joint, elbow_joint, wrist_1_joint, wrist_2_joint,","[1.4563713073730469, -1.1387813727008265, 2.3946189880371094, -2.813118282948629, -1.5670059362994593, 2.7556099891662598]","[0.14539581537246704, 0.07487104833126068, -0.19007301330566406, 0.10973715037107468, 0.0, 0.03447622060775757]","[0.9429932832717896, -2.902221918106079, -1.8853626251220703, -0.1031799390912056, 0.0919647291302681, 0.3790741264820099]"
1584444574656995346,,335311,,1584444574,656732977,'',"[shoulder_pan_joint, shoulder_lift_joint, elbow_joint, wrist_1_joint, wrist_2_joint,","[1.4721568822860718, -1.129597012196676, 2.3727927207946777, -2.80052358308901, -1.5670536200152796, 2.7583281993865967]","[0.13423611223697662, 0.08646538853645325, -0.20772656798362732, 0.11685098707675934, 0.0, 0.01137063279747963]","[0.9613038301467896, -3.135681390762329, -1.9548587799072266, -0.0560760572552681, 0.1076660305261612, 0.3521576225757599]"
1584444574768914313,,335325,,1584444574,768640522,'',"[shoulder_pan_joint, shoulder_lift_joint, elbow_joint, wrist_1_joint, wrist_2_joint,","[1.486586570739746, -1.1193221251117151, 2.3479416370391846, -2.786480728779928, -1.5670416990863245, 2.7566518783569336]","[0.12438027560710907, 0.10213755816221237, -0.2385723739862442, 0.1313854604959488, 0.0, -0.03232864663004875]","[1.1032105684280396, -2.993774652481079, -2.0310802459716797, -0.0919647291302681, 0.0874786451458931, -0.2803802788257599]"
1584444574880900265,,335339,,1584444574,880642064,'',"[shoulder_pan_joint, shoulder_lift_joint, elbow_joint, wrist_1_joint, wrist_2_joint,","[1.499888300895691, -1.1077645460711878, 2.3198976516723633, -2.771012608204977, -1.5670416990863245, 2.752999782562256]","[0.11425600200891495, 0.11709386855363846, -0.2647395133972168, 0.1498699188232422, 0.0, -0.03476383909583092]","[1.1352540254592896, -2.915954828262329, -2.080400228500366, -0.1054229810833931, 0.0560760572552681, -0.2826233208179474]"
1584444574992960446,,335353,,1584444574,992710590,'',"[shoulder_pan_joint, shoulder_lift_joint, elbow_joint, wrist_1_joint, wrist_2_joint,","[1.511883020401001, -1.0942767302142542, 2.288672924041748, -2.7537015120135706, -1.5670178572284144, 2.7496232986450195]","[0.09892898052930832, 0.13029888272285461, -0.29238954186439514, 0.15103958547115326, 0.0, -0.020382769405841827]","[1.1444092988967896, -3.263855218887329, -2.1364455223083496, -0.01345825381577015, 0.0560760572552681, -0.3140259087085724]"
1584444575104919187,,335367,,1584444575,104675473,'',"[shoulder_pan_joint, shoulder_lift_joint, elbow_joint, wrist_1_joint, wrist_2_joint,","[1.5221501588821411, -1.0796378294574183, 2.2558507919311523, -2.7356837431537073, -1.5670059362994593, 2.748030424118042]","[0.08527655154466629, 0.13201183080673218, -0.2907916307449341, 0.16302381455898285, 0.0, -0.008302670903503895]","[0.9750367403030396, -3.543091297149658, -2.185765266418457, -0.0695343092083931, 0.0426178015768528, -0.2781372368335724]"
1584444575216900241,,335381,,1584444575,216631119,'',"[shoulder_pan_joint, shoulder_lift_joint, elbow_joint, wrist_1_joint, wrist_2_joint,","[1.532225489616394, -1.0647957960711878, 2.2230515480041504, -2.717677895222799, -1.5670297781573694, 2.7507965564727783]","[0.08802492916584015, 0.12811297178268433, -0.2912134826183319, 0.16515220701694489, 0.0, 0.04201189801096916]","[1.2634278535842896, -3.529358386993408, -2.282163143157959, -0.1592559963464737, 0.0336456336081028, 0.3185119926929474]"
1584444575328838474,,335395,,1584444575,328618673,'',"[shoulder_pan_joint, shoulder_lift_joint, elbow_joint, wrist_1_joint, wrist_2_joint,","[1.5425652265548706, -1.0501931349383753, 2.1903109550476074, -2.6993616263019007, -1.5670178572284144, 2.7546281814575195]","[0.09031312167644501, 0.12696248292922974, -0.2928752899169922, 0.1595340073108673, 0.0, 0.025233983993530273]","[1.0116578340530396, -3.611755847930908, -2.3157904148101807, -0.1457977443933487, 0.02018737979233265, 0.3633728325366974]"
1584444575440842931,,335409,,1584444575,440609976,'',"[shoulder_pan_joint, shoulder_lift_joint, elbow_joint, wrist_1_joint, wrist_2_joint,","[1.5520650148391724, -1.0355313459979456, 2.1573171615600586, -2.6817753950702112, -1.5670059362994593, 2.7567718029022217]","[0.08403658121824265, 0.13019661605358124, -0.29336103796958923, 0.1617199331521988, 0.0, 0.011926701292395592]","[1.0757447481155396, -3.579712390899658, -2.4032208919525146, -0.1480407863855362, 0.011215210892260075, 0.3342132866382599]"
1584444575552847017,,335423,,1584444575,552592171,'',"[shoulder_pan_joint, shoulder_lift_joint, elbow_joint, wrist_1_joint, wrist_2_joint,","[1.5605449676513672, -1.0204976240741175, 2.12361478805542, -2.6635306517230433, -1.5670416990863245, 2.7564003467559814]","[0.07239111512899399, 0.1361919343471527, -0.30297398567199707, 0.16344565153121948, 0.0, -0.03253956884145737]","[0.9017945528030396, -3.721619129180908, -2.4166717529296875, -0.0964508131146431, -0.02018737979233265, -0.2400055229663849]"
1584444575664840523,,335437,,1584444575,664602078,'',"[shoulder_pan_joint, shoulder_lift_joint, elbow_joint, wrist_1_joint, wrist_2_joint,","[1.568953037261963, -1.0053074995623987, 2.089850902557373, -2.6456216017352503, -1.5670297781573694, 2.7523770332336426]","[0.06697104871273041, 0.13904257118701935, -0.3042139708995819, 0.15893958508968353, 0.0, -0.037275735288858414]","[1.1489869356155396, -4.019165515899658, -2.470475196838379, -0.0471038855612278, -0.02467346377670765, -0.3117828667163849]"
1584444575776851983,,335451,,1584444575,776592649,'',"[shoulder_pan_joint, shoulder_lift_joint, elbow_joint, wrist_1_joint, wrist_2_joint,","[1.5763412714004517, -0.9898303190814417, 2.0565662384033203, -2.627557102833883, -1.5670416990863245, 2.7492401599884033]","[0.06883738934993744, 0.1338142603635788, -0.28979453444480896, 0.16039687395095825, 0.0, -0.014764565043151379]","[1.0711671113967896, -4.129028797149658, -2.6206765174865723, -0.0515899695456028, -0.0381317175924778, -0.3364563286304474]"
1584444575888839678,,335465,,1584444575,888600371,'',"[shoulder_pan_joint, shoulder_lift_joint, elbow_joint, wrist_1_joint, wrist_2_joint,","[1.583286166191101, -0.9748213926898401, 2.0236525535583496, -2.6098035017596644, -1.5670416990863245, 2.749431848526001]","[0.05693625658750534, 0.13426166772842407, -0.2927730083465576, 0.1617199331521988, -0.00011504856229294091, 0.033613353967666626]","[0.9796143770217896, -4.119873523712158, -2.7148325443267822, -0.1256103664636612, -0.0403747595846653, 0.2557068169116974]"
1584444576000863832,,335479,,1584444576,632079,'',"[shoulder_pan_joint, shoulder_lift_joint, elbow_joint, wrist_1_joint, wrist_2_joint,","[1.5902553796768188, -0.9594643751727503, 1.9901976585388184, -2.5920026938067835, -1.5671613852130335, 2.753382921218872]","[0.06435049325227737, 0.13807106018066406, -0.3119605779647827, 0.16018594801425934, -0.0006135923322290182, 0.029529130086302757]","[0.9567261934280396, -4.092407703399658, -2.539971351623535, -0.1794433742761612, -0.0448608435690403, 0.3790741264820099]"
1584444576112868910,,335493,,1584444576,112606951,'',"[shoulder_pan_joint, shoulder_lift_joint, elbow_joint, wrist_1_joint, wrist_2_joint,","[1.5973200798034668, -0.9434965292560022, 1.954942226409912, -2.5732315222369593, -1.5671737829791468, 2.755645990371704]","[0.0611291341483593, 0.15135277807712555, -0.3184671998023987, 0.1660342514514923, -0.0017065536230802536, 0.013671603985130787]","[0.8651733994483948, -4.440308094024658, -2.6072256565093994, -0.1076660305261612, -0.0538330152630806, 0.3342132866382599]"
1584444576225004080,,335507,,1584444576,224571653,'',"[shoulder_pan_joint, shoulder_lift_joint, elbow_joint, wrist_1_joint, wrist_2_joint,","[1.6051760911941528, -0.9268086592303675, 1.9193735122680664, -2.5547240416156214, -1.5672333876239222, 2.756136894226074]","[0.07129175961017609, 0.14498674869537354, -0.30261605978012085, 0.16998425126075745, -0.0004985437844879925, -0.026441995054483414]","[0.7965088486671448, -4.559326648712158, -3.008509874343872, -0.1211242824792862, -0.0695343092083931, -0.1929016262292862]"
1584444576336888573,,335521,,1584444576,336532278,'',"[shoulder_pan_joint, shoulder_lift_joint, elbow_joint, wrist_1_joint, wrist_2_joint,","[1.6138118505477905, -0.9106972853290003, 1.8851003646850586, -2.5362170378314417, -1.567341152821676, 2.752412796020508]","[0.09432704001665115, 0.14158642292022705, -0.29378288984298706, 0.15631264448165894, -0.001208009896799922, -0.034399520605802536]","[0.7598877549171448, -4.756165027618408, -3.00626802444458, -0.0672912672162056, -0.0538330152630806, -0.3117828667163849]"
1584444576448974953,,335535,,1584444576,448588341,'',"[shoulder_pan_joint, shoulder_lift_joint, elbow_joint, wrist_1_joint, wrist_2_joint,","[1.625938057899475, -0.8956287542926233, 1.8536477088928223, -2.519265953694479, -1.5673769156085413, 2.7498745918273926]","[0.12830471992492676, 0.1279851347208023, -0.2598307728767395, 0.14024420082569122, -0.00024927189224399626, -0.010795390233397484]","[0.9933472871780396, -5.067444324493408, -3.104907512664795, -0.004486084450036287, -0.0358886756002903, -0.2983246147632599]"
1584444576560993616,,335549,,1584444576,560564585,'',"[shoulder_pan_joint, shoulder_lift_joint, elbow_joint, wrist_1_joint, wrist_2_joint,","[1.6428743600845337, -0.8832934538470667, 1.828545093536377, -2.5053556601153772, -1.5673888365374964, 2.7530477046966553]","[0.16996507346630096, 0.09474888443946838, -0.19183708727359772, 0.09997720271348953, -0.00023009712458588183, 0.04598107561469078]","[0.5493164658546448, -5.250549793243408, -3.2349326610565186, -0.0358886756002903, 0.004486084450036287, 0.4329071640968323]"
1584444576672895442,,335563,,1584444576,672575995,'',"[shoulder_pan_joint, shoulder_lift_joint, elbow_joint, wrist_1_joint, wrist_2_joint,","[1.6633838415145874, -0.8745306173907679, 1.8099136352539062, -2.49534780183901, -1.5674007574664515, 2.757262706756592]","[0.19463659822940826, 0.06530923396348953, -0.14736442267894745, 0.0761813223361969, -0.00015339808305725455, 0.023910926654934883]","[0.8102417588233948, -5.181885242462158, -3.1676783561706543, -0.1143951565027237, 0.0471038855612278, 0.3476715385913849]"
1584444576785097296,,335577,,1584444576,784618633,'',"[shoulder_pan_joint, shoulder_lift_joint, elbow_joint, wrist_1_joint, wrist_2_joint,","[1.6846739053726196, -0.8681295553790491, 1.7963237762451172, -2.488261047993795, -1.5673888365374964, 2.756580114364624]","[0.18769533932209015, 0.04483059048652649, -0.09886506199836731, 0.05898156389594078, -9.58738019107841e-05, -0.03863714262843132]","[0.2609253227710724, -5.451965808868408, -3.3492648601531982, -0.0314025916159153, 0.0672912672162056, -0.2781372368335724]"
1584444576897010373,,335591,,1584444576,896604926,'',"[shoulder_pan_joint, shoulder_lift_joint, elbow_joint, wrist_1_joint, wrist_2_joint,","[1.705039143562317, -0.8652766386615198, 1.7878599166870117, -2.4831255117999476, -1.5673888365374964, 2.7515506744384766]","[0.17525731027126312, 0.012080098502337933, -0.06148706376552582, 0.032156072556972504, -7.669904152862728e-05, -0.04352670535445213]","[0.3112793266773224, -5.035400867462158, -3.2371745109558105, -0.1570129543542862, 0.0897216871380806, -0.3274841606616974]"
1584444577009002456,,335605,,1584444577,8621816,'',"[shoulder_pan_joint, shoulder_lift_joint, elbow_joint, wrist_1_joint, wrist_2_joint,","[1.724709391593933, -0.8644254843341272, 1.7832379341125488, -2.4806836287127894, -1.567436997090475, 2.7485098838806152]","[0.17814630270004272, 0.003528155852109194, -0.014176539145410061, 0.009242234751582146, -5.752428114647046e-05, -0.014189322479069233]","[0.5584717392921448, -5.282593250274658, -3.2125144004821777, -0.1368255764245987, 0.0964508131146431, -0.3028106987476349]"
1584444577120828871,,335619,,1584444577,120491261,'',"[shoulder_pan_joint, shoulder_lift_joint, elbow_joint, wrist_1_joint, wrist_2_joint,","[1.7447755336761475, -0.8648689428912562, 1.7841744422912598, -2.4812939802752894, -1.5674126783954065, 2.7483060359954834]","[0.17814630270004272, -0.009408415295183659, 0.02136068232357502, -0.014381070621311665, -3.834952076431364e-05, 0.029874276369810104]","[0.1739502102136612, -7.077027320861816, -2.383044719696045, -0.6706696152687073, 0.1816864162683487, 0.2130890041589737]"
1584444577233087672,,335633,,1584444577,232637142,'',"[shoulder_pan_joint, shoulder_lift_joint, elbow_joint, wrist_1_joint, wrist_2_joint,","[1.7643247842788696, -0.8659599463092249, 1.7869477272033691, -2.4828503767596644, -1.5673888365374964, 2.7519338130950928]","[0.173045814037323, -0.009306150488555431, 0.023265376687049866, -0.009108010679483414, -3.834952076431364e-05, 0.035530831664800644]","[0.2563476860523224, -7.447815895080566, -2.3292412757873535, -0.7446900010108948, 0.1727142482995987, 0.3409424126148224]"
1584444577344953751,,335647,,1584444577,344568431,'',"[shoulder_pan_joint, shoulder_lift_joint, elbow_joint, wrist_1_joint, wrist_2_joint,","[1.7836586236953735, -0.8666189352618616, 1.78926420211792, -2.4834488073932093, -1.5673888365374964, 2.7553584575653076]","[0.17496329545974731, -0.005944175645709038, 0.020798223093152046, -0.0065961177460849285, 0.0, 0.027400732040405273]","[0.1831054836511612, -7.722474098205566, -2.4906516075134277, -0.8299255967140198, 0.1996307522058487, 0.3835602104663849]"
1584444577456945895,,335661,,1584444577,456544245,'',"[shoulder_pan_joint, shoulder_lift_joint, elbow_joint, wrist_1_joint, wrist_2_joint,","[1.803544282913208, -0.8673623243915003, 1.7911972999572754, -2.4838078657733362, -1.5673888365374964, 2.7575740814208984]","[0.17670181393623352, -0.006941263098269701, 0.01546764001250267, -0.0010929612908512354, 0.0, 0.011159710586071014]","[0.1327514797449112, -7.676697731018066, -2.562389373779297, -0.7648773789405823, 0.2243042290210724, 0.3454284965991974]"
1584444577568958777,,335675,,1584444577,568566955,'',"[shoulder_pan_joint, shoulder_lift_joint, elbow_joint, wrist_1_joint, wrist_2_joint,","[1.8235849142074585, -0.868105713521139, 1.7934303283691406, -2.484047238026754, -1.5673769156085413, 2.7573821544647217]","[0.18017883598804474, -0.0076187714003026485, 0.026192722842097282, -0.007248059380799532, 0.0, -0.026403645053505898]","[0.1785278469324112, -7.617188453674316, -2.4054627418518066, -0.8523560166358948, 0.2265472710132599, -0.2198181450366974]"
1584444577680993410,,335689,,1584444577,680556274,'',"[shoulder_pan_joint, shoulder_lift_joint, elbow_joint, wrist_1_joint, wrist_2_joint,","[1.8435419797897339, -0.8692806402789515, 1.797464370727539, -2.4856632391559046, -1.5673649946795862, 2.7547478675842285]","[0.1803322285413742, -0.012949354946613312, 0.044741109013557434, -0.01846529357135296, 0.0, -0.021571604534983635]","[0.2838135063648224, -7.841492652893066, -2.5310041904449463, -0.8299255967140198, 0.2781372368335724, -0.2422485649585724]"
1584444577792879206,,335703,,1584444577,792495920,'',"[shoulder_pan_joint, shoulder_lift_joint, elbow_joint, wrist_1_joint, wrist_2_joint,","[1.8636425733566284, -0.8705509344684046, 1.8011255264282227, -2.4874351660357874, -1.5673888365374964, 2.752197504043579]","[0.17707252502441406, -0.009472331963479519, 0.01739789918065071, -0.009951700456440449, 0.0, -0.018983012065291405]","[0.4348755180835724, -7.791138648986816, -2.5870494842529297, -0.7760925889015198, 0.2444916069507599, -0.2758941948413849]"
1584444577904987576,,335717,,1584444577,904533288,'',"[shoulder_pan_joint, shoulder_lift_joint, elbow_joint, wrist_1_joint, wrist_2_joint,","[1.8831909894943237, -0.8708985487567347, 1.801558017730713, -2.4873631636248987, -1.5673888365374964, 2.752652645111084]","[0.17594760656356812, 0.0, -0.00029401297797448933, 0.002281796419993043, 5.752428114647046e-05, 0.043047334998846054]","[0.1922607570886612, -7.218934059143066, -3.172161817550659, -0.4598236680030823, 0.2220611870288849, 0.3499145805835724]"
1584444578017123448,,335731,,1584444578,16593449,'',"[shoulder_pan_joint, shoulder_lift_joint, elbow_joint, wrist_1_joint, wrist_2_joint,","[1.9026076793670654, -0.8708985487567347, 1.801581859588623, -2.487135712300436, -1.5674126783954065, 2.7571189403533936]","[0.1732759177684784, 0.0, -0.00017896443023346364, 0.00586747657507658, 5.752428114647046e-05, 0.030487868934869766]","[0.3890991508960724, -7.186890602111816, -3.282010555267334, -0.4800110459327698, 0.2758941948413849, 0.3970184624195099]"
1584444578128964179,,335745,,1584444578,128486948,'',"[shoulder_pan_joint, shoulder_lift_joint, elbow_joint, wrist_1_joint, wrist_2_joint,","[1.9217963218688965, -0.8709347883807581, 1.8021578788757324, -2.4864891211139124, -1.5674966017352503, 2.7596333026885986]","[0.159649059176445, 0.0, 0.02087492309510708, 0.0016873788554221392, 7.669904152862728e-05, 0.014917963184416294]","[0.5905151963233948, -7.713318824768066, -3.024202346801758, -0.7267456650733948, 0.2938385307788849, 0.3476715385913849]"
1584444578240835207,,335759,,1584444578,240465377,'',"[shoulder_pan_joint, shoulder_lift_joint, elbow_joint, wrist_1_joint, wrist_2_joint,","[1.9385862350463867, -0.8736675421344202, 1.8110179901123047, -2.4884288946734827, -1.5675209204303187, 2.7610344886779785]","[0.14690423011779785, -0.056245964020490646, 0.13097639381885529, -0.05313326045870781, 7.669904152862728e-05, 0.014726215973496437]","[0.4302978813648224, -8.230591773986816, -2.8874518871307373, -1.074417233467102, 0.3566437065601349, 0.3050537407398224]"
1584444578353064594,,335773,,1584444578,352583466,'',"[shoulder_pan_joint, shoulder_lift_joint, elbow_joint, wrist_1_joint, wrist_2_joint,","[1.954836130142212, -0.8824065367328089, 1.8271889686584473, -2.496928040181295, -1.5674007574664515, 2.7633931636810303]","[0.14442428946495056, -0.08471409231424332, 0.14719824492931366, -0.08645899593830109, -0.00011504856229294091, 0.02329733408987522]","[0.3890991508960724, -7.626343727111816, -2.81795597076416, -1.0542298555374146, 0.3925323784351349, 0.3656158745288849]"
1584444578465044875,,335787,,1584444578,464502202,'',"[shoulder_pan_joint, shoulder_lift_joint, elbow_joint, wrist_1_joint, wrist_2_joint,","[1.9708702564239502, -0.8915169874774378, 1.8432035446166992, -2.5064809958087366, -1.5673530737506312, 2.765740156173706]","[0.14304371178150177, -0.08015049993991852, 0.13587234914302826, -0.08155025541782379, 0.0011504855938255787, 0.016950488090515137]","[0.4760742783546448, -7.182312965393066, -2.544455051422119, -0.7805786728858948, 0.3723450005054474, 0.3431854546070099]"
