PorkPy/robot-pulling-data/ztwist40/joint_states_throttle.csv
rosbagTimestamp,header,seq,stamp,secs,nsecs,frame_id,name,wrist_3_joint],position,velocity,effort
1584450951462869270,,1132446,,1584450951,462444927,'',"[shoulder_pan_joint, shoulder_lift_joint, elbow_joint, wrist_1_joint, wrist_2_joint,","[1.4048302173614502, -1.1717646757708948, 2.483046531677246, -2.8628271261798304, -1.566873852406637, 2.7206344604492188]","[0.0, 0.0, -0.0, 0.0, 0.0, 0.0]","[-0.2838135063648224, -4.325867176055908, -1.0177819728851318, -0.4351502060890198, 0.1233673244714737, 0.1300964504480362]"
1584450951574817913,,1132460,,1584450951,574403820,'',"[shoulder_pan_joint, shoulder_lift_joint, elbow_joint, wrist_1_joint, wrist_2_joint,","[1.4047942161560059, -1.1717646757708948, 2.4830703735351562, -2.8628390471087855, -1.566885773335592, 2.7206225395202637]","[0.0, 0.0, -0.0, 0.0, 0.0, 0.0]","[-0.3112793266773224, -4.193115711212158, -1.0200238227844238, -0.4396362900733948, 0.1480407863855362, 0.1099090725183487]"
1584450951686910665,,1132474,,1584450951,686472517,'',"[shoulder_pan_joint, shoulder_lift_joint, elbow_joint, wrist_1_joint, wrist_2_joint,","[1.4048421382904053, -1.1717522780047815, 2.483034372329712, -2.8628514448748987, -1.5669100920306605, 2.7206108570098877]","[0.0, 0.0, -0.0, 0.0, 0.0, 0.0]","[-0.3021240532398224, -4.174805164337158, -1.0110565423965454, -0.4284210503101349, 0.1121521145105362, 0.1031799390912056]"
1584450951798816259,,1132488,,1584450951,798397817,'',"[shoulder_pan_joint, shoulder_lift_joint, elbow_joint, wrist_1_joint, wrist_2_joint,","[1.4048181772232056, -1.1717522780047815, 2.4830703735351562, -2.8628390471087855, -1.5669100920306605, 2.7206344604492188]","[0.0, 0.0, -0.0, 0.0, 0.0, 0.0]","[-0.3204346001148224, -4.229736804962158, -1.0267492532730103, -0.4329071640968323, 0.1143951565027237, 0.1076660305261612]"
1584450951910741398,,1132502,,1584450951,910392727,'',"[shoulder_pan_joint, shoulder_lift_joint, elbow_joint, wrist_1_joint, wrist_2_joint,","[1.4048062562942505, -1.17177659669985, 2.483058452606201, -2.862863365803854, -1.566885773335592, 2.7206108570098877]","[0.0, 0.0, -0.0, 0.0, 0.0, 0.0]","[-0.2929687798023224, -4.183960437774658, -1.0357165336608887, -0.4239349663257599, 0.1390686184167862, 0.1009368970990181]"
1584450952023015279,,1132516,,1584450952,22445404,'',"[shoulder_pan_joint, shoulder_lift_joint, elbow_joint, wrist_1_joint, wrist_2_joint,","[1.4047822952270508, -1.17177659669985, 2.483034372329712, -2.8628514448748987, -1.5669100920306605, 2.7206225395202637]","[0.0, 0.0, -0.0, 0.0, 0.0, 0.0]","[-0.3250122368335724, -4.275513172149658, -1.0200238227844238, -0.4216919243335724, 0.1188812404870987, 0.1076660305261612]"
1584450952134671897,,1132530,,1584450952,134326652,'',"[shoulder_pan_joint, shoulder_lift_joint, elbow_joint, wrist_1_joint, wrist_2_joint,","[1.4048181772232056, -1.17177659669985, 2.4830822944641113, -2.862863365803854, -1.5668981711017054, 2.7206108570098877]","[0.0, 0.0, -0.0, 0.0, 0.0, 0.0]","[-0.3295898735523224, -4.261780261993408, -1.0200238227844238, -0.4373932480812073, 0.1256103664636612, 0.1099090725183487]"
1584450952246660925,,1132544,,1584450952,246309048,'',"[shoulder_pan_joint, shoulder_lift_joint, elbow_joint, wrist_1_joint, wrist_2_joint,","[1.4048421382904053, -1.1717646757708948, 2.483058452606201, -2.8628514448748987, -1.566885773335592, 2.7206108570098877]","[0.0, 0.0, -0.0, 0.0, 0.0, 0.0]","[-0.3524780571460724, -4.234314441680908, -1.0088146924972534, -0.4284210503101349, 0.1413116604089737, 0.1054229810833931]"
1584450952358712230,,1132558,,1584450952,358335056,'',"[shoulder_pan_joint, shoulder_lift_joint, elbow_joint, wrist_1_joint, wrist_2_joint,","[1.4048181772232056, -1.1717646757708948, 2.4830703735351562, -2.8628152052508753, -1.566885773335592, 2.7206225395202637]","[0.0, 0.0, -0.0, 0.0, 0.0, 0.0]","[-0.2929687798023224, -4.202270984649658, -1.0155401229858398, -0.4284210503101349, 0.1435547024011612, 0.1099090725183487]"
1584450952470678216,,1132572,,1584450952,470302254,'',"[shoulder_pan_joint, shoulder_lift_joint, elbow_joint, wrist_1_joint, wrist_2_joint,","[1.4048302173614502, -1.171788517628805, 2.483046531677246, -2.8628514448748987, -1.5669220129596155, 2.720646381378174]","[0.0, 0.0, -0.0, 0.0, 0.0, 0.0]","[-0.2929687798023224, -4.197693347930908, -1.0177819728851318, -0.4441223740577698, 0.1368255764245987, 0.1054229810833931]"
1584450952582587275,,1132586,,1584450952,582269822,'',"[shoulder_pan_joint, shoulder_lift_joint, elbow_joint, wrist_1_joint, wrist_2_joint,","[1.4048302173614502, -1.1717646757708948, 2.483058452606201, -2.862863365803854, -1.5669339338885706, 2.7206344604492188]","[0.0, 0.0, -0.0, 0.0, 0.0, 0.0]","[-0.3204346001148224, -4.165649890899658, -1.0088146924972534, -0.4351502060890198, 0.1368255764245987, 0.1031799390912056]"
1584450952694671131,,1132600,,1584450952,694286002,'',"[shoulder_pan_joint, shoulder_lift_joint, elbow_joint, wrist_1_joint, wrist_2_joint,","[1.4048421382904053, -1.171788517628805, 2.483058452606201, -2.8628271261798304, -1.5668981711017054, 2.7206344604492188]","[0.0, 0.0, -0.0, 0.0, 0.0, 0.0]","[-0.3158569633960724, -4.197693347930908, -1.0312328338623047, -0.4396362900733948, 0.1480407863855362, 0.1099090725183487]"
1584450952806884760,,1132614,,1584450952,806351544,'',"[shoulder_pan_joint, shoulder_lift_joint, elbow_joint, wrist_1_joint, wrist_2_joint,","[1.4048062562942505, -1.1717284361468714, 2.483058452606201, -2.8628514448748987, -1.566885773335592, 2.7206225395202637]","[0.0, 0.0, -0.0, 0.0, 0.0, 0.0]","[-0.2929687798023224, -4.211426258087158, -1.0088146924972534, -0.4284210503101349, 0.1368255764245987, 0.0986938551068306]"
1584450952918704793,,1132628,,1584450952,918272325,'',"[shoulder_pan_joint, shoulder_lift_joint, elbow_joint, wrist_1_joint, wrist_2_joint,","[1.4048062562942505, -1.17180043855776, 2.483058452606201, -2.8628271261798304, -1.5669100920306605, 2.7206225395202637]","[0.0, 0.0, -0.0, 0.0, 0.0, 0.0]","[-0.3387451469898224, -4.270935535430908, -1.0267492532730103, -0.4284210503101349, 0.1278534084558487, 0.1188812404870987]"
1584450953030707917,,1132642,,1584450953,30322017,'',"[shoulder_pan_joint, shoulder_lift_joint, elbow_joint, wrist_1_joint, wrist_2_joint,","[1.4047942161560059, -1.1717408339129847, 2.483058452606201, -2.8628514448748987, -1.5668500105487269, 2.7206344604492188]","[0.0, 0.0, -0.0, 0.0, 0.0, 0.0]","[-0.2975464165210724, -4.270935535430908, -1.0289909839630127, -0.4351502060890198, 0.1547699123620987, 0.0942077711224556]"
1584450953142727353,,1132656,,1584450953,142372721,'',"[shoulder_pan_joint, shoulder_lift_joint, elbow_joint, wrist_1_joint, wrist_2_joint,","[1.4048062562942505, -1.1717522780047815, 2.483058452606201, -2.8628390471087855, -1.566873852406637, 2.7206108570098877]","[0.0, 0.0, -0.0, 0.0, 0.0, 0.0]","[-0.2883911430835724, -4.220581531524658, -1.0289909839630127, -0.4373932480812073, 0.1502838283777237, 0.1502838283777237]"
1584450953254742811,,1132670,,1584450953,254427582,'',"[shoulder_pan_joint, shoulder_lift_joint, elbow_joint, wrist_1_joint, wrist_2_joint,","[1.4048421382904053, -1.1717646757708948, 2.4830703735351562, -2.8628390471087855, -1.5668981711017054, 2.7206344604492188]","[0.0, 0.0, -0.0, 0.0, 0.0, 0.0]","[-0.3067016899585724, -4.220581531524658, -1.0177819728851318, -0.4351502060890198, 0.1368255764245987, 0.0852356031537056]"
1584450953366922997,,1132684,,1584450953,366431489,'',"[shoulder_pan_joint, shoulder_lift_joint, elbow_joint, wrist_1_joint, wrist_2_joint,","[1.4048062562942505, -1.17180043855776, 2.4830944538116455, -2.862863365803854, -1.5669100920306605, 2.7206225395202637]","[0.0, 0.0, -0.0, 0.0, 0.0, 0.0]","[-0.2929687798023224, -4.252624988555908, -1.0110565423965454, -0.4351502060890198, 0.1323394924402237, 0.1054229810833931]"
1584450953478668481,,1132698,,1584450953,478304481,'',"[shoulder_pan_joint, shoulder_lift_joint, elbow_joint, wrist_1_joint, wrist_2_joint,","[1.4048062562942505, -1.1717284361468714, 2.483034372329712, -2.8628514448748987, -1.566873852406637, 2.7206225395202637]","[0.0, 0.0, -0.0, 0.0, 0.0, 0.0]","[-0.3341675102710724, -4.220581531524658, -1.0222655534744263, -0.4261780083179474, 0.1300964504480362, 0.1076660305261612]"
1584450953590845561,,1132712,,1584450953,590452527,'',"[shoulder_pan_joint, shoulder_lift_joint, elbow_joint, wrist_1_joint, wrist_2_joint,","[1.4048421382904053, -1.1717408339129847, 2.4830822944641113, -2.8628152052508753, -1.566873852406637, 2.7206225395202637]","[0.0, 0.0, -0.0, 0.0, 0.0, 0.0]","[-0.3204346001148224, -4.234314441680908, -1.0267492532730103, -0.4373932480812073, 0.1278534084558487, 0.1076660305261612]"
1584450953702664522,,1132726,,1584450953,702296324,'',"[shoulder_pan_joint, shoulder_lift_joint, elbow_joint, wrist_1_joint, wrist_2_joint,","[1.4048062562942505, -1.17177659669985, 2.4830822944641113, -2.8628514448748987, -1.5669100920306605, 2.7206344604492188]","[0.0, 0.0, -0.0, 0.0, 0.0, 0.0]","[-0.3341675102710724, -4.211426258087158, -0.9976056814193726, -0.4239349663257599, 0.1211242824792862, 0.1031799390912056]"
1584450953814740383,,1132740,,1584450953,814374560,'',"[shoulder_pan_joint, shoulder_lift_joint, elbow_joint, wrist_1_joint, wrist_2_joint,","[1.4048181772232056, -1.1717522780047815, 2.4830703735351562, -2.8628390471087855, -1.5669220129596155, 2.7206108570098877]","[0.0, 0.0, -0.0, 0.0, 0.0, 0.0]","[-0.2975464165210724, -4.248047351837158, -1.0200238227844238, -0.4329071640968323, 0.1390686184167862, 0.1099090725183487]"
1584450953926616200,,1132754,,1584450953,926279982,'',"[shoulder_pan_joint, shoulder_lift_joint, elbow_joint, wrist_1_joint, wrist_2_joint,","[1.4047942161560059, -1.1717522780047815, 2.483046531677246, -2.8628390471087855, -1.5668981711017054, 2.7206344604492188]","[0.0, 0.0, -0.0, 0.0, 0.0, 0.0]","[-0.3295898735523224, -4.270935535430908, -1.0155401229858398, -0.4441223740577698, 0.1480407863855362, 0.1143951565027237]"
1584450954038588297,,1132768,,1584450954,38282666,'',"[shoulder_pan_joint, shoulder_lift_joint, elbow_joint, wrist_1_joint, wrist_2_joint,","[1.4048421382904053, -1.17177659669985, 2.4830703735351562, -2.8628514448748987, -1.5668981711017054, 2.7206344604492188]","[0.0, 0.0, -0.0, 0.0, 0.0, 0.0]","[-0.3158569633960724, -4.202270984649658, -1.0222655534744263, -0.4306641221046448, 0.1457977443933487, 0.0986938551068306]"
1584450954150711076,,1132782,,1584450954,150373465,'',"[shoulder_pan_joint, shoulder_lift_joint, elbow_joint, wrist_1_joint, wrist_2_joint,","[1.4048181772232056, -1.1717646757708948, 2.483058452606201, -2.8628390471087855, -1.5668981711017054, 2.7205989360809326]","[0.0, 0.0, -0.0, 0.0, 0.0, 0.0]","[-0.3387451469898224, -4.179382801055908, -1.0312328338623047, -0.4396362900733948, 0.1345825344324112, 0.1278534084558487]"
1584450954262935744,,1132796,,1584450954,262384685,'',"[shoulder_pan_joint, shoulder_lift_joint, elbow_joint, wrist_1_joint, wrist_2_joint,","[1.4047822952270508, -1.1717646757708948, 2.4830822944641113, -2.8628390471087855, -1.566885773335592, 2.7206225395202637]","[0.0, 0.0, -0.0, 0.0, 0.0, 0.0]","[-0.3479004204273224, -4.243469715118408, -1.0155401229858398, -0.4261780083179474, 0.1345825344324112, 0.1188812404870987]"
1584450954374624402,,1132810,,1584450954,374287633,'',"[shoulder_pan_joint, shoulder_lift_joint, elbow_joint, wrist_1_joint, wrist_2_joint,","[1.4048181772232056, -1.1717522780047815, 2.4830703735351562, -2.8628271261798304, -1.5669100920306605, 2.7206225395202637]","[0.0, 0.0, -0.0, 0.0, 0.0, 0.0]","[-0.3021240532398224, -4.216003894805908, -1.0088146924972534, -0.4284210503101349, 0.1166381984949112, 0.0986938551068306]"
1584450954486717996,,1132824,,1584450954,486289646,'',"[shoulder_pan_joint, shoulder_lift_joint, elbow_joint, wrist_1_joint, wrist_2_joint,","[1.4048302173614502, -1.1717522780047815, 2.483034372329712, -2.8628271261798304, -1.5668981711017054, 2.7206344604492188]","[0.0, 0.0, -0.0, 0.0, 0.0, 0.0]","[-0.2700805962085724, -4.179382801055908, -1.0312328338623047, -0.4373932480812073, 0.1457977443933487, 0.0964508131146431]"
1584450954598628879,,1132838,,1584450954,598286279,'',"[shoulder_pan_joint, shoulder_lift_joint, elbow_joint, wrist_1_joint, wrist_2_joint,","[1.4047942161560059, -1.1717522780047815, 2.483034372329712, -2.8628271261798304, -1.5669339338885706, 2.7206225395202637]","[0.0, 0.0, -0.0, 0.0, 0.0, 0.0]","[-0.3341675102710724, -4.248047351837158, -1.004331111907959, -0.4284210503101349, 0.1547699123620987, 0.1054229810833931]"
1584450954710724126,,1132852,,1584450954,710304843,'',"[shoulder_pan_joint, shoulder_lift_joint, elbow_joint, wrist_1_joint, wrist_2_joint,","[1.4048181772232056, -1.1717646757708948, 2.483058452606201, -2.8628271261798304, -1.566885773335592, 2.7206344604492188]","[0.0, 0.0, -0.0, 0.0, 0.0, 0.0]","[-0.3204346001148224, -4.270935535430908, -1.0267492532730103, -0.4329071640968323, 0.1592559963464737, 0.1211242824792862]"
1584450954822832458,,1132866,,1584450954,822323357,'',"[shoulder_pan_joint, shoulder_lift_joint, elbow_joint, wrist_1_joint, wrist_2_joint,","[1.4048421382904053, -1.1717646757708948, 2.483058452606201, -2.8628390471087855, -1.566885773335592, 2.7206225395202637]","[0.0, 0.0, -0.0, 0.0, 0.0, 0.0]","[-0.3341675102710724, -4.202270984649658, -1.0177819728851318, -0.4396362900733948, 0.1323394924402237, 0.0986938551068306]"
1584450954934672208,,1132880,,1584450954,934260639,'',"[shoulder_pan_joint, shoulder_lift_joint, elbow_joint, wrist_1_joint, wrist_2_joint,","[1.4048062562942505, -1.1717646757708948, 2.4830703735351562, -2.8628152052508753, -1.5669100920306605, 2.7206108570098877]","[0.0, 0.0, -0.0, 0.0, 0.0, 0.0]","[-0.2746582329273224, -4.225159168243408, -1.0267492532730103, -0.4418793320655823, 0.1323394924402237, 0.1099090725183487]"
1584450955046617275,,1132894,,1584450955,46240070,'',"[shoulder_pan_joint, shoulder_lift_joint, elbow_joint, wrist_1_joint, wrist_2_joint,","[1.4048181772232056, -1.1717646757708948, 2.483046531677246, -2.862863365803854, -1.5669100920306605, 2.720646381378174]","[0.0, 0.0, -0.0, 0.0, 0.0, 0.0]","[-0.2746582329273224, -4.197693347930908, -1.006572961807251, -0.4329071640968323, 0.1211242824792862, 0.1076660305261612]"
1584450955158601715,,1132908,,1584450955,158215874,'',"[shoulder_pan_joint, shoulder_lift_joint, elbow_joint, wrist_1_joint, wrist_2_joint,","[1.4047942161560059, -1.17177659669985, 2.483034372329712, -2.8628514448748987, -1.5668981711017054, 2.7206225395202637]","[0.0, 0.0, -0.0, 0.0, 0.0, 0.0]","[-0.3433227837085724, -4.197693347930908, -1.0200238227844238, -0.4351502060890198, 0.1256103664636612, 0.1076660305261612]"
1584450955270795646,,1132922,,1584450955,270301142,'',"[shoulder_pan_joint, shoulder_lift_joint, elbow_joint, wrist_1_joint, wrist_2_joint,","[1.4048181772232056, -1.1717646757708948, 2.483034372329712, -2.8628271261798304, -1.566885773335592, 2.7206108570098877]","[0.0, 0.0, -0.0, 0.0, 0.0, 0.0]","[-0.2883911430835724, -4.202270984649658, -1.0200238227844238, -0.4329071640968323, 0.1525268703699112, 0.1143951565027237]"
1584450955382727809,,1132936,,1584450955,382246630,'',"[shoulder_pan_joint, shoulder_lift_joint, elbow_joint, wrist_1_joint, wrist_2_joint,","[1.4048062562942505, -1.1717284361468714, 2.4830703735351562, -2.8628271261798304, -1.566885773335592, 2.7205989360809326]","[0.0, 0.0, -0.0, 0.0, 0.0, 0.0]","[-0.2792358696460724, -4.252624988555908, -1.0177819728851318, -0.4373932480812073, 0.1390686184167862, 0.1278534084558487]"
1584450955494618043,,1132950,,1584450955,494214559,'',"[shoulder_pan_joint, shoulder_lift_joint, elbow_joint, wrist_1_joint, wrist_2_joint,","[1.4048302173614502, -1.1717522780047815, 2.483034372329712, -2.8628514448748987, -1.5669220129596155, 2.7206108570098877]","[0.0, 0.0, -0.0, 0.0, 0.0, 0.0]","[-0.2883911430835724, -4.284668445587158, -1.0289909839630127, -0.4351502060890198, 0.1794433742761612, 0.0874786451458931]"
1584450955606683394,,1132964,,1584450955,606268048,'',"[shoulder_pan_joint, shoulder_lift_joint, elbow_joint, wrist_1_joint, wrist_2_joint,","[1.4048181772232056, -1.171788517628805, 2.483034372329712, -2.8628390471087855, -1.5669220129596155, 2.7206344604492188]","[0.0, 0.0, -0.0, 0.0, 0.0, 0.0]","[-0.2883911430835724, -4.289246082305908, -1.0155401229858398, -0.4306641221046448, 0.1457977443933487, 0.1121521145105362]"
1584450955718653968,,1132978,,1584450955,718232441,'',"[shoulder_pan_joint, shoulder_lift_joint, elbow_joint, wrist_1_joint, wrist_2_joint,","[1.4050339460372925, -1.171668831502096, 2.4826385974884033, -2.862300697957174, -1.5669100920306605, 2.7207183837890625]","[0.015812786296010017, 0.00595695897936821, -0.022460035979747772, 0.02575170248746872, 0.0, 0.013614079914987087]","[0.7003784775733948, -2.925110101699829, -1.8427683115005493, -0.2444916069507599, 0.0538330152630806, 0.3611297905445099]"
1584450955830638969,,1132992,,1584450955,830214406,'',"[shoulder_pan_joint, shoulder_lift_joint, elbow_joint, wrist_1_joint, wrist_2_joint,","[1.4066053628921509, -1.1713445822345179, 2.4813907146453857, -2.861067597066061, -1.5668981711017054, 2.719221830368042]","[0.008078965358436108, -0.00015339808305725455, 0.0031190942972898483, -0.00032597093377262354, 0.0, -0.0344378687441349]","[0.8651733994483948, -3.726196765899658, -1.419066071510315, -0.4127197563648224, 0.0493469275534153, -0.3274841606616974]"
1584450955942690785,,1133006,,1584450955,942259710,'',"[shoulder_pan_joint, shoulder_lift_joint, elbow_joint, wrist_1_joint, wrist_2_joint,","[1.4064136743545532, -1.1715849081622522, 2.4822304248809814, -2.8620851675616663, -1.5669100920306605, 2.7171504497528076]","[-0.007542072329670191, -0.0006647250265814364, -0.00043462790199555457, -0.0015723303658887744, 0.0, -0.005062136799097061]","[-0.5538941025733948, -3.652954578399658, -1.2598974704742432, -0.4755249619483948, 0.0381317175924778, -0.2310333549976349]"
1584450956054669625,,1133020,,1584450956,54293102,'',"[shoulder_pan_joint, shoulder_lift_joint, elbow_joint, wrist_1_joint, wrist_2_joint,","[1.4070850610733032, -1.1714766661273401, 2.4814987182617188, -2.861438576375143, -1.5669339338885706, 2.7215805053710938]","[0.010763431899249554, 0.0005368932615965605, -0.0030040456913411617, 0.001898301299661398, 0.0, 0.03965340554714203]","[0.9429932832717896, -3.396606683731079, -1.6970505714416504, -0.2691650688648224, 0.0560760572552681, 0.4059906303882599]"
1584450956166521448,,1133034,,1584450956,166181212,'',"[shoulder_pan_joint, shoulder_lift_joint, elbow_joint, wrist_1_joint, wrist_2_joint,","[1.405357837677002, -1.1716325918780726, 2.4823505878448486, -2.8624442259417933, -1.5669100920306605, 2.719940185546875]","[-0.029158418998122215, -0.0010098706698045135, 0.0022114890161901712, -0.002588592702522874, 0.0, -0.057140786200761795]","[-1.0620118379592896, -3.781128406524658, -1.0222655534744263, -0.5697327256202698, 0.0336456336081028, -0.3544006645679474]"
1584450956278806289,,1133048,,1584450956,278263735,'',"[shoulder_pan_joint, shoulder_lift_joint, elbow_joint, wrist_1_joint, wrist_2_joint,","[1.4032227993011475, -1.1715129057513636, 2.481546640396118, -2.861689869557516, -1.5669100920306605, 2.71590518951416]","[-0.009727994911372662, 0.0011888351291418076, -0.003758253064006567, 0.004716990981251001, 0.0, -0.019788352772593498]","[-0.9841920137405396, -3.140259027481079, -1.8584609031677246, -0.2646789848804474, 0.0403747595846653, -0.3521576225757599]"
1584450956390678429,,1133062,,1584450956,390228038,'',"[shoulder_pan_joint, shoulder_lift_joint, elbow_joint, wrist_1_joint, wrist_2_joint,","[1.403666615486145, -1.1715129057513636, 2.4818105697631836, -2.8618815580951136, -1.5669339338885706, 2.7169346809387207]","[0.025310683995485306, -7.669904152862728e-05, -0.0003067961661145091, -0.0011504855938255787, 0.0, 0.06308495998382568]","[0.8285523056983948, -3.565979480743408, -1.3764716386795044, -0.4216919243335724, 0.0583190992474556, 0.3297272026538849]"
1584450956502616222,,1133076,,1584450956,502219882,'',"[shoulder_pan_joint, shoulder_lift_joint, elbow_joint, wrist_1_joint, wrist_2_joint,","[1.4066053628921509, -1.1715248266803187, 2.4817745685577393, -2.8618338743792933, -1.5669458548175257, 2.7229819297790527]","[0.025975408032536507, -7.669904152862728e-05, -0.0, -0.00024927189224399626, 0.0, 0.03951917961239815]","[0.8331299424171448, -3.657532215118408, -1.454935073852539, -0.4037475883960724, 0.0672912672162056, 0.3790741264820099]"
1584450956614730926,,1133090,,1584450956,614296174,'',"[shoulder_pan_joint, shoulder_lift_joint, elbow_joint, wrist_1_joint, wrist_2_joint,","[1.40902841091156, -1.1715605894671839, 2.481750726699829, -2.8618338743792933, -1.5669339338885706, 2.7260587215423584]","[0.017551297321915627, -7.669904152862728e-05, -0.0, -0.00013422331539914012, 0.0, 0.018944663926959038]","[0.7369995713233948, -3.639221668243408, -1.454935073852539, -0.3947754204273224, 0.0560760572552681, 0.2915954887866974]"
1584450956726739772,,1133104,,1584450956,726250688,'',"[shoulder_pan_joint, shoulder_lift_joint, elbow_joint, wrist_1_joint, wrist_2_joint,","[1.4113432168960571, -1.1715129057513636, 2.481642723083496, -2.86179763475527, -1.5669577757464808, 2.7280466556549072]","[0.024300813674926758, -5.1132694352418184e-05, -0.000690291344653815, -9.58738019107841e-05, 0.0, 0.01635606959462166]","[0.8102417588233948, -3.579712390899658, -1.4482096433639526, -0.4104767143726349, 0.0672912672162056, 0.3072967827320099]"
1584450956838570364,,1133118,,1584450956,838174014,'',"[shoulder_pan_joint, shoulder_lift_joint, elbow_joint, wrist_1_joint, wrist_2_joint,","[1.4149538278579712, -1.1715129057513636, 2.4815585613250732, -2.86182147661318, -1.5670178572284144, 2.729830503463745]","[0.03654709458351135, -3.834952076431364e-05, -0.0005113269435241818, -5.752428114647046e-05, 0.0, 0.016682041808962822]","[0.8972169160842896, -3.726196765899658, -1.3876807689666748, -0.4149627983570099, 0.0717773512005806, 0.2467346489429474]"
1584450956950790805,,1133132,,1584450956,950232763,'',"[shoulder_pan_joint, shoulder_lift_joint, elbow_joint, wrist_1_joint, wrist_2_joint,","[1.4196797609329224, -1.1715367476092737, 2.4812588691711426, -2.861809555684225, -1.5670297781573694, 2.7328238487243652]","[0.04736165702342987, -3.834952076431364e-05, -0.004333495628088713, 5.752428114647046e-05, 0.0, 0.03447622060775757]","[0.8834840059280396, -3.501892328262329, -1.6297962665557861, -0.2871094048023224, 0.1099090725183487, 0.3431854546070099]"
1584450957062608534,,1133146,,1584450957,62248692,'',"[shoulder_pan_joint, shoulder_lift_joint, elbow_joint, wrist_1_joint, wrist_2_joint,","[1.4256411790847778, -1.1712010542498987, 2.478811502456665, -2.860157314931051, -1.5670536200152796, 2.7366673946380615]","[0.06530923396348953, 0.010955180041491985, -0.04172427952289581, 0.021629130467772484, -0.00013422331539914012, 0.03309563547372818]","[0.9841920137405396, -2.700805902481079, -1.726194143295288, -0.1435547024011612, 0.0942077711224556, 0.3297272026538849]"
1584450957174564210,,1133160,,1584450957,174146991,'',"[shoulder_pan_joint, shoulder_lift_joint, elbow_joint, wrist_1_joint, wrist_2_joint,","[1.4337615966796875, -1.1686833540545862, 2.469717025756836, -2.8560388723956507, -1.5670178572284144, 2.739672899246216]","[0.07755551487207413, 0.037160687148571014, -0.12328092753887177, 0.05892403796315193, -0.00013422331539914012, 0.025828402489423752]","[0.9155274629592896, -2.481079339981079, -1.6387635469436646, -0.0695343092083931, 0.1345825344324112, 0.3409424126148224]"
1584450957286580891,,1133174,,1584450957,286161087,'',"[shoulder_pan_joint, shoulder_lift_joint, elbow_joint, wrist_1_joint, wrist_2_joint,","[1.4427696466445923, -1.1631677786456507, 2.45361590385437, -2.84721547762026, -1.5670178572284144, 2.742558479309082]","[0.0753440260887146, 0.059722986072301865, -0.1571052074432373, 0.08722598105669022, -9.58738019107841e-05, 0.02226189710199833]","[0.9109498262405396, -2.517700433731079, -1.788964867591858, 0.02243042178452015, 0.0829925611615181, 0.3521576225757599]"
1584450957398664206,,1133188,,1584450957,398189359,'',"[shoulder_pan_joint, shoulder_lift_joint, elbow_joint, wrist_1_joint, wrist_2_joint,","[1.450626015663147, -1.1552308241473597, 2.4361345767974854, -2.836823288594381, -1.5670178572284144, 2.7449655532836914]","[0.07042250037193298, 0.07029467076063156, -0.1491284966468811, 0.09244152158498764, -7.669904152862728e-05, 0.023565780371427536]","[1.0757447481155396, -2.984619379043579, -1.9705514907836914, -0.1659851223230362, 0.0874786451458931, 0.2803802788257599]"
1584450957510614402,,1133202,,1584450957,510216158,'',"[shoulder_pan_joint, shoulder_lift_joint, elbow_joint, wrist_1_joint, wrist_2_joint,","[1.4588663578033447, -1.1486004034625452, 2.419888496398926, -2.8271740118609827, -1.5670178572284144, 2.748365879058838]","[0.08241312205791473, 0.0594545416533947, -0.14538303017616272, 0.08346772938966751, -5.752428114647046e-05, 0.038656316697597504]","[0.7690430283546448, -2.737426996231079, -1.82259202003479, -0.0628051832318306, 0.0829925611615181, 0.3297272026538849]"
1584450957622557835,,1133216,,1584450957,622122662,'',"[shoulder_pan_joint, shoulder_lift_joint, elbow_joint, wrist_1_joint, wrist_2_joint,","[1.4689420461654663, -1.1416829268084925, 2.4042298793792725, -2.818014923726217, -1.5670297781573694, 2.752545118331909]","[0.09547752141952515, 0.05700017139315605, -0.1306440383195877, 0.07917258143424988, -3.834952076431364e-05, 0.03380510210990906]","[0.8789063692092896, -3.108215570449829, -1.9862442016601562, -0.0650482252240181, 0.1054229810833931, 0.3611297905445099]"
1584450957734555530,,1133230,,1584450957,734118695,'',"[shoulder_pan_joint, shoulder_lift_joint, elbow_joint, wrist_1_joint, wrist_2_joint,","[1.480169415473938, -1.1360834280597132, 2.390515089035034, -2.8099339644061487, -1.5670297781573694, 2.7556939125061035]","[0.09924855828285217, 0.04993107542395592, -0.10546118021011353, 0.06651724129915237, -3.834952076431364e-05, 0.02521480992436409]","[0.9201050996780396, -3.025818109512329, -2.0512566566467285, -0.1749572902917862, 0.1143951565027237, 0.3992615044116974]"
1584450957846610943,,1133244,,1584450957,846162686,'',"[shoulder_pan_joint, shoulder_lift_joint, elbow_joint, wrist_1_joint, wrist_2_joint,","[1.4908926486968994, -1.1306641737567347, 2.3791282176971436, -2.803157631550924, -1.5670178572284144, 2.758124589920044]","[0.09713933616876602, 0.044549360871315, -0.09503011405467987, 0.058157049119472504, -3.834952076431364e-05, 0.01666286587715149]","[0.9475709199905396, -3.240967035293579, -1.9772769212722778, -0.1457977443933487, 0.1480407863855362, 0.3386993706226349]"
1584450957958459870,,1133258,,1584450957,958097483,'',"[shoulder_pan_joint, shoulder_lift_joint, elbow_joint, wrist_1_joint, wrist_2_joint,","[1.5023592710494995, -1.1268275419818323, 2.3686885833740234, -2.796908203755514, -1.5670416990863245, 2.760255813598633]","[0.10854192823171616, 0.032776057720184326, -0.08687444776296616, 0.052558016031980515, -1.917476038215682e-05, 0.019481556490063667]","[0.8514404892921448, -3.071594476699829, -2.089367389678955, -0.1300964504480362, 0.1480407863855362, 0.2848663628101349]"
1584450958070509813,,1133272,,1584450958,70115516,'',"[shoulder_pan_joint, shoulder_lift_joint, elbow_joint, wrist_1_joint, wrist_2_joint,","[1.5150854587554932, -1.1231706778155726, 2.3606488704681396, -2.791903320943014, -1.5670655409442347, 2.7636802196502686]","[0.1223221868276596, 0.02996375784277916, -0.06810874491930008, 0.03426529839634895, -1.917476038215682e-05, 0.040957286953926086]","[0.7873535752296448, -3.419494867324829, -2.2575032711029053, -0.1457977443933487, 0.1951446682214737, 0.3386993706226349]"
1584450958182540749,,1133286,,1584450958,182101840,'',"[shoulder_pan_joint, shoulder_lift_joint, elbow_joint, wrist_1_joint, wrist_2_joint,","[1.5288673639297485, -1.1196940580951136, 2.3536534309387207, -2.787701431904928, -1.567077938710348, 2.7681825160980225]","[0.1279851347208023, 0.02641003578901291, -0.044920071959495544, 0.03551165759563446, -1.917476038215682e-05, 0.03470631688833237]","[0.8605957627296448, -3.492737054824829, -2.1431708335876465, -0.1659851223230362, 0.1772003322839737, 0.3701019585132599]"
1584450958294539807,,1133300,,1584450958,294120043,'',"[shoulder_pan_joint, shoulder_lift_joint, elbow_joint, wrist_1_joint, wrist_2_joint,","[1.5434768199920654, -1.118183437977926, 2.3507015705108643, -2.7847445646869105, -1.5671256224261683, 2.771714925765991]","[0.12755051255226135, 0.0013166668359190226, -0.005982525181025267, 0.013940050266683102, -1.917476038215682e-05, 0.02496553771197796]","[0.8422852158546448, -3.945923328399658, -2.46150803565979, -0.2691650688648224, 0.2198181450366974, 0.3723450005054474]"
1584450958406697821,,1133314,,1584450958,406160528,'',"[shoulder_pan_joint, shoulder_lift_joint, elbow_joint, wrist_1_joint, wrist_2_joint,","[1.557126522064209, -1.1186273733722132, 2.3520214557647705, -2.7851393858539026, -1.567197624837057, 2.773690938949585]","[0.1195993721485138, -0.011850002221763134, 0.03142103925347328, -0.016451943665742874, -0.0006327670998871326, 0.012175972573459148]","[1.1169434785842896, -5.255127429962158, -1.463902235031128, -0.7200165390968323, 0.2646789848804474, 0.3566437065601349]"
1584450958518700786,,1133328,,1584450958,518138596,'',"[shoulder_pan_joint, shoulder_lift_joint, elbow_joint, wrist_1_joint, wrist_2_joint,","[1.5703922510147095, -1.120317284260885, 2.3567492961883545, -2.7873900572406214, -1.567221466694967, 2.7718467712402344]","[0.10854192823171616, -0.020363595336675644, 0.04879337176680565, -0.025559956207871437, -0.0002109223569277674, -0.04690146446228027]","[0.9796143770217896, -5.415344715118408, -1.3966479301452637, -0.8276825547218323, 0.2803802788257599, -0.2691650688648224]"
1584450958630385757,,1133342,,1584450958,630036695,'',"[shoulder_pan_joint, shoulder_lift_joint, elbow_joint, wrist_1_joint, wrist_2_joint,","[1.581739068031311, -1.1224635283099573, 2.3603732585906982, -2.7890899817096155, -1.5672577063189905, 2.7663748264312744]","[0.09223059564828873, -0.012310195714235306, 0.015748869627714157, -0.0033747577108442783, -0.00015339808305725455, -0.0474383570253849]","[1.1489869356155396, -5.177307605743408, -1.4325169324874878, -0.944320797920227, 0.3252411186695099, -0.3364563286304474]"
1584450958742585109,,1133356,,1584450958,742118237,'',"[shoulder_pan_joint, shoulder_lift_joint, elbow_joint, wrist_1_joint, wrist_2_joint,","[1.5912028551101685, -1.1230629126178187, 2.3623170852661133, -2.789161984120504, -1.5673769156085413, 2.7617766857147217]","[0.0782330185174942, -0.005535114090889692, 0.020184630528092384, -0.0021667478140443563, -0.0008053399506025016, -0.03723738342523575]","[0.9613038301467896, -5.397034168243408, -1.5670255422592163, -0.989181637763977, 0.3342132866382599, -0.3476715385913849]"
1584450958854550202,,1133370,,1584450958,854113487,'',"[shoulder_pan_joint, shoulder_lift_joint, elbow_joint, wrist_1_joint, wrist_2_joint,","[1.5992391109466553, -1.1243460814105433, 2.3653407096862793, -2.789856259022848, -1.5674727598773401, 2.7582082748413086]","[0.06472120434045792, -0.015902267768979073, 0.03515372797846794, -0.012348545715212822, -0.0004793690168298781, -0.03503228724002838]","[1.1398316621780396, -5.232239246368408, -1.450451374053955, -0.9734803438186646, 0.3342132866382599, -0.2691650688648224]"
1584450958966547136,,1133384,,1584450958,966115781,'',"[shoulder_pan_joint, shoulder_lift_joint, elbow_joint, wrist_1_joint, wrist_2_joint,","[1.605571985244751, -1.1267321745501917, 2.370236396789551, -2.7926695982562464, -1.567436997090475, 2.7533233165740967]","[0.04881893843412399, -0.02791845053434372, 0.04072719067335129, -0.029625004157423973, -0.00017257283616345376, -0.05085146427154541]","[0.8102417588233948, -5.062866687774658, -1.4370005130767822, -0.899459958076477, 0.3342132866382599, -0.2422485649585724]"
1584450959078559919,,1133398,,1584450959,78082668,'',"[shoulder_pan_joint, shoulder_lift_joint, elbow_joint, wrist_1_joint, wrist_2_joint,","[1.610333800315857, -1.129333798085348, 2.3728525638580322, -2.794668976460592, -1.567460838948385, 2.7472281455993652]","[0.04098285362124443, -0.00723527604714036, 0.009357282891869545, -0.0018024274613708258, -0.00017257283616345376, -0.05499321222305298]","[0.9658814668655396, -4.811096668243408, -1.4459677934646606, -0.886001706123352, 0.3050537407398224, -0.3140259087085724]"
1584450959190454141,,1133412,,1584450959,190079781,'',"[shoulder_pan_joint, shoulder_lift_joint, elbow_joint, wrist_1_joint, wrist_2_joint,","[1.614939570426941, -1.129345719014303, 2.3731765747070312, -2.7943814436541956, -1.5676525274859827, 2.741241455078125]","[0.03792767599225044, 6.391586794052273e-05, 0.0005241101025603712, 0.0035473306197673082, -0.002147573046386242, -0.06047719344496727]","[0.9155274629592896, -4.504395008087158, -1.9391660690307617, -0.6998291611671448, 0.3274841606616974, -0.2489776909351349]"
1584450959302453419,,1133426,,1584450959,302056638,'',"[shoulder_pan_joint, shoulder_lift_joint, elbow_joint, wrist_1_joint, wrist_2_joint,","[1.6185377836227417, -1.1292975584613245, 2.37327241897583, -2.7939870993243616, -1.5679762999164026, 2.7329797744750977]","[0.027419907972216606, 6.391586794052273e-05, 0.0003195793251506984, 0.002550243167206645, -0.0023968450259417295, -0.07564442604780197]","[0.8834840059280396, -4.431152820587158, -1.9503751993179321, -0.7132874131202698, 0.3072967827320099, -0.3207550346851349]"
1584450959414621873,,1133440,,1584450959,414123592,'',"[shoulder_pan_joint, shoulder_lift_joint, elbow_joint, wrist_1_joint, wrist_2_joint,","[1.621056318283081, -1.1294892469989222, 2.3749520778656006, -2.794513527547018, -1.5680602232562464, 2.7245023250579834]","[0.022063758224248886, -0.0073503246530890465, 0.03056456707417965, -0.012808740139007568, -0.0007286408799700439, -0.07953690737485886]","[0.6729126572608948, -5.433655261993408, -1.6566979885101318, -1.029556393623352, 0.2826233208179474, -0.2646789848804474]"
1584450959526490085,,1133454,,1584450959,526048661,'',"[shoulder_pan_joint, shoulder_lift_joint, elbow_joint, wrist_1_joint, wrist_2_joint,","[1.6245946884155273, -1.130808178578512, 2.3783960342407227, -2.7967284361468714, -1.5680363813983362, 2.7153782844543457]","[0.041136253625154495, -0.01071229949593544, 0.03609968349337578, -0.023604130372405052, -0.0002109223569277674, -0.0693359300494194]","[0.9613038301467896, -5.204773426055908, -1.3876807689666748, -0.8792725801467896, 0.2871094048023224, -0.3364563286304474]"
1584450959638565496,,1133468,,1584450959,638108653,'',"[shoulder_pan_joint, shoulder_lift_joint, elbow_joint, wrist_1_joint, wrist_2_joint,","[1.6302565336227417, -1.1320670286761683, 2.3825597763061523, -2.7997334639178675, -1.568012539540426, 2.7086730003356934]","[0.056961819529533386, -0.012450811453163624, 0.03314676880836487, -0.026135198771953583, 3.834952076431364e-05, -0.05514661222696304]","[0.7736206650733948, -5.282593250274658, -1.4885622262954712, -0.8142243027687073, 0.3028106987476349, -0.2467346489429474]"
1584450959750492118,,1133482,,1584450959,750029343,'',"[shoulder_pan_joint, shoulder_lift_joint, elbow_joint, wrist_1_joint, wrist_2_joint,","[1.6363134384155273, -1.1328700224505823, 2.3848040103912354, -2.8010504881488245, -1.5680363813983362, 2.7022552490234375]","[0.052577193826436996, -0.001725728390738368, 0.009587380103766918, -0.0012655341997742653, 3.834952076431364e-05, -0.05073641613125801]","[0.9338380098342896, -4.957581043243408, -1.4795949459075928, -0.7402039170265198, 0.3162689507007599, -0.3274841606616974]"
1584450959862468834,,1133496,,1584450959,862038390,'',"[shoulder_pan_joint, shoulder_lift_joint, elbow_joint, wrist_1_joint, wrist_2_joint,","[1.6413508653640747, -1.132930103932516, 2.3861236572265625, -2.801110569630758, -1.568132225667135, 2.696244716644287]","[0.03500032797455788, -0.0007797735743224621, 0.016630908474326134, -0.0046786414459347725, -1.917476038215682e-05, -0.058406319469213486]","[0.9384156465530396, -5.447388172149658, -1.6163454055786133, -0.9017030000686646, 0.3386993706226349, -0.2714081108570099]"
1584450959974436382,,1133510,,1584450959,974019664,'',"[shoulder_pan_joint, shoulder_lift_joint, elbow_joint, wrist_1_joint, wrist_2_joint,","[1.644565224647522, -1.1333020369159144, 2.3877673149108887, -2.8015053907977503, -1.56812030473818, 2.6884377002716064]","[0.024454211816191673, -0.0028250813484191895, 0.01273204106837511, -0.003719903528690338, -1.917476038215682e-05, -0.07972865551710129]","[0.8789063692092896, -5.149841785430908, -1.641005277633667, -0.8837586641311646, 0.3431854546070099, -0.3342132866382599]"
1584450960086680678,,1133524,,1584450960,86125561,'',"[shoulder_pan_joint, shoulder_lift_joint, elbow_joint, wrist_1_joint, wrist_2_joint,","[1.6468441486358643, -1.133362118397848, 2.3889553546905518, -2.801600758229391, -1.56812030473818, 2.6799607276916504]","[0.018548384308815002, -0.0002812298189383, 0.006570551078766584, -0.0004410194815136492, -1.917476038215682e-05, -0.0766415148973465]","[0.8605957627296448, -4.866028308868408, -1.5759928226470947, -0.7940369248390198, 0.3386993706226349, -0.2826233208179474]"
1584450960198406825,,1133538,,1584450960,198010335,'',"[shoulder_pan_joint, shoulder_lift_joint, elbow_joint, wrist_1_joint, wrist_2_joint,","[1.6486313343048096, -1.133362118397848, 2.3889312744140625, -2.8014214674579065, -1.5681684652911585, 2.670849084854126]","[0.012591426260769367, -0.0001661812566453591, -0.00023009712458588183, 0.0011121360585093498, -1.917476038215682e-05, -0.08015049993991852]","[0.9201050996780396, -4.458618640899658, -2.0557403564453125, -0.5854340195655823, 0.2960815727710724, -0.2624359428882599]"
1584450960310496202,,1133552,,1584450960,310054857,'',"[shoulder_pan_joint, shoulder_lift_joint, elbow_joint, wrist_1_joint, wrist_2_joint,","[1.649111032485962, -1.1333377997027796, 2.3889434337615967, -2.801349465047018, -1.5681803862201136, 2.6618454456329346]","[-0.006455502472817898, -0.00011504856229294091, -0.00020453077740967274, 0.00032597093377262354, -7.669904152862728e-05, -0.08049564063549042]","[-0.2609253227710724, -4.527283191680908, -1.916748046875, -0.6415100693702698, 0.2938385307788849, -0.2355194389820099]"
1584450960422631984,,1133566,,1584450960,422082648,'',"[shoulder_pan_joint, shoulder_lift_joint, elbow_joint, wrist_1_joint, wrist_2_joint,","[1.648391604423523, -1.1333735624896448, 2.3889193534851074, -2.8013857046710413, -1.5681803862201136, 2.657355546951294]","[-0.0006008091731928289, -7.669904152862728e-05, -0.0, 0.00015339808305725455, -7.669904152862728e-05, -0.0027228158432990313]","[-0.01373291201889515, -4.499817371368408, -1.9369243383407593, -0.6213226914405823, 0.2848663628101349, -0.0493469275534153]"
1584450960534481042,,1133580,,1584450960,534013017,'',"[shoulder_pan_joint, shoulder_lift_joint, elbow_joint, wrist_1_joint, wrist_2_joint,","[1.6483795642852783, -1.133385960255758, 2.388883352279663, -2.801098171864645, -1.5685871283160608, 2.657402992248535]","[-0.00021731395099777728, 6.391586794052273e-05, -0.0, 0.0009203884983435273, -0.000862864195369184, 0.00036432043998502195]","[-0.0869751051068306, -3.968811511993408, -1.7127432823181152, -0.4553375840187073, 0.1233673244714737, -0.02018737979233265]"
1584450960646522468,,1133594,,1584450960,646084190,'',"[shoulder_pan_joint, shoulder_lift_joint, elbow_joint, wrist_1_joint, wrist_2_joint,","[1.6483795642852783, -1.1333978811847132, 2.388883352279663, -2.8010743300067347, -1.5685752073871058, 2.657402992248535]","[-0.00010226538870483637, 6.391586794052273e-05, -0.0, 0.00023009712458588183, -0.00023009712458588183, 0.00017257283616345376]","[-0.0686645582318306, -4.019165515899658, -1.7306777238845825, -0.5674896836280823, 0.2669220268726349, -0.0291595496237278]"
1584450960758510325,,1133608,,1584450960,758055115,'',"[shoulder_pan_joint, shoulder_lift_joint, elbow_joint, wrist_1_joint, wrist_2_joint,","[1.6483676433563232, -1.1333377997027796, 2.3889074325561523, -2.801098171864645, -1.568455998097555, 2.6574151515960693]","[-6.391586794052273e-05, 6.391586794052273e-05, -0.0, -3.834952076431364e-05, 0.0044293696992099285, 9.58738019107841e-05]","[-0.0778198316693306, -4.010010242462158, -1.7015341520309448, -0.7222595810890198, 0.3835602104663849, -0.0291595496237278]"
1584450960870562692,,1133622,,1584450960,870038653,'',"[shoulder_pan_joint, shoulder_lift_joint, elbow_joint, wrist_1_joint, wrist_2_joint,","[1.6483795642852783, -1.1333978811847132, 2.388895273208618, -2.8013737837420862, -1.5683119932757776, 2.6574389934539795]","[-5.1132694352418184e-05, 5.1132694352418184e-05, -0.0, -0.002205097349360585, 0.001725728390738368, 7.669904152862728e-05]","[-0.0778198316693306, -3.996277332305908, -1.7127432823181152, -0.7245026230812073, 0.6145935654640198, -0.02018737979233265]"
1584450960982427419,,1133636,,1584450960,981993959,'',"[shoulder_pan_joint, shoulder_lift_joint, elbow_joint, wrist_1_joint, wrist_2_joint,","[1.6483795642852783, -1.133362118397848, 2.3889193534851074, -2.8013737837420862, -1.5681923071490687, 2.6573915481567383]","[-3.834952076431364e-05, 3.834952076431364e-05, -0.0, -0.00026844663079828024, 0.00046019424917176366, 5.752428114647046e-05]","[-0.0411987341940403, -3.996277332305908, -1.726194143295288, -0.7402039170265198, 0.5607605576515198, -0.0269165076315403]"
1584450961094401279,,1133650,,1584450961,94000380,'',"[shoulder_pan_joint, shoulder_lift_joint, elbow_joint, wrist_1_joint, wrist_2_joint,","[1.6483436822891235, -1.1333497206317347, 2.3889193534851074, -2.8013737837420862, -1.5681803862201136, 2.657402992248535]","[-2.5566347176209092e-05, 3.834952076431364e-05, -0.0, -0.00013422331539914012, 0.00017257283616345376, 3.834952076431364e-05]","[-0.0640869215130806, -3.959656238555908, -1.692566990852356, -0.7491760849952698, 0.6033783555030823, -0.02467346377670765]"
1584450961206340084,,1133664,,1584450961,205976515,'',"[shoulder_pan_joint, shoulder_lift_joint, elbow_joint, wrist_1_joint, wrist_2_joint,","[1.6483556032180786, -1.133362118397848, 2.388895273208618, -2.801361862813131, -1.5681803862201136, 2.6574389934539795]","[-2.5566347176209092e-05, 2.5566347176209092e-05, -0.0, -9.58738019107841e-05, 0.00015339808305725455, 3.834952076431364e-05]","[-0.0778198316693306, -4.028320789337158, -1.7060178518295288, -0.7357178330421448, 0.5540314316749573, -0.02467346377670765]"
1584450961318439539,,1133678,,1584450961,318051133,'',"[shoulder_pan_joint, shoulder_lift_joint, elbow_joint, wrist_1_joint, wrist_2_joint,","[1.648331642150879, -1.1333735624896448, 2.388895273208618, -2.8013976255999964, -1.5682042280780237, 2.6574151515960693]","[-2.5566347176209092e-05, 2.5566347176209092e-05, -0.0, 0.0, 0.00015339808305725455, 3.834952076431364e-05]","[-0.0778198316693306, -3.941345691680908, -1.690325140953064, -0.7289887070655823, 0.5316010117530823, -0.0269165076315403]"
1584450961430286051,,1133692,,1584450961,429931779,'',"[shoulder_pan_joint, shoulder_lift_joint, elbow_joint, wrist_1_joint, wrist_2_joint,","[1.6483795642852783, -1.1333258787738245, 2.3889074325561523, -2.8013857046710413, -1.568132225667135, 2.657402992248535]","[-1.2783173588104546e-05, 2.5566347176209092e-05, -0.0, 0.0, 9.58738019107841e-05, 1.917476038215682e-05]","[-0.0823974683880806, -3.923035144805908, -1.7037760019302368, -0.7469330430030823, 0.5652466416358948, -0.0291595496237278]"
1584450961542330384,,1133706,,1584450961,541951175,'',"[shoulder_pan_joint, shoulder_lift_joint, elbow_joint, wrist_1_joint, wrist_2_joint,","[1.6483676433563232, -1.1333377997027796, 2.388883352279663, -2.8013976255999964, -1.568132225667135, 2.6574389934539795]","[-1.2783173588104546e-05, 1.2783173588104546e-05, -0.0, 0.0, 7.669904152862728e-05, 1.917476038215682e-05]","[-0.0595092847943306, -3.872681140899658, -1.72843599319458, -0.7402039170265198, 0.5473023056983948, -0.0336456336081028]"
1584450961654377320,,1133720,,1584450961,653969579,'',"[shoulder_pan_joint, shoulder_lift_joint, elbow_joint, wrist_1_joint, wrist_2_joint,","[1.6483676433563232, -1.1333377997027796, 2.3889074325561523, -2.8013737837420862, -1.568132225667135, 2.657402992248535]","[-1.2783173588104546e-05, 1.2783173588104546e-05, -0.0, 0.0, 5.752428114647046e-05, 1.917476038215682e-05]","[-0.0595092847943306, -4.005432605743408, -1.7037760019302368, -0.7446900010108948, 0.5540314316749573, -0.02467346377670765]"
1584450961766360358,,1133734,,1584450961,765932388,'',"[shoulder_pan_joint, shoulder_lift_joint, elbow_joint, wrist_1_joint, wrist_2_joint,","[1.6483556032180786, -1.133385960255758, 2.388883352279663, -2.8013857046710413, -1.568132225667135, 2.657402992248535]","[-1.2783173588104546e-05, 1.2783173588104546e-05, -0.0, 0.0, 3.834952076431364e-05, 1.917476038215682e-05]","[-0.0549316480755806, -3.941345691680908, -1.721710443496704, -0.7402039170265198, 0.5473023056983948, -0.0269165076315403]"
1584450961878315473,,1133748,,1584450961,877960651,'',"[shoulder_pan_joint, shoulder_lift_joint, elbow_joint, wrist_1_joint, wrist_2_joint,","[1.6483795642852783, -1.1333377997027796, 2.388895273208618, -2.8013976255999964, -1.568108383809225, 2.6573915481567383]","[-1.2783173588104546e-05, 1.2783173588104546e-05, -0.0, 0.0, 3.834952076431364e-05, 1.917476038215682e-05]","[-0.0732421949505806, -3.955078601837158, -1.6992924213409424, -0.7379608750343323, 0.5674896836280823, -0.0269165076315403]"
1584450961990328166,,1133762,,1584450961,989941464,'',"[shoulder_pan_joint, shoulder_lift_joint, elbow_joint, wrist_1_joint, wrist_2_joint,","[1.6483676433563232, -1.1333497206317347, 2.388895273208618, -2.8013976255999964, -1.5680964628802698, 2.6574270725250244]","[-1.2783173588104546e-05, 1.2783173588104546e-05, -0.0, 0.0, 3.834952076431364e-05, 1.917476038215682e-05]","[-0.0823974683880806, -3.987122058868408, -1.7037760019302368, -0.7424469590187073, 0.5742188096046448, -0.0269165076315403]"
1584450962102327354,,1133776,,1584450962,101930943,'',"[shoulder_pan_joint, shoulder_lift_joint, elbow_joint, wrist_1_joint, wrist_2_joint,","[1.6483556032180786, -1.133362118397848, 2.388895273208618, -2.8013857046710413, -1.56812030473818, 2.6574389934539795]","[-1.2783173588104546e-05, 1.2783173588104546e-05, -0.0, 0.0, 3.834952076431364e-05, 1.917476038215682e-05]","[-0.0732421949505806, -3.977966785430908, -1.6970505714416504, -0.7379608750343323, 0.5899201035499573, -0.0269165076315403]"
1584450962214416981,,1133790,,1584450962,213961310,'',"[shoulder_pan_joint, shoulder_lift_joint, elbow_joint, wrist_1_joint, wrist_2_joint,","[1.648391604423523, -1.133362118397848, 2.388895273208618, -2.8014333883868616, -1.568132225667135, 2.6574151515960693]","[-1.2783173588104546e-05, 1.2783173588104546e-05, -0.0, 0.0, 3.834952076431364e-05, 1.917476038215682e-05]","[-0.0732421949505806, -4.000854969024658, -1.692566990852356, -0.7379608750343323, 0.5809479355812073, -0.02243042178452015]"
1584450962326224580,,1133804,,1584450962,325859218,'',"[shoulder_pan_joint, shoulder_lift_joint, elbow_joint, wrist_1_joint, wrist_2_joint,","[1.6483556032180786, -1.1333377997027796, 2.388883352279663, -2.8014453093158167, -1.568108383809225, 2.657402992248535]","[-1.2783173588104546e-05, 1.2783173588104546e-05, -0.0, 0.0, 3.834952076431364e-05, 0.0]","[-0.0640869215130806, -3.973389148712158, -1.7082595825195312, -0.7424469590187073, 0.5787048935890198, -0.02467346377670765]"
1584450962438370732,,1133818,,1584450962,437954284,'',"[shoulder_pan_joint, shoulder_lift_joint, elbow_joint, wrist_1_joint, wrist_2_joint,","[1.6483795642852783, -1.133385960255758, 2.388883352279663, -2.8013976255999964, -1.568108383809225, 2.6574270725250244]","[0.0, 0.0, -0.0, 0.0, 3.834952076431364e-05, 0.0]","[-0.0457763709127903, -4.032898426055908, -1.7082595825195312, -0.7424469590187073, 0.5562744736671448, -0.02018737979233265]"
1584450962550300210,,1133832,,1584450962,549925701,'',"[shoulder_pan_joint, shoulder_lift_joint, elbow_joint, wrist_1_joint, wrist_2_joint,","[1.6483676433563232, -1.133362118397848, 2.388883352279663, -2.8013976255999964, -1.5680964628802698, 2.6574151515960693]","[0.0, 0.0, -0.0, 0.0, 3.834952076431364e-05, 0.0]","[-0.0595092847943306, -3.918457508087158, -1.688083291053772, -0.7424469590187073, 0.5831909775733948, -0.0269165076315403]"
1584450962662288628,,1133846,,1584450962,661920961,'',"[shoulder_pan_joint, shoulder_lift_joint, elbow_joint, wrist_1_joint, wrist_2_joint,","[1.6483436822891235, -1.133385960255758, 2.388883352279663, -2.8013737837420862, -1.56812030473818, 2.657367467880249]","[0.0, 0.0, -0.0, 0.0, 3.834952076431364e-05, -0.004870389122515917]","[-0.0595092847943306, -3.923035144805908, -1.7082595825195312, -0.7424469590187073, 0.5562744736671448, -0.2400055229663849]"
1584450962774315366,,1133860,,1584450962,773907765,'',"[shoulder_pan_joint, shoulder_lift_joint, elbow_joint, wrist_1_joint, wrist_2_joint,","[1.6483676433563232, -1.1333497206317347, 2.388883352279663, -2.8013976255999964, -1.5680845419513147, 2.650242805480957]","[0.0, 0.0, -0.0, 0.0, 1.917476038215682e-05, -0.14329297840595245]","[-0.0915527418255806, -3.959656238555908, -1.7060178518295288, -0.7334747910499573, 0.5630035996437073, -0.3521576225757599]"
1584450962886224126,,1133874,,1584450962,885929125,'',"[shoulder_pan_joint, shoulder_lift_joint, elbow_joint, wrist_1_joint, wrist_2_joint,","[1.6484036445617676, -1.133362118397848, 2.388871431350708, -2.8013737837420862, -1.5680726210223597, 2.628512144088745]","[0.0, 0.0, -0.0, 0.0, 1.917476038215682e-05, -0.20371265709400177]","[-0.0732421949505806, -3.900146961212158, -1.6948087215423584, -0.7491760849952698, 0.5630035996437073, -0.3521576225757599]"
1584450962998227190,,1133888,,1584450962,997875293,'',"[shoulder_pan_joint, shoulder_lift_joint, elbow_joint, wrist_1_joint, wrist_2_joint,","[1.6483795642852783, -1.133362118397848, 2.3889193534851074, -2.8014095465289515, -1.5680602232562464, 2.606158494949341]","[0.0, 0.0, -0.0, 0.0, 1.917476038215682e-05, -0.2030031830072403]","[-0.0778198316693306, -3.968811511993408, -1.6858415603637695, -0.7334747910499573, 0.4844971299171448, -0.5383301377296448]"
1584450963110383021,,1133902,,1584450963,109947237,'',"[shoulder_pan_joint, shoulder_lift_joint, elbow_joint, wrist_1_joint, wrist_2_joint,","[1.6483676433563232, -1.1333497206317347, 2.388895273208618, -2.8014214674579065, -1.5680244604693812, 2.5837697982788086]","[0.0, 0.0, -0.0, 0.0, 1.917476038215682e-05, -0.20028036832809448]","[-0.0732421949505806, -3.909302234649658, -1.6948087215423584, -0.7402039170265198, 0.4643097519874573, -0.3813171684741974]"
1584450963222399701,,1133916,,1584450963,221966452,'',"[shoulder_pan_joint, shoulder_lift_joint, elbow_joint, wrist_1_joint, wrist_2_joint,","[1.6483795642852783, -1.1333735624896448, 2.3888590335845947, -2.8014095465289515, -1.5680726210223597, 2.561248779296875]","[0.0, 0.0, -0.0, 0.0, 1.917476038215682e-05, -0.19796022772789001]","[-0.0640869215130806, -3.973389148712158, -1.7015341520309448, -0.7357178330421448, 0.3656158745288849, -0.4822540879249573]"
1584450963334446928,,1133930,,1584450963,333961442,'',"[shoulder_pan_joint, shoulder_lift_joint, elbow_joint, wrist_1_joint, wrist_2_joint,","[1.6483676433563232, -1.1333377997027796, 2.388871431350708, -2.8014095465289515, -1.5680845419513147, 2.5388364791870117]","[0.0, 0.0, -0.0, 0.0, 0.0, -0.19997356832027435]","[-0.0961303785443306, -3.941345691680908, -1.6992924213409424, -0.7402039170265198, 0.2714081108570099, -0.3790741264820099]"
1584450963446232698,,1133944,,1584450963,445863017,'',"[shoulder_pan_joint, shoulder_lift_joint, elbow_joint, wrist_1_joint, wrist_2_joint,","[1.6483436822891235, -1.1333258787738245, 2.388895273208618, -2.8013976255999964, -1.568132225667135, 2.516519546508789]","[0.0, 0.0, -0.0, 0.0, -0.0006327670998871326, -0.19874638319015503]","[-0.0778198316693306, -3.955078601837158, -1.692566990852356, -0.7379608750343323, 0.2691650688648224, -0.4889832139015198]"
1584450963558418334,,1133958,,1584450963,557985155,'',"[shoulder_pan_joint, shoulder_lift_joint, elbow_joint, wrist_1_joint, wrist_2_joint,","[1.6483556032180786, -1.133362118397848, 2.388895273208618, -2.8014453093158167, -1.5680964628802698, 2.49399995803833]","[0.0, 0.0, -0.0, 0.0, -0.0002109223569277674, -0.19987769424915314]","[-0.0503540076315403, -3.973389148712158, -1.7015341520309448, -0.7312317490577698, 0.2871094048023224, -0.4261780083179474]"
1584450963670223849,,1133972,,1584450963,669874848,'',"[shoulder_pan_joint, shoulder_lift_joint, elbow_joint, wrist_1_joint, wrist_2_joint,","[1.6483556032180786, -1.1333735624896448, 2.388895273208618, -2.8014214674579065, -1.5680964628802698, 2.471576452255249]","[0.0, 0.0, -0.0, 0.0, -0.00011504856229294091, -0.19874638319015503]","[-0.0778198316693306, -3.996277332305908, -1.7105014324188232, -0.7357178330421448, 0.2669220268726349, -0.4306641221046448]"
1584450963782321271,,1133986,,1584450963,781938546,'',"[shoulder_pan_joint, shoulder_lift_joint, elbow_joint, wrist_1_joint, wrist_2_joint,","[1.648391604423523, -1.1333497206317347, 2.3889074325561523, -2.8013976255999964, -1.568132225667135, 2.4492363929748535]","[0.0, 0.0, -0.0, 0.0, -7.669904152862728e-05, -0.2017376571893692]","[-0.0732421949505806, -3.973389148712158, -1.6858415603637695, -0.7312317490577698, 0.2422485649585724, -0.4710388779640198]"
1584450963894317964,,1134000,,1584450963,893871590,'',"[shoulder_pan_joint, shoulder_lift_joint, elbow_joint, wrist_1_joint, wrist_2_joint,","[1.6484036445617676, -1.1333735624896448, 2.388883352279663, -2.8014453093158167, -1.5680845419513147, 2.4268369674682617]","[0.0, 0.0, -0.0, 0.0, -5.752428114647046e-05, -0.20206362009048462]","[-0.0320434607565403, -3.904724597930908, -1.688083291053772, -0.7357178330421448, 0.2646789848804474, -0.3656158745288849]"
1584450964006289790,,1134014,,1584450964,5884644,'',"[shoulder_pan_joint, shoulder_lift_joint, elbow_joint, wrist_1_joint, wrist_2_joint,","[1.6483676433563232, -1.1333497206317347, 2.388883352279663, -2.8013976255999964, -1.568108383809225, 2.404473066329956]","[0.0, 0.0, -0.0, 0.0, -5.752428114647046e-05, -0.1975383758544922]","[-0.0640869215130806, -3.964233875274658, -1.6992924213409424, -0.7402039170265198, 0.2557068169116974, -0.5450592637062073]"
1584450964118418049,,1134028,,1584450964,117904039,'',"[shoulder_pan_joint, shoulder_lift_joint, elbow_joint, wrist_1_joint, wrist_2_joint,","[1.6483795642852783, -1.1333377997027796, 2.3889193534851074, -2.8014214674579065, -1.568108383809225, 2.382146120071411]","[0.0, 0.0, -0.0, 0.0, -3.834952076431364e-05, -0.20307987928390503]","[-0.0869751051068306, -3.987122058868408, -1.7082595825195312, -0.7379608750343323, 0.2646789848804474, -0.3723450005054474]"
1584450964230268720,,1134042,,1584450964,229845609,'',"[shoulder_pan_joint, shoulder_lift_joint, elbow_joint, wrist_1_joint, wrist_2_joint,","[1.6483795642852783, -1.1333978811847132, 2.388883352279663, -2.8013976255999964, -1.5680964628802698, 2.3596749305725098]","[0.0, 0.0, -0.0, 0.0, -3.834952076431364e-05, -0.19874638319015503]","[-0.0869751051068306, -4.023743152618408, -1.6970505714416504, -0.7402039170265198, 0.2557068169116974, -0.5764618515968323]"
1584450964342226139,,1134056,,1584450964,341833696,'',"[shoulder_pan_joint, shoulder_lift_joint, elbow_joint, wrist_1_joint, wrist_2_joint,","[1.6483556032180786, -1.1333377997027796, 2.388883352279663, -2.8014095465289515, -1.5680483023272913, 2.3372762203216553]","[0.0, 0.0, -0.0, 0.0, -1.917476038215682e-05, -0.19874638319015503]","[-0.0549316480755806, -3.977966785430908, -1.7060178518295288, -0.7334747910499573, 0.2377624809741974, -0.4373932480812073]"
1584450964454388652,,1134070,,1584450964,453920598,'',"[shoulder_pan_joint, shoulder_lift_joint, elbow_joint, wrist_1_joint, wrist_2_joint,","[1.6483795642852783, -1.1333497206317347, 2.388883352279663, -2.8014095465289515, -1.56812030473818, 2.3148415088653564]","[0.0, 0.0, -0.0, 0.0, -1.917476038215682e-05, -0.1986505091190338]","[-0.02288818545639515, -3.932190418243408, -1.7015341520309448, -0.7402039170265198, 0.2646789848804474, -0.5158997178077698]"
1584450964566190261,,1134084,,1584450964,565839445,'',"[shoulder_pan_joint, shoulder_lift_joint, elbow_joint, wrist_1_joint, wrist_2_joint,","[1.6483676433563232, -1.1333735624896448, 2.3889074325561523, -2.8014095465289515, -1.5680845419513147, 2.292466163635254]","[0.0, 0.0, -0.0, 0.0, -1.917476038215682e-05, -0.2013925015926361]","[-0.0778198316693306, -3.927612781524658, -1.692566990852356, -0.7357178330421448, 0.2714081108570099, -0.4127197563648224]"
1584450964678226127,,1134098,,1584450964,677855575,'',"[shoulder_pan_joint, shoulder_lift_joint, elbow_joint, wrist_1_joint, wrist_2_joint,","[1.6483795642852783, -1.133362118397848, 2.3889193534851074, -2.8013857046710413, -1.568108383809225, 2.2700796127319336]","[0.0, 0.0, -0.0, 0.0, -1.917476038215682e-05, -0.20089396834373474]","[-0.0778198316693306, -3.900146961212158, -1.7037760019302368, -0.7357178330421448, 0.2714081108570099, -0.4351502060890198]"
1584450964790419698,,1134112,,1584450964,789975388,'',"[shoulder_pan_joint, shoulder_lift_joint, elbow_joint, wrist_1_joint, wrist_2_joint,","[1.6483436822891235, -1.1333497206317347, 2.3889193534851074, -2.8014095465289515, -1.5680964628802698, 2.249094247817993]","[0.0, 0.0, -0.0, 0.0, -1.917476038215682e-05, -0.13282357156276703]","[-0.0274658240377903, -3.945923328399658, -1.6992924213409424, -0.7446900010108948, 0.2714081108570099, -0.5495453476905823]"
1584450964902220505,,1134126,,1584450964,901858679,'',"[shoulder_pan_joint, shoulder_lift_joint, elbow_joint, wrist_1_joint, wrist_2_joint,","[1.6483795642852783, -1.1333377997027796, 2.388895273208618, -2.801361862813131, -1.568108383809225, 2.2434675693511963]","[0.0, 0.0, -0.0, 0.0, -1.917476038215682e-05, 0.002837864449247718]","[-0.0640869215130806, -3.890991687774658, -1.7015341520309448, -0.7424469590187073, 0.2579498589038849, 0.0]"
1584450965014301495,,1134140,,1584450965,13889305,'',"[shoulder_pan_joint, shoulder_lift_joint, elbow_joint, wrist_1_joint, wrist_2_joint,","[1.6483795642852783, -1.133362118397848, 2.3889312744140625, -2.8014095465289515, -1.5680726210223597, 2.2436349391937256]","[0.0, 0.0, -0.0, 0.0, -1.917476038215682e-05, 0.0021667478140443563]","[-0.1190185695886612, -4.005432605743408, -1.7060178518295288, -0.7379608750343323, 0.2557068169116974, 0.1031799390912056]"
1584450965126196449,,1134154,,1584450965,125824714,'',"[shoulder_pan_joint, shoulder_lift_joint, elbow_joint, wrist_1_joint, wrist_2_joint,","[1.6483676433563232, -1.1333258787738245, 2.3889312744140625, -2.8013976255999964, -1.5680845419513147, 2.2438266277313232]","[0.0, 0.0, -0.0, 0.0, -1.917476038215682e-05, 0.0005368932615965605]","[-0.0961303785443306, -3.877258777618408, -1.6970505714416504, -0.7402039170265198, 0.2714081108570099, 0.0852356031537056]"
1584450965238236582,,1134168,,1584450965,237784688,'',"[shoulder_pan_joint, shoulder_lift_joint, elbow_joint, wrist_1_joint, wrist_2_joint,","[1.6483795642852783, -1.133385960255758, 2.3889312744140625, -2.8014095465289515, -1.5680964628802698, 2.243838310241699]","[0.0, 0.0, -0.0, 0.0, -1.917476038215682e-05, 0.00036432043998502195]","[-0.0549316480755806, -3.991699695587158, -1.690325140953064, -0.7334747910499573, 0.2422485649585724, 0.0897216871380806]"
1584450965350121226,,1134182,,1584450965,349772004,'',"[shoulder_pan_joint, shoulder_lift_joint, elbow_joint, wrist_1_joint, wrist_2_joint,","[1.6483556032180786, -1.1333258787738245, 2.3889074325561523, -2.8013737837420862, -1.568108383809225, 2.2438502311706543]","[0.0, 0.0, -0.0, 0.0, 0.0, 0.00017257283616345376]","[-0.0778198316693306, -3.968811511993408, -1.7105014324188232, -0.7402039170265198, 0.2534637749195099, 0.0829925611615181]"
1584450965462475277,,1134196,,1584450965,461897287,'',"[shoulder_pan_joint, shoulder_lift_joint, elbow_joint, wrist_1_joint, wrist_2_joint,","[1.6483556032180786, -1.133362118397848, 2.3889312744140625, -2.8013857046710413, -1.5680964628802698, 2.2438502311706543]","[0.0, 0.0, -0.0, 0.0, 0.0, 9.58738019107841e-05]","[-0.0823974683880806, -3.904724597930908, -1.7060178518295288, -0.7469330430030823, 0.2758941948413849, 0.0897216871380806]"
1584450965574196024,,1134210,,1584450965,573778865,'',"[shoulder_pan_joint, shoulder_lift_joint, elbow_joint, wrist_1_joint, wrist_2_joint,","[1.6483795642852783, -1.133362118397848, 2.388895273208618, -2.8014453093158167, -1.5680964628802698, 2.2438502311706543]","[0.0, 0.0, -0.0, 0.0, 0.0, 7.669904152862728e-05]","[-0.0640869215130806, -3.973389148712158, -1.7037760019302368, -0.7379608750343323, 0.2557068169116974, 0.0874786451458931]"
1584450965686193629,,1134224,,1584450965,685769086,'',"[shoulder_pan_joint, shoulder_lift_joint, elbow_joint, wrist_1_joint, wrist_2_joint,","[1.6483676433563232, -1.133362118397848, 2.388895273208618, -2.8013857046710413, -1.5680964628802698, 2.243838310241699]","[0.0, 0.0, -0.0, 0.0, 0.0, 5.752428114647046e-05]","[-0.0411987341940403, -3.936768054962158, -1.7037760019302368, -0.7379608750343323, 0.2422485649585724, 0.0807495191693306]"
1584450965798216642,,1134238,,1584450965,797821984,'',"[shoulder_pan_joint, shoulder_lift_joint, elbow_joint, wrist_1_joint, wrist_2_joint,","[1.6483795642852783, -1.1333377997027796, 2.3889193534851074, -2.8013737837420862, -1.56812030473818, 2.2438623905181885]","[0.0, 0.0, -0.0, 0.0, 0.0, 3.834952076431364e-05]","[-0.1052856519818306, -3.900146961212158, -1.7172268629074097, -0.7379608750343323, 0.2557068169116974, 0.0874786451458931]"
1584450965910345451,,1134252,,1584450965,909847110,'',"[shoulder_pan_joint, shoulder_lift_joint, elbow_joint, wrist_1_joint, wrist_2_joint,","[1.6484155654907227, -1.133385960255758, 2.3889193534851074, -2.8013857046710413, -1.568132225667135, 2.2432758808135986]","[0.0, 0.0, -0.0, 0.0, 0.0, -0.0262310728430748]","[-0.0595092847943306, -3.964233875274658, -1.6992924213409424, -0.7402039170265198, 0.2691650688648224, -0.3072967827320099]"
1584450966022450827,,1134266,,1584450966,21908083,'',"[shoulder_pan_joint, shoulder_lift_joint, elbow_joint, wrist_1_joint, wrist_2_joint,","[1.6483795642852783, -1.1333497206317347, 2.3889434337615967, -2.8013857046710413, -1.5680964628802698, 2.2312204837799072]","[0.0, 0.0, -0.0, 0.0, 0.0, -0.1938759982585907]","[-0.0640869215130806, -3.982544422149658, -1.7015341520309448, -0.7334747910499573, 0.2714081108570099, -0.4553375840187073]"
1584450966134227640,,1134280,,1584450966,133787317,'',"[shoulder_pan_joint, shoulder_lift_joint, elbow_joint, wrist_1_joint, wrist_2_joint,","[1.6483795642852783, -1.1333258787738245, 2.3889074325561523, -2.8013857046710413, -1.568108383809225, 2.2085111141204834]","[0.0, 0.0, -0.0, 0.0, 0.0, -0.20131580531597137]","[-0.0457763709127903, -4.010010242462158, -1.688083291053772, -0.7424469590187073, 0.2624359428882599, -0.4441223740577698]"
1584450966246327535,,1134294,,1584450966,245825578,'',"[shoulder_pan_joint, shoulder_lift_joint, elbow_joint, wrist_1_joint, wrist_2_joint,","[1.6483676433563232, -1.1333258787738245, 2.3889434337615967, -2.8013737837420862, -1.568132225667135, 2.186016798019409]","[0.0, 0.0, -0.0, 0.0, 0.0, -0.20290730893611908]","[-0.0686645582318306, -4.014587879180908, -1.7060178518295288, -0.7469330430030823, 0.2534637749195099, -0.5697327256202698]"
1584450966358215686,,1134308,,1584450966,357803576,'',"[shoulder_pan_joint, shoulder_lift_joint, elbow_joint, wrist_1_joint, wrist_2_joint,","[1.648391604423523, -1.133362118397848, 2.3889074325561523, -2.8013857046710413, -1.5681560675250452, 2.163606882095337]","[0.0, 0.0, -0.0, 0.0, 0.0, -0.2015267312526703]","[-0.0457763709127903, -3.895569324493408, -1.7105014324188232, -0.7424469590187073, 0.2467346489429474, -0.4037475883960724]"
1584450966470206207,,1134322,,1584450966,469801391,'',"[shoulder_pan_joint, shoulder_lift_joint, elbow_joint, wrist_1_joint, wrist_2_joint,","[1.6483795642852783, -1.1333258787738245, 2.3889434337615967, -2.8013737837420862, -1.568132225667135, 2.141268014907837]","[0.0, 0.0, -0.0, 0.0, 0.0, -0.20035706460475922]","[-0.0549316480755806, -4.005432605743408, -1.7060178518295288, -0.7446900010108948, 0.2781372368335724, -0.6056213974952698]"
1584450966582263473,,1134336,,1584450966,581802402,'',"[shoulder_pan_joint, shoulder_lift_joint, elbow_joint, wrist_1_joint, wrist_2_joint,","[1.6483795642852783, -1.1333497206317347, 2.3889553546905518, -2.801349465047018, -1.56812030473818, 2.1187024116516113]","[0.0, 0.0, -0.0, 0.0, 0.0, -0.20041459798812866]","[-0.0457763709127903, -3.977966785430908, -1.7082595825195312, -0.7469330430030823, 0.2579498589038849, -0.4598236680030823]"
1584450966694198110,,1134350,,1584450966,693788846,'',"[shoulder_pan_joint, shoulder_lift_joint, elbow_joint, wrist_1_joint, wrist_2_joint,","[1.648391604423523, -1.1333258787738245, 2.3889553546905518, -2.8013857046710413, -1.568132225667135, 2.0963521003723145]","[0.0, 0.0, -0.0, 0.0, 0.0, -0.19621531665325165]","[-0.0686645582318306, -4.069519519805908, -1.7172268629074097, -0.7559052109718323, 0.2758941948413849, -0.5630035996437073]"
1584450966806150671,,1134364,,1584450966,805745304,'',"[shoulder_pan_joint, shoulder_lift_joint, elbow_joint, wrist_1_joint, wrist_2_joint,","[1.6483795642852783, -1.1333258787738245, 2.3889434337615967, -2.801337544118063, -1.568108383809225, 2.0739901065826416]","[0.0, 0.0, -0.0, 0.0, 0.0, -0.2008364349603653]","[-0.0778198316693306, -4.037476062774658, -1.7082595825195312, -0.7738495469093323, 0.2624359428882599, -0.4127197563648224]"
1584450966918255456,,1134378,,1584450966,917783935,'',"[shoulder_pan_joint, shoulder_lift_joint, elbow_joint, wrist_1_joint, wrist_2_joint,","[1.6483556032180786, -1.1333377997027796, 2.388967752456665, -2.8013737837420862, -1.568108383809225, 2.0515198707580566]","[0.0, 0.0, -0.0, 0.0, 0.0, -0.20028036832809448]","[-0.0595092847943306, -4.005432605743408, -1.7172268629074097, -0.8097382187843323, 0.2758941948413849, -0.4665527939796448]"
1584450967030194591,,1134392,,1584450967,29762244,'',"[shoulder_pan_joint, shoulder_lift_joint, elbow_joint, wrist_1_joint, wrist_2_joint,","[1.6483676433563232, -1.1333377997027796, 2.388967752456665, -2.801349465047018, -1.568108383809225, 2.0291693210601807]","[0.0, 0.0, -0.0, 0.0, 0.0, -0.20006944239139557]","[-0.0823974683880806, -4.028320789337158, -1.7149850130081177, -0.868057370185852, 0.2534637749195099, -0.5764618515968323]"
1584450967142112748,,1134406,,1584450967,141737177,'',"[shoulder_pan_joint, shoulder_lift_joint, elbow_joint, wrist_1_joint, wrist_2_joint,","[1.6483676433563232, -1.1333377997027796, 2.38897967338562, -2.801361862813131, -1.5680845419513147, 2.0067591667175293]","[0.0, 0.0, -0.0, 0.0, 0.0, -0.20089396834373474]","[-0.0778198316693306, -3.968811511993408, -1.7149850130081177, -0.863571286201477, 0.2467346489429474, -0.4082336723804474]"
1584450967254294406,,1134420,,1584450967,253770388,'',"[shoulder_pan_joint, shoulder_lift_joint, elbow_joint, wrist_1_joint, wrist_2_joint,","[1.648391604423523, -1.1333258787738245, 2.388967752456665, -2.8013737837420862, -1.5680363813983362, 1.9843367338180542]","[0.0, 0.0, -0.0, 0.0, 0.0, -0.20028036832809448]","[-0.0778198316693306, -3.996277332305908, -1.7082595825195312, -0.8703004121780396, 0.2512207329273224, -0.6078644394874573]"
1584450967365966944,,1134434,,1584450967,365642569,'',"[shoulder_pan_joint, shoulder_lift_joint, elbow_joint, wrist_1_joint, wrist_2_joint,","[1.6483795642852783, -1.1333735624896448, 2.3889193534851074, -2.8014214674579065, -1.5680244604693812, 1.9625850915908813]","[0.0, 0.0, -0.0, 0.0, 0.0, -0.15947647392749786]","[-0.1327514797449112, -4.032898426055908, -1.7149850130081177, -0.8613282442092896, 0.2377624809741974, -0.4957123398780823]"
1584450967478250263,,1134448,,1584450967,477822984,'',"[shoulder_pan_joint, shoulder_lift_joint, elbow_joint, wrist_1_joint, wrist_2_joint,","[1.6484036445617676, -1.1333497206317347, 2.388883352279663, -2.80148154893984, -1.568000618611471, 1.9546477794647217]","[0.0, 0.0, -0.0, -0.00013422331539914012, 0.0, 0.0011696603614836931]","[-0.1190185695886612, -4.074097156524658, -1.7037760019302368, -0.8545990586280823, 0.1996307522058487, -0.0807495191693306]"
1584450967590012758,,1134462,,1584450967,589665579,'',"[shoulder_pan_joint, shoulder_lift_joint, elbow_joint, wrist_1_joint, wrist_2_joint,","[1.6484155654907227, -1.133362118397848, 2.388883352279663, -2.8015053907977503, -1.568012539540426, 1.9548035860061646]","[0.0, 0.0, -0.0, -0.00013422331539914012, 0.0, 0.002320145955309272]","[-0.0686645582318306, -3.950500965118408, -1.692566990852356, -0.8590851426124573, 0.1009368970990181, 0.008972168900072575]"
1584450967702128534,,1134476,,1584450967,701719019,'',"[shoulder_pan_joint, shoulder_lift_joint, elbow_joint, wrist_1_joint, wrist_2_joint,","[1.6483676433563232, -1.1333497206317347, 2.3889434337615967, -2.8016489187823694, -1.5680726210223597, 1.9549592733383179]","[0.0, 0.0, -0.0, -0.004716990981251001, -0.0012655341997742653, 0.0011696603614836931]","[-0.0869751051068306, -3.895569324493408, -1.6992924213409424, -0.7962799668312073, 0.0358886756002903, 0.0314025916159153]"
1584450967814138381,,1134490,,1584450967,813727704,'',"[shoulder_pan_joint, shoulder_lift_joint, elbow_joint, wrist_1_joint, wrist_2_joint,","[1.6483795642852783, -1.133362118397848, 2.3889193534851074, -2.8016966024981897, -1.5680845419513147, 1.9549832344055176]","[0.0, 0.0, -0.0, -0.00028762139845639467, -0.00032597093377262354, 0.00024927189224399626]","[-0.0640869215130806, -3.968811511993408, -1.692566990852356, -0.7446900010108948, 0.0650482252240181, 0.0426178015768528]"
1584450967926058591,,1134504,,1584450967,925680936,'',"[shoulder_pan_joint, shoulder_lift_joint, elbow_joint, wrist_1_joint, wrist_2_joint,","[1.6484036445617676, -1.1333377997027796, 2.388883352279663, -2.8016846815692347, -1.568132225667135, 1.9549713134765625]","[0.0, 0.0, -0.0, -0.00015339808305725455, -0.00015339808305725455, 0.00013422331539914012]","[-0.0869751051068306, -4.051208972930908, -1.7105014324188232, -0.6302948594093323, 0.0493469275534153, 0.0381317175924778]"
1584450968038152576,,1134518,,1584450968,37731951,'',"[shoulder_pan_joint, shoulder_lift_joint, elbow_joint, wrist_1_joint, wrist_2_joint,","[1.6484036445617676, -1.133362118397848, 2.3889074325561523, -2.8016608397113245, -1.56812030473818, 1.9550188779830933]","[0.0, 0.0, -0.0, 0.00023009712458588183, -9.58738019107841e-05, 9.58738019107841e-05]","[-0.0823974683880806, -3.955078601837158, -1.7015341520309448, -0.4912262558937073, 0.0560760572552681, 0.0381317175924778]"
1584450968150139311,,1134532,,1584450968,149658933,'',"[shoulder_pan_joint, shoulder_lift_joint, elbow_joint, wrist_1_joint, wrist_2_joint,","[1.6484036445617676, -1.1333258787738245, 2.388871431350708, -2.8015530745135706, -1.5680964628802698, 1.9550188779830933]","[0.0, 0.0, -0.0, 0.012501943856477737, -7.669904152862728e-05, 5.752428114647046e-05]","[-0.0640869215130806, -4.028320789337158, -1.6970505714416504, -0.3544006645679474, 0.0583190992474556, 0.0426178015768528]"
1584450968262076943,,1134546,,1584450968,261660125,'',"[shoulder_pan_joint, shoulder_lift_joint, elbow_joint, wrist_1_joint, wrist_2_joint,","[1.6483795642852783, -1.1333377997027796, 2.388883352279663, -2.8013737837420862, -1.5680845419513147, 1.9550188779830933]","[0.0, 0.0, -0.0, 0.00032597093377262354, -5.752428114647046e-05, 5.752428114647046e-05]","[-0.0778198316693306, -3.913879871368408, -1.7015341520309448, -0.4800110459327698, 0.0672912672162056, 0.0381317175924778]"
1584450968374125433,,1134560,,1584450968,373728191,'',"[shoulder_pan_joint, shoulder_lift_joint, elbow_joint, wrist_1_joint, wrist_2_joint,","[1.6483795642852783, -1.1333497206317347, 2.3889312744140625, -2.8013857046710413, -1.568108383809225, 1.9550068378448486]","[0.0, 0.0, -0.0, 0.00015339808305725455, -3.834952076431364e-05, 3.834952076431364e-05]","[-0.0869751051068306, -3.959656238555908, -1.6948087215423584, -0.4643097519874573, 0.0628051832318306, 0.0403747595846653]"
1584450968486108931,,1134574,,1584450968,485660284,'',"[shoulder_pan_joint, shoulder_lift_joint, elbow_joint, wrist_1_joint, wrist_2_joint,","[1.648391604423523, -1.1333497206317347, 2.3889074325561523, -2.801361862813131, -1.568108383809225, 1.9550548791885376]","[0.0, 0.0, -0.0, 9.58738019107841e-05, -3.834952076431364e-05, 3.834952076431364e-05]","[-0.0686645582318306, -3.977966785430908, -1.6992924213409424, -0.4755249619483948, 0.0650482252240181, 0.0426178015768528]"
1584450968598146280,,1134588,,1584450968,597698865,'',"[shoulder_pan_joint, shoulder_lift_joint, elbow_joint, wrist_1_joint, wrist_2_joint,","[1.6483795642852783, -1.133362118397848, 2.388883352279663, -2.8013737837420862, -1.5680845419513147, 1.9547675848007202]","[0.0, 0.0, -0.0, 7.669904152862728e-05, -3.834952076431364e-05, -0.013671603985130787]","[-0.0595092847943306, -3.913879871368408, -1.6858415603637695, -0.4755249619483948, 0.0628051832318306, -0.3454284965991974]"
1584450968710251005,,1134602,,1584450968,709763545,'',"[shoulder_pan_joint, shoulder_lift_joint, elbow_joint, wrist_1_joint, wrist_2_joint,","[1.6483795642852783, -1.1333258787738245, 2.388895273208618, -2.801349465047018, -1.56812030473818, 1.9453940391540527]","[0.0, 0.0, -0.0, 5.752428114647046e-05, -1.917476038215682e-05, -0.1707128882408142]","[-0.0595092847943306, -4.023743152618408, -1.6948087215423584, -0.4732819199562073, 0.0583190992474556, -0.3723450005054474]"
1584450968822175784,,1134616,,1584450968,821717127,'',"[shoulder_pan_joint, shoulder_lift_joint, elbow_joint, wrist_1_joint, wrist_2_joint,","[1.6484036445617676, -1.133362118397848, 2.388883352279663, -2.801337544118063, -1.5680845419513147, 1.9230310916900635]","[0.0, 0.0, -0.0, 3.834952076431364e-05, -1.917476038215682e-05, -0.19974347949028015]","[-0.0915527418255806, -3.991699695587158, -1.6813578605651855, -0.5136566758155823, 0.0583190992474556, -0.5899201035499573]"
1584450968934043696,,1134630,,1584450968,933639391,'',"[shoulder_pan_joint, shoulder_lift_joint, elbow_joint, wrist_1_joint, wrist_2_joint,","[1.6483676433563232, -1.1333497206317347, 2.3889074325561523, -2.801361862813131, -1.5680602232562464, 1.9005131721496582]","[0.0, 0.0, -0.0, 1.917476038215682e-05, -1.917476038215682e-05, -0.19932162761688232]","[-0.0778198316693306, -3.923035144805908, -1.679116129875183, -0.5764618515968323, 0.0583190992474556, -0.4867401719093323]"
1584450969046203164,,1134644,,1584450969,45746501,'',"[shoulder_pan_joint, shoulder_lift_joint, elbow_joint, wrist_1_joint, wrist_2_joint,","[1.6484155654907227, -1.1333735624896448, 2.388883352279663, -2.801361862813131, -1.5680726210223597, 1.8780666589736938]","[0.0, 0.0, -0.0, 1.917476038215682e-05, -1.917476038215682e-05, -0.19849711656570435]","[-0.0778198316693306, -3.945923328399658, -1.6813578605651855, -0.5652466416358948, 0.0538330152630806, -0.4979553818702698]"
1584450969158077728,,1134658,,1584450969,157698510,'',"[shoulder_pan_joint, shoulder_lift_joint, elbow_joint, wrist_1_joint, wrist_2_joint,","[1.6483795642852783, -1.133385960255758, 2.388871431350708, -2.8014095465289515, -1.568012539540426, 1.8556913137435913]","[0.0, 0.0, -0.0, 1.917476038215682e-05, -1.917476038215682e-05, -0.20131580531597137]","[-0.0595092847943306, -3.982544422149658, -1.690325140953064, -0.5585175156593323, 0.0403747595846653, -0.4755249619483948]"
1584450969270292569,,1134672,,1584450969,269827861,'',"[shoulder_pan_joint, shoulder_lift_joint, elbow_joint, wrist_1_joint, wrist_2_joint,","[1.6483795642852783, -1.1333497206317347, 2.3888590335845947, -2.8014333883868616, -1.5680602232562464, 1.8332445621490479]","[0.0, 0.0, -0.0, 1.917476038215682e-05, -1.917476038215682e-05, -0.1993599832057953]","[-0.0595092847943306, -3.945923328399658, -1.679116129875183, -0.5607605576515198, -0.02243042178452015, -0.5203858017921448]"
1584450969382082897,,1134686,,1584450969,381691786,'',"[shoulder_pan_joint, shoulder_lift_joint, elbow_joint, wrist_1_joint, wrist_2_joint,","[1.6484155654907227, -1.1333258787738245, 2.3888471126556396, -2.8014333883868616, -1.568012539540426, 1.8108216524124146]","[0.0, 0.0, -0.0, 1.917476038215682e-05, -0.0004793690168298781, -0.19997356832027435]","[-0.0778198316693306, -3.964233875274658, -1.6634234189987183, -0.5562744736671448, -0.0986938551068306, -0.5001984238624573]"
1584450969494320620,,1134700,,1584450969,493788546,'',"[shoulder_pan_joint, shoulder_lift_joint, elbow_joint, wrist_1_joint, wrist_2_joint,","[1.6484036445617676, -1.1333735624896448, 2.3888471126556396, -2.8014095465289515, -1.5680726210223597, 1.7884583473205566]","[0.0, 0.0, -0.0, 1.917476038215682e-05, -0.0011888351291418076, -0.20112405717372894]","[-0.0595092847943306, -3.945923328399658, -1.6253126859664917, -0.5585175156593323, -0.1772003322839737, -0.4486084580421448]"
1584450969606133339,,1134714,,1584450969,605727912,'',"[shoulder_pan_joint, shoulder_lift_joint, elbow_joint, wrist_1_joint, wrist_2_joint,","[1.6484155654907227, -1.1333735624896448, 2.3888351917266846, -2.8014453093158167, -1.5680845419513147, 1.7661426067352295]","[0.0, 0.0, -0.0, 1.917476038215682e-05, -0.00032597093377262354, -0.1992449313402176]","[-0.1052856519818306, -3.950500965118408, -1.5849601030349731, -0.5607605576515198, -0.1457977443933487, -0.5428162217140198]"
1584450969718006542,,1134728,,1584450969,717618918,'',"[shoulder_pan_joint, shoulder_lift_joint, elbow_joint, wrist_1_joint, wrist_2_joint,","[1.6484036445617676, -1.133362118397848, 2.3888471126556396, -2.8014214674579065, -1.568108383809225, 1.74362313747406]","[0.0, 0.0, -0.0, 1.917476038215682e-05, -0.00015339808305725455, -0.2017376571893692]","[-0.1052856519818306, -3.982544422149658, -1.450451374053955, -0.5697327256202698, -0.1480407863855362, -0.4530945420265198]"
1584450969830041847,,1134742,,1584450969,829671695,'',"[shoulder_pan_joint, shoulder_lift_joint, elbow_joint, wrist_1_joint, wrist_2_joint,","[1.6484276056289673, -1.133362118397848, 2.3888590335845947, -2.8014333883868616, -1.5680845419513147, 1.7212231159210205]","[0.0, 0.0, -0.0, 1.917476038215682e-05, -9.58738019107841e-05, -0.19895730912685394]","[-0.1327514797449112, -3.923035144805908, -1.3406027555465698, -0.5764618515968323, -0.1614990383386612, -0.5764618515968323]"
1584450969942089655,,1134756,,1584450969,941640667,'',"[shoulder_pan_joint, shoulder_lift_joint, elbow_joint, wrist_1_joint, wrist_2_joint,","[1.6484036445617676, -1.133362118397848, 2.388883352279663, -2.8014214674579065, -1.5680726210223597, 1.6988946199417114]","[0.0, 0.0, -0.0, 1.917476038215682e-05, -7.669904152862728e-05, -0.20028036832809448]","[-0.0595092847943306, -3.991699695587158, -1.181434154510498, -0.5585175156593323, -0.1682281643152237, -0.4844971299171448]"
1584450970054058476,,1134770,,1584450970,53662898,'',"[shoulder_pan_joint, shoulder_lift_joint, elbow_joint, wrist_1_joint, wrist_2_joint,","[1.648391604423523, -1.1333377997027796, 2.388871431350708, -2.8014214674579065, -1.5680964628802698, 1.6764346361160278]","[0.0, 0.0, -0.0, 1.917476038215682e-05, -5.752428114647046e-05, -0.19769178330898285]","[-0.0915527418255806, -4.005432605743408, -1.1747087240219116, -0.5517883896827698, -0.1570129543542862, -0.5719757676124573]"
1584450970166250404,,1134784,,1584450970,165703743,'',"[shoulder_pan_joint, shoulder_lift_joint, elbow_joint, wrist_1_joint, wrist_2_joint,","[1.648391604423523, -1.133385960255758, 2.388871431350708, -2.8014333883868616, -1.5680845419513147, 1.6541062593460083]","[0.0, 0.0, -0.0, 1.917476038215682e-05, -3.834952076431364e-05, -0.2008172571659088]","[-0.0732421949505806, -3.959656238555908, -1.1881595849990845, -0.5607605576515198, -0.1749572902917862, -0.5024414658546448]"
1584450970278101745,,1134798,,1584450970,277683174,'',"[shoulder_pan_joint, shoulder_lift_joint, elbow_joint, wrist_1_joint, wrist_2_joint,","[1.6484155654907227, -1.1333377997027796, 2.3888590335845947, -2.8014453093158167, -1.568108383809225, 1.6315616369247437]","[0.0, 0.0, -0.0, 1.917476038215682e-05, -3.834952076431364e-05, -0.20062552392482758]","[-0.1052856519818306, -3.968811511993408, -1.18367600440979, -0.5585175156593323, -0.1839294582605362, -0.5158997178077698]"
1584450970390018119,,1134812,,1584450970,389607752,'',"[shoulder_pan_joint, shoulder_lift_joint, elbow_joint, wrist_1_joint, wrist_2_joint,","[1.6484036445617676, -1.133362118397848, 2.3888590335845947, -2.801469628010885, -1.5680845419513147, 1.6101664304733276]","[0.0, 0.0, -0.0, 1.917476038215682e-05, -3.834952076431364e-05, -0.14789491891860962]","[-0.1098632961511612, -3.968811511993408, -1.18367600440979, -0.5607605576515198, -0.1637420803308487, -0.5181427597999573]"
1584450970502249820,,1134826,,1584450970,501712908,'',"[shoulder_pan_joint, shoulder_lift_joint, elbow_joint, wrist_1_joint, wrist_2_joint,","[1.6484036445617676, -1.1333377997027796, 2.388871431350708, -2.8014095465289515, -1.568108383809225, 1.6034855842590332]","[0.0, 0.0, -0.0, 1.917476038215682e-05, -1.917476038215682e-05, 0.009549031034111977]","[-0.1007080152630806, -3.955078601837158, -1.197126865386963, -0.5697327256202698, -0.1884155422449112, -0.01794433780014515]"
1584450970613995936,,1134840,,1584450970,613597422,'',"[shoulder_pan_joint, shoulder_lift_joint, elbow_joint, wrist_1_joint, wrist_2_joint,","[1.648391604423523, -1.1333735624896448, 2.388883352279663, -2.8013976255999964, -1.568108383809225, 1.6036893129348755]","[0.0, 0.0, -0.0, 1.917476038215682e-05, -1.917476038215682e-05, 0.0016873788554221392]","[-0.0640869215130806, -3.932190418243408, -1.1567742824554443, -0.5652466416358948, -0.1906585842370987, 0.0695343092083931]"
1584450970726072177,,1134854,,1584450970,725672811,'',"[shoulder_pan_joint, shoulder_lift_joint, elbow_joint, wrist_1_joint, wrist_2_joint,","[1.6484155654907227, -1.133385960255758, 2.3888590335845947, -2.8014453093158167, -1.5680964628802698, 1.6037851572036743]","[0.0, 0.0, -0.0, 1.917476038215682e-05, -1.917476038215682e-05, 0.0003834952076431364]","[-0.0595092847943306, -3.996277332305908, -1.1702251434326172, -0.5630035996437073, -0.1816864162683487, 0.0515899695456028]"
1584450970838020971,,1134868,,1584450970,837585888,'',"[shoulder_pan_joint, shoulder_lift_joint, elbow_joint, wrist_1_joint, wrist_2_joint,","[1.6484036445617676, -1.1333735624896448, 2.388883352279663, -2.8014453093158167, -1.5680845419513147, 1.603797197341919]","[0.0, 0.0, -0.0, 0.0, -1.917476038215682e-05, 0.00017257283616345376]","[-0.0915527418255806, -4.042053699493408, -1.1433234214782715, -0.5585175156593323, -0.1749572902917862, 0.0358886756002903]"
1584450970950140864,,1134882,,1584450970,949627666,'',"[shoulder_pan_joint, shoulder_lift_joint, elbow_joint, wrist_1_joint, wrist_2_joint,","[1.648391604423523, -1.1333735624896448, 2.388883352279663, -2.8014333883868616, -1.5680964628802698, 1.6037611961364746]","[0.0, 0.0, -0.0, 0.0, -1.917476038215682e-05, 7.669904152862728e-05]","[-0.1098632961511612, -3.900146961212158, -1.1747087240219116, -0.5630035996437073, -0.1727142482995987, -0.1099090725183487]"
1584450971062001263,,1134896,,1584450971,61610342,'',"[shoulder_pan_joint, shoulder_lift_joint, elbow_joint, wrist_1_joint, wrist_2_joint,","[1.648391604423523, -1.133362118397848, 2.3888590335845947, -2.8013976255999964, -1.5680964628802698, 1.5988398790359497]","[0.0, 0.0, -0.0, 0.0, -1.917476038215682e-05, -0.119631327688694]","[-0.0961303785443306, -4.051208972930908, -1.181434154510498, -0.5630035996437073, -0.1839294582605362, -0.4149627983570099]"
1584450971174029284,,1134910,,1584450971,173585635,'',"[shoulder_pan_joint, shoulder_lift_joint, elbow_joint, wrist_1_joint, wrist_2_joint,","[1.6484155654907227, -1.133362118397848, 2.388895273208618, -2.8014095465289515, -1.568108383809225, 1.5783426761627197]","[0.0, 0.0, -0.0, 0.0, -1.917476038215682e-05, -0.20377017557621002]","[-0.0915527418255806, -3.959656238555908, -1.1904014348983765, -0.5652466416358948, -0.1772003322839737, -0.6145935654640198]"
1584450971286116607,,1134924,,1584450971,285648282,'',"[shoulder_pan_joint, shoulder_lift_joint, elbow_joint, wrist_1_joint, wrist_2_joint,","[1.6484036445617676, -1.133362118397848, 2.388895273208618, -2.8014095465289515, -1.5680726210223597, 1.5555816888809204]","[0.0, 0.0, -0.0, 0.0, -1.917476038215682e-05, -0.20202527940273285]","[-0.0869751051068306, -3.987122058868408, -1.1679832935333252, -0.5652466416358948, -0.1839294582605362, -0.4284210503101349]"
1584450971397956306,,1134938,,1584450971,397540710,'',"[shoulder_pan_joint, shoulder_lift_joint, elbow_joint, wrist_1_joint, wrist_2_joint,","[1.6483795642852783, -1.133362118397848, 2.388871431350708, -2.8014453093158167, -1.5680845419513147, 1.5332152843475342]","[0.0, 0.0, -0.0, 0.0, 0.0, -0.19985853135585785]","[-0.0915527418255806, -3.941345691680908, -1.1679832935333252, -0.5562744736671448, -0.1794433742761612, -0.6437531113624573]"
1584450971510064287,,1134952,,1584450971,509635105,'',"[shoulder_pan_joint, shoulder_lift_joint, elbow_joint, wrist_1_joint, wrist_2_joint,","[1.6484036445617676, -1.133362118397848, 2.388883352279663, -2.8014453093158167, -1.5680726210223597, 1.5107415914535522]","[0.0, 0.0, -0.0, 0.0, 0.0, -0.20271556079387665]","[-0.1052856519818306, -4.000854969024658, -1.1590160131454468, -0.5630035996437073, -0.1772003322839737, -0.4530945420265198]"
1584450971622095775,,1134966,,1584450971,621692532,'',"[shoulder_pan_joint, shoulder_lift_joint, elbow_joint, wrist_1_joint, wrist_2_joint,","[1.6484155654907227, -1.1333497206317347, 2.3889074325561523, -2.8014333883868616, -1.5680845419513147, 1.4883153438568115]","[0.0, 0.0, -0.0, 0.0, 0.0, -0.19813279807567596]","[-0.1144409328699112, -3.941345691680908, -1.1590160131454468, -0.5585175156593323, -0.1884155422449112, -0.5854340195655823]"
1584450971733999995,,1134980,,1584450971,733584049,'',"[shoulder_pan_joint, shoulder_lift_joint, elbow_joint, wrist_1_joint, wrist_2_joint,","[1.6484155654907227, -1.1333377997027796, 2.388871431350708, -2.8014333883868616, -1.5680964628802698, 1.4659721851348877]","[0.0, 0.0, -0.0, 0.0, 0.0, -0.19755755364894867]","[-0.0823974683880806, -4.014587879180908, -1.1657414436340332, -0.5674896836280823, -0.1929016262292862, -0.5181427597999573]"
1584450971845924493,,1134994,,1584450971,845531990,'',"[shoulder_pan_joint, shoulder_lift_joint, elbow_joint, wrist_1_joint, wrist_2_joint,","[1.6484276056289673, -1.1333258787738245, 2.388871431350708, -2.8014095465289515, -1.5680845419513147, 1.4435452222824097]","[0.0, 0.0, -0.0, 0.0, 0.0, -0.19937916100025177]","[-0.1052856519818306, -3.991699695587158, -1.1612578630447388, -0.5652466416358948, -0.2041168361902237, -0.4755249619483948]"
1584450971957926637,,1135008,,1584450971,957517924,'',"[shoulder_pan_joint, shoulder_lift_joint, elbow_joint, wrist_1_joint, wrist_2_joint,","[1.6484155654907227, -1.1333377997027796, 2.388883352279663, -2.8014095465289515, -1.5680845419513147, 1.4211534261703491]","[0.0, 0.0, -0.0, 0.0, 0.0, -0.20006944239139557]","[-0.0778198316693306, -3.890991687774658, -1.1724668741226196, -0.5652466416358948, -0.1951446682214737, -0.5001984238624573]"
1584450972070009451,,1135022,,1584450972,69540505,'',"[shoulder_pan_joint, shoulder_lift_joint, elbow_joint, wrist_1_joint, wrist_2_joint,","[1.6484155654907227, -1.1333497206317347, 2.3888590335845947, -2.8014095465289515, -1.5680845419513147, 1.398893117904663]","[0.0, 0.0, -0.0, 0.0, 0.0, -0.2008364349603653]","[-0.0732421949505806, -3.927612781524658, -1.1679832935333252, -0.5630035996437073, -0.1929016262292862, -0.4800110459327698]"
1584450972181759683,,1135036,,1584450972,181476414,'',"[shoulder_pan_joint, shoulder_lift_joint, elbow_joint, wrist_1_joint, wrist_2_joint,","[1.6484036445617676, -1.133362118397848, 2.3889074325561523, -2.8014214674579065, -1.5680964628802698, 1.3764770030975342]","[0.0, 0.0, -0.0, 0.0, 0.0, -0.19951337575912476]","[-0.1007080152630806, -3.982544422149658, -1.1657414436340332, -0.5652466416358948, -0.2512207329273224, -0.5338440537452698]"
1584450972293779690,,1135050,,1584450972,293495419,'',"[shoulder_pan_joint, shoulder_lift_joint, elbow_joint, wrist_1_joint, wrist_2_joint,","[1.6484036445617676, -1.1334098021136683, 2.388871431350708, -2.8014333883868616, -1.568132225667135, 1.3540605306625366]","[0.0, 0.0, -0.0, 0.0, 0.0, -0.20206362009048462]","[-0.0732421949505806, -3.950500965118408, -1.1590160131454468, -0.5652466416358948, -0.2243042290210724, -0.3970184624195099]"
1584450972405834231,,1135064,,1584450972,405493445,'',"[shoulder_pan_joint, shoulder_lift_joint, elbow_joint, wrist_1_joint, wrist_2_joint,","[1.6484036445617676, -1.133362118397848, 2.388895273208618, -2.8014214674579065, -1.5680845419513147, 1.3317395448684692]","[0.0, 0.0, -0.0, 0.0, 0.0, -0.19905318319797516]","[-0.0961303785443306, -3.996277332305908, -1.1590160131454468, -0.5652466416358948, -0.2243042290210724, -0.6415100693702698]"
1584450972517925180,,1135078,,1584450972,517596005,'',"[shoulder_pan_joint, shoulder_lift_joint, elbow_joint, wrist_1_joint, wrist_2_joint,","[1.6484276056289673, -1.133385960255758, 2.388895273208618, -2.80145770708193, -1.5680726210223597, 1.3092982769012451]","[0.0, 0.0, -0.0, 0.0, 0.0, -0.20194856822490692]","[-0.0503540076315403, -3.923035144805908, -1.1657414436340332, -0.5607605576515198, -0.2422485649585724, -0.4844971299171448]"
1584450972629777754,,1135092,,1584450972,629464279,'',"[shoulder_pan_joint, shoulder_lift_joint, elbow_joint, wrist_1_joint, wrist_2_joint,","[1.6484155654907227, -1.1333377997027796, 2.388895273208618, -2.8014214674579065, -1.5680964628802698, 1.286868691444397]","[0.0, 0.0, -0.0, 0.0, 0.0, -0.19583182036876678]","[-0.1007080152630806, -3.913879871368408, -1.1612578630447388, -0.5607605576515198, -0.2310333549976349, -0.5383301377296448]"
1584450972741855018,,1135106,,1584450972,741460050,'',"[shoulder_pan_joint, shoulder_lift_joint, elbow_joint, wrist_1_joint, wrist_2_joint,","[1.6484036445617676, -1.1333497206317347, 2.388895273208618, -2.8014214674579065, -1.5680726210223597, 1.2644027471542358]","[0.0, 0.0, -0.0, 0.0, 0.0, -0.2001461535692215]","[-0.0915527418255806, -3.955078601837158, -1.1657414436340332, -0.5607605576515198, -0.2175751030445099, -0.4912262558937073]"
1584450972853826884,,1135120,,1584450972,853515903,'',"[shoulder_pan_joint, shoulder_lift_joint, elbow_joint, wrist_1_joint, wrist_2_joint,","[1.6484155654907227, -1.1333978811847132, 2.388883352279663, -2.8014095465289515, -1.5680845419513147, 1.2419960498809814]","[0.0, 0.0, -0.0, 0.0, 0.0, -0.19863134622573853]","[-0.0778198316693306, -3.996277332305908, -1.1747087240219116, -0.5674896836280823, -0.2287903130054474, -0.5719757676124573]"
1584450972965754428,,1135134,,1584450972,965452034,'',"[shoulder_pan_joint, shoulder_lift_joint, elbow_joint, wrist_1_joint, wrist_2_joint,","[1.6484036445617676, -1.1333497206317347, 2.388883352279663, -2.8013976255999964, -1.5680964628802698, 1.2285714149475098]","[0.0, 0.0, -0.0, 0.0, 0.0, -0.037218209356069565]","[-0.1052856519818306, -3.959656238555908, -1.1612578630447388, -0.5652466416358948, -0.2377624809741974, -0.4239349663257599]"
1584450973077805132,,1135148,,1584450973,77465117,'',"[shoulder_pan_joint, shoulder_lift_joint, elbow_joint, wrist_1_joint, wrist_2_joint,","[1.6484395265579224, -1.133385960255758, 2.3888590335845947, -2.8014095465289515, -1.5680964628802698, 1.2282958030700684]","[0.0, 0.0, -0.0, 0.0, 0.0, 0.001418932224623859]","[-0.1007080152630806, -4.051208972930908, -1.1657414436340332, -0.5540314316749573, -0.2444916069507599, -0.006729126907885075]"
1584450973189935765,,1135162,,1584450973,189471458,'',"[shoulder_pan_joint, shoulder_lift_joint, elbow_joint, wrist_1_joint, wrist_2_joint,","[1.6484036445617676, -1.1333497206317347, 2.388871431350708, -2.8014214674579065, -1.568108383809225, 1.2285834550857544]","[0.0, 0.0, -0.0, 0.0, 0.0, 0.004352670628577471]","[-0.1281738430261612, -3.955078601837158, -1.1679832935333252, -0.5607605576515198, -0.2512207329273224, -0.01345825381577015]"
1584450973301830097,,1135176,,1584450973,301445068,'',"[shoulder_pan_joint, shoulder_lift_joint, elbow_joint, wrist_1_joint, wrist_2_joint,","[1.6484036445617676, -1.1333497206317347, 2.3888590335845947, -2.8014453093158167, -1.5680964628802698, 1.228607416152954]","[0.0, 0.0, -0.0, 0.0, 0.0, 0.00028762139845639467]","[-0.0823974683880806, -3.904724597930908, -1.1567742824554443, -0.5697327256202698, -0.2422485649585724, 0.0291595496237278]"
1584450973413853450,,1135190,,1584450973,413454224,'',"[shoulder_pan_joint, shoulder_lift_joint, elbow_joint, wrist_1_joint, wrist_2_joint,","[1.6484276056289673, -1.133362118397848, 2.388883352279663, -2.8014453093158167, -1.56812030473818, 1.2285953760147095]","[0.0, 0.0, -0.0, 0.0, 0.0, 0.00013422331539914012]","[-0.0686645582318306, -4.037476062774658, -1.1769505739212036, -0.5607605576515198, -0.2287903130054474, 0.02243042178452015]"
1584450973526033336,,1135204,,1584450973,525542439,'',"[shoulder_pan_joint, shoulder_lift_joint, elbow_joint, wrist_1_joint, wrist_2_joint,","[1.648391604423523, -1.1333497206317347, 2.388883352279663, -2.8014333883868616, -1.568108383809225, 1.2286194562911987]","[0.0, 0.0, -0.0, 0.0, 0.0, 9.58738019107841e-05]","[-0.0869751051068306, -3.950500965118408, -1.1657414436340332, -0.5652466416358948, -0.2310333549976349, 0.0314025916159153]"
1584450973637783819,,1135218,,1584450973,637458832,'',"[shoulder_pan_joint, shoulder_lift_joint, elbow_joint, wrist_1_joint, wrist_2_joint,","[1.6484036445617676, -1.1333377997027796, 2.388871431350708, -2.8014214674579065, -1.5680964628802698, 1.2286434173583984]","[0.0, 0.0, -0.0, 0.0, 0.0, 7.669904152862728e-05]","[-0.1052856519818306, -3.968811511993408, -1.1657414436340332, -0.5585175156593323, -0.2489776909351349, 0.0291595496237278]"
1584450973749828230,,1135232,,1584450973,749414738,'',"[shoulder_pan_joint, shoulder_lift_joint, elbow_joint, wrist_1_joint, wrist_2_joint,","[1.6484155654907227, -1.133385960255758, 2.388883352279663, -2.8013976255999964, -1.5680964628802698, 1.2286434173583984]","[0.0, 0.0, -0.0, 0.0, 0.0, 5.752428114647046e-05]","[-0.1052856519818306, -3.932190418243408, -1.1634997129440308, -0.5607605576515198, -0.2377624809741974, 0.0269165076315403]"
1584450973861855341,,1135246,,1584450973,861430517,'',"[shoulder_pan_joint, shoulder_lift_joint, elbow_joint, wrist_1_joint, wrist_2_joint,","[1.6483795642852783, -1.1333978811847132, 2.3888590335845947, -2.8014214674579065, -1.5680845419513147, 1.2286194562911987]","[0.0, 0.0, -0.0, 0.0, 0.0, 3.834952076431364e-05]","[-0.0823974683880806, -3.973389148712158, -1.1590160131454468, -0.5652466416358948, -0.2422485649585724, 0.0314025916159153]"
1584450973973862132,,1135260,,1584450973,973446656,'',"[shoulder_pan_joint, shoulder_lift_joint, elbow_joint, wrist_1_joint, wrist_2_joint,","[1.648391604423523, -1.1333497206317347, 2.388883352279663, -2.8014214674579065, -1.5680964628802698, 1.228607416152954]","[0.0, 0.0, -0.0, 0.0, 0.0, 3.834952076431364e-05]","[-0.0823974683880806, -3.968811511993408, -1.1634997129440308, -0.5607605576515198, -0.2332763969898224, 0.0291595496237278]"
1584450974085862141,,1135274,,1584450974,85472273,'',"[shoulder_pan_joint, shoulder_lift_joint, elbow_joint, wrist_1_joint, wrist_2_joint,","[1.6484036445617676, -1.133362118397848, 2.388871431350708, -2.8013976255999964, -1.5680845419513147, 1.227170467376709]","[0.0, 0.0, -0.0, 0.0, 0.0, -0.050276219844818115]","[-0.0961303785443306, -3.996277332305908, -1.1567742824554443, -0.5562744736671448, -0.2400055229663849, -0.4216919243335724]"
1584450974197947981,,1135288,,1584450974,197497751,'',"[shoulder_pan_joint, shoulder_lift_joint, elbow_joint, wrist_1_joint, wrist_2_joint,","[1.6484395265579224, -1.1333497206317347, 2.388871431350708, -2.8014214674579065, -1.56812030473818, 1.211229920387268]","[0.0, 0.0, -0.0, 0.0, 0.0, -0.20248547196388245]","[-0.0778198316693306, -3.982544422149658, -1.1679832935333252, -0.5674896836280823, -0.2377624809741974, -0.5316010117530823]"
1584450974309849597,,1135302,,1584450974,309432758,'',"[shoulder_pan_joint, shoulder_lift_joint, elbow_joint, wrist_1_joint, wrist_2_joint,","[1.6484155654907227, -1.1333377997027796, 2.3889074325561523, -2.8014333883868616, -1.568108383809225, 1.1886310577392578]","[0.0, 0.0, -0.0, 0.0, 0.0, -0.20294566452503204]","[-0.1144409328699112, -3.973389148712158, -1.1657414436340332, -0.5540314316749573, -0.2265472710132599, -0.5719757676124573]"
1584450974421785576,,1135316,,1584450974,421361895,'',"[shoulder_pan_joint, shoulder_lift_joint, elbow_joint, wrist_1_joint, wrist_2_joint,","[1.6484276056289673, -1.1333497206317347, 2.3889074325561523, -2.8014453093158167, -1.56812030473818, 1.1660194396972656]","[0.0, 0.0, -0.0, 0.0, 0.0, -0.20089396834373474]","[-0.0686645582318306, -3.959656238555908, -1.150048851966858, -0.5652466416358948, -0.2332763969898224, -0.4665527939796448]"
1584450974534059377,,1135330,,1584450974,533562409,'',"[shoulder_pan_joint, shoulder_lift_joint, elbow_joint, wrist_1_joint, wrist_2_joint,","[1.6484155654907227, -1.133362118397848, 2.388883352279663, -2.8014333883868616, -1.5680845419513147, 1.1436587572097778]","[0.0, 0.0, -0.0, 0.0, 0.0, -0.19993522763252258]","[-0.1007080152630806, -3.950500965118408, -1.1567742824554443, -0.5630035996437073, -0.2489776909351349, -0.5473023056983948]"
1584450974645838333,,1135344,,1584450974,645459165,'',"[shoulder_pan_joint, shoulder_lift_joint, elbow_joint, wrist_1_joint, wrist_2_joint,","[1.648391604423523, -1.133362118397848, 2.3889312744140625, -2.8014095465289515, -1.5680845419513147, 1.1211426258087158]","[0.0, 0.0, -0.0, 0.0, 0.0, -0.2028689682483673]","[-0.1144409328699112, -3.945923328399658, -1.1522905826568604, -0.5652466416358948, -0.2444916069507599, -0.3970184624195099]"
1584450974757961653,,1135358,,1584450974,757467329,'',"[shoulder_pan_joint, shoulder_lift_joint, elbow_joint, wrist_1_joint, wrist_2_joint,","[1.6483795642852783, -1.1333497206317347, 2.388895273208618, -2.8014095465289515, -1.568108383809225, 1.0988287925720215]","[0.0, 0.0, -0.0, 0.0, 0.0, -0.19761507213115692]","[-0.0686645582318306, -4.023743152618408, -1.150048851966858, -0.5652466416358948, -0.2467346489429474, -0.5944061875343323]"
1584450974869756469,,1135372,,1584450974,869392639,'',"[shoulder_pan_joint, shoulder_lift_joint, elbow_joint, wrist_1_joint, wrist_2_joint,","[1.6484155654907227, -1.1333497206317347, 2.388883352279663, -2.8013857046710413, -1.5680726210223597, 1.076371431350708]","[0.0, 0.0, -0.0, 0.0, 0.0, -0.20018449425697327]","[-0.0915527418255806, -3.955078601837158, -1.1590160131454468, -0.5652466416358948, -0.2422485649585724, -0.5158997178077698]"
1584450974981754595,,1135386,,1584450974,981380646,'',"[shoulder_pan_joint, shoulder_lift_joint, elbow_joint, wrist_1_joint, wrist_2_joint,","[1.6484155654907227, -1.133362118397848, 2.388895273208618, -2.8014214674579065, -1.568108383809225, 1.0538890361785889]","[0.0, 0.0, -0.0, 0.0, 0.0, -0.19822867214679718]","[-0.0595092847943306, -3.955078601837158, -1.150048851966858, -0.5652466416358948, -0.2422485649585724, -0.6078644394874573]"
1584450975093971739,,1135400,,1584450975,93467628,'',"[shoulder_pan_joint, shoulder_lift_joint, elbow_joint, wrist_1_joint, wrist_2_joint,","[1.6483795642852783, -1.1333139578448694, 2.3889074325561523, -2.8014333883868616, -1.5680964628802698, 1.031550407409668]","[0.0, 0.0, -0.0, 0.0, 0.0, -0.20028036832809448]","[-0.0915527418255806, -3.955078601837158, -1.1590160131454468, -0.5562744736671448, -0.2400055229663849, -0.4822540879249573]"
