PorkPy/robot-pulling-data/deg60_stops1/joint_states_throttle.csv
rosbagTimestamp,header,seq,stamp,secs,nsecs,frame_id,name,wrist_3_joint],position,velocity,effort
1584444396473286407,,313037,,1584444396,472869790,'',"[shoulder_pan_joint, shoulder_lift_joint, elbow_joint, wrist_1_joint, wrist_2_joint,","[1.4047462940216064, -1.1718123594867151, 2.483046531677246, -2.862863365803854, -1.5669220129596155, 2.720658540725708]","[0.0, 0.0, -0.0, 0.0, 0.0, 0.0]","[0.7278442978858948, -3.076172113418579, -1.324910044670105, -0.6123505234718323, 0.0628051832318306, -0.011215210892260075]"
1584444396585318495,,313051,,1584444396,584857505,'',"[shoulder_pan_joint, shoulder_lift_joint, elbow_joint, wrist_1_joint, wrist_2_joint,","[1.404758334159851, -1.1717646757708948, 2.4830822944641113, -2.86280328432192, -1.566885773335592, 2.7206108570098877]","[0.0, 0.0, -0.0, 0.0, 0.0, 0.0]","[0.7507324814796448, -3.002929925918579, -1.3114591836929321, -0.6123505234718323, 0.0672912672162056, -0.008972168900072575]"
1584444396697292576,,313065,,1584444396,696929959,'',"[shoulder_pan_joint, shoulder_lift_joint, elbow_joint, wrist_1_joint, wrist_2_joint,","[1.4047462940216064, -1.17180043855776, 2.483058452606201, -2.8628514448748987, -1.5669100920306605, 2.720646381378174]","[0.0, 0.0, -0.0, 0.0, 0.0, 0.0]","[0.7415772080421448, -3.076172113418579, -1.3137010335922241, -0.6123505234718323, 0.0426178015768528, -0.006729126907885075]"
1584444396809316379,,313079,,1584444396,808852764,'',"[shoulder_pan_joint, shoulder_lift_joint, elbow_joint, wrist_1_joint, wrist_2_joint,","[1.4047343730926514, -1.17180043855776, 2.483046531677246, -2.8628271261798304, -1.5668981711017054, 2.7206344604492188]","[0.0, 0.0, -0.0, 0.0, 0.0, 0.0]","[0.7141113877296448, -3.062439203262329, -1.3069756031036377, -0.6190796494483948, 0.0650482252240181, -0.008972168900072575]"
1584444396921164894,,313093,,1584444396,920833646,'',"[shoulder_pan_joint, shoulder_lift_joint, elbow_joint, wrist_1_joint, wrist_2_joint,","[1.4047343730926514, -1.171788517628805, 2.4830822944641113, -2.86280328432192, -1.5668981711017054, 2.720646381378174]","[0.0, 0.0, -0.0, 0.0, 0.0, 0.0]","[0.7186890244483948, -3.044128656387329, -1.3137010335922241, -0.6190796494483948, 0.0874786451458931, -0.008972168900072575]"
1584444397033214596,,313107,,1584444397,32850446,'',"[shoulder_pan_joint, shoulder_lift_joint, elbow_joint, wrist_1_joint, wrist_2_joint,","[1.4047822952270508, -1.17180043855776, 2.483058452606201, -2.8628514448748987, -1.5669458548175257, 2.7206225395202637]","[0.0, 0.0, -0.0, 0.0, 0.0, 0.0]","[0.7461548447608948, -3.044128656387329, -1.3137010335922241, -0.6168366074562073, 0.0762634351849556, -0.011215210892260075]"
1584444397145234691,,313121,,1584444397,144851656,'',"[shoulder_pan_joint, shoulder_lift_joint, elbow_joint, wrist_1_joint, wrist_2_joint,","[1.404758334159851, -1.171788517628805, 2.483046531677246, -2.8628514448748987, -1.5669339338885706, 2.720682382583618]","[0.0, 0.0, -0.0, 0.0, 0.0, 0.0]","[0.7415772080421448, -3.099060297012329, -1.3204264640808105, -0.6101074814796448, 0.0717773512005806, -0.008972168900072575]"
1584444397257266780,,313135,,1584444397,256834072,'',"[shoulder_pan_joint, shoulder_lift_joint, elbow_joint, wrist_1_joint, wrist_2_joint,","[1.404758334159851, -1.1718247572528284, 2.4830944538116455, -2.8628390471087855, -1.5669220129596155, 2.7205989360809326]","[0.0, 0.0, -0.0, 0.0, 0.0, 0.0]","[0.7324219346046448, -3.044128656387329, -1.3137010335922241, -0.6145935654640198, 0.0650482252240181, -0.008972168900072575]"
1584444397369365142,,313149,,1584444397,368858727,'',"[shoulder_pan_joint, shoulder_lift_joint, elbow_joint, wrist_1_joint, wrist_2_joint,","[1.4047702550888062, -1.1718247572528284, 2.4830703735351562, -2.862863365803854, -1.5669339338885706, 2.7206344604492188]","[0.0, 0.0, -0.0, 0.0, 0.0, 0.0]","[0.7507324814796448, -3.053283929824829, -1.3069756031036377, -0.6168366074562073, 0.0628051832318306, -0.01345825381577015]"
1584444397481198389,,313163,,1584444397,480816987,'',"[shoulder_pan_joint, shoulder_lift_joint, elbow_joint, wrist_1_joint, wrist_2_joint,","[1.4047462940216064, -1.1717646757708948, 2.483034372329712, -2.8628152052508753, -1.5669100920306605, 2.7206108570098877]","[0.0, 0.0, -0.0, 0.0, 0.0, 0.0]","[0.7141113877296448, -3.053283929824829, -1.3092173337936401, -0.6123505234718323, 0.0717773512005806, -0.011215210892260075]"
1584444397593232641,,313177,,1584444397,592847443,'',"[shoulder_pan_joint, shoulder_lift_joint, elbow_joint, wrist_1_joint, wrist_2_joint,","[1.4047343730926514, -1.17180043855776, 2.483046531677246, -2.8628271261798304, -1.5669100920306605, 2.720646381378174]","[0.0, 0.0, -0.0, 0.0, 0.0, 0.0]","[0.7369995713233948, -3.085327386856079, -1.3181846141815186, -0.6145935654640198, 0.0740203931927681, -0.008972168900072575]"
1584444397705119488,,313191,,1584444397,704813417,'',"[shoulder_pan_joint, shoulder_lift_joint, elbow_joint, wrist_1_joint, wrist_2_joint,","[1.4047462940216064, -1.17180043855776, 2.4830222129821777, -2.8628271261798304, -1.5668981711017054, 2.7206344604492188]","[0.0, 0.0, -0.0, 0.0, 0.0, 0.0]","[0.7461548447608948, -3.085327386856079, -1.3204264640808105, -0.6190796494483948, 0.0964508131146431, -0.008972168900072575]"
1584444397817197803,,313205,,1584444397,816809869,'',"[shoulder_pan_joint, shoulder_lift_joint, elbow_joint, wrist_1_joint, wrist_2_joint,","[1.4047822952270508, -1.17180043855776, 2.483034372329712, -2.862887207661764, -1.566885773335592, 2.720646381378174]","[0.0, 0.0, -0.0, 0.0, 0.0, 0.0]","[0.7186890244483948, -3.067016839981079, -1.2957664728164673, -0.6101074814796448, 0.0829925611615181, -0.006729126907885075]"
1584444397929175120,,313219,,1584444397,928826058,'',"[shoulder_pan_joint, shoulder_lift_joint, elbow_joint, wrist_1_joint, wrist_2_joint,","[1.4047462940216064, -1.17177659669985, 2.483034372329712, -2.862863365803854, -1.5668981711017054, 2.720658540725708]","[0.0, 0.0, -0.0, 0.0, 0.0, 0.0]","[0.7095337510108948, -3.034973382949829, -1.322668194770813, -0.5966492295265198, 0.0717773512005806, -0.008972168900072575]"
1584444398041117139,,313233,,1584444398,40799647,'',"[shoulder_pan_joint, shoulder_lift_joint, elbow_joint, wrist_1_joint, wrist_2_joint,","[1.404758334159851, -1.1717646757708948, 2.483046531677246, -2.8628390471087855, -1.5669220129596155, 2.7206225395202637]","[0.0, 0.0, -0.0, 0.0, 0.0, 0.0]","[0.7369995713233948, -3.067016839981079, -1.3069756031036377, -0.6078644394874573, 0.0919647291302681, -0.011215210892260075]"
1584444398153121687,,313247,,1584444398,152802431,'',"[shoulder_pan_joint, shoulder_lift_joint, elbow_joint, wrist_1_joint, wrist_2_joint,","[1.4047343730926514, -1.171788517628805, 2.483034372329712, -2.8628390471087855, -1.5669458548175257, 2.7206108570098877]","[0.0, 0.0, -0.0, 0.0, 0.0, 0.0]","[0.7141113877296448, -3.057861566543579, -1.3047337532043457, -0.6190796494483948, 0.0672912672162056, -0.008972168900072575]"
1584444398265172489,,313261,,1584444398,264812688,'',"[shoulder_pan_joint, shoulder_lift_joint, elbow_joint, wrist_1_joint, wrist_2_joint,","[1.4047462940216064, -1.17180043855776, 2.483034372329712, -2.8628271261798304, -1.5668981711017054, 2.720646381378174]","[0.0, 0.0, -0.0, 0.0, 0.0, 0.0]","[0.7461548447608948, -3.039551019668579, -1.3181846141815186, -0.6011353135108948, 0.0605621412396431, -0.011215210892260075]"
1584444398377274999,,313275,,1584444398,376836181,'',"[shoulder_pan_joint, shoulder_lift_joint, elbow_joint, wrist_1_joint, wrist_2_joint,","[1.4047822952270508, -1.171788517628805, 2.4830822944641113, -2.8628390471087855, -1.5669220129596155, 2.7206344604492188]","[0.0, 0.0, -0.0, 0.0, 0.0, 0.0]","[0.7186890244483948, -3.062439203262329, -1.3024919033050537, -0.6123505234718323, 0.0583190992474556, -0.01345825381577015]"
1584444398489280128,,313289,,1584444398,488855916,'',"[shoulder_pan_joint, shoulder_lift_joint, elbow_joint, wrist_1_joint, wrist_2_joint,","[1.404758334159851, -1.17180043855776, 2.483058452606201, -2.8628390471087855, -1.5669339338885706, 2.7206344604492188]","[0.0, 0.0, -0.0, 0.0, 0.0, 0.0]","[0.7324219346046448, -3.062439203262329, -1.3159427642822266, -0.6123505234718323, 0.0650482252240181, -0.006729126907885075]"
1584444398601217809,,313303,,1584444398,600865742,'',"[shoulder_pan_joint, shoulder_lift_joint, elbow_joint, wrist_1_joint, wrist_2_joint,","[1.4047462940216064, -1.17177659669985, 2.483046531677246, -2.8628271261798304, -1.5669220129596155, 2.7206344604492188]","[0.0, 0.0, -0.0, 0.0, 0.0, 0.0]","[0.7232666611671448, -3.071594476699829, -1.3204264640808105, -0.6190796494483948, 0.0717773512005806, -0.01345825381577015]"
1584444398713161483,,313317,,1584444398,712756698,'',"[shoulder_pan_joint, shoulder_lift_joint, elbow_joint, wrist_1_joint, wrist_2_joint,","[1.4047702550888062, -1.17177659669985, 2.483046531677246, -2.8628514448748987, -1.5669100920306605, 2.7206108570098877]","[0.0, 0.0, -0.0, 0.0, 0.0, 0.0]","[0.7186890244483948, -3.016662836074829, -1.3159427642822266, -0.6123505234718323, 0.0807495191693306, -0.01345825381577015]"
1584444398825172582,,313331,,1584444398,824789126,'',"[shoulder_pan_joint, shoulder_lift_joint, elbow_joint, wrist_1_joint, wrist_2_joint,","[1.4047702550888062, -1.17180043855776, 2.483034372329712, -2.862863365803854, -1.5669220129596155, 2.720646381378174]","[0.0, 0.0, -0.0, 0.0, 0.0, 0.0]","[0.7003784775733948, -3.053283929824829, -1.3114591836929321, -0.6145935654640198, 0.0740203931927681, -0.004486084450036287]"
1584444398937262789,,313345,,1584444398,936833468,'',"[shoulder_pan_joint, shoulder_lift_joint, elbow_joint, wrist_1_joint, wrist_2_joint,","[1.4047223329544067, -1.17180043855776, 2.4830822944641113, -2.8628390471087855, -1.5668981711017054, 2.720658540725708]","[0.0, 0.0, -0.0, 0.0, 0.0, 0.0]","[0.7324219346046448, -3.048706293106079, -1.3204264640808105, -0.6168366074562073, 0.0897216871380806, -0.008972168900072575]"
1584444399049107227,,313359,,1584444399,48782892,'',"[shoulder_pan_joint, shoulder_lift_joint, elbow_joint, wrist_1_joint, wrist_2_joint,","[1.4047343730926514, -1.17177659669985, 2.4830822944641113, -2.8628390471087855, -1.5669100920306605, 2.7206344604492188]","[0.0, 0.0, -0.0, 0.0, 0.0, 0.0]","[0.7232666611671448, -3.048706293106079, -1.3002501726150513, -0.6213226914405823, 0.0942077711224556, -0.008972168900072575]"
1584444399161204136,,313373,,1584444399,160788420,'',"[shoulder_pan_joint, shoulder_lift_joint, elbow_joint, wrist_1_joint, wrist_2_joint,","[1.404758334159851, -1.171788517628805, 2.4830222129821777, -2.8628514448748987, -1.5669458548175257, 2.7206225395202637]","[0.0, 0.0, -0.0, 0.0, 0.0, 0.0]","[0.7278442978858948, -3.030395746231079, -1.3069756031036377, -0.6101074814796448, 0.0807495191693306, -0.011215210892260075]"
1584444399273105210,,313387,,1584444399,272725231,'',"[shoulder_pan_joint, shoulder_lift_joint, elbow_joint, wrist_1_joint, wrist_2_joint,","[1.4047343730926514, -1.17177659669985, 2.4830100536346436, -2.8628390471087855, -1.5668981711017054, 2.7206225395202637]","[0.0, 0.0, -0.0, 0.0, 0.0, 0.0]","[0.7415772080421448, -3.044128656387329, -1.3316354751586914, -0.6190796494483948, 0.0695343092083931, -0.004486084450036287]"
1584444399385162325,,313401,,1584444399,384797835,'',"[shoulder_pan_joint, shoulder_lift_joint, elbow_joint, wrist_1_joint, wrist_2_joint,","[1.4047223329544067, -1.171788517628805, 2.483046531677246, -2.8628271261798304, -1.5669220129596155, 2.7206344604492188]","[0.0, 0.0, -0.0, 0.0, 0.0, 0.0]","[0.7369995713233948, -3.085327386856079, -1.3114591836929321, -0.6168366074562073, 0.0717773512005806, -0.02018737979233265]"
1584444399497046107,,313415,,1584444399,496734185,'',"[shoulder_pan_joint, shoulder_lift_joint, elbow_joint, wrist_1_joint, wrist_2_joint,","[1.404758334159851, -1.1717522780047815, 2.483058452606201, -2.8628514448748987, -1.5669339338885706, 2.7206108570098877]","[0.0, 0.0, -0.0, 0.0, 0.0, 0.0]","[0.7186890244483948, -3.039551019668579, -1.2980083227157593, -0.6168366074562073, 0.0897216871380806, -0.006729126907885075]"
1584444399609164065,,313429,,1584444399,608751786,'',"[shoulder_pan_joint, shoulder_lift_joint, elbow_joint, wrist_1_joint, wrist_2_joint,","[1.4047223329544067, -1.1718123594867151, 2.483034372329712, -2.8628271261798304, -1.5668981711017054, 2.7206344604492188]","[0.0, 0.0, -0.0, 0.0, 0.0, 0.0]","[0.7415772080421448, -3.067016839981079, -1.3114591836929321, -0.6190796494483948, 0.0740203931927681, -0.011215210892260075]"
1584444399721035253,,313443,,1584444399,720731496,'',"[shoulder_pan_joint, shoulder_lift_joint, elbow_joint, wrist_1_joint, wrist_2_joint,","[1.4047223329544067, -1.1718123594867151, 2.4830822944641113, -2.8628390471087855, -1.5669339338885706, 2.7206225395202637]","[0.0, 0.0, -0.0, 0.0, 0.0, 0.0]","[0.7415772080421448, -3.062439203262329, -1.3137010335922241, -0.6033783555030823, 0.0672912672162056, -0.01345825381577015]"
1584444399833086297,,313457,,1584444399,832708342,'',"[shoulder_pan_joint, shoulder_lift_joint, elbow_joint, wrist_1_joint, wrist_2_joint,","[1.4047702550888062, -1.1718123594867151, 2.483046531677246, -2.8628390471087855, -1.5669100920306605, 2.7206344604492188]","[0.0, 0.0, -0.0, 0.0, 0.0, 0.0]","[0.7324219346046448, -3.030395746231079, -1.3114591836929321, -0.6302948594093323, 0.0605621412396431, -0.01345825381577015]"
1584444399945198925,,313471,,1584444399,944769614,'',"[shoulder_pan_joint, shoulder_lift_joint, elbow_joint, wrist_1_joint, wrist_2_joint,","[1.404758334159851, -1.17177659669985, 2.483034372329712, -2.862863365803854, -1.5669100920306605, 2.7206108570098877]","[0.0, 0.0, -0.0, 0.0, 0.0, 0.0]","[0.7553101181983948, -3.062439203262329, -1.3181846141815186, -0.6190796494483948, 0.0829925611615181, -0.01345825381577015]"
1584444400057155433,,313485,,1584444400,56757891,'',"[shoulder_pan_joint, shoulder_lift_joint, elbow_joint, wrist_1_joint, wrist_2_joint,","[1.404758334159851, -1.17180043855776, 2.483034372329712, -2.8628390471087855, -1.5668981711017054, 2.7205989360809326]","[0.0, 0.0, -0.0, 0.0, 0.0, 0.0]","[0.7415772080421448, -3.103637933731079, -1.324910044670105, -0.6190796494483948, 0.0560760572552681, -0.01345825381577015]"
1584444400169130645,,313499,,1584444400,168750205,'',"[shoulder_pan_joint, shoulder_lift_joint, elbow_joint, wrist_1_joint, wrist_2_joint,","[1.4047223329544067, -1.17177659669985, 2.483058452606201, -2.862863365803854, -1.5669339338885706, 2.7206225395202637]","[0.0, 0.0, -0.0, 0.0, 0.0, 0.0]","[0.7186890244483948, -3.039551019668579, -1.324910044670105, -0.6123505234718323, 0.0807495191693306, -0.004486084450036287]"
1584444400281177200,,313513,,1584444400,280767195,'',"[shoulder_pan_joint, shoulder_lift_joint, elbow_joint, wrist_1_joint, wrist_2_joint,","[1.4047702550888062, -1.1718247572528284, 2.4830703735351562, -2.8628514448748987, -1.5669339338885706, 2.7206344604492188]","[0.0, 0.0, -0.0, 0.0, 0.0, 0.0]","[0.7186890244483948, -3.034973382949829, -1.3069756031036377, -0.6190796494483948, 0.0785064771771431, -0.008972168900072575]"
1584444400393139528,,313527,,1584444400,392755822,'',"[shoulder_pan_joint, shoulder_lift_joint, elbow_joint, wrist_1_joint, wrist_2_joint,","[1.4047462940216064, -1.17180043855776, 2.483046531677246, -2.8628152052508753, -1.5669220129596155, 2.7206225395202637]","[0.0, 0.0, -0.0, 0.0, 0.0, 0.0]","[0.7324219346046448, -3.034973382949829, -1.3002501726150513, -0.6123505234718323, 0.0560760572552681, -0.008972168900072575]"
1584444400505191093,,313541,,1584444400,504775307,'',"[shoulder_pan_joint, shoulder_lift_joint, elbow_joint, wrist_1_joint, wrist_2_joint,","[1.404758334159851, -1.171788517628805, 2.483046531677246, -2.8628390471087855, -1.5669339338885706, 2.720646381378174]","[0.0, 0.0, -0.0, 0.0, 0.0, 0.0]","[0.7186890244483948, -3.030395746231079, -1.3069756031036377, -0.6145935654640198, 0.0829925611615181, -0.008972168900072575]"
1584444400617102516,,313555,,1584444400,616753515,'',"[shoulder_pan_joint, shoulder_lift_joint, elbow_joint, wrist_1_joint, wrist_2_joint,","[1.404758334159851, -1.1718123594867151, 2.483058452606201, -2.8628390471087855, -1.5668981711017054, 2.7206344604492188]","[0.0, 0.0, -0.0, 0.0, 0.0, 0.0]","[0.7369995713233948, -3.016662836074829, -1.3159427642822266, -0.6235657334327698, 0.0807495191693306, -0.008972168900072575]"
1584444400729118845,,313569,,1584444400,728747422,'',"[shoulder_pan_joint, shoulder_lift_joint, elbow_joint, wrist_1_joint, wrist_2_joint,","[1.4047462940216064, -1.1718485991107386, 2.4830222129821777, -2.8628390471087855, -1.5668981711017054, 2.7206344604492188]","[0.0, 0.0, -0.0, 0.0, 0.0, 0.0]","[0.7598877549171448, -3.057861566543579, -1.322668194770813, -0.6168366074562073, 0.0583190992474556, -0.004486084450036287]"
1584444400841094688,,313583,,1584444400,840712756,'',"[shoulder_pan_joint, shoulder_lift_joint, elbow_joint, wrist_1_joint, wrist_2_joint,","[1.404758334159851, -1.171788517628805, 2.483058452606201, -2.8628390471087855, -1.5668981711017054, 2.720646381378174]","[0.0, 0.0, -0.0, 0.0, 0.0, 0.0]","[0.7232666611671448, -3.016662836074829, -1.3204264640808105, -0.6145935654640198, 0.0695343092083931, -0.006729126907885075]"
1584444400953129883,,313597,,1584444400,952757007,'',"[shoulder_pan_joint, shoulder_lift_joint, elbow_joint, wrist_1_joint, wrist_2_joint,","[1.4047223329544067, -1.171788517628805, 2.4830100536346436, -2.86280328432192, -1.5669458548175257, 2.7206225395202637]","[0.0, 0.0, -0.0, 0.0, 0.0, 0.0]","[0.7186890244483948, -3.021240472793579, -1.3092173337936401, -0.6168366074562073, 0.0762634351849556, -0.008972168900072575]"
1584444401065044762,,313611,,1584444401,64700079,'',"[shoulder_pan_joint, shoulder_lift_joint, elbow_joint, wrist_1_joint, wrist_2_joint,","[1.4047462940216064, -1.1718123594867151, 2.483058452606201, -2.8628152052508753, -1.5668981711017054, 2.7206225395202637]","[0.0, 0.0, -0.0, 0.0, 0.0, 0.0]","[0.7461548447608948, -3.034973382949829, -1.2980083227157593, -0.6056213974952698, 0.0605621412396431, -0.006729126907885075]"
1584444401177062173,,313625,,1584444401,176751533,'',"[shoulder_pan_joint, shoulder_lift_joint, elbow_joint, wrist_1_joint, wrist_2_joint,","[1.4047462940216064, -1.17177659669985, 2.483046531677246, -2.8628390471087855, -1.5669339338885706, 2.7206108570098877]","[0.0, 0.0, -0.0, 0.0, 0.0, 0.0]","[0.7232666611671448, -3.080749750137329, -1.322668194770813, -0.6078644394874573, 0.0717773512005806, -0.006729126907885075]"
1584444401289031655,,313639,,1584444401,288684777,'',"[shoulder_pan_joint, shoulder_lift_joint, elbow_joint, wrist_1_joint, wrist_2_joint,","[1.4047343730926514, -1.171788517628805, 2.483046531677246, -2.8628514448748987, -1.5669339338885706, 2.7206225395202637]","[0.0, 0.0, -0.0, 0.0, 0.0, 0.0]","[0.7415772080421448, -2.989197015762329, -1.2980083227157593, -0.6168366074562073, 0.0762634351849556, -0.011215210892260075]"
1584444401400997239,,313653,,1584444401,400677582,'',"[shoulder_pan_joint, shoulder_lift_joint, elbow_joint, wrist_1_joint, wrist_2_joint,","[1.404758334159851, -1.171788517628805, 2.483058452606201, -2.8628514448748987, -1.5669339338885706, 2.7206108570098877]","[0.0, 0.0, -0.0, 0.0, 0.0, 0.0]","[0.7324219346046448, -3.048706293106079, -1.322668194770813, -0.6033783555030823, 0.0717773512005806, -0.008972168900072575]"
1584444401513120197,,313667,,1584444401,512757410,'',"[shoulder_pan_joint, shoulder_lift_joint, elbow_joint, wrist_1_joint, wrist_2_joint,","[1.404758334159851, -1.1718247572528284, 2.483046531677246, -2.8628152052508753, -1.566885773335592, 2.720646381378174]","[0.0, 0.0, -0.0, 0.0, 0.0, 0.0]","[0.7186890244483948, -3.007507562637329, -1.3092173337936401, -0.6033783555030823, 0.0717773512005806, -0.006729126907885075]"
1584444401625145001,,313681,,1584444401,624759842,'',"[shoulder_pan_joint, shoulder_lift_joint, elbow_joint, wrist_1_joint, wrist_2_joint,","[1.4047702550888062, -1.17180043855776, 2.483058452606201, -2.8628514448748987, -1.5669220129596155, 2.720646381378174]","[0.0, 0.0, -0.0, 0.0, 0.0, 0.0]","[0.7644653916358948, -3.085327386856079, -1.3293936252593994, -0.6123505234718323, 0.0695343092083931, -0.006729126907885075]"
1584444401737023753,,313695,,1584444401,736687276,'',"[shoulder_pan_joint, shoulder_lift_joint, elbow_joint, wrist_1_joint, wrist_2_joint,","[1.404758334159851, -1.1718123594867151, 2.483046531677246, -2.8628390471087855, -1.5669458548175257, 2.7206344604492188]","[0.0, 0.0, -0.0, 0.0, 0.0, 0.0]","[0.7232666611671448, -3.025818109512329, -1.3159427642822266, -0.6168366074562073, 0.0762634351849556, -0.008972168900072575]"
1584444401849035143,,313709,,1584444401,848676825,'',"[shoulder_pan_joint, shoulder_lift_joint, elbow_joint, wrist_1_joint, wrist_2_joint,","[1.404758334159851, -1.171788517628805, 2.483058452606201, -2.8628152052508753, -1.5668981711017054, 2.7206344604492188]","[0.0, 0.0, -0.0, 0.0, 0.0, 0.0]","[0.7598877549171448, -3.108215570449829, -1.3159427642822266, -0.6415100693702698, 0.0695343092083931, -0.008972168900072575]"
1584444401960982694,,313723,,1584444401,960630066,'',"[shoulder_pan_joint, shoulder_lift_joint, elbow_joint, wrist_1_joint, wrist_2_joint,","[1.4047462940216064, -1.171788517628805, 2.483046531677246, -2.8628271261798304, -1.5669458548175257, 2.7206344604492188]","[0.0, 0.0, -0.0, 0.0, 0.0, 0.0]","[0.7232666611671448, -3.034973382949829, -1.3159427642822266, -0.6123505234718323, 0.0807495191693306, -0.006729126907885075]"
1584444402073043426,,313737,,1584444402,72673385,'',"[shoulder_pan_joint, shoulder_lift_joint, elbow_joint, wrist_1_joint, wrist_2_joint,","[1.4047702550888062, -1.17180043855776, 2.483046531677246, -2.8628514448748987, -1.566885773335592, 2.7206344604492188]","[0.0, 0.0, -0.0, 0.0, 0.0, 0.0]","[0.7415772080421448, -3.025818109512329, -1.3114591836929321, -0.6101074814796448, 0.0695343092083931, -0.008972168900072575]"
1584444402184995164,,313751,,1584444402,184676238,'',"[shoulder_pan_joint, shoulder_lift_joint, elbow_joint, wrist_1_joint, wrist_2_joint,","[1.4042305946350098, -1.1718724409686487, 2.4830703735351562, -2.86280328432192, -1.5669100920306605, 2.719796657562256]","[-0.018037058413028717, -0.0020836573094129562, -0.0, 0.0, 0.0, -0.035166509449481964]","[-0.9429932832717896, -3.579712390899658, -1.2621393203735352, -0.4508515000343323, 0.0269165076315403, -0.3768310844898224]"
1584444402297058721,,313765,,1584444402,296755184,'',"[shoulder_pan_joint, shoulder_lift_joint, elbow_joint, wrist_1_joint, wrist_2_joint,","[1.4030790328979492, -1.1718843618976038, 2.4829261302948, -2.862767521535055, -1.5669220129596155, 2.717904806137085]","[-0.0010226538870483637, -0.0001917476038215682, -0.0008564726449549198, 0.0004218447138555348, 0.0, -0.0021283982787281275]","[-0.1098632961511612, -3.405761957168579, -1.5423656702041626, -0.3409424126148224, 0.0471038855612278, -0.02243042178452015]"
1584444402408981836,,313779,,1584444402,408695271,'',"[shoulder_pan_joint, shoulder_lift_joint, elbow_joint, wrist_1_joint, wrist_2_joint,","[1.4053338766098022, -1.1718485991107386, 2.482806444168091, -2.862623993550436, -1.5669220129596155, 2.722898006439209]","[0.017001621425151825, -0.00010226538870483637, -0.000472977408207953, 0.0004793690168298781, 0.0, 0.03781262785196304]","[0.8377075791358948, -3.625488758087158, -1.37198805809021, -0.4015045464038849, 0.0560760572552681, 0.3274841606616974]"
1584444402521025916,,313793,,1584444402,520745213,'',"[shoulder_pan_joint, shoulder_lift_joint, elbow_joint, wrist_1_joint, wrist_2_joint,","[1.4062334299087524, -1.1718485991107386, 2.4827945232391357, -2.8626120726214808, -1.5669220129596155, 2.72638201713562]","[0.0009203884983435273, -6.391586794052273e-05, -0.0001917476038215682, 0.0001917476038215682, 0.0, 0.02496553771197796]","[0.1144409328699112, -3.602600574493408, -1.3540536165237427, -0.4194488823413849, 0.0448608435690403, 0.3028106987476349]"
1584444402632901623,,313807,,1584444402,632592256,'',"[shoulder_pan_joint, shoulder_lift_joint, elbow_joint, wrist_1_joint, wrist_2_joint,","[1.4060896635055542, -1.1718247572528284, 2.4827823638916016, -2.862623993550436, -1.5669339338885706, 2.729088306427002]","[-0.0005113269435241818, -5.1132694352418184e-05, -0.00011504856229294091, 0.00011504856229294091, 0.0, 0.030583743005990982]","[0.2380371391773224, -3.520203113555908, -1.4795949459075928, -0.3768310844898224, 0.0448608435690403, 0.2781372368335724]"
1584444402744964308,,313821,,1584444402,744677272,'',"[shoulder_pan_joint, shoulder_lift_joint, elbow_joint, wrist_1_joint, wrist_2_joint,","[1.4060896635055542, -1.1718605200396937, 2.482806444168091, -2.862635914479391, -1.5669220129596155, 2.7336502075195312]","[-0.00020453077740967274, -3.834952076431364e-05, -8.948221511673182e-05, 7.669904152862728e-05, 0.0, 0.043660927563905716]","[-0.5813599228858948, -3.662109851837158, -1.2352375984191895, -0.4665527939796448, 0.0448608435690403, 0.3005676567554474]"
1584444402856987650,,313835,,1584444402,856628109,'',"[shoulder_pan_joint, shoulder_lift_joint, elbow_joint, wrist_1_joint, wrist_2_joint,","[1.406017780303955, -1.1718962828265589, 2.4827463626861572, -2.8626120726214808, -1.5669577757464808, 2.7388226985931396]","[0.0018663433147594333, -2.5566347176209092e-05, -0.0, 0.0, 0.0, 0.04187767580151558]","[-0.009155274368822575, -3.410339593887329, -1.5221893787384033, -0.3409424126148224, 0.0448608435690403, 0.3319702446460724]"
1584444402969034366,,313849,,1584444402,968648556,'',"[shoulder_pan_joint, shoulder_lift_joint, elbow_joint, wrist_1_joint, wrist_2_joint,","[1.4060297012329102, -1.1718605200396937, 2.4827704429626465, -2.862647835408346, -1.5669458548175257, 2.742893695831299]","[-0.0011377024929970503, -2.5566347176209092e-05, -0.0, 0.0, 0.0, 0.03184927627444267]","[-0.2243042290210724, -3.488159418106079, -1.4123406410217285, -0.4015045464038849, 0.0471038855612278, 0.3476715385913849]"
1584444403080951239,,313863,,1584444403,80614320,'',"[shoulder_pan_joint, shoulder_lift_joint, elbow_joint, wrist_1_joint, wrist_2_joint,","[1.4060297012329102, -1.1718605200396937, 2.4827585220336914, -2.862647835408346, -1.5669339338885706, 2.7463302612304688]","[-0.00017896443023346364, -2.5566347176209092e-05, -0.0, 0.0, 0.0, 0.03322985768318176]","[-0.0778198316693306, -3.561401844024658, -1.3854389190673828, -0.4059906303882599, 0.0672912672162056, 0.2915954887866974]"
1584444403192954744,,313877,,1584444403,192633846,'',"[shoulder_pan_joint, shoulder_lift_joint, elbow_joint, wrist_1_joint, wrist_2_joint,","[1.4059698581695557, -1.1718485991107386, 2.4827585220336914, -2.862623993550436, -1.5669458548175257, 2.749778985977173]","[0.0005241101025603712, -1.2783173588104546e-05, -0.0, 0.0, 0.0, 0.027304857969284058]","[0.1373291164636612, -3.524780750274658, -1.502013087272644, -0.3476715385913849, 0.0583190992474556, 0.3229980766773224]"
1584444403305056412,,313891,,1584444403,304760610,'',"[shoulder_pan_joint, shoulder_lift_joint, elbow_joint, wrist_1_joint, wrist_2_joint,","[1.405957818031311, -1.1718724409686487, 2.4827704429626465, -2.862635914479391, -1.5669577757464808, 2.752533197402954]","[0.0001917476038215682, -1.2783173588104546e-05, -0.0, 0.0, 0.0, 0.01787087693810463]","[-0.2426147758960724, -3.630066394805908, -1.2912828922271729, -0.4329071640968323, 0.0381317175924778, 0.3476715385913849]"
1584444403416955833,,313905,,1584444403,416673025,'',"[shoulder_pan_joint, shoulder_lift_joint, elbow_joint, wrist_1_joint, wrist_2_joint,","[1.4055140018463135, -1.1718485991107386, 2.4827585220336914, -2.862659756337301, -1.5669577757464808, 2.752545118331909]","[-0.016439160332083702, -1.2783173588104546e-05, -0.0, 0.0, 0.0, -0.04935583472251892]","[-0.9201050996780396, -3.506469964981079, -1.3966479301452637, -0.4082336723804474, 0.0426178015768528, -0.2736511528491974]"
1584444403528944600,,313919,,1584444403,528602983,'',"[shoulder_pan_joint, shoulder_lift_joint, elbow_joint, wrist_1_joint, wrist_2_joint,","[1.403870701789856, -1.1718485991107386, 2.4827704429626465, -2.862647835408346, -1.5669339338885706, 2.7473361492156982]","[-0.010788998566567898, -1.2783173588104546e-05, -0.0, 0.0, 0.0, -0.038656316697597504]","[-0.9658814668655396, -3.561401844024658, -1.3899224996566772, -0.4127197563648224, 0.0403747595846653, -0.3386993706226349]"
1584444403640913651,,313933,,1584444403,640594626,'',"[shoulder_pan_joint, shoulder_lift_joint, elbow_joint, wrist_1_joint, wrist_2_joint,","[1.404218316078186, -1.1718724409686487, 2.482722520828247, -2.862659756337301, -1.5669577757464808, 2.744331121444702]","[0.02027411386370659, -1.2783173588104546e-05, -0.0, 0.0, 0.0, -0.01432354561984539]","[0.8697510361671448, -3.520203113555908, -1.4145824909210205, -0.3790741264820099, 0.0515899695456028, -0.2714081108570099]"
1584444403752962611,,313947,,1584444403,752553267,'',"[shoulder_pan_joint, shoulder_lift_joint, elbow_joint, wrist_1_joint, wrist_2_joint,","[1.4063173532485962, -1.1718724409686487, 2.4827463626861572, -2.862623993550436, -1.5669339338885706, 2.742187261581421]","[0.014125406742095947, -1.2783173588104546e-05, -0.0, 0.0, 0.0, -0.024639567360281944]","[0.9017945528030396, -3.593445301055908, -1.3988897800445557, -0.3947754204273224, 0.0628051832318306, -0.2871094048023224]"
1584444403864994278,,313961,,1584444403,864627644,'',"[shoulder_pan_joint, shoulder_lift_joint, elbow_joint, wrist_1_joint, wrist_2_joint,","[1.4068573713302612, -1.1718485991107386, 2.4827585220336914, -2.862671677266256, -1.5669458548175257, 2.7389302253723145]","[-0.017589647322893143, -1.2783173588104546e-05, -6.391586794052273e-05, 0.0, 0.0, -0.04628787189722061]","[-0.6774902939796448, -3.675842761993408, -1.197126865386963, -0.4867401719093323, 0.0538330152630806, -0.2848663628101349]"
1584444403976868993,,313975,,1584444403,976513490,'',"[shoulder_pan_joint, shoulder_lift_joint, elbow_joint, wrist_1_joint, wrist_2_joint,","[1.4042305946350098, -1.1718843618976038, 2.482710599899292, -2.862659756337301, -1.5669220129596155, 2.7330636978149414]","[-0.02184644341468811, -1.2783173588104546e-05, -6.391586794052273e-05, 0.0, 0.0, -0.04277889057993889]","[-0.9292603731155396, -3.524780750274658, -1.3831970691680908, -0.4082336723804474, 0.0314025916159153, -0.3207550346851349]"
1584444404088913284,,313989,,1584444404,88536701,'',"[shoulder_pan_joint, shoulder_lift_joint, elbow_joint, wrist_1_joint, wrist_2_joint,","[1.40277898311615, -1.1718485991107386, 2.4827585220336914, -2.862659756337301, -1.5669220129596155, 2.7286572456359863]","[-0.0022754049859941006, -1.2783173588104546e-05, -6.391586794052273e-05, 0.0, 0.0, -0.02912646159529686]","[-0.6729126572608948, -3.497314691543579, -1.40337336063385, -0.4127197563648224, 0.0358886756002903, -0.3050537407398224]"
1584444404200951584,,314003,,1584444404,200529937,'',"[shoulder_pan_joint, shoulder_lift_joint, elbow_joint, wrist_1_joint, wrist_2_joint,","[1.4037864208221436, -1.171920124684469, 2.482734441757202, -2.862671677266256, -1.5669100920306605, 2.7257113456726074]","[0.020005665719509125, -1.2783173588104546e-05, -6.391586794052273e-05, 0.0, 0.0, -0.02274126559495926]","[0.8285523056983948, -3.515625476837158, -1.450451374053955, -0.3902893364429474, 0.0381317175924778, -0.2646789848804474]"
1584444404312865021,,314017,,1584444404,312509588,'',"[shoulder_pan_joint, shoulder_lift_joint, elbow_joint, wrist_1_joint, wrist_2_joint,","[1.4058136940002441, -1.1718843618976038, 2.4827463626861572, -2.862647835408346, -1.5669339338885706, 2.7226462364196777]","[0.014457769691944122, -1.2783173588104546e-05, -6.391586794052273e-05, 0.0, 0.0, -0.031619179993867874]","[0.8285523056983948, -3.561401844024658, -1.4347587823867798, -0.3835602104663849, 0.0538330152630806, -0.2467346489429474]"
1584444404425027723,,314031,,1584444404,424578875,'',"[shoulder_pan_joint, shoulder_lift_joint, elbow_joint, wrist_1_joint, wrist_2_joint,","[1.4069892168045044, -1.1718605200396937, 2.4827585220336914, -2.862671677266256, -1.5669458548175257, 2.7188985347747803]","[0.00697961263358593, -1.2783173588104546e-05, -6.391586794052273e-05, 0.0, 0.0, -0.03027694672346115]","[0.8468628525733948, -3.593445301055908, -1.3787134885787964, -0.4015045464038849, 0.0403747595846653, -0.3117828667163849]"
1584444404536947542,,314045,,1584444404,536576289,'',"[shoulder_pan_joint, shoulder_lift_joint, elbow_joint, wrist_1_joint, wrist_2_joint,","[1.4057537317276, -1.1718605200396937, 2.4827585220336914, -2.862647835408346, -1.5668981711017054, 2.714815855026245]","[-0.024096282199025154, -1.2783173588104546e-05, -5.1132694352418184e-05, 0.0, 0.0, -0.03430364653468132]","[-0.9109498262405396, -3.501892328262329, -1.40337336063385, -0.4104767143726349, 0.0358886756002903, -0.3342132866382599]"
1584444404648930749,,314059,,1584444404,648550239,'',"[shoulder_pan_joint, shoulder_lift_joint, elbow_joint, wrist_1_joint, wrist_2_joint,","[1.403450846672058, -1.1718724409686487, 2.482734441757202, -2.862659756337301, -1.5669220129596155, 2.71197772026062]","[-0.015851134434342384, -1.2783173588104546e-05, -3.834952076431364e-05, 0.0, 0.0, -0.023335684090852737]","[-1.0116578340530396, -3.570557117462158, -1.3675044775009155, -0.4239349663257599, 0.0336456336081028, -0.2736511528491974]"
1584444404760900271,,314073,,1584444404,760512757,'',"[shoulder_pan_joint, shoulder_lift_joint, elbow_joint, wrist_1_joint, wrist_2_joint,","[1.402683138847351, -1.1718485991107386, 2.4827463626861572, -2.862635914479391, -1.5669100920306605, 2.709583044052124]","[-0.000907605339307338, -1.2783173588104546e-05, -3.834952076431364e-05, 0.0, 0.0, -0.015838351100683212]","[-0.004577637184411287, -3.492737054824829, -1.4437259435653687, -0.3925323784351349, 0.0381317175924778, -0.2848663628101349]"
1584444404872928973,,314087,,1584444404,872551308,'',"[shoulder_pan_joint, shoulder_lift_joint, elbow_joint, wrist_1_joint, wrist_2_joint,","[1.4030790328979492, -1.1718485991107386, 2.4827463626861572, -2.862659756337301, -1.566885773335592, 2.707559585571289]","[0.0027355991769582033, -1.2783173588104546e-05, -2.5566347176209092e-05, 0.0, 0.0, -0.023028887808322906]","[0.4211426079273224, -3.529358386993408, -1.40337336063385, -0.4015045464038849, 0.0269165076315403, -0.2601929008960724]"
1584444404984855454,,314101,,1584444404,984517252,'',"[shoulder_pan_joint, shoulder_lift_joint, elbow_joint, wrist_1_joint, wrist_2_joint,","[1.4030909538269043, -1.1718485991107386, 2.482722520828247, -2.862671677266256, -1.5668981711017054, 2.7040512561798096]","[0.0001917476038215682, -1.2783173588104546e-05, -2.5566347176209092e-05, 0.0, 0.0, -0.03221359848976135]","[-0.2517700493335724, -3.598022937774658, -1.2980083227157593, -0.4373932480812073, 0.0291595496237278, -0.3544006645679474]"
1584444405096838471,,314115,,1584444405,96523974,'',"[shoulder_pan_joint, shoulder_lift_joint, elbow_joint, wrist_1_joint, wrist_2_joint,","[1.4030430316925049, -1.1718362013446253, 2.482722520828247, -2.862647835408346, -1.5668981711017054, 2.700746536254883]","[0.0003195793251506984, -1.2783173588104546e-05, -0.0, 0.0, 0.0, -0.03014272265136242]","[0.004577637184411287, -3.437805414199829, -1.5356402397155762, -0.3544006645679474, 0.0314025916159153, -0.3431854546070099]"
1584444405208836114,,314129,,1584444405,208481352,'',"[shoulder_pan_joint, shoulder_lift_joint, elbow_joint, wrist_1_joint, wrist_2_joint,","[1.4030790328979492, -1.1718724409686487, 2.482722520828247, -2.862635914479391, -1.5668981711017054, 2.69838809967041]","[0.0, -1.2783173588104546e-05, -0.0, 0.0, 0.0, -0.012616991996765137]","[0.4302978813648224, -3.524780750274658, -1.4795949459075928, -0.3678589165210724, 0.0381317175924778, -0.2938385307788849]"
1584444405320815685,,314143,,1584444405,320479367,'',"[shoulder_pan_joint, shoulder_lift_joint, elbow_joint, wrist_1_joint, wrist_2_joint,","[1.403114914894104, -1.1718724409686487, 2.482722520828247, -2.862659756337301, -1.5669220129596155, 2.6967356204986572]","[-0.00026844663079828024, -1.2783173588104546e-05, -0.0, 0.0, 0.0, -0.0196733046323061]","[-0.4302978813648224, -3.625488758087158, -1.2531720399856567, -0.4710388779640198, 0.0291595496237278, -0.2758941948413849]"
1584444405432859996,,314157,,1584444405,432461723,'',"[shoulder_pan_joint, shoulder_lift_joint, elbow_joint, wrist_1_joint, wrist_2_joint,","[1.403162956237793, -1.1718724409686487, 2.482710599899292, -2.862671677266256, -1.5668981711017054, 2.694675922393799]","[0.00015339808305725455, -1.2783173588104546e-05, -0.0, 0.0, 0.0, -0.015186410397291183]","[0.2380371391773224, -3.451538324356079, -1.4773530960083008, -0.3588867485523224, 0.0381317175924778, -0.2736511528491974]"
1584444405544863601,,314171,,1584444405,544519288,'',"[shoulder_pan_joint, shoulder_lift_joint, elbow_joint, wrist_1_joint, wrist_2_joint,","[1.4031269550323486, -1.1718843618976038, 2.482698440551758, -2.8626835981952112, -1.5668981711017054, 2.6923413276672363]","[0.00043462790199555457, -1.2783173588104546e-05, -0.0, 0.0, 0.0, -0.026883013546466827]","[-0.1052856519818306, -3.630066394805908, -1.2980083227157593, -0.4261780083179474, 0.02243042178452015, -0.2624359428882599]"
1584444405656868258,,314185,,1584444405,656495593,'',"[shoulder_pan_joint, shoulder_lift_joint, elbow_joint, wrist_1_joint, wrist_2_joint,","[1.4031509160995483, -1.1718724409686487, 2.482698440551758, -2.862623993550436, -1.566873852406637, 2.6885814666748047]","[0.00015339808305725455, 0.0, -0.0, 0.0, 0.0, -0.03027694672346115]","[0.4989624619483948, -3.414917230606079, -1.5244312286376953, -0.3476715385913849, 0.0381317175924778, -0.3274841606616974]"
1584444405768839873,,314199,,1584444405,768453072,'',"[shoulder_pan_joint, shoulder_lift_joint, elbow_joint, wrist_1_joint, wrist_2_joint,","[1.4032467603683472, -1.1718724409686487, 2.482734441757202, -2.862635914479391, -1.5668981711017054, 2.685168981552124]","[0.0008436894277110696, 0.0, -0.0, 0.0, 0.0, -0.03211772441864014]","[0.0549316480755806, -3.662109851837158, -1.2666230201721191, -0.4575806260108948, 0.0358886756002903, -0.3297272026538849]"
1584444405880850552,,314213,,1584444405,880455705,'',"[shoulder_pan_joint, shoulder_lift_joint, elbow_joint, wrist_1_joint, wrist_2_joint,","[1.4032467603683472, -1.1718843618976038, 2.482722520828247, -2.862623993550436, -1.5669100920306605, 2.682283878326416]","[0.0024415862280875444, 0.0, -0.0, 0.0, 0.0, -0.01721893437206745]","[0.1281738430261612, -3.442383050918579, -1.5221893787384033, -0.3499145805835724, 0.0381317175924778, -0.2893524467945099]"
1584444405992699379,,314227,,1584444405,992426840,'',"[shoulder_pan_joint, shoulder_lift_joint, elbow_joint, wrist_1_joint, wrist_2_joint,","[1.403174877166748, -1.1718724409686487, 2.482698440551758, -2.862659756337301, -1.566885773335592, 2.6798768043518066]","[-0.00138058268930763, 0.0, -0.0, 0.0, 0.0, -0.025003887712955475]","[0.1098632961511612, -3.515625476837158, -1.4616605043411255, -0.3790741264820099, 0.0381317175924778, -0.2983246147632599]"
1584444406104850569,,314241,,1584444406,104524891,'',"[shoulder_pan_joint, shoulder_lift_joint, elbow_joint, wrist_1_joint, wrist_2_joint,","[1.4032227993011475, -1.1718843618976038, 2.482722520828247, -2.862659756337301, -1.566885773335592, 2.6773507595062256]","[0.0003067961661145091, 0.0, -0.0, 0.0, 0.0, -0.028685441240668297]","[-0.2243042290210724, -3.584290027618408, -1.3181846141815186, -0.4284210503101349, 0.0358886756002903, -0.2781372368335724]"
1584444406216834528,,314255,,1584444406,216459788,'',"[shoulder_pan_joint, shoulder_lift_joint, elbow_joint, wrist_1_joint, wrist_2_joint,","[1.403234839439392, -1.1718362013446253, 2.482722520828247, -2.862623993550436, -1.5668981711017054, 2.673495292663574]","[0.003400324145331979, 0.0, -0.0, 0.0, 0.0, -0.03255874291062355]","[0.5035400986671448, -3.401184320449829, -1.5535746812820435, -0.3454284965991974, 0.0314025916159153, -0.3252411186695099]"
1584444406328872536,,314269,,1584444406,328509108,'',"[shoulder_pan_joint, shoulder_lift_joint, elbow_joint, wrist_1_joint, wrist_2_joint,","[1.4034029245376587, -1.1718485991107386, 2.482698440551758, -2.862659756337301, -1.566873852406637, 2.6703579425811768]","[0.0004090615548193455, 0.0, -0.0, 0.0, 0.0, -0.02617354691028595]","[0.0, -3.552246570587158, -1.358537197113037, -0.4104767143726349, 0.0448608435690403, -0.3117828667163849]"
1584444406440787126,,314283,,1584444406,440472348,'',"[shoulder_pan_joint, shoulder_lift_joint, elbow_joint, wrist_1_joint, wrist_2_joint,","[1.4034748077392578, -1.1718362013446253, 2.482710599899292, -2.862635914479391, -1.566873852406637, 2.6675922870635986]","[0.000997087568975985, 0.0, -0.0, 0.0, 0.0, -0.020862139761447906]","[0.0366210974752903, -3.598022937774658, -1.2957664728164673, -0.4284210503101349, 0.0291595496237278, -0.3297272026538849]"
1584444406552757149,,314297,,1584444406,552449044,'',"[shoulder_pan_joint, shoulder_lift_joint, elbow_joint, wrist_1_joint, wrist_2_joint,","[1.403450846672058, -1.1718485991107386, 2.4826865196228027, -2.862671677266256, -1.566861931477682, 2.6654489040374756]","[-0.0008309062686748803, 0.0, -0.0, 0.0, 0.0, -0.019826702773571014]","[0.1007080152630806, -3.460693597793579, -1.4728695154190063, -0.3566437065601349, 0.0314025916159153, -0.2512207329273224]"
1584444406664705901,,314311,,1584444406,664404048,'',"[shoulder_pan_joint, shoulder_lift_joint, elbow_joint, wrist_1_joint, wrist_2_joint,","[1.4034748077392578, -1.1718485991107386, 2.482698440551758, -2.862623993550436, -1.566873852406637, 2.6628031730651855]","[0.0009587380336597562, 0.0, -0.0, 0.0, 0.0, -0.024332771077752113]","[-0.1052856519818306, -3.671265125274658, -1.2643811702728271, -0.4575806260108948, 0.0336456336081028, -0.3005676567554474]"
1584444406776681184,,314325,,1584444406,776414877,'',"[shoulder_pan_joint, shoulder_lift_joint, elbow_joint, wrist_1_joint, wrist_2_joint,","[1.403367042541504, -1.1718247572528284, 2.4827463626861572, -2.862647835408346, -1.566885773335592, 2.659271001815796]","[0.0, 0.0, -0.0, 0.0, 0.0, -0.03833034634590149]","[-0.3067016899585724, -3.460693597793579, -1.4863203763961792, -0.3678589165210724, 0.0403747595846653, -0.3095398247241974]"
1584444406888771510,,314339,,1584444406,888470278,'',"[shoulder_pan_joint, shoulder_lift_joint, elbow_joint, wrist_1_joint, wrist_2_joint,","[1.4034149646759033, -1.1718724409686487, 2.482698440551758, -2.862635914479391, -1.566885773335592, 2.655606985092163]","[0.000472977408207953, 0.0, -0.0, 0.0, 0.0, -0.027477432042360306]","[0.1647949367761612, -3.543091297149658, -1.4482096433639526, -0.3880462944507599, 0.0628051832318306, -0.2803802788257599]"
1584444407000763354,,314353,,1584444407,430252,'',"[shoulder_pan_joint, shoulder_lift_joint, elbow_joint, wrist_1_joint, wrist_2_joint,","[1.4034149646759033, -1.1718724409686487, 2.482734441757202, -2.862647835408346, -1.5668981711017054, 2.6525540351867676]","[0.00023009712458588183, 0.0, -0.0, 0.0, 0.0, -0.022549517452716827]","[-0.2014160305261612, -3.598022937774658, -1.2867993116378784, -0.4306641221046448, 0.0381317175924778, -0.3364563286304474]"
1584444407112739127,,314367,,1584444407,112440891,'',"[shoulder_pan_joint, shoulder_lift_joint, elbow_joint, wrist_1_joint, wrist_2_joint,","[1.4036905765533447, -1.1718724409686487, 2.482710599899292, -2.862671677266256, -1.566885773335592, 2.6527457237243652]","[0.004320712760090828, 0.0, -0.0, 0.0, 0.0, 0.04786020144820213]","[0.6820679306983948, -3.511047601699829, -1.463902235031128, -0.3633728325366974, 0.0291595496237278, 0.2153320610523224]"
1584444407224742081,,314381,,1584444407,224400273,'',"[shoulder_pan_joint, shoulder_lift_joint, elbow_joint, wrist_1_joint, wrist_2_joint,","[1.4037384986877441, -1.1718485991107386, 2.482710599899292, -2.862647835408346, -1.5668500105487269, 2.658421039581299]","[-0.0004218447138555348, 0.0, -0.0, 0.0, 0.0, 0.050947338342666626]","[0.0549316480755806, -3.556824207305908, -1.4123406410217285, -0.4015045464038849, 0.0381317175924778, 0.3521576225757599]"
1584444407336730848,,314395,,1584444407,336429075,'',"[shoulder_pan_joint, shoulder_lift_joint, elbow_joint, wrist_1_joint, wrist_2_joint,","[1.4036905765533447, -1.1718843618976038, 2.482698440551758, -2.862647835408346, -1.5669100920306605, 2.663605213165283]","[-0.003413107246160507, 0.0, -0.0, 0.0, 0.0, 0.044562142342329025]","[-0.4440308213233948, -3.639221668243408, -1.2442048788070679, -0.4598236680030823, 0.0538330152630806, 0.3229980766773224]"
1584444407448809673,,314409,,1584444407,448463728,'',"[shoulder_pan_joint, shoulder_lift_joint, elbow_joint, wrist_1_joint, wrist_2_joint,","[1.403834342956543, -1.1718605200396937, 2.4826505184173584, -2.8625758329974573, -1.5668981711017054, 2.669316530227661]","[0.007708253804594278, 0.0, -0.0, 0.0, 0.0, 0.06684321165084839]","[0.6500244736671448, -3.410339593887329, -1.5916855335235596, -0.3229980766773224, 0.0628051832318306, 0.2579498589038849]"
1584444407560722379,,314423,,1584444407,560372346,'',"[shoulder_pan_joint, shoulder_lift_joint, elbow_joint, wrist_1_joint, wrist_2_joint,","[1.403870701789856, -1.1718605200396937, 2.4826865196228027, -2.862659756337301, -1.5669100920306605, 2.676584482192993]","[-0.0004218447138555348, 0.0, -0.0, 0.0, 0.0, 0.057140786200761795]","[-0.0411987341940403, -3.501892328262329, -1.3921643495559692, -0.4059906303882599, 0.0448608435690403, 0.3499145805835724]"
1584444407672620648,,314437,,1584444407,672385660,'',"[shoulder_pan_joint, shoulder_lift_joint, elbow_joint, wrist_1_joint, wrist_2_joint,","[1.4038946628570557, -1.1718724409686487, 2.4826745986938477, -2.862647835408346, -1.5669220129596155, 2.6818766593933105]","[-0.00014061490946915, 0.0, -0.0, 0.0, 0.0, 0.039327431470155716]","[-0.3479004204273224, -3.602600574493408, -1.3047337532043457, -0.4351502060890198, 0.0358886756002903, 0.2983246147632599]"
1584444407784676731,,314451,,1584444407,784380418,'',"[shoulder_pan_joint, shoulder_lift_joint, elbow_joint, wrist_1_joint, wrist_2_joint,","[1.4039306640625, -1.1718724409686487, 2.4826865196228027, -2.862659756337301, -1.5669220129596155, 2.6868577003479004]","[0.00024288029817398638, 0.0, -0.0, 0.0, 0.0, 0.049854375422000885]","[0.2105713039636612, -3.492737054824829, -1.5087385177612305, -0.3656158745288849, 0.0403747595846653, 0.3140259087085724]"
1584444407896677942,,314465,,1584444407,896351242,'',"[shoulder_pan_joint, shoulder_lift_joint, elbow_joint, wrist_1_joint, wrist_2_joint,","[1.4037984609603882, -1.1718605200396937, 2.4826865196228027, -2.862647835408346, -1.5669220129596155, 2.6915149688720703]","[-0.0002556634717620909, 0.0, -0.0, 0.0, 0.0, 0.037889327853918076]","[0.2334595024585724, -3.483581781387329, -1.452693223953247, -0.3768310844898224, 0.0336456336081028, 0.4104767143726349]"
1584444408008807702,,314479,,1584444408,8382358,'',"[shoulder_pan_joint, shoulder_lift_joint, elbow_joint, wrist_1_joint, wrist_2_joint,","[1.4037744998931885, -1.1718605200396937, 2.482698440551758, -2.862659756337301, -1.5669100920306605, 2.694819688796997]","[-0.003413107246160507, 0.0, -0.0, 0.0, 0.0, 0.02178252674639225]","[-0.3936767876148224, -3.675842761993408, -1.1904014348983765, -0.4800110459327698, 0.0448608435690403, 0.3117828667163849]"
1584444408120751426,,314493,,1584444408,120403216,'',"[shoulder_pan_joint, shoulder_lift_joint, elbow_joint, wrist_1_joint, wrist_2_joint,","[1.4037744998931885, -1.1718605200396937, 2.4826865196228027, -2.862623993550436, -1.5669339338885706, 2.6970229148864746]","[0.0, 0.0, -0.0, 0.0, 0.0, 0.017890051007270813]","[0.4898071885108948, -3.428650140762329, -1.5064966678619385, -0.3633728325366974, 0.0358886756002903, 0.3140259087085724]"
1584444408232732239,,314507,,1584444408,232408244,'',"[shoulder_pan_joint, shoulder_lift_joint, elbow_joint, wrist_1_joint, wrist_2_joint,","[1.4038827419281006, -1.1718724409686487, 2.4826865196228027, -2.862671677266256, -1.5669220129596155, 2.6989264488220215]","[0.001508414512500167, 0.0, -0.0, 0.0, 0.0, 0.023067235946655273]","[0.1556396633386612, -3.643799304962158, -1.2531720399856567, -0.4396362900733948, 0.0403747595846653, 0.2400055229663849]"
1584444408344861468,,314521,,1584444408,344436455,'',"[shoulder_pan_joint, shoulder_lift_joint, elbow_joint, wrist_1_joint, wrist_2_joint,","[1.4038587808609009, -1.1718724409686487, 2.482698440551758, -2.862647835408346, -1.5668981711017054, 2.7019200325012207]","[-0.0005368932615965605, 0.0, -0.0, 0.0, 0.0, 0.029164809733629227]","[0.2655029594898224, -3.442383050918579, -1.4840785264968872, -0.3566437065601349, 0.0426178015768528, 0.3297272026538849]"
1584444408456707329,,314535,,1584444408,456334313,'',"[shoulder_pan_joint, shoulder_lift_joint, elbow_joint, wrist_1_joint, wrist_2_joint,","[1.4037384986877441, -1.1718843618976038, 2.4826626777648926, -2.862635914479391, -1.5668981711017054, 2.70458984375]","[0.0011121360585093498, 0.0, -0.0, 0.0, 0.0, 0.02509976178407669]","[0.009155274368822575, -3.511047601699829, -1.358537197113037, -0.4037475883960724, 0.0269165076315403, 0.3140259087085724]"
1584444408568787396,,314549,,1584444408,568378523,'',"[shoulder_pan_joint, shoulder_lift_joint, elbow_joint, wrist_1_joint, wrist_2_joint,","[1.4037384986877441, -1.1718843618976038, 2.4826626777648926, -2.862647835408346, -1.5668981711017054, 2.707092761993408]","[0.0, 0.0, -0.0, 0.0, 0.0, 0.018561167642474174]","[0.0823974683880806, -3.556824207305908, -1.419066071510315, -0.3970184624195099, 0.0403747595846653, 0.3454284965991974]"
1584444408680688991,,314563,,1584444408,680339730,'',"[shoulder_pan_joint, shoulder_lift_joint, elbow_joint, wrist_1_joint, wrist_2_joint,","[1.4037145376205444, -1.1718843618976038, 2.482698440551758, -2.8626120726214808, -1.5669220129596155, 2.708876371383667]","[-0.00015339808305725455, 0.0, -0.0, 0.0, 0.0, 0.011217234656214714]","[-0.5722046494483948, -3.634644031524658, -1.2554138898849487, -0.4553375840187073, 0.0628051832318306, 0.2758941948413849]"
1584444408792767637,,314577,,1584444408,792400462,'',"[shoulder_pan_joint, shoulder_lift_joint, elbow_joint, wrist_1_joint, wrist_2_joint,","[1.403726577758789, -1.1718962828265589, 2.4826865196228027, -2.862635914479391, -1.5669100920306605, 2.710780382156372]","[0.00017896443023346364, 0.0, -0.0, 0.0, 0.0, 0.018446119502186775]","[0.1785278469324112, -3.506469964981079, -1.4616605043411255, -0.3656158745288849, 0.02467346377670765, 0.2781372368335724]"
1584444408904700289,,314591,,1584444408,904356578,'',"[shoulder_pan_joint, shoulder_lift_joint, elbow_joint, wrist_1_joint, wrist_2_joint,","[1.403726577758789, -1.1718724409686487, 2.4826745986938477, -2.862647835408346, -1.5669339338885706, 2.712229013442993]","[0.0, 0.0, -0.0, 0.0, 0.0, 0.010967962443828583]","[0.1464843899011612, -3.575134754180908, -1.3944061994552612, -0.3970184624195099, 0.0381317175924778, 0.3005676567554474]"
1584444409016718682,,314605,,1584444409,16341168,'',"[shoulder_pan_joint, shoulder_lift_joint, elbow_joint, wrist_1_joint, wrist_2_joint,","[1.4038103818893433, -1.1718605200396937, 2.4826745986938477, -2.862635914479391, -1.5669577757464808, 2.7135820388793945]","[-0.0005113269435241818, 0.0, -0.0, 0.0, 0.0, 0.011447331868112087]","[-0.2700805962085724, -3.648376941680908, -1.2711066007614136, -0.4508515000343323, 0.0314025916159153, 0.2444916069507599]"
1584444409128679547,,314619,,1584444409,128308374,'',"[shoulder_pan_joint, shoulder_lift_joint, elbow_joint, wrist_1_joint, wrist_2_joint,","[1.4037984609603882, -1.1718605200396937, 2.482710599899292, -2.862623993550436, -1.5668981711017054, 2.7158212661743164]","[0.0001917476038215682, 0.0, -0.0, 0.0, 0.0, 0.030046848580241203]","[0.3982544243335724, -3.419494867324829, -1.502013087272644, -0.3588867485523224, 0.0314025916159153, 0.2624359428882599]"
1584444409240735540,,314633,,1584444409,240408149,'',"[shoulder_pan_joint, shoulder_lift_joint, elbow_joint, wrist_1_joint, wrist_2_joint,","[1.4037864208221436, -1.1718843618976038, 2.4826626777648926, -2.862647835408346, -1.5669220129596155, 2.718982458114624]","[-0.0033108419738709927, 0.0, -0.0, 0.0, 0.0, 0.021437382325530052]","[-0.6500244736671448, -3.671265125274658, -1.2217867374420166, -0.4800110459327698, 0.0358886756002903, 0.2803802788257599]"
1584444409352728316,,314647,,1584444409,352352434,'',"[shoulder_pan_joint, shoulder_lift_joint, elbow_joint, wrist_1_joint, wrist_2_joint,","[1.4037026166915894, -1.1718724409686487, 2.4826865196228027, -2.862623993550436, -1.5669220129596155, 2.721736192703247]","[0.00012783173588104546, 0.0, -0.0, 0.0, 0.0, 0.019788352772593498]","[-0.3662109673023224, -3.547668933868408, -1.3024919033050537, -0.4418793320655823, 0.0358886756002903, 0.3274841606616974]"
1584444409464666428,,314661,,1584444409,464333316,'',"[shoulder_pan_joint, shoulder_lift_joint, elbow_joint, wrist_1_joint, wrist_2_joint,","[1.403726577758789, -1.1718605200396937, 2.4826745986938477, -2.862671677266256, -1.5669220129596155, 2.7233290672302246]","[0.0021092237439006567, 0.0, -0.0, 0.0, 0.0, 0.011715778149664402]","[0.2792358696460724, -3.405761957168579, -1.549091100692749, -0.3409424126148224, 0.0493469275534153, 0.2893524467945099]"
1584444409576681194,,314675,,1584444409,576316283,'',"[shoulder_pan_joint, shoulder_lift_joint, elbow_joint, wrist_1_joint, wrist_2_joint,","[1.4036306142807007, -1.1718605200396937, 2.4826865196228027, -2.862647835408346, -1.5669100920306605, 2.7245383262634277]","[-0.0036815539933741093, 0.0, -0.0, 0.0, 0.0, -0.0006519418675452471]","[-0.7919312119483948, -3.671265125274658, -1.1881595849990845, -0.4822540879249573, 0.0403747595846653, -0.0560760572552681]"
1584444409688679179,,314689,,1584444409,688347961,'',"[shoulder_pan_joint, shoulder_lift_joint, elbow_joint, wrist_1_joint, wrist_2_joint,","[1.4036426544189453, -1.1718605200396937, 2.482590675354004, -2.8625877539264124, -1.5669458548175257, 2.7203352451324463]","[0.000472977408207953, 0.0, -0.0017385116079822183, 0.0, 0.0, -0.040823064744472504]","[0.3433227837085724, -3.474426507949829, -1.4930458068847656, -0.3544006645679474, 0.0560760572552681, -0.3072967827320099]"
1584444409800735412,,314703,,1584444409,800299088,'',"[shoulder_pan_joint, shoulder_lift_joint, elbow_joint, wrist_1_joint, wrist_2_joint,","[1.404422402381897, -1.1717045942889612, 2.480790853500366, -2.8612712065326136, -1.5670059362994593, 2.7166714668273926]","[0.01495631318539381, 0.005151618737727404, -0.036201946437358856, 0.026998061686754227, 0.0, -0.024869663640856743]","[0.8468628525733948, -2.494812250137329, -1.7777557373046875, -0.1502838283777237, 0.0538330152630806, -0.3095398247241974]"
1584444409912668165,,314717,,1584444409,912312341,'',"[shoulder_pan_joint, shoulder_lift_joint, elbow_joint, wrist_1_joint, wrist_2_joint,","[1.4067496061325073, -1.1701820532428187, 2.474599838256836, -2.8580501715289515, -1.566981617604391, 2.7145400047302246]","[0.027304857969284058, 0.026282204315066338, -0.08586457371711731, 0.03984514996409416, 0.0, -0.010891263373196125]","[0.7965088486671448, -2.517700433731079, -1.8001738786697388, -0.1300964504480362, 0.0471038855612278, -0.3319702446460724]"
1584444410024745868,,314731,,1584444410,24346653,'',"[shoulder_pan_joint, shoulder_lift_joint, elbow_joint, wrist_1_joint, wrist_2_joint,","[1.410767674446106, -1.1658175627337855, 2.4618704319000244, -2.8514893690692347, -1.5669696966754358, 2.7184317111968994]","[0.04970097914338112, 0.04617282375693321, -0.1319095641374588, 0.07506918907165527, 0.0, 0.06471481919288635]","[0.7781983017921448, -2.513122797012329, -1.8517354726791382, -0.1413116604089737, 0.0358886756002903, 0.3297272026538849]"
1584444410136700222,,314745,,1584444410,136310585,'',"[shoulder_pan_joint, shoulder_lift_joint, elbow_joint, wrist_1_joint, wrist_2_joint,","[1.418168306350708, -1.159631077443258, 2.4465489387512207, -2.842785660420553, -1.5670059362994593, 2.7253761291503906]","[0.07370778173208237, 0.06290599703788757, -0.13493917882442474, 0.08216384798288345, 0.0, 0.052442967891693115]","[0.8056641221046448, -2.760315179824829, -1.833801031112671, -0.1256103664636612, 0.0426178015768528, 0.4082336723804474]"
1584444410248597909,,314759,,1584444410,248246634,'',"[shoulder_pan_joint, shoulder_lift_joint, elbow_joint, wrist_1_joint, wrist_2_joint,","[1.4275602102279663, -1.1530488173114222, 2.433002471923828, -2.8344648520099085, -1.5670059362994593, 2.731698513031006]","[0.10142169892787933, 0.04364175349473953, -0.11182720214128494, 0.06747598201036453, 0.0, 0.0671691820025444]","[0.9292603731155396, -2.897644281387329, -1.9548587799072266, -0.1031799390912056, 0.0448608435690403, 0.2781372368335724]"
1584444410360681263,,314773,,1584444410,360271278,'',"[shoulder_pan_joint, shoulder_lift_joint, elbow_joint, wrist_1_joint, wrist_2_joint,","[1.439458966255188, -1.1488283316241663, 2.4222638607025146, -2.8277724424945276, -1.5670178572284144, 2.739684581756592]","[0.11242800951004028, 0.03725016862154007, -0.09505567699670792, 0.05282646417617798, 0.0, 0.06530923396348953]","[1.2359620332717896, -2.984619379043579, -1.9840023517608643, -0.1031799390912056, 0.1233673244714737, 0.4104767143726349]"
1584444410472625438,,314787,,1584444410,472245629,'',"[shoulder_pan_joint, shoulder_lift_joint, elbow_joint, wrist_1_joint, wrist_2_joint,","[1.4512499570846558, -1.1442964712726038, 2.410985231399536, -2.8214147726642054, -1.5670059362994593, 2.7461507320404053]","[0.10271280258893967, 0.04692703112959862, -0.11750292778015137, 0.06356433033943176, 0.0, 0.056354619562625885]","[1.3504029512405396, -2.993774652481079, -1.9189897775650024, -0.1525268703699112, 0.0762634351849556, 0.2960815727710724]"
1584444410584633912,,314801,,1584444410,584266386,'',"[shoulder_pan_joint, shoulder_lift_joint, elbow_joint, wrist_1_joint, wrist_2_joint,","[1.461349368095398, -1.1383255163775843, 2.3950631618499756, -2.8128307501422327, -1.5670059362994593, 2.7524008750915527]","[0.08362752199172974, 0.06059224158525467, -0.1736849844455719, 0.0927099660038948, 0.0, 0.046537142246961594]","[1.0574342012405396, -2.783203363418579, -1.690325140953064, -0.1659851223230362, 0.0874786451458931, 0.3656158745288849]"
1584444410696559041,,314815,,1584444410,696246578,'',"[shoulder_pan_joint, shoulder_lift_joint, elbow_joint, wrist_1_joint, wrist_2_joint,","[1.4700696468353271, -1.1292136351214808, 2.3725762367248535, -2.8004282156573694, -1.566981617604391, 2.7561604976654053]","[0.06625518947839737, 0.09597606956958771, -0.22451087832450867, 0.12756967544555664, 0.0, 0.026691265404224396]","[1.2817384004592896, -3.094482660293579, -1.9458914995193481, -0.0942077711224556, 0.0448608435690403, 0.3431854546070099]"
1584444410808622878,,314829,,1584444410,808277233,'',"[shoulder_pan_joint, shoulder_lift_joint, elbow_joint, wrist_1_joint, wrist_2_joint,","[1.4770628213882446, -1.1178000609027308, 2.3471014499664307, -2.7859538237201136, -1.5669577757464808, 2.758711338043213]","[0.060272663831710815, 0.10581911355257034, -0.22798790037631989, 0.1267068088054657, 0.0, 0.017621604725718498]","[1.0162354707717896, -3.318786859512329, -2.0445311069488525, -0.0807495191693306, 0.0336456336081028, 0.3140259087085724]"
1584444410920642223,,314843,,1584444410,920290496,'',"[shoulder_pan_joint, shoulder_lift_joint, elbow_joint, wrist_1_joint, wrist_2_joint,","[1.4830718040466309, -1.10687762895693, 2.3230297565460205, -2.772257630025045, -1.5670059362994593, 2.7610223293304443]","[0.047630105167627335, 0.09979823231697083, -0.20389162003993988, 0.11919031292200089, 0.0, 0.025118935853242874]","[0.9613038301467896, -3.396606683731079, -2.2507777214050293, -0.1525268703699112, 0.0314025916159153, 0.2601929008960724]"
1584444411032574725,,314857,,1584444411,32252965,'',"[shoulder_pan_joint, shoulder_lift_joint, elbow_joint, wrist_1_joint, wrist_2_joint,","[1.4882415533065796, -1.0974181334124964, 2.3024375438690186, -2.7602017561541956, -1.566981617604391, 2.764782190322876]","[0.05221926420927048, 0.0769035741686821, -0.16624517738819122, 0.09048569202423096, 0.0, 0.03781262785196304]","[1.1947633028030396, -3.190613031387329, -2.2126669883728027, -0.1054229810833931, 0.0358886756002903, 0.3162689507007599]"
1584444411144621801,,314871,,1584444411,144303888,'',"[shoulder_pan_joint, shoulder_lift_joint, elbow_joint, wrist_1_joint, wrist_2_joint,","[1.4937471151351929, -1.0893972555743616, 2.2856128215789795, -2.750887695943014, -1.566981617604391, 2.7686619758605957]","[0.04447266086935997, 0.05595194920897484, -0.13758529722690582, 0.07792622596025467, 0.0, 0.03173422813415527]","[0.9155274629592896, -3.598022937774658, -2.288888454437256, -0.1233673244714737, 0.02467346377670765, 0.3858032524585724]"
1584444411256587646,,314885,,1584444411,256231351,'',"[shoulder_pan_joint, shoulder_lift_joint, elbow_joint, wrist_1_joint, wrist_2_joint,","[1.4987246990203857, -1.0834506193744105, 2.271223545074463, -2.742854897175924, -1.5669577757464808, 2.771331787109375]","[0.049368616193532944, 0.051004860550165176, -0.12252672016620636, 0.06513666361570358, 0.0, 0.020555343478918076]","[0.7873535752296448, -3.460693597793579, -2.2395687103271484, -0.1772003322839737, 0.02243042178452015, 0.3409424126148224]"
1584444411368591572,,314899,,1584444411,368217514,'',"[shoulder_pan_joint, shoulder_lift_joint, elbow_joint, wrist_1_joint, wrist_2_joint,","[1.5054419040679932, -1.078343693410055, 2.2600269317626953, -2.736389938985006, -1.5669696966754358, 2.7732598781585693]","[0.061244186013936996, 0.031446605920791626, -0.07768334448337555, 0.05071724206209183, 0.0, 0.01390170119702816]","[0.8377075791358948, -3.598022937774658, -2.439089775085449, -0.0740203931927681, 0.0448608435690403, 0.3342132866382599]"
1584444411480648496,,314913,,1584444411,480251275,'',"[shoulder_pan_joint, shoulder_lift_joint, elbow_joint, wrist_1_joint, wrist_2_joint,","[1.5117990970611572, -1.076700512562887, 2.2574710845947266, -2.734103027974264, -1.5669458548175257, 2.7724692821502686]","[0.05700017139315605, -0.007989483885467052, 0.029324600473046303, -0.021494906395673752, 0.0, -0.03779345378279686]","[0.8377075791358948, -5.200195789337158, -1.818108320236206, -0.4822540879249573, 0.0560760572552681, -0.2601929008960724]"
1584444411592583183,,314927,,1584444411,592199547,'',"[shoulder_pan_joint, shoulder_lift_joint, elbow_joint, wrist_1_joint, wrist_2_joint,","[1.51885187625885, -1.0792420546161097, 2.2625350952148438, -2.7373836676227015, -1.5669940153705042, 2.767871379852295]","[0.07370778173208237, -0.02424968034029007, 0.042273953557014465, -0.027093935757875443, 0.0, -0.0435650534927845]","[0.6500244736671448, -5.552673816680908, -1.593927264213562, -0.7132874131202698, 0.1166381984949112, -0.3140259087085724]"
1584444411704598911,,314941,,1584444411,704213271,'',"[shoulder_pan_joint, shoulder_lift_joint, elbow_joint, wrist_1_joint, wrist_2_joint,","[1.5296590328216553, -1.080932919179098, 2.265331745147705, -2.739119831715719, -1.5670178572284144, 2.764578342437744]","[0.12103108316659927, -0.00336197461001575, 0.006161489523947239, -0.0027228158432990313, 0.0, -0.01495631318539381]","[0.5630493760108948, -5.255127429962158, -1.3518117666244507, -0.5428162217140198, 0.1884155422449112, -0.2557068169116974]"
1584444411816598168,,314955,,1584444411,816243276,'',"[shoulder_pan_joint, shoulder_lift_joint, elbow_joint, wrist_1_joint, wrist_2_joint,","[1.5450482368469238, -1.0808008352862757, 2.265139579772949, -2.7383654753314417, -1.5670297781573694, 2.766674041748047]","[0.14690423011779785, 0.0003834952076431364, -0.0017768611432984471, 0.005062136799097061, 0.0, 0.05483981594443321]","[0.9796143770217896, -4.582214832305908, -2.176798105239868, -0.3117828667163849, 0.1727142482995987, 0.3364563286304474]"
1584444411928484905,,314969,,1584444411,928224128,'',"[shoulder_pan_joint, shoulder_lift_joint, elbow_joint, wrist_1_joint, wrist_2_joint,","[1.5618764162063599, -1.080825153981344, 2.2651872634887695, -2.738293472920553, -1.5670178572284144, 2.7720861434936523]","[0.15245212614536285, 0.00014061490946915, -0.0002812298189383, 0.0003834952076431364, 0.0, 0.03798520192503929]","[0.8789063692092896, -4.815674304962158, -2.0490148067474365, -0.3185119926929474, 0.1682281643152237, 0.4239349663257599]"
1584444412040630535,,314983,,1584444412,40255034,'',"[shoulder_pan_joint, shoulder_lift_joint, elbow_joint, wrist_1_joint, wrist_2_joint,","[1.5789800882339478, -1.0807769934283655, 2.265235424041748, -2.738269631062643, -1.5670178572284144, 2.7752833366394043]","[0.1487194448709488, 7.669904152862728e-05, -0.00015339808305725455, 0.00024927189224399626, 0.0, 0.01902136206626892]","[1.0162354707717896, -4.898071765899658, -2.0333220958709717, -0.3207550346851349, 0.2377624809741974, 0.3409424126148224]"
1584444412152667743,,314997,,1584444412,152264280,'',"[shoulder_pan_joint, shoulder_lift_joint, elbow_joint, wrist_1_joint, wrist_2_joint,","[1.5951850414276123, -1.0807769934283655, 2.2653675079345703, -2.7382100264178675, -1.5670297781573694, 2.7773430347442627]","[0.14120294153690338, 5.1132694352418184e-05, 0.0027867318131029606, 0.00024927189224399626, 0.0, 0.02088131383061409]","[1.0070801973342896, -4.948425769805908, -2.0691912174224854, -0.3274841606616974, 0.2803802788257599, 0.3229980766773224]"
1584444412264543089,,315011,,1584444412,264220096,'',"[shoulder_pan_joint, shoulder_lift_joint, elbow_joint, wrist_1_joint, wrist_2_joint,","[1.610825538635254, -1.0808613936053675, 2.2665677070617676, -2.738317314778463, -1.5670178572284144, 2.7793426513671875]","[0.1325487196445465, -0.0034386736806482077, 0.03717346861958504, -0.010757040232419968, 0.0, 0.01347985677421093]","[1.0482789278030396, -5.918884754180908, -1.7799975872039795, -0.6953430771827698, 0.2736511528491974, 0.3588867485523224]"
1584444412376559328,,315025,,1584444412,376212470,'',"[shoulder_pan_joint, shoulder_lift_joint, elbow_joint, wrist_1_joint, wrist_2_joint,","[1.6253265142440796, -1.0830071608172815, 2.274019718170166, -2.741908852254049, -1.5668142477618616, 2.7775704860687256]","[0.13037559390068054, -0.032520394772291183, 0.07028188556432724, -0.04435122013092041, 0.002416019793599844, -0.033862628042697906]","[1.1810303926467896, -5.886841297149658, -1.8046574592590332, -0.6773987412452698, 0.2669220268726349, -0.2646789848804474]"
1584444412488479296,,315039,,1584444412,488164529,'',"[shoulder_pan_joint, shoulder_lift_joint, elbow_joint, wrist_1_joint, wrist_2_joint,","[1.639575719833374, -1.0875027815448206, 2.282768726348877, -2.7473443190204065, -1.5664904753314417, 2.774648904800415]","[0.12259063124656677, -0.04571262747049332, 0.08916263282299042, -0.05715996026992798, 0.0031830102670937777, -0.024773789569735527]","[0.8102417588233948, -5.726624011993408, -1.7777557373046875, -0.5988922715187073, 0.2534637749195099, -0.2355194389820099]"
1584444412600520632,,315053,,1584444412,600150802,'',"[shoulder_pan_joint, shoulder_lift_joint, elbow_joint, wrist_1_joint, wrist_2_joint,","[1.6526494026184082, -1.092910114918844, 2.2914090156555176, -2.7531021277057093, -1.566286865864889, 2.771583080291748]","[0.11570050567388535, -0.04130243510007858, 0.07786230742931366, -0.0480136014521122, 0.0007094661123119295, -0.03217524662613869]","[0.7690430283546448, -5.461121082305908, -1.5603001117706299, -0.5517883896827698, 0.2310333549976349, -0.2579498589038849]"
1584444412712487820,,315067,,1584444412,712141083,'',"[shoulder_pan_joint, shoulder_lift_joint, elbow_joint, wrist_1_joint, wrist_2_joint,","[1.6652553081512451, -1.09680682817568, 2.3004095554351807, -2.758944813405172, -1.565927807484762, 2.767033338546753]","[0.10772380232810974, -0.0350131131708622, 0.06987282633781433, -0.04578932747244835, 0.002070874208584428, -0.04832039400935173]","[0.8285523056983948, -5.493164539337158, -1.6544561386108398, -0.5293579697608948, 0.2265472710132599, -0.2915954887866974]"
1584444412824476827,,315081,,1584444412,824119981,'',"[shoulder_pan_joint, shoulder_lift_joint, elbow_joint, wrist_1_joint, wrist_2_joint,","[1.676038146018982, -1.1006673018084925, 2.3083655834198, -2.763961140309469, -1.5656641165362757, 2.76238751411438]","[0.09127186238765717, -0.03500032797455788, 0.0718797817826271, -0.04465801641345024, 0.004506068769842386, -0.03652791678905487]","[1.0620118379592896, -5.616760730743408, -1.5849601030349731, -0.5158997178077698, 0.2422485649585724, -0.3409424126148224]"
1584444412936569809,,315095,,1584444412,936196222,'',"[shoulder_pan_joint, shoulder_lift_joint, elbow_joint, wrist_1_joint, wrist_2_joint,","[1.6847457885742188, -1.1047795454608362, 2.3154096603393555, -2.7684744040118616, -1.5655081907855433, 2.7592742443084717]","[0.06709887832403183, -0.034335605800151825, 0.06470842659473419, -0.038963112980127335, 0.0007861651829443872, -0.025118935853242874]","[0.9292603731155396, -5.323791980743408, -1.499771237373352, -0.3947754204273224, 0.2714081108570099, -0.2467346489429474]"
1584444413048445395,,315109,,1584444413,48117714,'',"[shoulder_pan_joint, shoulder_lift_joint, elbow_joint, wrist_1_joint, wrist_2_joint,","[1.6924216747283936, -1.1082561651812952, 2.3237738609313965, -2.7739699522601526, -1.5647409597979944, 2.7560291290283203]","[0.06509192287921906, -0.031804535537958145, 0.06753350794315338, -0.049969423562288284, 0.007190535310655832, -0.028263596817851067]","[0.8605957627296448, -5.337524890899658, -1.5692673921585083, -0.3633728325366974, 0.2220611870288849, -0.2669220268726349]"
1584444413160548857,,315123,,1584444413,160182423,'',"[shoulder_pan_joint, shoulder_lift_joint, elbow_joint, wrist_1_joint, wrist_2_joint,","[1.6991264820098877, -1.1120207945453089, 2.3312857151031494, -2.7789982000934046, -1.5640223662005823, 2.751706600189209]","[0.056910689920186996, -0.03479579836130142, 0.07138124108314514, -0.04682476446032524, 0.007593205198645592, -0.04705486074090004]","[0.7781983017921448, -5.342102527618408, -1.4594186544418335, -0.3656158745288849, 0.1166381984949112, -0.2781372368335724]"
1584444413272529389,,315137,,1584444413,272140774,'',"[shoulder_pan_joint, shoulder_lift_joint, elbow_joint, wrist_1_joint, wrist_2_joint,","[1.7049672603607178, -1.11627704301943, 2.3378138542175293, -2.7833316961871546, -1.5633514563189905, 2.7459590435028076]","[0.043897416442632675, -0.036432042717933655, 0.04964984580874443, -0.03056456707417965, 0.0029912625905126333, -0.054916512221097946]","[0.8148193955421448, -5.026245594024658, -1.4370005130767822, -0.2781372368335724, 0.0358886756002903, -0.3476715385913849]"
1584444413384563080,,315151,,1584444413,384157674,'',"[shoulder_pan_joint, shoulder_lift_joint, elbow_joint, wrist_1_joint, wrist_2_joint,","[1.709045648574829, -1.1193941275226038, 2.3438615798950195, -2.7873662153827112, -1.562847916279928, 2.7393853664398193]","[0.037109553813934326, -0.021769745275378227, 0.06077120825648308, -0.04063131660223007, 0.006155097857117653, -0.0671691820025444]","[0.7598877549171448, -5.223083972930908, -1.3652626276016235, -0.2377624809741974, -0.0291595496237278, -0.2601929008960724]"
1584444413496442093,,315165,,1584444413,496122847,'',"[shoulder_pan_joint, shoulder_lift_joint, elbow_joint, wrist_1_joint, wrist_2_joint,","[1.714455008506775, -1.1219480673419397, 2.3501012325286865, -2.7915805021869105, -1.5622366110431116, 2.731722593307495]","[0.05855971947312355, -0.02238333597779274, 0.0510176457464695, -0.03345995768904686, 0.005368933081626892, -0.06346845626831055]","[0.7095337510108948, -5.149841785430908, -1.46614408493042, -0.2893524467945099, -0.004486084450036287, -0.3544006645679474]"
1584444413608477648,,315179,,1584444413,608154104,'',"[shoulder_pan_joint, shoulder_lift_joint, elbow_joint, wrist_1_joint, wrist_2_joint,","[1.7215313911437988, -1.1247533003436487, 2.3571810722351074, -2.795602623616354, -1.5617221037494105, 2.7260587215423584]","[0.06524531543254852, -0.028915539383888245, 0.0785781666636467, -0.03771675378084183, 0.004275971557945013, -0.047630105167627335]","[0.7141113877296448, -5.360413074493408, -1.4100987911224365, -0.2893524467945099, -0.011215210892260075, -0.2534637749195099]"
1584444413720552766,,315193,,1584444413,720174511,'',"[shoulder_pan_joint, shoulder_lift_joint, elbow_joint, wrist_1_joint, wrist_2_joint,","[1.729627013206482, -1.128589932118551, 2.364213228225708, -2.7993744055377405, -1.5614584128009241, 2.7198922634124756]","[0.07015405595302582, -0.036074116826057434, 0.04284919798374176, -0.02057451754808426, 0.0007286408799700439, -0.06151263043284416]","[0.8972169160842896, -4.916382312774658, -1.0715854167938232, -0.3072967827320099, 0.011215210892260075, -0.2915954887866974]"
1584444413832462266,,315207,,1584444413,832093879,'',"[shoulder_pan_joint, shoulder_lift_joint, elbow_joint, wrist_1_joint, wrist_2_joint,","[1.7366434335708618, -1.1311081091510218, 2.3684728145599365, -2.800882641469137, -1.5616138617144983, 2.713642120361328]","[0.06270146369934082, -0.011057444848120213, 0.04075275734066963, -0.011562380008399487, 0.00017257283616345376, -0.050583016127347946]","[0.9429932832717896, -5.140686511993408, -1.1702251434326172, -0.3992615044116974, 0.0291595496237278, -0.3229980766773224]"
1584444413944538647,,315221,,1584444413,944142818,'',"[shoulder_pan_joint, shoulder_lift_joint, elbow_joint, wrist_1_joint, wrist_2_joint,","[1.7435519695281982, -1.132150952016012, 2.372504234313965, -2.802103821431295, -1.561697785054342, 2.7080981731414795]","[0.057920560240745544, -0.008283496834337711, 0.027100328356027603, -0.008360195904970169, 0.00017257283616345376, -0.04924078285694122]","[1.0162354707717896, -5.245972156524658, -1.2329957485198975, -0.4530945420265198, 0.0358886756002903, -0.2467346489429474]"
1584444414056539768,,315235,,1584444414,56180898,'',"[shoulder_pan_joint, shoulder_lift_joint, elbow_joint, wrist_1_joint, wrist_2_joint,","[1.7497286796569824, -1.1328700224505823, 2.3757681846618652, -2.8028820196734827, -1.561793629323141, 2.702207565307617]","[0.05955680459737778, -0.00827071350067854, 0.03330016881227493, -0.008705341257154942, 0.00013422331539914012, -0.04536748304963112]","[1.2496949434280396, -5.337524890899658, -1.4235496520996094, -0.5809479355812073, 0.0515899695456028, -0.3117828667163849]"
1584444414168426374,,315249,,1584444414,168106247,'',"[shoulder_pan_joint, shoulder_lift_joint, elbow_joint, wrist_1_joint, wrist_2_joint,","[1.7558695077896118, -1.1348727385150355, 2.381431818008423, -2.80485707918276, -1.5617578665362757, 2.697537899017334]","[0.04416586458683014, -0.0266657005995512, 0.06164046376943588, -0.02943325787782669, 9.58738019107841e-05, -0.034457042813301086]","[1.1215211153030396, -5.310059070587158, -1.3002501726150513, -0.6392670273780823, 0.0650482252240181, -0.2893524467945099]"
1584444414280506332,,315263,,1584444414,280135009,'',"[shoulder_pan_joint, shoulder_lift_joint, elbow_joint, wrist_1_joint, wrist_2_joint,","[1.7598751783370972, -1.1376779715167444, 2.384791851043701, -2.806952778493063, -1.5618537108050745, 2.692808151245117]","[0.02978479489684105, -0.007005179300904274, 0.001163268811069429, -0.002147573046386242, -7.669904152862728e-05, -0.04851214215159416]","[0.9292603731155396, -4.467773914337158, -1.3450863361358643, -0.3925323784351349, 0.0560760572552681, -0.2175751030445099]"
1584444414392419769,,315277,,1584444414,392092448,'',"[shoulder_pan_joint, shoulder_lift_joint, elbow_joint, wrist_1_joint, wrist_2_joint,","[1.7613024711608887, -1.1375821272479456, 2.382740020751953, -2.8057192007647913, -1.5623205343829554, 2.688976526260376]","[-0.00285064778290689, 0.0003323625132907182, -0.007963917218148708, 0.0019174760673195124, -0.0028570392169058323, -0.012559467926621437]","[0.02288818545639515, -3.936768054962158, -1.775514006614685, -0.2243042290210724, 0.0986938551068306, -0.1727142482995987]"
1584444414504410660,,315291,,1584444414,504090753,'',"[shoulder_pan_joint, shoulder_lift_joint, elbow_joint, wrist_1_joint, wrist_2_joint,","[1.7612545490264893, -1.1375702063189905, 2.382728099822998, -2.80576736131777, -1.5625126997577112, 2.6889407634735107]","[-0.0002556634717620909, 0.0, -0.00020453077740967274, 0.0004218447138555348, -0.0010162623366340995, 0.00046019424917176366]","[-0.004577637184411287, -4.229736804962158, -1.788964867591858, -0.4687958359718323, 0.0515899695456028, -0.02018737979233265]"
1584444414616399638,,315305,,1584444414,616093287,'',"[shoulder_pan_joint, shoulder_lift_joint, elbow_joint, wrist_1_joint, wrist_2_joint,","[1.761278510093689, -1.1376059691058558, 2.3826920986175537, -2.80576736131777, -1.5625484625445765, 2.6889047622680664]","[-0.00011504856229294091, 0.0, -0.0, 0.0001917476038215682, -0.00023009712458588183, 0.00017257283616345376]","[-0.01373291201889515, -4.142761707305908, -1.784481167793274, -0.4553375840187073, 0.0560760572552681, -0.011215210892260075]"
1584444414728418572,,315319,,1584444414,728144570,'',"[shoulder_pan_joint, shoulder_lift_joint, elbow_joint, wrist_1_joint, wrist_2_joint,","[1.7612665891647339, -1.1376059691058558, 2.3826920986175537, -2.805779282246725, -1.562500301991598, 2.6889286041259766]","[-7.669904152862728e-05, 0.0, -0.0, 0.00011504856229294091, -0.00013422331539914012, 0.00011504856229294091]","[0.0503540076315403, -4.197693347930908, -1.7799975872039795, -0.4418793320655823, 0.1054229810833931, -0.01345825381577015]"
1584444414840444419,,315333,,1584444414,840129110,'',"[shoulder_pan_joint, shoulder_lift_joint, elbow_joint, wrist_1_joint, wrist_2_joint,","[1.7612665891647339, -1.137629810963766, 2.382704019546509, -2.8057554403888147, -1.5625126997577112, 2.6889286041259766]","[-5.1132694352418184e-05, 0.0, -0.0, 7.669904152862728e-05, -7.669904152862728e-05, 7.669904152862728e-05]","[0.0778198316693306, -4.211426258087158, -1.7934484481811523, -0.4261780083179474, 0.1794433742761612, -0.01570129580795765]"
1584444414952383754,,315347,,1584444414,952063637,'',"[shoulder_pan_joint, shoulder_lift_joint, elbow_joint, wrist_1_joint, wrist_2_joint,","[1.7612665891647339, -1.1375821272479456, 2.3826920986175537, -2.80576736131777, -1.562500301991598, 2.6889166831970215]","[-3.834952076431364e-05, 0.0, -0.0, 5.752428114647046e-05, 1.917476038215682e-05, 5.752428114647046e-05]","[-0.02288818545639515, -4.238892078399658, -1.7822394371032715, -0.4620667099952698, 0.2624359428882599, -0.01570129580795765]"
1584444415064517562,,315361,,1584444415,64168340,'',"[shoulder_pan_joint, shoulder_lift_joint, elbow_joint, wrist_1_joint, wrist_2_joint,","[1.7612425088882446, -1.1376059691058558, 2.3826920986175537, -2.805779282246725, -1.5623567740069788, 2.6889286041259766]","[-3.834952076431364e-05, 0.0, -0.0, 3.834952076431364e-05, 0.0012271846644580364, 3.834952076431364e-05]","[0.0, -4.238892078399658, -1.784481167793274, -0.4351502060890198, 0.2624359428882599, -0.01794433780014515]"
1584444415176370847,,315375,,1584444415,176058814,'',"[shoulder_pan_joint, shoulder_lift_joint, elbow_joint, wrist_1_joint, wrist_2_joint,","[1.7612545490264893, -1.1375821272479456, 2.3826680183410645, -2.805779282246725, -1.562392536793844, 2.6889407634735107]","[-2.5566347176209092e-05, 0.0, -0.0, 3.834952076431364e-05, 0.00024927189224399626, 3.834952076431364e-05]","[0.01373291201889515, -4.225159168243408, -1.786723017692566, -0.4486084580421448, 0.2691650688648224, -0.01570129580795765]"
1584444415288403105,,315389,,1584444415,288078309,'',"[shoulder_pan_joint, shoulder_lift_joint, elbow_joint, wrist_1_joint, wrist_2_joint,","[1.7612545490264893, -1.1375821272479456, 2.3826920986175537, -2.80576736131777, -1.5623686949359339, 2.688964605331421]","[-2.5566347176209092e-05, 0.0, -0.0, -3.834952076431364e-05, 0.00013422331539914012, 3.834952076431364e-05]","[-0.01831054873764515, -4.261780261993408, -1.7912065982818604, -0.4598236680030823, 0.2691650688648224, -0.01345825381577015]"
1584444415400382926,,315403,,1584444415,400051357,'',"[shoulder_pan_joint, shoulder_lift_joint, elbow_joint, wrist_1_joint, wrist_2_joint,","[1.7612545490264893, -1.1375582853900355, 2.3826801776885986, -2.80579120317568, -1.562380615864889, 2.6889047622680664]","[-1.2783173588104546e-05, 0.0, -0.0, -3.834952076431364e-05, 9.58738019107841e-05, 1.917476038215682e-05]","[-0.01831054873764515, -4.188538074493408, -1.788964867591858, -0.4486084580421448, 0.2781372368335724, -0.01570129580795765]"
1584444415512383896,,315417,,1584444415,512042439,'',"[shoulder_pan_joint, shoulder_lift_joint, elbow_joint, wrist_1_joint, wrist_2_joint,","[1.7612545490264893, -1.1375702063189905, 2.3826920986175537, -2.805779282246725, -1.5623567740069788, 2.6889166831970215]","[-1.2783173588104546e-05, 0.0, -0.0, -3.834952076431364e-05, 5.752428114647046e-05, 1.917476038215682e-05]","[0.004577637184411287, -4.170227527618408, -1.784481167793274, -0.4643097519874573, 0.2646789848804474, -0.01345825381577015]"
1584444415624359138,,315431,,1584444415,624026548,'',"[shoulder_pan_joint, shoulder_lift_joint, elbow_joint, wrist_1_joint, wrist_2_joint,","[1.7612545490264893, -1.1375702063189905, 2.382704019546509, -2.805779282246725, -1.5623686949359339, 2.6889407634735107]","[-1.2783173588104546e-05, 0.0, -0.0, -3.834952076431364e-05, 5.752428114647046e-05, 1.917476038215682e-05]","[0.0411987341940403, -4.193115711212158, -1.7822394371032715, -0.4575806260108948, 0.2714081108570099, -0.01345825381577015]"
1584444415736402969,,315445,,1584444415,736015295,'',"[shoulder_pan_joint, shoulder_lift_joint, elbow_joint, wrist_1_joint, wrist_2_joint,","[1.7612665891647339, -1.1375821272479456, 2.382715940475464, -2.80579120317568, -1.5623567740069788, 2.6889407634735107]","[-1.2783173588104546e-05, 0.0, -0.0, -3.834952076431364e-05, 3.834952076431364e-05, 1.917476038215682e-05]","[0.0, -4.206848621368408, -1.7912065982818604, -0.4643097519874573, 0.2669220268726349, -0.01570129580795765]"
1584444415848501050,,315459,,1584444415,848098078,'',"[shoulder_pan_joint, shoulder_lift_joint, elbow_joint, wrist_1_joint, wrist_2_joint,","[1.7612425088882446, -1.1375940481769007, 2.382715940475464, -2.80576736131777, -1.562380615864889, 2.6889407634735107]","[-1.2783173588104546e-05, 0.0, -0.0, -3.834952076431364e-05, 3.834952076431364e-05, 1.917476038215682e-05]","[0.0, -4.243469715118408, -1.7777557373046875, -0.4351502060890198, 0.2714081108570099, -0.01794433780014515]"
1584444415960406873,,315473,,1584444415,960049586,'',"[shoulder_pan_joint, shoulder_lift_joint, elbow_joint, wrist_1_joint, wrist_2_joint,","[1.7612545490264893, -1.1375821272479456, 2.3826680183410645, -2.805779282246725, -1.5623567740069788, 2.6889047622680664]","[-1.2783173588104546e-05, 0.0, -0.0, -3.834952076431364e-05, 3.834952076431364e-05, 1.917476038215682e-05]","[0.0640869215130806, -4.202270984649658, -1.784481167793274, -0.4575806260108948, 0.2736511528491974, -0.01345825381577015]"
1584444416072359363,,315487,,1584444416,71999411,'',"[shoulder_pan_joint, shoulder_lift_joint, elbow_joint, wrist_1_joint, wrist_2_joint,","[1.7612545490264893, -1.1375582853900355, 2.382728099822998, -2.80576736131777, -1.562380615864889, 2.6889286041259766]","[-1.2783173588104546e-05, 0.0, -0.0, -3.834952076431364e-05, 1.917476038215682e-05, 1.917476038215682e-05]","[0.02288818545639515, -4.206848621368408, -1.7799975872039795, -0.4665527939796448, 0.2646789848804474, -0.01570129580795765]"
1584444416184360122,,315501,,1584444416,184042790,'',"[shoulder_pan_joint, shoulder_lift_joint, elbow_joint, wrist_1_joint, wrist_2_joint,","[1.7612665891647339, -1.1375702063189905, 2.3826801776885986, -2.8057554403888147, -1.562380615864889, 2.6889166831970215]","[-1.2783173588104546e-05, 0.0, -0.0, -1.917476038215682e-05, 1.917476038215682e-05, 1.917476038215682e-05]","[0.0320434607565403, -4.197693347930908, -1.7799975872039795, -0.4418793320655823, 0.2669220268726349, -0.01794433780014515]"
1584444416296318884,,315515,,1584444416,296046265,'',"[shoulder_pan_joint, shoulder_lift_joint, elbow_joint, wrist_1_joint, wrist_2_joint,","[1.761218547821045, -1.1375821272479456, 2.3826680183410645, -2.8057554403888147, -1.5623567740069788, 2.6889047622680664]","[-1.2783173588104546e-05, 0.0, -0.0, -1.917476038215682e-05, 1.917476038215682e-05, 0.0]","[0.009155274368822575, -4.188538074493408, -1.7822394371032715, -0.4418793320655823, 0.2691650688648224, -0.01345825381577015]"
1584444416408392349,,315529,,1584444416,408009264,'',"[shoulder_pan_joint, shoulder_lift_joint, elbow_joint, wrist_1_joint, wrist_2_joint,","[1.7612066268920898, -1.1375463644610804, 2.3826560974121094, -2.805779282246725, -1.5624883810626429, 2.6874921321868896]","[-0.0005113269435241818, 0.0, -1.2783173588104546e-05, -1.917476038215682e-05, -0.00046019424917176366, -0.03255874291062355]","[-0.1419067531824112, -4.138184070587158, -1.820350170135498, -0.4508515000343323, 0.006729126907885075, -0.2220611870288849]"
1584444416520389422,,315543,,1584444416,519993063,'',"[shoulder_pan_joint, shoulder_lift_joint, elbow_joint, wrist_1_joint, wrist_2_joint,","[1.7612066268920898, -1.1375821272479456, 2.3826680183410645, -2.80579120317568, -1.5624764601336878, 2.6826069355010986]","[-0.00015339808305725455, 0.0, -1.2783173588104546e-05, -1.917476038215682e-05, -0.00017257283616345376, -0.0475534051656723]","[-0.1419067531824112, -4.193115711212158, -1.741886854171753, -0.4486084580421448, 0.011215210892260075, -0.2960815727710724]"
1584444416632378851,,315557,,1584444416,631994524,'',"[shoulder_pan_joint, shoulder_lift_joint, elbow_joint, wrist_1_joint, wrist_2_joint,","[1.7612305879592896, -1.1375702063189905, 2.3826801776885986, -2.80576736131777, -1.5624287764178675, 2.6765007972717285]","[-8.948221511673182e-05, 0.0, -1.2783173588104546e-05, -1.917476038215682e-05, -0.00011504856229294091, -0.06726505607366562]","[0.0595092847943306, -4.179382801055908, -1.8517354726791382, -0.4351502060890198, 0.011215210892260075, -0.2579498589038849]"
1584444416744337673,,315571,,1584444416,743973243,'',"[shoulder_pan_joint, shoulder_lift_joint, elbow_joint, wrist_1_joint, wrist_2_joint,","[1.7612305879592896, -1.1375821272479456, 2.382728099822998, -2.805779282246725, -1.5624645392047327, 2.6679277420043945]","[-5.1132694352418184e-05, 0.0, -1.2783173588104546e-05, -1.917476038215682e-05, -7.669904152862728e-05, -0.07616214454174042]","[-0.2609253227710724, -4.316711902618408, -1.7105014324188232, -0.4822540879249573, 0.01345825381577015, -0.3409424126148224]"
1584444416856272079,,315585,,1584444416,855939198,'',"[shoulder_pan_joint, shoulder_lift_joint, elbow_joint, wrist_1_joint, wrist_2_joint,","[1.7612425088882446, -1.1375702063189905, 2.382740020751953, -2.805779282246725, -1.5624645392047327, 2.659390687942505]","[0.00020453077740967274, 0.0, -0.0, -1.917476038215682e-05, -5.752428114647046e-05, -0.08231724798679352]","[0.1190185695886612, -4.069519519805908, -1.9436497688293457, -0.4037475883960724, 0.011215210892260075, -0.3005676567554474]"
1584444416968377784,,315599,,1584444416,968012142,'',"[shoulder_pan_joint, shoulder_lift_joint, elbow_joint, wrist_1_joint, wrist_2_joint,","[1.7612545490264893, -1.1376059691058558, 2.382751941680908, -2.80579120317568, -1.5624764601336878, 2.6509015560150146]","[0.0005368932615965605, 0.0, -0.0, -1.917476038215682e-05, -3.834952076431364e-05, -0.06235631927847862]","[0.0457763709127903, -4.220581531524658, -1.7934484481811523, -0.4710388779640198, 0.008972168900072575, -0.3117828667163849]"
1584444417080299687,,315613,,1584444417,79931350,'',"[shoulder_pan_joint, shoulder_lift_joint, elbow_joint, wrist_1_joint, wrist_2_joint,","[1.7612665891647339, -1.1375940481769007, 2.382751941680908, -2.805779282246725, -1.5624645392047327, 2.6443521976470947]","[0.0001661812566453591, 0.0, -0.0, 0.0, -3.834952076431364e-05, -0.06210704892873764]","[0.0549316480755806, -4.138184070587158, -1.833801031112671, -0.4373932480812073, 0.006729126907885075, -0.2669220268726349]"
1584444417192320705,,315627,,1584444417,191957898,'',"[shoulder_pan_joint, shoulder_lift_joint, elbow_joint, wrist_1_joint, wrist_2_joint,","[1.7612545490264893, -1.1375463644610804, 2.3827879428863525, -2.805779282246725, -1.5624406973468226, 2.637827157974243]","[8.948221511673182e-05, 0.0, -0.0, 0.0, -3.834952076431364e-05, -0.05019952356815338]","[0.004577637184411287, -4.252624988555908, -1.775514006614685, -0.4732819199562073, 0.006729126907885075, -0.3813171684741974]"
1584444417304335641,,315641,,1584444417,303947557,'',"[shoulder_pan_joint, shoulder_lift_joint, elbow_joint, wrist_1_joint, wrist_2_joint,","[1.7612545490264893, -1.137522045766012, 2.3827879428863525, -2.805779282246725, -1.5624163786517542, 2.6326308250427246]","[0.0, 0.0, -0.0, 0.0, -1.917476038215682e-05, -0.0518869012594223]","[-0.0274658240377903, -4.206848621368408, -1.8024157285690308, -0.4486084580421448, 0.008972168900072575, -0.2601929008960724]"
1584444417416377718,,315655,,1584444417,415983923,'',"[shoulder_pan_joint, shoulder_lift_joint, elbow_joint, wrist_1_joint, wrist_2_joint,","[1.7612545490264893, -1.1375582853900355, 2.3827998638153076, -2.80576736131777, -1.5624526182757776, 2.6251120567321777]","[0.0, 0.0, -0.0, 0.0, -1.917476038215682e-05, -0.07167525589466095]","[0.2014160305261612, -4.156494617462158, -1.9077807664871216, -0.4172058403491974, 0.006729126907885075, -0.2915954887866974]"
1584444417528364481,,315669,,1584444417,527998839,'',"[shoulder_pan_joint, shoulder_lift_joint, elbow_joint, wrist_1_joint, wrist_2_joint,","[1.761218547821045, -1.1375344435321253, 2.382835865020752, -2.80576736131777, -1.5624287764178675, 2.617185592651367]","[-0.0013550163712352514, 0.0, -0.0, 0.0, -1.917476038215682e-05, -0.07399539649486542]","[-0.3204346001148224, -4.321289539337158, -1.6611815690994263, -0.5001984238624573, 0.008972168900072575, -0.2960815727710724]"
1584444417640299098,,315683,,1584444417,639934177,'',"[shoulder_pan_joint, shoulder_lift_joint, elbow_joint, wrist_1_joint, wrist_2_joint,","[1.7613024711608887, -1.1375463644610804, 2.382823944091797, -2.80576736131777, -1.5624406973468226, 2.608421564102173]","[0.0020836573094129562, 0.0, -0.0, 0.0, -1.917476038215682e-05, -0.07654564082622528]","[0.1281738430261612, -4.147339344024658, -1.869670033454895, -0.4082336723804474, 0.006729126907885075, -0.3005676567554474]"
1584444417752351104,,315697,,1584444417,751975904,'',"[shoulder_pan_joint, shoulder_lift_joint, elbow_joint, wrist_1_joint, wrist_2_joint,","[1.7613145112991333, -1.1375702063189905, 2.3827879428863525, -2.80576736131777, -1.5624526182757776, 2.600100040435791]","[0.0003834952076431364, 0.0, -0.0, 0.0, -1.917476038215682e-05, -0.0760662704706192]","[0.009155274368822575, -4.234314441680908, -1.8024157285690308, -0.4643097519874573, 0.0022430422250181437, -0.2736511528491974]"
1584444417864203877,,315711,,1584444417,863911652,'',"[shoulder_pan_joint, shoulder_lift_joint, elbow_joint, wrist_1_joint, wrist_2_joint,","[1.7613743543624878, -1.1375702063189905, 2.382823944091797, -2.805779282246725, -1.5624287764178675, 2.591444253921509]","[0.0012783173006027937, 0.0, -0.0, 0.0, -1.917476038215682e-05, -0.06519418209791183]","[0.2243042290210724, -4.229736804962158, -1.7912065982818604, -0.4486084580421448, 0.006729126907885075, -0.3902893364429474]"
1584444417976210859,,315725,,1584444417,975904768,'',"[shoulder_pan_joint, shoulder_lift_joint, elbow_joint, wrist_1_joint, wrist_2_joint,","[1.7613743543624878, -1.1375463644610804, 2.3828117847442627, -2.805779282246725, -1.5624044577227991, 2.5855295658111572]","[0.00017896443023346364, 0.0, -0.0, 0.0, -1.917476038215682e-05, -0.04663301631808281]","[-0.0411987341940403, -4.234314441680908, -1.773272156715393, -0.4306641221046448, 0.008972168900072575, -0.2893524467945099]"
1584444418088306576,,315739,,1584444418,87963856,'',"[shoulder_pan_joint, shoulder_lift_joint, elbow_joint, wrist_1_joint, wrist_2_joint,","[1.761350393295288, -1.1375702063189905, 2.3827998638153076, -2.805803124104635, -1.5624287764178675, 2.5797228813171387]","[0.00010226538870483637, 0.0, -0.0, 0.0, -1.917476038215682e-05, -0.05464806780219078]","[0.0686645582318306, -4.165649890899658, -1.8113828897476196, -0.4553375840187073, 0.004486084450036287, -0.3297272026538849]"
1584444418200292818,,315753,,1584444418,199912479,'',"[shoulder_pan_joint, shoulder_lift_joint, elbow_joint, wrist_1_joint, wrist_2_joint,","[1.7613743543624878, -1.1375463644610804, 2.382823944091797, -2.80576736131777, -1.5624163786517542, 2.574275255203247]","[6.391586794052273e-05, 0.0, -0.0, 0.0, -1.917476038215682e-05, -0.041973549872636795]","[0.2243042290210724, -4.147339344024658, -1.8876044750213623, -0.4172058403491974, 0.006729126907885075, -0.3611297905445099]"
1584444418312277298,,315767,,1584444418,311885808,'',"[shoulder_pan_joint, shoulder_lift_joint, elbow_joint, wrist_1_joint, wrist_2_joint,","[1.7613863945007324, -1.1375582853900355, 2.382823944091797, -2.805779282246725, -1.5624044577227991, 2.569474458694458]","[0.0, 0.0, -0.0, 0.0, -1.917476038215682e-05, -0.04839709401130676]","[-0.3570556938648224, -4.307556629180908, -1.723952293395996, -0.4979553818702698, 0.006729126907885075, -0.2758941948413849]"
1584444418424374007,,315781,,1584444418,423969923,'',"[shoulder_pan_joint, shoulder_lift_joint, elbow_joint, wrist_1_joint, wrist_2_joint,","[1.7613743543624878, -1.1375582853900355, 2.3827998638153076, -2.80576736131777, -1.562380615864889, 2.5627455711364746]","[0.0016234630020335317, 0.0, -0.0, 0.0, -1.917476038215682e-05, -0.060458019375801086]","[0.3570556938648224, -4.138184070587158, -1.9727933406829834, -0.4127197563648224, 0.008972168900072575, -0.2983246147632599]"
1584444418536223024,,315795,,1584444418,535858734,'',"[shoulder_pan_joint, shoulder_lift_joint, elbow_joint, wrist_1_joint, wrist_2_joint,","[1.7613983154296875, -1.1375702063189905, 2.382847785949707, -2.80579120317568, -1.5624044577227991, 2.5557775497436523]","[0.0, 0.0, -0.0, 0.0, -1.917476038215682e-05, -0.06475316733121872]","[-0.2380371391773224, -4.252624988555908, -1.7553377151489258, -0.4687958359718323, 0.011215210892260075, -0.3028106987476349]"
1584444418648317157,,315809,,1584444418,647912122,'',"[shoulder_pan_joint, shoulder_lift_joint, elbow_joint, wrist_1_joint, wrist_2_joint,","[1.7613863945007324, -1.137522045766012, 2.382835865020752, -2.80579120317568, -1.5624044577227991, 2.5477800369262695]","[0.0, 0.0, -0.0, 0.0, -1.917476038215682e-05, -0.07733181118965149]","[0.1464843899011612, -4.151916980743408, -1.8763954639434814, -0.4015045464038849, 0.006729126907885075, -0.3701019585132599]"
1584444418760245633,,315823,,1584444418,759869801,'',"[shoulder_pan_joint, shoulder_lift_joint, elbow_joint, wrist_1_joint, wrist_2_joint,","[1.761350393295288, -1.1375463644610804, 2.382835865020752, -2.80576736131777, -1.562380615864889, 2.5413148403167725]","[0.0, 0.0, -0.0, 0.0, -1.917476038215682e-05, -0.02594345062971115]","[-0.1098632961511612, -4.170227527618408, -1.7620631456375122, -0.4643097519874573, 0.004486084450036287, -0.2198181450366974]"
1584444418872252965,,315837,,1584444418,871927077,'',"[shoulder_pan_joint, shoulder_lift_joint, elbow_joint, wrist_1_joint, wrist_2_joint,","[1.7613863945007324, -1.1375821272479456, 2.3827879428863525, -2.80576736131777, -1.5623686949359339, 2.540632486343384]","[0.0, 0.0, -0.0, 0.0, -1.917476038215682e-05, 0.000997087568975985]","[0.0823974683880806, -4.243469715118408, -1.7934484481811523, -0.4777680039405823, 0.006729126907885075, 0.01794433780014515]"
1584444418984333123,,315851,,1584444418,983916956,'',"[shoulder_pan_joint, shoulder_lift_joint, elbow_joint, wrist_1_joint, wrist_2_joint,","[1.7613983154296875, -1.1375821272479456, 2.3828117847442627, -2.80579120317568, -1.562392536793844, 2.540656566619873]","[0.0, 0.0, -0.0, 0.0, -1.917476038215682e-05, 0.00023009712458588183]","[0.0320434607565403, -4.206848621368408, -1.8001738786697388, -0.4620667099952698, 0.011215210892260075, 0.02018737979233265]"
1584444419096212646,,315865,,1584444419,95866040,'',"[shoulder_pan_joint, shoulder_lift_joint, elbow_joint, wrist_1_joint, wrist_2_joint,","[1.7613983154296875, -1.1375821272479456, 2.3827998638153076, -2.8057554403888147, -1.562392536793844, 2.540632486343384]","[0.0, 0.0, -0.0, 0.0, -1.917476038215682e-05, 0.00013422331539914012]","[0.0503540076315403, -4.174805164337158, -1.8024157285690308, -0.4508515000343323, 0.006729126907885075, 0.01570129580795765]"
1584444419208228564,,315879,,1584444419,207824170,'',"[shoulder_pan_joint, shoulder_lift_joint, elbow_joint, wrist_1_joint, wrist_2_joint,","[1.7613743543624878, -1.1375463644610804, 2.382859945297241, -2.8057554403888147, -1.562380615864889, 2.5406205654144287]","[0.0, 0.0, -0.0, 0.0, -1.917476038215682e-05, 7.669904152862728e-05]","[0.0320434607565403, -4.170227527618408, -1.8113828897476196, -0.4732819199562073, 0.004486084450036287, 0.01570129580795765]"
1584444419320233963,,315893,,1584444419,319824479,'',"[shoulder_pan_joint, shoulder_lift_joint, elbow_joint, wrist_1_joint, wrist_2_joint,","[1.7613863945007324, -1.1375463644610804, 2.3828957080841064, -2.805803124104635, -1.5624044577227991, 2.5389797687530518]","[-0.00026844663079828024, 0.0, -0.0, 0.0, 0.0, -0.026825489476323128]","[-0.4852295517921448, -4.298401355743408, -1.6387635469436646, -0.5091705918312073, 0.0, -0.2646789848804474]"
1584444419432230726,,315907,,1584444419,431889980,'',"[shoulder_pan_joint, shoulder_lift_joint, elbow_joint, wrist_1_joint, wrist_2_joint,","[1.7613863945007324, -1.137522045766012, 2.3828957080841064, -2.805803124104635, -1.5624044577227991, 2.5350890159606934]","[-0.00015339808305725455, 0.0, 0.0001661812566453591, 0.0, 0.0, -0.04404442384839058]","[0.2151489406824112, -4.156494617462158, -1.9234734773635864, -0.4194488823413849, 0.006729126907885075, -0.3005676567554474]"
1584444419544110259,,315921,,1584444419,543812974,'',"[shoulder_pan_joint, shoulder_lift_joint, elbow_joint, wrist_1_joint, wrist_2_joint,","[1.7613863945007324, -1.1375821272479456, 2.382931709289551, -2.8058155218707483, -1.562392536793844, 2.530144453048706]","[0.0, 0.0, 0.0001661812566453591, 0.0, 0.0, -0.0435650534927845]","[-0.3112793266773224, -4.280090808868408, -1.679116129875183, -0.5069275498390198, 0.004486084450036287, -0.3364563286304474]"
1584444419656185879,,315935,,1584444419,655796682,'',"[shoulder_pan_joint, shoulder_lift_joint, elbow_joint, wrist_1_joint, wrist_2_joint,","[1.7614103555679321, -1.1375702063189905, 2.382931709289551, -2.805803124104635, -1.5624044577227991, 2.5263731479644775]","[0.0, 0.0, -0.0, 0.0, 0.0, -0.02527233399450779]","[0.3067016899585724, -4.110718250274658, -1.9010553359985352, -0.4104767143726349, 0.008972168900072575, -0.2915954887866974]"
1584444419768156161,,315949,,1584444419,767803233,'',"[shoulder_pan_joint, shoulder_lift_joint, elbow_joint, wrist_1_joint, wrist_2_joint,","[1.7614103555679321, -1.1375344435321253, 2.3829078674316406, -2.805779282246725, -1.5623686949359339, 2.5229849815368652]","[-0.00026844663079828024, 0.0, -0.0, 0.0, 0.0, -0.03345995768904686]","[-0.2838135063648224, -4.261780261993408, -1.7530958652496338, -0.4934692978858948, 0.006729126907885075, -0.2803802788257599]"
1584444419880165107,,315963,,1584444419,879866720,'',"[shoulder_pan_joint, shoulder_lift_joint, elbow_joint, wrist_1_joint, wrist_2_joint,","[1.7614103555679321, -1.1375463644610804, 2.3829197883605957, -2.80579120317568, -1.5624044577227991, 2.5182201862335205]","[2.5566347176209092e-05, 0.0, -0.0, 0.0, 0.0, -0.05004612356424332]","[0.2288818657398224, -4.119873523712158, -1.914506196975708, -0.4306641221046448, 0.008972168900072575, -0.2960815727710724]"
1584444419992146741,,315977,,1584444419,991808159,'',"[shoulder_pan_joint, shoulder_lift_joint, elbow_joint, wrist_1_joint, wrist_2_joint,","[1.7614222764968872, -1.1375344435321253, 2.3828837871551514, -2.805779282246725, -1.5623686949359339, 2.512796640396118]","[0.0, 0.0, -0.0, 0.0, 0.0, -0.04621117189526558]","[-0.1144409328699112, -4.289246082305908, -1.7530958652496338, -0.4687958359718323, 0.004486084450036287, -0.3274841606616974]"
