PorkPy/robot-pulling-data/good_move_ztwist40/joint_states_throttle.csv
rosbagTimestamp,header,seq,stamp,secs,nsecs,frame_id,name,wrist_3_joint],position,velocity,effort
1584453069849536775,,1397256,,1584453069,848959667,'',"[shoulder_pan_joint, shoulder_lift_joint, elbow_joint, wrist_1_joint, wrist_2_joint,","[1.4047702550888062, -1.1718247572528284, 2.483058452606201, -2.8628390471087855, -1.5669577757464808, 2.7205989360809326]","[0.0, 0.0, -0.0, 0.0, 0.0, 0.0]","[-0.7278442978858948, -4.321289539337158, -0.8092936277389526, -0.4687958359718323, 0.02467346377670765, -0.1839294582605362]"
1584453069961410175,,1397270,,1584453069,960970784,'',"[shoulder_pan_joint, shoulder_lift_joint, elbow_joint, wrist_1_joint, wrist_2_joint,","[1.4047702550888062, -1.1718247572528284, 2.483058452606201, -2.8628271261798304, -1.5669696966754358, 2.7206108570098877]","[0.0, 0.0, -0.0, 0.0, 0.0, 0.0]","[-0.7369995713233948, -4.321289539337158, -0.8205026388168335, -0.4755249619483948, 0.02243042178452015, -0.1884155422449112]"
1584453070073589074,,1397284,,1584453070,73135407,'',"[shoulder_pan_joint, shoulder_lift_joint, elbow_joint, wrist_1_joint, wrist_2_joint,","[1.4047822952270508, -1.171788517628805, 2.4830703735351562, -2.8628390471087855, -1.566981617604391, 2.7206108570098877]","[0.0, 0.0, -0.0, 0.0, 0.0, 0.0]","[-0.7232666611671448, -4.335022449493408, -0.8092936277389526, -0.4643097519874573, 0.02467346377670765, -0.1861725002527237]"
1584453070185347870,,1397298,,1584453070,184981305,'',"[shoulder_pan_joint, shoulder_lift_joint, elbow_joint, wrist_1_joint, wrist_2_joint,","[1.4047822952270508, -1.1718123594867151, 2.483046531677246, -2.8628390471087855, -1.5669458548175257, 2.7205870151519775]","[0.0, 0.0, -0.0, 0.0, 0.0, 0.0]","[-0.7049561142921448, -4.408264636993408, -0.8182608485221863, -0.4620667099952698, 0.02243042178452015, -0.1839294582605362]"
1584453070297189359,,1397312,,1584453070,296883217,'',"[shoulder_pan_joint, shoulder_lift_joint, elbow_joint, wrist_1_joint, wrist_2_joint,","[1.4048062562942505, -1.17180043855776, 2.483046531677246, -2.8628514448748987, -1.5669339338885706, 2.7205870151519775]","[0.0, 0.0, -0.0, 0.0, 0.0, 0.0]","[-0.7049561142921448, -4.371643543243408, -0.8182608485221863, -0.4710388779640198, 0.0291595496237278, -0.1816864162683487]"
1584453070409402824,,1397326,,1584453070,409023395,'',"[shoulder_pan_joint, shoulder_lift_joint, elbow_joint, wrist_1_joint, wrist_2_joint,","[1.4047702550888062, -1.171788517628805, 2.483034372329712, -2.8628514448748987, -1.5669339338885706, 2.7206108570098877]","[0.0, 0.0, -0.0, 0.0, 0.0, 0.0]","[-0.7049561142921448, -4.339600086212158, -0.8227444887161255, -0.4643097519874573, 0.0269165076315403, -0.1884155422449112]"
1584453070521312461,,1397340,,1584453070,520882729,'',"[shoulder_pan_joint, shoulder_lift_joint, elbow_joint, wrist_1_joint, wrist_2_joint,","[1.4048062562942505, -1.17180043855776, 2.483046531677246, -2.8628390471087855, -1.5669696966754358, 2.7206108570098877]","[0.0, 0.0, -0.0, 0.0, 0.0, 0.0]","[-0.7507324814796448, -4.348755359649658, -0.8137772083282471, -0.4643097519874573, 0.02467346377670765, -0.1839294582605362]"
1584453070633204635,,1397354,,1584453070,632858779,'',"[shoulder_pan_joint, shoulder_lift_joint, elbow_joint, wrist_1_joint, wrist_2_joint,","[1.4047702550888062, -1.17180043855776, 2.483034372329712, -2.8628514448748987, -1.5669940153705042, 2.7206108570098877]","[0.0, 0.0, -0.0, 0.0, 0.0, 0.0]","[-0.7049561142921448, -4.330444812774658, -0.8205026388168335, -0.4643097519874573, 0.0291595496237278, -0.1861725002527237]"
1584453070745542162,,1397368,,1584453070,744986875,'',"[shoulder_pan_joint, shoulder_lift_joint, elbow_joint, wrist_1_joint, wrist_2_joint,","[1.404758334159851, -1.171788517628805, 2.483034372329712, -2.8628390471087855, -1.5669940153705042, 2.7206225395202637]","[0.0, 0.0, -0.0, 0.0, 0.0, 0.0]","[-0.7278442978858948, -4.335022449493408, -0.8227444887161255, -0.4620667099952698, 0.0291595496237278, -0.1906585842370987]"
1584453070857422774,,1397382,,1584453070,856922610,'',"[shoulder_pan_joint, shoulder_lift_joint, elbow_joint, wrist_1_joint, wrist_2_joint,","[1.404758334159851, -1.1718247572528284, 2.483046531677246, -2.8628271261798304, -1.5669577757464808, 2.7206108570098877]","[0.0, 0.0, -0.0, 0.0, 0.0, 0.0]","[-0.7186890244483948, -4.316711902618408, -0.8205026388168335, -0.4620667099952698, 0.02467346377670765, -0.1861725002527237]"
1584453070969325308,,1397396,,1584453070,968912177,'',"[shoulder_pan_joint, shoulder_lift_joint, elbow_joint, wrist_1_joint, wrist_2_joint,","[1.4048062562942505, -1.17177659669985, 2.483058452606201, -2.8628514448748987, -1.5669577757464808, 2.7206225395202637]","[0.0, 0.0, -0.0, 0.0, 0.0, 0.0]","[-0.7141113877296448, -4.316711902618408, -0.8070517778396606, -0.4643097519874573, 0.0336456336081028, -0.1951446682214737]"
1584453071081436351,,1397410,,1584453071,80956816,'',"[shoulder_pan_joint, shoulder_lift_joint, elbow_joint, wrist_1_joint, wrist_2_joint,","[1.4047942161560059, -1.1718247572528284, 2.483046531677246, -2.862863365803854, -1.5669696966754358, 2.7205989360809326]","[0.0, 0.0, -0.0, 0.0, 0.0, 0.0]","[-0.7186890244483948, -4.284668445587158, -0.8182608485221863, -0.4620667099952698, 0.0269165076315403, -0.1861725002527237]"
1584453071193429294,,1397424,,1584453071,193015211,'',"[shoulder_pan_joint, shoulder_lift_joint, elbow_joint, wrist_1_joint, wrist_2_joint,","[1.4047822952270508, -1.17180043855776, 2.483046531677246, -2.8628271261798304, -1.5669458548175257, 2.7206344604492188]","[0.0, 0.0, -0.0, 0.0, 0.0, 0.0]","[-0.7369995713233948, -4.348755359649658, -0.8160190582275391, -0.4620667099952698, 0.0314025916159153, -0.1772003322839737]"
1584453071305202566,,1397438,,1584453071,304832204,'',"[shoulder_pan_joint, shoulder_lift_joint, elbow_joint, wrist_1_joint, wrist_2_joint,","[1.4047702550888062, -1.171788517628805, 2.483058452606201, -2.8628390471087855, -1.5669577757464808, 2.7205870151519775]","[0.0, 0.0, -0.0, 0.0, 0.0, 0.0]","[-0.7095337510108948, -4.344177722930908, -0.8137772083282471, -0.4643097519874573, 0.0291595496237278, -0.1816864162683487]"
1584453071417462237,,1397452,,1584453071,416995596,'',"[shoulder_pan_joint, shoulder_lift_joint, elbow_joint, wrist_1_joint, wrist_2_joint,","[1.4048181772232056, -1.1718123594867151, 2.4830100536346436, -2.862875286732809, -1.5669577757464808, 2.720646381378174]","[0.0, 0.0, -0.0, 0.0, 0.0, 0.0]","[-0.7141113877296448, -4.312134265899658, -0.8182608485221863, -0.4575806260108948, 0.0291595496237278, -0.1839294582605362]"
1584453071529295321,,1397466,,1584453071,528867322,'',"[shoulder_pan_joint, shoulder_lift_joint, elbow_joint, wrist_1_joint, wrist_2_joint,","[1.4047942161560059, -1.17180043855776, 2.483046531677246, -2.8628390471087855, -1.5669220129596155, 2.7205989360809326]","[0.0, 0.0, -0.0, 0.0, 0.0, 0.0]","[-0.7049561142921448, -4.353332996368408, -0.8070517778396606, -0.4687958359718323, 0.0314025916159153, -0.1861725002527237]"
1584453071641425099,,1397480,,1584453071,640977554,'',"[shoulder_pan_joint, shoulder_lift_joint, elbow_joint, wrist_1_joint, wrist_2_joint,","[1.4047942161560059, -1.17180043855776, 2.483058452606201, -2.8628390471087855, -1.5669458548175257, 2.7206225395202637]","[0.0, 0.0, -0.0, 0.0, 0.0, 0.0]","[-0.6912232041358948, -4.298401355743408, -0.8272280693054199, -0.4665527939796448, 0.02467346377670765, -0.1884155422449112]"
1584453071753219361,,1397494,,1584453071,752835614,'',"[shoulder_pan_joint, shoulder_lift_joint, elbow_joint, wrist_1_joint, wrist_2_joint,","[1.4047702550888062, -1.17177659669985, 2.483046531677246, -2.8628514448748987, -1.5669220129596155, 2.7205989360809326]","[0.0, 0.0, -0.0, 0.0, 0.0, 0.0]","[-0.7232666611671448, -4.353332996368408, -0.8272280693054199, -0.4710388779640198, 0.0291595496237278, -0.1906585842370987]"
1584453071865314244,,1397508,,1584453071,864831803,'',"[shoulder_pan_joint, shoulder_lift_joint, elbow_joint, wrist_1_joint, wrist_2_joint,","[1.4048062562942505, -1.17177659669985, 2.483034372329712, -2.862863365803854, -1.566981617604391, 2.7205989360809326]","[0.0, 0.0, -0.0, 0.0, 0.0, 0.0]","[-0.7278442978858948, -4.371643543243408, -0.8160190582275391, -0.4486084580421448, 0.0269165076315403, -0.1839294582605362]"
1584453071977326843,,1397522,,1584453071,976898202,'',"[shoulder_pan_joint, shoulder_lift_joint, elbow_joint, wrist_1_joint, wrist_2_joint,","[1.4047702550888062, -1.17177659669985, 2.4830703735351562, -2.8628271261798304, -1.5669339338885706, 2.7205989360809326]","[0.0, 0.0, -0.0, 0.0, 0.0, 0.0]","[-0.7049561142921448, -4.376221179962158, -0.8092936277389526, -0.4643097519874573, 0.0314025916159153, -0.1861725002527237]"
1584453072089310198,,1397536,,1584453072,88843717,'',"[shoulder_pan_joint, shoulder_lift_joint, elbow_joint, wrist_1_joint, wrist_2_joint,","[1.4047822952270508, -1.17177659669985, 2.483034372329712, -2.8628390471087855, -1.5669220129596155, 2.7205989360809326]","[0.0, 0.0, -0.0, 0.0, 0.0, 0.0]","[-0.7232666611671448, -4.353332996368408, -0.8070517778396606, -0.4598236680030823, 0.0336456336081028, -0.1816864162683487]"
1584453072201201641,,1397550,,1584453072,200819677,'',"[shoulder_pan_joint, shoulder_lift_joint, elbow_joint, wrist_1_joint, wrist_2_joint,","[1.4047702550888062, -1.17177659669985, 2.483046531677246, -2.8628390471087855, -1.5669458548175257, 2.7206344604492188]","[0.0, 0.0, -0.0, 0.0, 0.0, 0.0]","[-0.7186890244483948, -4.312134265899658, -0.8227444887161255, -0.4710388779640198, 0.02467346377670765, -0.1839294582605362]"
1584453072313207918,,1397564,,1584453072,312822889,'',"[shoulder_pan_joint, shoulder_lift_joint, elbow_joint, wrist_1_joint, wrist_2_joint,","[1.4047942161560059, -1.17180043855776, 2.4830703735351562, -2.862863365803854, -1.5669696966754358, 2.7206225395202637]","[0.0, 0.0, -0.0, 0.0, 0.0, 0.0]","[-0.7049561142921448, -4.321289539337158, -0.8115354180335999, -0.4598236680030823, 0.0291595496237278, -0.1816864162683487]"
1584453072425317649,,1397578,,1584453072,424861717,'',"[shoulder_pan_joint, shoulder_lift_joint, elbow_joint, wrist_1_joint, wrist_2_joint,","[1.4047942161560059, -1.1718362013446253, 2.483046531677246, -2.8628514448748987, -1.5669577757464808, 2.7206225395202637]","[0.0, 0.0, -0.0, 0.0, 0.0, 0.0]","[-0.7095337510108948, -4.330444812774658, -0.8406789302825928, -0.4598236680030823, 0.0336456336081028, -0.1816864162683487]"
1584453072537250049,,1397592,,1584453072,536823572,'',"[shoulder_pan_joint, shoulder_lift_joint, elbow_joint, wrist_1_joint, wrist_2_joint,","[1.4047702550888062, -1.1718247572528284, 2.4830822944641113, -2.862875286732809, -1.5669458548175257, 2.7206108570098877]","[0.0, 0.0, -0.0, 0.0, 0.0, 0.0]","[-0.7461548447608948, -4.339600086212158, -0.8182608485221863, -0.4553375840187073, 0.0314025916159153, -0.1861725002527237]"
1584453072649247620,,1397606,,1584453072,648830090,'',"[shoulder_pan_joint, shoulder_lift_joint, elbow_joint, wrist_1_joint, wrist_2_joint,","[1.4047702550888062, -1.171788517628805, 2.483046531677246, -2.8628271261798304, -1.5669696966754358, 2.7205989360809326]","[0.0, 0.0, -0.0, 0.0, 0.0, 0.0]","[-0.7232666611671448, -4.403687000274658, -0.8249862790107727, -0.4665527939796448, 0.0269165076315403, -0.1772003322839737]"
1584453072761312868,,1397620,,1584453072,760850965,'',"[shoulder_pan_joint, shoulder_lift_joint, elbow_joint, wrist_1_joint, wrist_2_joint,","[1.4047942161560059, -1.1718247572528284, 2.483046531677246, -2.8628390471087855, -1.5669696966754358, 2.720646381378174]","[0.0, 0.0, -0.0, 0.0, 0.0, 0.0]","[-0.7003784775733948, -4.371643543243408, -0.8227444887161255, -0.4643097519874573, 0.0291595496237278, -0.1749572902917862]"
1584453072873339353,,1397634,,1584453072,872864126,'',"[shoulder_pan_joint, shoulder_lift_joint, elbow_joint, wrist_1_joint, wrist_2_joint,","[1.4047702550888062, -1.1718123594867151, 2.4830222129821777, -2.8628271261798304, -1.5669696966754358, 2.7205989360809326]","[0.0, 0.0, -0.0, 0.0, 0.0, 0.0]","[-0.7095337510108948, -4.362488269805908, -0.8205026388168335, -0.4643097519874573, 0.0291595496237278, -0.1861725002527237]"
1584453072985307449,,1397648,,1584453072,984844364,'',"[shoulder_pan_joint, shoulder_lift_joint, elbow_joint, wrist_1_joint, wrist_2_joint,","[1.4047822952270508, -1.1718247572528284, 2.483058452606201, -2.8628152052508753, -1.5669458548175257, 2.7206344604492188]","[0.0, 0.0, -0.0, 0.0, 0.0, 0.0]","[-0.7186890244483948, -4.298401355743408, -0.8272280693054199, -0.4710388779640198, 0.0269165076315403, -0.1816864162683487]"
1584453073097144020,,1397662,,1584453073,96808573,'',"[shoulder_pan_joint, shoulder_lift_joint, elbow_joint, wrist_1_joint, wrist_2_joint,","[1.4047462940216064, -1.17180043855776, 2.4830822944641113, -2.8628514448748987, -1.5669696966754358, 2.7206108570098877]","[0.0, 0.0, -0.0, 0.0, 0.0, 0.0]","[-0.7095337510108948, -4.353332996368408, -0.8249862790107727, -0.4620667099952698, 0.02018737979233265, -0.1951446682214737]"
1584453073209131993,,1397676,,1584453073,208797157,'',"[shoulder_pan_joint, shoulder_lift_joint, elbow_joint, wrist_1_joint, wrist_2_joint,","[1.4047942161560059, -1.171788517628805, 2.483034372329712, -2.8628271261798304, -1.5669577757464808, 2.7206225395202637]","[0.0, 0.0, -0.0, 0.0, 0.0, 0.0]","[-0.6958008408546448, -4.280090808868408, -0.8227444887161255, -0.4732819199562073, 0.0314025916159153, -0.1861725002527237]"
1584453073321108896,,1397690,,1584453073,320758722,'',"[shoulder_pan_joint, shoulder_lift_joint, elbow_joint, wrist_1_joint, wrist_2_joint,","[1.4047822952270508, -1.1718123594867151, 2.483058452606201, -2.8628271261798304, -1.5669696966754358, 2.7206344604492188]","[0.0, 0.0, -0.0, 0.0, 0.0, 0.0]","[-0.7278442978858948, -4.353332996368408, -0.8272280693054199, -0.4598236680030823, 0.0269165076315403, -0.1906585842370987]"
1584453073433198589,,1397704,,1584453073,432813810,'',"[shoulder_pan_joint, shoulder_lift_joint, elbow_joint, wrist_1_joint, wrist_2_joint,","[1.4047942161560059, -1.17180043855776, 2.483058452606201, -2.8628152052508753, -1.5669696966754358, 2.7206225395202637]","[0.0, 0.0, -0.0, 0.0, 0.0, 0.0]","[-0.7049561142921448, -4.316711902618408, -0.8227444887161255, -0.4553375840187073, 0.0269165076315403, -0.1906585842370987]"
1584453073545197443,,1397718,,1584453073,544811151,'',"[shoulder_pan_joint, shoulder_lift_joint, elbow_joint, wrist_1_joint, wrist_2_joint,","[1.4047822952270508, -1.1718123594867151, 2.483058452606201, -2.8628390471087855, -1.5669696966754358, 2.7206108570098877]","[0.0, 0.0, -0.0, 0.0, 0.0, 0.0]","[-0.7141113877296448, -4.371643543243408, -0.8182608485221863, -0.4575806260108948, 0.0336456336081028, -0.1951446682214737]"
1584453073657272979,,1397732,,1584453073,656853496,'',"[shoulder_pan_joint, shoulder_lift_joint, elbow_joint, wrist_1_joint, wrist_2_joint,","[1.4047702550888062, -1.1718123594867151, 2.4830703735351562, -2.8628271261798304, -1.5669339338885706, 2.7205870151519775]","[0.0, 0.0, -0.0, 0.0, 0.0, 0.0]","[-0.7186890244483948, -4.353332996368408, -0.8115354180335999, -0.4553375840187073, 0.0291595496237278, -0.1861725002527237]"
1584453073769152200,,1397746,,1584453073,768781618,'',"[shoulder_pan_joint, shoulder_lift_joint, elbow_joint, wrist_1_joint, wrist_2_joint,","[1.4047702550888062, -1.1718362013446253, 2.4830822944641113, -2.862863365803854, -1.5669696966754358, 2.7206225395202637]","[0.0, 0.0, -0.0, 0.0, 0.0, 0.0]","[-0.6912232041358948, -4.353332996368408, -0.8227444887161255, -0.4732819199562073, 0.02243042178452015, -0.1884155422449112]"
1584453073881161272,,1397760,,1584453073,880776784,'',"[shoulder_pan_joint, shoulder_lift_joint, elbow_joint, wrist_1_joint, wrist_2_joint,","[1.4047942161560059, -1.17180043855776, 2.483058452606201, -2.8628514448748987, -1.5669577757464808, 2.7205989360809326]","[0.0, 0.0, -0.0, 0.0, 0.0, 0.0]","[-0.7141113877296448, -4.362488269805908, -0.8272280693054199, -0.4732819199562073, 0.0358886756002903, -0.1884155422449112]"
1584453073993173571,,1397774,,1584453073,992792219,'',"[shoulder_pan_joint, shoulder_lift_joint, elbow_joint, wrist_1_joint, wrist_2_joint,","[1.404758334159851, -1.17180043855776, 2.483046531677246, -2.862863365803854, -1.5669458548175257, 2.7205989360809326]","[0.0, 0.0, -0.0, 0.0, 0.0, 0.0]","[-0.7278442978858948, -4.339600086212158, -0.8182608485221863, -0.4665527939796448, 0.01794433780014515, -0.1839294582605362]"
1584453074105192061,,1397788,,1584453074,104759143,'',"[shoulder_pan_joint, shoulder_lift_joint, elbow_joint, wrist_1_joint, wrist_2_joint,","[1.404758334159851, -1.171788517628805, 2.483034372329712, -2.8628514448748987, -1.5669696966754358, 2.7206344604492188]","[0.0, 0.0, -0.0, 0.0, 0.0, 0.0]","[-0.7003784775733948, -4.330444812774658, -0.8227444887161255, -0.4732819199562073, 0.0358886756002903, -0.1839294582605362]"
1584453074217235769,,1397802,,1584453074,216765050,'',"[shoulder_pan_joint, shoulder_lift_joint, elbow_joint, wrist_1_joint, wrist_2_joint,","[1.4047942161560059, -1.1718247572528284, 2.483058452606201, -2.862887207661764, -1.5669696966754358, 2.7205748558044434]","[0.0, 0.0, -0.0, 0.0, 0.0, 0.0]","[-0.7003784775733948, -4.312134265899658, -0.8249862790107727, -0.4598236680030823, 0.0291595496237278, -0.1839294582605362]"
1584453074329184398,,1397816,,1584453074,328751740,'',"[shoulder_pan_joint, shoulder_lift_joint, elbow_joint, wrist_1_joint, wrist_2_joint,","[1.4047822952270508, -1.1718362013446253, 2.483058452606201, -2.8628271261798304, -1.5669577757464808, 2.7206344604492188]","[0.0, 0.0, -0.0, 0.0, 0.0, 0.0]","[-0.7141113877296448, -4.367065906524658, -0.8115354180335999, -0.4755249619483948, 0.0336456336081028, -0.1906585842370987]"
1584453074441232524,,1397830,,1584453074,440772395,'',"[shoulder_pan_joint, shoulder_lift_joint, elbow_joint, wrist_1_joint, wrist_2_joint,","[1.4050219058990479, -1.1716926733600062, 2.4826865196228027, -2.8624442259417933, -1.566981617604391, 2.7212812900543213]","[0.02298414520919323, 0.008705341257154942, -0.024172980338335037, 0.027515780180692673, 0.0, 0.05219369754195213]","[0.8285523056983948, -2.728271722793579, -1.9324406385421753, -0.2557068169116974, 0.0672912672162056, 0.2960815727710724]"
1584453074553157900,,1397844,,1584453074,552756400,'',"[shoulder_pan_joint, shoulder_lift_joint, elbow_joint, wrist_1_joint, wrist_2_joint,","[1.407013177871704, -1.171236817036764, 2.4811747074127197, -2.8610556761371058, -1.5669696966754358, 2.7248735427856445]","[0.008884305134415627, 0.000472977408207953, 0.00570129556581378, -0.00036432043998502195, 0.0, 0.015684954822063446]","[0.9979249238967896, -3.707886219024658, -1.4908039569854736, -0.3768310844898224, 0.0672912672162056, 0.3095398247241974]"
1584453074665231754,,1397858,,1584453074,664785411,'',"[shoulder_pan_joint, shoulder_lift_joint, elbow_joint, wrist_1_joint, wrist_2_joint,","[1.4052140712738037, -1.17177659669985, 2.4825546741485596, -2.8624680677997034, -1.5669696966754358, 2.7207303047180176]","[-0.028787706047296524, -0.0012144014472141862, 0.0034258905798196793, -0.0044293696992099285, 0.0, -0.06674733757972717]","[-1.0253907442092896, -3.895569324493408, -0.9281095862388611, -0.6123505234718323, 0.0269165076315403, -0.3409424126148224]"
1584453074777216372,,1397872,,1584453074,776790236,'',"[shoulder_pan_joint, shoulder_lift_joint, elbow_joint, wrist_1_joint, wrist_2_joint,","[1.4028868675231934, -1.1715849081622522, 2.4816548824310303, -2.8617380301104944, -1.5669339338885706, 2.7157135009765625]","[-0.011325892060995102, 0.002633333671838045, -0.010060357861220837, 0.00914636068046093, 0.0, -0.02876214124262333]","[-0.9704591035842896, -3.007507562637329, -1.9100226163864136, -0.2153320610523224, 0.0403747595846653, -0.3678589165210724]"
1584453074889072519,,1397886,,1584453074,888706715,'',"[shoulder_pan_joint, shoulder_lift_joint, elbow_joint, wrist_1_joint, wrist_2_joint,","[1.402071237564087, -1.1716206709491175, 2.481990337371826, -2.8620250860797327, -1.5669339338885706, 2.713390350341797]","[-0.005982525181025267, -6.391586794052273e-05, 0.008986570872366428, -0.006941263098269701, 0.0, -0.016471119597554207]","[-0.8285523056983948, -3.968811511993408, -0.9774293899536133, -0.6302948594093323, 0.0403747595846653, -0.3252411186695099]"
1584453075001109293,,1397900,,1584453075,780610,'',"[shoulder_pan_joint, shoulder_lift_joint, elbow_joint, wrist_1_joint, wrist_2_joint,","[1.4017716646194458, -1.171549145375387, 2.4821226596832275, -2.862072769795553, -1.5669940153705042, 2.71151065826416]","[0.0, -6.391586794052273e-05, -0.001418932224623859, 0.0011696603614836931, 0.0, -0.021763352677226067]","[-0.6317139267921448, -3.469848871231079, -1.504254937171936, -0.3970184624195099, 0.0381317175924778, -0.2938385307788849]"
1584453075113347003,,1397914,,1584453075,112839054,'',"[shoulder_pan_joint, shoulder_lift_joint, elbow_joint, wrist_1_joint, wrist_2_joint,","[1.4018315076828003, -1.1715849081622522, 2.4821226596832275, -2.862060848866598, -1.5669577757464808, 2.7094876766204834]","[0.0003707120195031166, -6.391586794052273e-05, -0.00026844663079828024, 0.00024927189224399626, 0.0, -0.017065536230802536]","[-0.004577637184411287, -3.556824207305908, -1.4347587823867798, -0.4441223740577698, 0.0403747595846653, -0.3095398247241974]"
1584453075225187120,,1397928,,1584453075,224757177,'',"[shoulder_pan_joint, shoulder_lift_joint, elbow_joint, wrist_1_joint, wrist_2_joint,","[1.4018914699554443, -1.1715729872332972, 2.4820022583007812, -2.8619535605060022, -1.5669696966754358, 2.7071046829223633]","[0.0009587380336597562, -6.391586794052273e-05, -0.001291100517846644, 0.0014764565275982022, 0.0, -0.027477432042360306]","[-0.0366210974752903, -3.469848871231079, -1.4280333518981934, -0.4306641221046448, 0.0515899695456028, -0.2624359428882599]"
1584453075337125992,,1397942,,1584453075,336736945,'',"[shoulder_pan_joint, shoulder_lift_joint, elbow_joint, wrist_1_joint, wrist_2_joint,","[1.401915431022644, -1.171549145375387, 2.481846570968628, -2.8618457953082483, -1.5669940153705042, 2.7035841941833496]","[0.0005113269435241818, -5.1132694352418184e-05, -0.005969741847366095, 0.0008820389630272985, 0.0, -0.027419907972216606]","[0.1327514797449112, -3.428650140762329, -1.5221893787384033, -0.3633728325366974, 0.0426178015768528, -0.3297272026538849]"
1584453075449314580,,1397956,,1584453075,448785592,'',"[shoulder_pan_joint, shoulder_lift_joint, elbow_joint, wrist_1_joint, wrist_2_joint,","[1.402083158493042, -1.1711528936969202, 2.4800589084625244, -2.86027700105776, -1.5670297781573694, 2.7009263038635254]","[0.0006008091731928289, 0.011057444848120213, -0.02165469527244568, 0.020804615691304207, 0.0, -0.026288596913218498]","[-0.0686645582318306, -2.984619379043579, -1.8405264616012573, -0.2355194389820099, 0.0314025916159153, -0.3454284965991974]"
1584453075561178942,,1397970,,1584453075,560741795,'',"[shoulder_pan_joint, shoulder_lift_joint, elbow_joint, wrist_1_joint, wrist_2_joint,","[1.4039546251296997, -1.1694863478290003, 2.4764597415924072, -2.8580501715289515, -1.5670536200152796, 2.7013814449310303]","[0.03713512048125267, 0.018011491745710373, -0.053881075233221054, 0.02600097469985485, 0.0, 0.05878981575369835]","[0.6958008408546448, -2.929687738418579, -1.6992924213409424, -0.1929016262292862, 0.0560760572552681, 0.3162689507007599]"
1584453075673214214,,1397984,,1584453075,672721514,'',"[shoulder_pan_joint, shoulder_lift_joint, elbow_joint, wrist_1_joint, wrist_2_joint,","[1.4096999168395996, -1.1663687864886683, 2.4666693210601807, -2.853333298360006, -1.5670178572284144, 2.7084453105926514]","[0.06072007492184639, 0.03730130195617676, -0.10750649124383926, 0.0605538934469223, 0.0, 0.05963350459933281]","[0.6408692002296448, -2.769470453262329, -1.7575794458389282, -0.0874786451458931, 0.0448608435690403, 0.3858032524585724]"
1584453075785191216,,1397998,,1584453075,784746816,'',"[shoulder_pan_joint, shoulder_lift_joint, elbow_joint, wrist_1_joint, wrist_2_joint,","[1.4175326824188232, -1.1611416975604456, 2.453291893005371, -2.845670525227682, -1.5670416990863245, 2.7142887115478516]","[0.07177752256393433, 0.05935227498412132, -0.12486603856086731, 0.07512670755386353, 0.0, 0.052155349403619766]","[0.9017945528030396, -2.828979730606079, -1.9032971858978271, -0.0717773512005806, 0.0628051832318306, 0.2714081108570099]"
1584453075897049418,,1398012,,1584453075,896706968,'',"[shoulder_pan_joint, shoulder_lift_joint, elbow_joint, wrist_1_joint, wrist_2_joint,","[1.425917148590088, -1.1541274229632776, 2.438798189163208, -2.8368714491473597, -1.5670178572284144, 2.721508502960205]","[0.08149272948503494, 0.05859806761145592, -0.13371199369430542, 0.08394709974527359, 0.0, 0.0687606930732727]","[1.1764527559280396, -3.327942132949829, -1.9840023517608643, -0.2467346489429474, 0.0583190992474556, 0.3701019585132599]"
1584453076009009689,,1398026,,1584453076,8638967,'',"[shoulder_pan_joint, shoulder_lift_joint, elbow_joint, wrist_1_joint, wrist_2_joint,","[1.4351170063018799, -1.1477130095111292, 2.423259735107422, -2.827353302632467, -1.5670655409442347, 2.7286572456359863]","[0.08438172936439514, 0.06440162658691406, -0.1407555192708969, 0.08383205533027649, 0.0, 0.06331505626440048]","[0.7965088486671448, -3.359985589981079, -2.176798105239868, -0.1794433742761612, 0.0762634351849556, 0.2960815727710724]"
1584453076121307942,,1398040,,1584453076,120827455,'',"[shoulder_pan_joint, shoulder_lift_joint, elbow_joint, wrist_1_joint, wrist_2_joint,","[1.4452762603759766, -1.1407597700702112, 2.4078900814056396, -2.8184097448932093, -1.5670416990863245, 2.7372782230377197]","[0.0875391736626625, 0.05351036414504051, -0.1335330307483673, 0.07669904083013535, 0.0, 0.08137768507003784]","[1.1260987520217896, -3.295898675918579, -2.116269111633301, -0.1435547024011612, 0.0785064771771431, 0.3386993706226349]"
1584453076233221777,,1398054,,1584453076,232754724,'',"[shoulder_pan_joint, shoulder_lift_joint, elbow_joint, wrist_1_joint, wrist_2_joint,","[1.4543565511703491, -1.1347406546222132, 2.393611192703247, -2.8102567831622522, -1.5670178572284144, 2.74518084526062]","[0.07660955935716629, 0.05804838985204697, -0.12501943111419678, 0.07445559650659561, 0.0, 0.06222209706902504]","[1.1169434785842896, -3.323364496231079, -2.1342036724090576, -0.2467346489429474, 0.0740203931927681, 0.2893524467945099]"
1584453076345347688,,1398068,,1584453076,344796448,'',"[shoulder_pan_joint, shoulder_lift_joint, elbow_joint, wrist_1_joint, wrist_2_joint,","[1.4625248908996582, -1.1282904783831995, 2.3795599937438965, -2.80204421678652, -1.5670416990863245, 2.7524008750915527]","[0.074883833527565, 0.04976489394903183, -0.12808740139007568, 0.07541432976722717, 0.0, 0.06222209706902504]","[1.1032105684280396, -3.323364496231079, -2.1454126834869385, -0.1256103664636612, 0.0583190992474556, 0.3902893364429474]"
1584453076457047693,,1398082,,1584453076,456629392,'',"[shoulder_pan_joint, shoulder_lift_joint, elbow_joint, wrist_1_joint, wrist_2_joint,","[1.4707295894622803, -1.1222599188434046, 2.3645007610321045, -2.793220822011129, -1.5670536200152796, 2.7575020790100098]","[0.06782751530408859, 0.061653245240449905, -0.13807106018066406, 0.0790383592247963, 0.0, 0.03424612060189247]","[0.8972169160842896, -3.359985589981079, -2.1521382331848145, -0.2130890041589737, 0.0560760572552681, 0.3117828667163849]"
1584453076569056956,,1398096,,1584453076,568673350,'',"[shoulder_pan_joint, shoulder_lift_joint, elbow_joint, wrist_1_joint, wrist_2_joint,","[1.4781662225723267, -1.115269962941305, 2.348973274230957, -2.7845290342914026, -1.5670297781573694, 2.7611184120178223]","[0.06042606011033058, 0.05261554196476936, -0.13862073421478271, 0.0749349594116211, 0.0, 0.03230947256088257]","[0.9338380098342896, -3.497314691543579, -2.369593858718872, -0.1749572902917862, 0.0628051832318306, 0.2557068169116974]"
1584453076681050991,,1398110,,1584453076,680684236,'',"[shoulder_pan_joint, shoulder_lift_joint, elbow_joint, wrist_1_joint, wrist_2_joint,","[1.4842714071273804, -1.1089995543109339, 2.333493709564209, -2.7759092489825647, -1.5670416990863245, 2.7657880783081055]","[0.050877030938863754, 0.06481069326400757, -0.14158642292022705, 0.07888496667146683, 0.0, 0.046249520033597946]","[0.8880616426467896, -3.579712390899658, -2.2440524101257324, -0.2377624809741974, 0.0515899695456028, 0.3252411186695099]"
1584453076793139702,,1398124,,1584453076,792688520,'',"[shoulder_pan_joint, shoulder_lift_joint, elbow_joint, wrist_1_joint, wrist_2_joint,","[1.490304708480835, -1.1021178404437464, 2.318349838256836, -2.7671216169940394, -1.5670416990863245, 2.7706615924835205]","[0.05896877869963646, 0.051784634590148926, -0.13311117887496948, 0.07900001108646393, 0.0, 0.0372949093580246]","[0.8926392793655396, -3.556824207305908, -2.360626459121704, -0.1704712063074112, 0.0358886756002903, 0.3588867485523224]"
1584453076905088934,,1398138,,1584453076,904664822,'',"[shoulder_pan_joint, shoulder_lift_joint, elbow_joint, wrist_1_joint, wrist_2_joint,","[1.49721360206604, -1.0955475012408655, 2.3031692504882812, -2.75857383409609, -1.5670416990863245, 2.7745890617370605]","[0.06634467095136642, 0.0672011449933052, -0.13876134157180786, 0.07462816685438156, 0.0, 0.0326162688434124]","[0.8377075791358948, -3.671265125274658, -2.3292412757873535, -0.1996307522058487, 0.0560760572552681, 0.3319702446460724]"
1584453077017203984,,1398152,,1584453077,16707627,'',"[shoulder_pan_joint, shoulder_lift_joint, elbow_joint, wrist_1_joint, wrist_2_joint,","[1.5052860975265503, -1.0885937849627894, 2.2876169681549072, -2.7501094977008265, -1.5670416990863245, 2.7783966064453125]","[0.07195648550987244, 0.05381716042757034, -0.14199548959732056, 0.07955607771873474, 0.0, 0.0390014611184597]","[0.8514404892921448, -3.744507312774658, -2.5780820846557617, -0.2243042290210724, 0.0583190992474556, 0.2960815727710724]"
1584453077129039323,,1398166,,1584453077,128621883,'',"[shoulder_pan_joint, shoulder_lift_joint, elbow_joint, wrist_1_joint, wrist_2_joint,","[1.5128785371780396, -1.081820313130514, 2.271428108215332, -2.7412145773517054, -1.5670416990863245, 2.782742977142334]","[0.06532201915979385, 0.06606344133615494, -0.14859160780906677, 0.07907671481370926, 0.0, 0.03821529820561409]","[1.1627198457717896, -3.968811511993408, -2.362868309020996, -0.1727142482995987, 0.0471038855612278, 0.3207550346851349]"
1584453077241128314,,1398180,,1584453077,240668135,'',"[shoulder_pan_joint, shoulder_lift_joint, elbow_joint, wrist_1_joint, wrist_2_joint,","[1.5197874307632446, -1.0750826040851038, 2.255730628967285, -2.732307259236471, -1.5670655409442347, 2.7862279415130615]","[0.058764249086380005, 0.05932670831680298, -0.1330600529909134, 0.07562525570392609, 0.0, 0.02876214124262333]","[0.9521485567092896, -3.804016590118408, -2.4794423580169678, -0.2422485649585724, 0.0560760572552681, 0.3499145805835724]"
1584453077353225963,,1398194,,1584453077,352699670,'',"[shoulder_pan_joint, shoulder_lift_joint, elbow_joint, wrist_1_joint, wrist_2_joint,","[1.526612401008606, -1.068056885396139, 2.2412571907043457, -2.7243827025042933, -1.5670536200152796, 2.7895925045013428]","[0.06697104871273041, 0.06034936383366585, -0.1216830313205719, 0.0667089894413948, 0.0, 0.03140825778245926]","[1.0894776582717896, -4.133606433868408, -2.4951350688934326, -0.1906585842370987, 0.0560760572552681, 0.3117828667163849]"
1584453077465010155,,1398208,,1584453077,464609427,'',"[shoulder_pan_joint, shoulder_lift_joint, elbow_joint, wrist_1_joint, wrist_2_joint,","[1.5345051288604736, -1.0625060240374964, 2.228175640106201, -2.7171037832843226, -1.5670655409442347, 2.793879508972168]","[0.07419353723526001, 0.04924078285694122, -0.11171215027570724, 0.06615292280912399, 0.0, 0.0521169975399971]","[0.7507324814796448, -3.968811511993408, -2.5130696296691895, -0.2736511528491974, 0.0560760572552681, 0.2579498589038849]"
1584453077577073480,,1398222,,1584453077,576622778,'',"[shoulder_pan_joint, shoulder_lift_joint, elbow_joint, wrist_1_joint, wrist_2_joint,","[1.5434768199920654, -1.0565713087665003, 2.215322494506836, -2.7100403944598597, -1.567077938710348, 2.8004531860351562]","[0.0792684555053711, 0.05444353446364403, -0.11143092066049576, 0.06394782662391663, 0.0, 0.05654636770486832]","[0.7644653916358948, -4.284668445587158, -2.636369228363037, -0.2086029201745987, 0.0583190992474556, 0.4037475883960724]"
1584453077689109592,,1398236,,1584453077,688591625,'',"[shoulder_pan_joint, shoulder_lift_joint, elbow_joint, wrist_1_joint, wrist_2_joint,","[1.5524365901947021, -1.052028004323141, 2.203284740447998, -2.703132454548971, -1.5670416990863245, 2.805877447128296]","[0.08461182564496994, 0.02989984303712845, -0.09768901020288467, 0.05694903805851936, 0.0, 0.04066966474056244]","[0.8514404892921448, -3.794861316680908, -2.5848076343536377, -0.1772003322839737, 0.0628051832318306, 0.3229980766773224]"
1584453077801170212,,1398250,,1584453077,800691438,'',"[shoulder_pan_joint, shoulder_lift_joint, elbow_joint, wrist_1_joint, wrist_2_joint,","[1.562284231185913, -1.0477116743670862, 2.1922550201416016, -2.6972788015948694, -1.5670655409442347, 2.810786485671997]","[0.09468496590852737, 0.04604499042034149, -0.08929046988487244, 0.04987355321645737, 0.0, 0.04981602728366852]","[0.9109498262405396, -4.234314441680908, -2.5848076343536377, -0.1525268703699112, 0.1099090725183487, 0.3499145805835724]"
1584453077913225030,,1398264,,1584453077,912573172,'',"[shoulder_pan_joint, shoulder_lift_joint, elbow_joint, wrist_1_joint, wrist_2_joint,","[1.5734988451004028, -1.0425203482257288, 2.182593822479248, -2.6920231024371546, -1.5670297781573694, 2.815600872039795]","[0.10023286193609238, 0.03990906849503517, -0.07539515942335129, 0.0456167533993721, 0.0, 0.03892476484179497]","[0.8834840059280396, -4.376221179962158, -2.721558094024658, -0.1435547024011612, 0.1233673244714737, 0.4015045464038849]"
1584453078024914035,,1398278,,1584453078,24551057,'',"[shoulder_pan_joint, shoulder_lift_joint, elbow_joint, wrist_1_joint, wrist_2_joint,","[1.584209680557251, -1.040074650441305, 2.1764488220214844, -2.6882641951190394, -1.5670297781573694, 2.81904935836792]","[0.09574597328901291, 0.009408415295183659, -0.042210038751363754, 0.02327815815806389, 0.0, 0.028973063454031944]","[0.7919312119483948, -4.092407703399658, -2.808988571166992, -0.2108459621667862, 0.0942077711224556, 0.3544006645679474]"
1584453078137069911,,1398292,,1584453078,136590867,'',"[shoulder_pan_joint, shoulder_lift_joint, elbow_joint, wrist_1_joint, wrist_2_joint,","[1.5955449342727661, -1.0393193403827112, 2.172560214996338, -2.686216656361715, -1.5670655409442347, 2.822031021118164]","[0.10488593578338623, 0.006455502472817898, -0.025540780276060104, 0.014975488185882568, 0.0, 0.0262310728430748]","[0.6958008408546448, -4.142761707305908, -2.6968979835510254, -0.2579498589038849, 0.0964508131146431, 0.3095398247241974]"
1584453078249077852,,1398306,,1584453078,248583840,'',"[shoulder_pan_joint, shoulder_lift_joint, elbow_joint, wrist_1_joint, wrist_2_joint,","[1.6075389385223389, -1.038959805165426, 2.1712875366210938, -2.6854751745807093, -1.567089859639303, 2.825791120529175]","[0.10239321738481522, -0.00014061490946915, -0.000907605339307338, 0.0009779128013178706, 0.0, 0.04212694987654686]","[0.8834840059280396, -5.072021961212158, -2.3471755981445312, -0.4822540879249573, 0.1772003322839737, 0.3409424126148224]"
1584453078360993300,,1398320,,1584453078,360542027,'',"[shoulder_pan_joint, shoulder_lift_joint, elbow_joint, wrist_1_joint, wrist_2_joint,","[1.6186696290969849, -1.0389836470233362, 2.171311855316162, -2.6854751745807093, -1.5670655409442347, 2.8302814960479736]","[0.09577153623104095, -0.0003451456723269075, -0.0, -0.0003451456723269075, 0.0, 0.0371798612177372]","[0.8697510361671448, -5.126953601837158, -2.441331624984741, -0.4777680039405823, 0.1816864162683487, 0.3521576225757599]"
1584453078473017431,,1398334,,1584453078,472525322,'',"[shoulder_pan_joint, shoulder_lift_joint, elbow_joint, wrist_1_joint, wrist_2_joint,","[1.6294288635253906, -1.0390198866473597, 2.171323776245117, -2.6854990164386194, -1.5670536200152796, 2.833502769470215]","[0.09547752141952515, -0.00015339808305725455, -0.0, -0.00015339808305725455, 0.0, 0.02358495444059372]","[0.6866455674171448, -5.401611804962158, -2.2395687103271484, -0.5136566758155823, 0.2243042290210724, 0.3364563286304474]"
1584453078585222780,,1398348,,1584453078,584595619,'',"[shoulder_pan_joint, shoulder_lift_joint, elbow_joint, wrist_1_joint, wrist_2_joint,","[1.6394319534301758, -1.039055649434225, 2.1713476181030273, -2.6854990164386194, -1.5670416990863245, 2.836029052734375]","[0.08456069231033325, -0.00011504856229294091, -0.0, -9.58738019107841e-05, 0.0, 0.016586167737841606]","[0.8193970322608948, -5.300903797149658, -2.3113067150115967, -0.5001984238624573, 0.1929016262292862, 0.3566437065601349]"
1584453078696986375,,1398362,,1584453078,696544619,'',"[shoulder_pan_joint, shoulder_lift_joint, elbow_joint, wrist_1_joint, wrist_2_joint,","[1.6477680206298828, -1.0390437285052698, 2.1713476181030273, -2.6854990164386194, -1.5670297781573694, 2.837334156036377]","[0.07175195217132568, -0.00011504856229294091, -0.0, -7.669904152862728e-05, 0.0, 0.008686166256666183]","[0.8193970322608948, -5.282593250274658, -2.3292412757873535, -0.5181427597999573, 0.2018737941980362, 0.3072967827320099]"
1584453078809136891,,1398376,,1584453078,808743546,'',"[shoulder_pan_joint, shoulder_lift_joint, elbow_joint, wrist_1_joint, wrist_2_joint,","[1.6556960344314575, -1.0390198866473597, 2.1713476181030273, -2.6854751745807093, -1.5670536200152796, 2.836376667022705]","[0.06769968569278717, -0.00010226538870483637, -0.0, -5.752428114647046e-05, 0.0, -0.04030534625053406]","[0.7278442978858948, -5.245972156524658, -2.38752818107605, -0.4508515000343323, 0.2041168361902237, -0.2243042290210724]"
1584453078921010070,,1398390,,1584453078,920541615,'',"[shoulder_pan_joint, shoulder_lift_joint, elbow_joint, wrist_1_joint, wrist_2_joint,","[1.6632879972457886, -1.0390318075763147, 2.1713595390319824, -2.685462776814596, -1.567089859639303, 2.831885814666748]","[0.06693269312381744, -0.00010226538870483637, -0.0, -3.834952076431364e-05, 0.0, -0.0416284054517746]","[1.1352540254592896, -5.465698719024658, -2.2261178493499756, -0.5742188096046448, 0.2265472710132599, -0.2534637749195099]"
1584453079032926921,,1398404,,1584453079,32547743,'',"[shoulder_pan_joint, shoulder_lift_joint, elbow_joint, wrist_1_joint, wrist_2_joint,","[1.6697291135787964, -1.039055649434225, 2.1713833808898926, -2.6854751745807093, -1.5670416990863245, 2.8269286155700684]","[0.045405831187963486, -8.948221511673182e-05, -0.0, -3.834952076431364e-05, 0.0, -0.03702646121382713]","[0.9658814668655396, -5.245972156524658, -2.4032208919525146, -0.4867401719093323, 0.2557068169116974, -0.3319702446460724]"
1584453079145089470,,1398418,,1584453079,144589306,'',"[shoulder_pan_joint, shoulder_lift_joint, elbow_joint, wrist_1_joint, wrist_2_joint,","[1.6737592220306396, -1.0390437285052698, 2.1713833808898926, -2.6854990164386194, -1.5670536200152796, 2.8232405185699463]","[0.027969583868980408, -6.391586794052273e-05, -0.0, -3.834952076431364e-05, 0.0, -0.02665291726589203]","[0.9338380098342896, -5.273437976837158, -2.297855854034424, -0.5495453476905823, 0.2265472710132599, -0.3297272026538849]"
1584453079257157614,,1398432,,1584453079,256596546,'',"[shoulder_pan_joint, shoulder_lift_joint, elbow_joint, wrist_1_joint, wrist_2_joint,","[1.6760261058807373, -1.0391157309161585, 2.1713833808898926, -2.6854990164386194, -1.5670655409442347, 2.820390462875366]","[0.011300325393676758, -0.0006647250265814364, -0.0, -1.917476038215682e-05, 0.0, -0.031695879995822906]","[1.0803223848342896, -5.273437976837158, -2.3292412757873535, -0.4598236680030823, 0.2422485649585724, -0.2758941948413849]"
1584453079368961443,,1398446,,1584453079,368505401,'',"[shoulder_pan_joint, shoulder_lift_joint, elbow_joint, wrist_1_joint, wrist_2_joint,","[1.6762418746948242, -1.0391753355609339, 2.1713595390319824, -2.6854990164386194, -1.567077938710348, 2.816558361053467]","[-0.0007669904152862728, -0.0008309062686748803, -0.0, -1.917476038215682e-05, 0.0, -0.028934713453054428]","[-0.2838135063648224, -5.223083972930908, -2.3337247371673584, -0.5630035996437073, 0.1973877102136612, -0.2400055229663849]"
1584453079480928918,,1398460,,1584453079,480504595,'',"[shoulder_pan_joint, shoulder_lift_joint, elbow_joint, wrist_1_joint, wrist_2_joint,","[1.6762179136276245, -1.0391877333270472, 2.1713476181030273, -2.6855109373675745, -1.5670416990863245, 2.8153133392333984]","[-0.0001661812566453591, 0.0, -0.0, -1.917476038215682e-05, 0.0, -0.0007286408799700439]","[0.0503540076315403, -5.232239246368408, -2.300097703933716, -0.5652466416358948, 0.2041168361902237, 0.0403747595846653]"
1584453079592868310,,1398474,,1584453079,592502687,'',"[shoulder_pan_joint, shoulder_lift_joint, elbow_joint, wrist_1_joint, wrist_2_joint,","[1.6762058734893799, -1.0391996542560022, 2.1713356971740723, -2.6855109373675745, -1.567101780568258, 2.8153011798858643]","[-8.948221511673182e-05, 0.0, -0.0, -1.917476038215682e-05, -0.0005368932615965605, -0.00026844663079828024]","[0.1464843899011612, -5.117798328399658, -2.181281566619873, -0.4396362900733948, 0.0493469275534153, 0.0269165076315403]"
1584453079705113665,,1398488,,1584453079,704560652,'',"[shoulder_pan_joint, shoulder_lift_joint, elbow_joint, wrist_1_joint, wrist_2_joint,","[1.6761938333511353, -1.0391996542560022, 2.1713595390319824, -2.6855347792254847, -1.567077938710348, 2.8153252601623535]","[-6.391586794052273e-05, -2.5566347176209092e-05, -0.0, -1.917476038215682e-05, -0.0002109223569277674, -0.00013422331539914012]","[0.1098632961511612, -5.232239246368408, -2.188007116317749, -0.4710388779640198, 0.0471038855612278, 0.02243042178452015]"
1584453079817155087,,1398502,,1584453079,816555417,'',"[shoulder_pan_joint, shoulder_lift_joint, elbow_joint, wrist_1_joint, wrist_2_joint,","[1.6761938333511353, -1.0392354170428675, 2.1713595390319824, -2.6855109373675745, -1.567077938710348, 2.815277338027954]","[-5.1132694352418184e-05, -2.5566347176209092e-05, -0.0, -1.917476038215682e-05, -0.00011504856229294091, -9.58738019107841e-05]","[0.1419067531824112, -5.181885242462158, -2.188007116317749, -0.4844971299171448, 0.0448608435690403, 0.01345825381577015]"
1584453079928922539,,1398516,,1584453079,928471006,'',"[shoulder_pan_joint, shoulder_lift_joint, elbow_joint, wrist_1_joint, wrist_2_joint,","[1.6762298345565796, -1.0392478148089808, 2.1713476181030273, -2.6855109373675745, -1.5670655409442347, 2.8153133392333984]","[-3.834952076431364e-05, -8.948221511673182e-05, -0.0, -1.917476038215682e-05, -7.669904152862728e-05, -5.752428114647046e-05]","[0.0961303785443306, -5.232239246368408, -2.183523416519165, -0.5001984238624573, 0.0471038855612278, 0.02018737979233265]"
1584453080041060502,,1398530,,1584453080,40537766,'',"[shoulder_pan_joint, shoulder_lift_joint, elbow_joint, wrist_1_joint, wrist_2_joint,","[1.6762298345565796, -1.0392234961139124, 2.1713476181030273, -2.6854990164386194, -1.567077938710348, 2.8153011798858643]","[-2.5566347176209092e-05, 0.0, -0.0, -1.917476038215682e-05, -5.752428114647046e-05, -5.752428114647046e-05]","[0.1327514797449112, -5.213928699493408, -2.183523416519165, -0.4643097519874573, 0.0426178015768528, 0.008972168900072575]"
1584453080152955302,,1398544,,1584453080,152486055,'',"[shoulder_pan_joint, shoulder_lift_joint, elbow_joint, wrist_1_joint, wrist_2_joint,","[1.6762179136276245, -1.0391996542560022, 2.1713595390319824, -2.6855347792254847, -1.567101780568258, 2.8153252601623535]","[-2.5566347176209092e-05, 0.0, -0.0, 0.0, -5.752428114647046e-05, -3.834952076431364e-05]","[0.1098632961511612, -5.245972156524658, -2.185765266418457, -0.4284210503101349, 0.0403747595846653, -0.0358886756002903]"
1584453080264941742,,1398558,,1584453080,264481853,'',"[shoulder_pan_joint, shoulder_lift_joint, elbow_joint, wrist_1_joint, wrist_2_joint,","[1.6762298345565796, -1.0392115751849573, 2.171311855316162, -2.6855347792254847, -1.5671375433551233, 2.815289258956909]","[-2.5566347176209092e-05, 0.0, -0.0, 0.0, -5.752428114647046e-05, -3.834952076431364e-05]","[0.1190185695886612, -5.177307605743408, -2.19921612739563, -0.4912262558937073, 0.0515899695456028, -0.0650482252240181]"
1584453080376914116,,1398572,,1584453080,376484765,'',"[shoulder_pan_joint, shoulder_lift_joint, elbow_joint, wrist_1_joint, wrist_2_joint,","[1.6762418746948242, -1.0392478148089808, 2.1713476181030273, -2.6854990164386194, -1.567089859639303, 2.8153133392333984]","[-1.2783173588104546e-05, 0.0, -0.0, 0.0, -5.752428114647046e-05, -3.834952076431364e-05]","[0.1281738430261612, -5.186462879180908, -2.185765266418457, -0.4777680039405823, 0.0538330152630806, -0.0560760572552681]"
1584453080488889045,,1398586,,1584453080,488449474,'',"[shoulder_pan_joint, shoulder_lift_joint, elbow_joint, wrist_1_joint, wrist_2_joint,","[1.6762298345565796, -1.0392234961139124, 2.1713714599609375, -2.6854990164386194, -1.567089859639303, 2.8153011798858643]","[-1.2783173588104546e-05, -3.834952076431364e-05, -0.0, 0.0, -5.752428114647046e-05, -1.917476038215682e-05]","[0.1373291164636612, -5.200195789337158, -2.188007116317749, -0.4284210503101349, 0.0560760572552681, -0.0583190992474556]"
1584453080600987565,,1398600,,1584453080,600570446,'',"[shoulder_pan_joint, shoulder_lift_joint, elbow_joint, wrist_1_joint, wrist_2_joint,","[1.6762418746948242, -1.0392354170428675, 2.1713476181030273, -2.6855109373675745, -1.567101780568258, 2.8153133392333984]","[-1.2783173588104546e-05, -3.834952076431364e-05, -0.0, 0.0, -5.752428114647046e-05, -1.917476038215682e-05]","[0.1510620266199112, -5.108643054962158, -2.203699827194214, -0.4979553818702698, 0.0515899695456028, -0.0538330152630806]"
1584453080712955791,,1398614,,1584453080,712503887,'',"[shoulder_pan_joint, shoulder_lift_joint, elbow_joint, wrist_1_joint, wrist_2_joint,","[1.6762298345565796, -1.0392478148089808, 2.1713595390319824, -2.6855347792254847, -1.567089859639303, 2.8153133392333984]","[-1.2783173588104546e-05, -3.834952076431364e-05, -0.0, 0.0, -3.834952076431364e-05, -1.917476038215682e-05]","[0.1556396633386612, -5.168152332305908, -2.190248966217041, -0.4844971299171448, 0.0538330152630806, -0.0471038855612278]"
1584453080825072004,,1398628,,1584453080,824566049,'',"[shoulder_pan_joint, shoulder_lift_joint, elbow_joint, wrist_1_joint, wrist_2_joint,","[1.6762179136276245, -1.0392354170428675, 2.1713595390319824, -2.6855109373675745, -1.567101780568258, 2.8153133392333984]","[-1.2783173588104546e-05, 0.0, -0.0, 0.0, -3.834952076431364e-05, -1.917476038215682e-05]","[0.1281738430261612, -5.232239246368408, -2.190248966217041, -0.4732819199562073, 0.0448608435690403, -0.0583190992474556]"
1584453080936922681,,1398642,,1584453080,936446732,'',"[shoulder_pan_joint, shoulder_lift_joint, elbow_joint, wrist_1_joint, wrist_2_joint,","[1.6762298345565796, -1.0392478148089808, 2.1713356971740723, -2.6855228582965296, -1.567077938710348, 2.815289258956909]","[-1.2783173588104546e-05, 0.0, -0.0, 0.0, -3.834952076431364e-05, -1.917476038215682e-05]","[0.1510620266199112, -5.245972156524658, -2.194732427597046, -0.4844971299171448, 0.0560760572552681, -0.0538330152630806]"
1584453081048979633,,1398656,,1584453081,48477796,'',"[shoulder_pan_joint, shoulder_lift_joint, elbow_joint, wrist_1_joint, wrist_2_joint,","[1.6762298345565796, -1.0392592589007776, 2.1713356971740723, -2.6855228582965296, -1.5671137014972132, 2.8153011798858643]","[-1.2783173588104546e-05, 0.0, -0.0, 0.0, -1.917476038215682e-05, -1.917476038215682e-05]","[0.1235962063074112, -5.186462879180908, -2.181281566619873, -0.4665527939796448, 0.0583190992474556, -0.0583190992474556]"
1584453081160840931,,1398670,,1584453081,160433149,'',"[shoulder_pan_joint, shoulder_lift_joint, elbow_joint, wrist_1_joint, wrist_2_joint,","[1.6762179136276245, -1.039271656666891, 2.1713595390319824, -2.6854870955096644, -1.567101780568258, 2.8153011798858643]","[-1.2783173588104546e-05, -5.1132694352418184e-05, -0.0, 0.0, -1.917476038215682e-05, -1.917476038215682e-05]","[0.0823974683880806, -5.278015613555908, -2.188007116317749, -0.4800110459327698, 0.0583190992474556, -0.0471038855612278]"
1584453081273039837,,1398684,,1584453081,272491383,'',"[shoulder_pan_joint, shoulder_lift_joint, elbow_joint, wrist_1_joint, wrist_2_joint,","[1.6761938333511353, -1.0392234961139124, 2.171323776245117, -2.685558621083395, -1.5671137014972132, 2.815289258956909]","[-1.2783173588104546e-05, 0.0, -0.0, 0.0, -1.917476038215682e-05, -1.917476038215682e-05]","[0.1602173000574112, -5.136108875274658, -2.17903995513916, -0.4957123398780823, 0.0471038855612278, -0.0538330152630806]"
1584453081385009647,,1398698,,1584453081,384439522,'',"[shoulder_pan_joint, shoulder_lift_joint, elbow_joint, wrist_1_joint, wrist_2_joint,","[1.6761819124221802, -1.039283577595846, 2.1713476181030273, -2.6855347792254847, -1.5671256224261683, 2.8153011798858643]","[0.0, 0.0, -0.0, 0.0, -1.917476038215682e-05, 0.0]","[0.0869751051068306, -5.245972156524658, -2.176798105239868, -0.4755249619483948, 0.0493469275534153, -0.0583190992474556]"
1584453081496999664,,1398712,,1584453081,496471748,'',"[shoulder_pan_joint, shoulder_lift_joint, elbow_joint, wrist_1_joint, wrist_2_joint,","[1.6762298345565796, -1.0392592589007776, 2.1713833808898926, -2.6855228582965296, -1.567101780568258, 2.8153011798858643]","[0.0, 0.0, -0.0, 0.0, -1.917476038215682e-05, 0.0]","[0.1373291164636612, -5.223083972930908, -2.190248966217041, -0.4710388779640198, 0.0403747595846653, -0.0583190992474556]"
1584453081608845372,,1398726,,1584453081,608413906,'',"[shoulder_pan_joint, shoulder_lift_joint, elbow_joint, wrist_1_joint, wrist_2_joint,","[1.6762298345565796, -1.039271656666891, 2.1713356971740723, -2.6855347792254847, -1.5671137014972132, 2.8153133392333984]","[0.0, -1.2783173588104546e-05, -0.0, 0.0, -1.917476038215682e-05, 0.0]","[0.1144409328699112, -5.181885242462158, -2.185765266418457, -0.4687958359718323, 0.0493469275534153, -0.0583190992474556]"
1584453081720827394,,1398740,,1584453081,720405486,'',"[shoulder_pan_joint, shoulder_lift_joint, elbow_joint, wrist_1_joint, wrist_2_joint,","[1.6762058734893799, -1.039295498524801, 2.1713476181030273, -2.6855109373675745, -1.567101780568258, 2.8153252601623535]","[0.0, -1.2783173588104546e-05, -0.0, 0.0, -1.917476038215682e-05, 0.0]","[0.1739502102136612, -5.122375965118408, -2.185765266418457, -0.4373932480812073, 0.0515899695456028, -0.0493469275534153]"
1584453081832868697,,1398754,,1584453081,832357763,'',"[shoulder_pan_joint, shoulder_lift_joint, elbow_joint, wrist_1_joint, wrist_2_joint,","[1.6762179136276245, -1.0393074194537562, 2.1713356971740723, -2.6855347792254847, -1.567101780568258, 2.8153011798858643]","[0.0, -1.2783173588104546e-05, -0.0, 0.0, -1.917476038215682e-05, 0.0]","[0.1281738430261612, -5.245972156524658, -2.201457977294922, -0.4620667099952698, 0.0471038855612278, -0.0493469275534153]"
1584453081945051203,,1398768,,1584453081,944457224,'',"[shoulder_pan_joint, shoulder_lift_joint, elbow_joint, wrist_1_joint, wrist_2_joint,","[1.6762298345565796, -1.039295498524801, 2.1713476181030273, -2.6855109373675745, -1.5671256224261683, 2.8153011798858643]","[0.0, -1.2783173588104546e-05, -0.0, 0.0, 0.0, 0.0]","[0.1510620266199112, -5.149841785430908, -2.188007116317749, -0.5091705918312073, 0.0717773512005806, -0.0583190992474556]"
1584453082056862998,,1398782,,1584453082,56378323,'',"[shoulder_pan_joint, shoulder_lift_joint, elbow_joint, wrist_1_joint, wrist_2_joint,","[1.6761938333511353, -1.0392592589007776, 2.1713476181030273, -2.6855228582965296, -1.5671137014972132, 2.8153133392333984]","[0.0, -1.2783173588104546e-05, -0.0, 0.0, 0.0, 0.0]","[0.1327514797449112, -5.094910144805908, -2.188007116317749, -0.4553375840187073, 0.0560760572552681, -0.0448608435690403]"
1584453082169043380,,1398796,,1584453082,168462165,'',"[shoulder_pan_joint, shoulder_lift_joint, elbow_joint, wrist_1_joint, wrist_2_joint,","[1.6762179136276245, -1.039295498524801, 2.171311855316162, -2.6855109373675745, -1.567101780568258, 2.8153133392333984]","[0.0, -1.2783173588104546e-05, -0.0, 0.0, 0.0, 0.0]","[0.1464843899011612, -5.085754871368408, -2.188007116317749, -0.5024414658546448, 0.0605621412396431, -0.0515899695456028]"
1584453082280982262,,1398810,,1584453082,280427456,'',"[shoulder_pan_joint, shoulder_lift_joint, elbow_joint, wrist_1_joint, wrist_2_joint,","[1.6762298345565796, -1.039295498524801, 2.1713476181030273, -2.6855109373675745, -1.567089859639303, 2.8153252601623535]","[0.0, -1.2783173588104546e-05, -0.0, 0.0, 0.0, 0.0]","[0.1693725734949112, -4.994202136993408, -2.194732427597046, -0.5001984238624573, 0.0560760572552681, -0.0493469275534153]"
1584453082392975034,,1398824,,1584453082,392486351,'',"[shoulder_pan_joint, shoulder_lift_joint, elbow_joint, wrist_1_joint, wrist_2_joint,","[1.6762058734893799, -1.039271656666891, 2.1713476181030273, -2.685558621083395, -1.567101780568258, 2.8153133392333984]","[0.0, -1.2783173588104546e-05, -0.0, 0.0, 0.0, 0.0]","[0.1144409328699112, -4.948425769805908, -2.185765266418457, -0.4800110459327698, 0.0448608435690403, -0.0493469275534153]"
1584453082504738108,,1398838,,1584453082,504350754,'',"[shoulder_pan_joint, shoulder_lift_joint, elbow_joint, wrist_1_joint, wrist_2_joint,","[1.6762179136276245, -1.0392592589007776, 2.171323776245117, -2.6855228582965296, -1.5670655409442347, 2.815289258956909]","[0.0, -1.2783173588104546e-05, -0.0, 0.0, 0.0, 0.0]","[0.1510620266199112, -5.072021961212158, -2.17903995513916, -0.4508515000343323, 0.0650482252240181, -0.0493469275534153]"
1584453082616891550,,1398852,,1584453082,616416142,'',"[shoulder_pan_joint, shoulder_lift_joint, elbow_joint, wrist_1_joint, wrist_2_joint,","[1.6762058734893799, -1.0393074194537562, 2.1713595390319824, -2.6855109373675745, -1.567089859639303, 2.8153011798858643]","[0.0, -1.2783173588104546e-05, -0.0, 0.0, 0.0, 0.0]","[0.1281738430261612, -5.035400867462158, -2.188007116317749, -0.4530945420265198, 0.0515899695456028, -0.0493469275534153]"
1584453082728923906,,1398866,,1584453082,728420236,'',"[shoulder_pan_joint, shoulder_lift_joint, elbow_joint, wrist_1_joint, wrist_2_joint,","[1.6761938333511353, -1.0392592589007776, 2.1713356971740723, -2.6855228582965296, -1.5671137014972132, 2.8153133392333984]","[0.0, -1.2783173588104546e-05, -0.0, 0.0, 0.0, 0.0]","[0.1739502102136612, -5.021667957305908, -2.185765266418457, -0.4486084580421448, 0.0471038855612278, -0.0515899695456028]"
1584453082840867817,,1398880,,1584453082,840425972,'',"[shoulder_pan_joint, shoulder_lift_joint, elbow_joint, wrist_1_joint, wrist_2_joint,","[1.6762058734893799, -1.039283577595846, 2.171311855316162, -2.6855467001544397, -1.567101780568258, 2.8153133392333984]","[0.0, -1.2783173588104546e-05, -0.0, 0.0, 0.0, 0.0]","[0.1602173000574112, -5.030823230743408, -2.185765266418457, -0.4620667099952698, 0.0493469275534153, -0.0471038855612278]"
1584453082952865859,,1398894,,1584453082,952407754,'',"[shoulder_pan_joint, shoulder_lift_joint, elbow_joint, wrist_1_joint, wrist_2_joint,","[1.6762298345565796, -1.039295498524801, 2.1713476181030273, -2.6855228582965296, -1.5671256224261683, 2.8153133392333984]","[0.0, -1.2783173588104546e-05, -0.0, 0.0, 0.0, 0.0]","[0.1190185695886612, -5.062866687774658, -2.183523416519165, -0.4710388779640198, 0.0560760572552681, -0.0515899695456028]"
1584453083064825860,,1398908,,1584453083,64379767,'',"[shoulder_pan_joint, shoulder_lift_joint, elbow_joint, wrist_1_joint, wrist_2_joint,","[1.6762537956237793, -1.039283577595846, 2.1713595390319824, -2.685558621083395, -1.567101780568258, 2.8153252601623535]","[0.0, -1.2783173588104546e-05, -0.0, 0.0, 0.0, 0.0]","[0.1235962063074112, -4.989624500274658, -2.185765266418457, -0.4844971299171448, 0.0515899695456028, -0.0515899695456028]"
1584453083177035828,,1398922,,1584453083,176487184,'',"[shoulder_pan_joint, shoulder_lift_joint, elbow_joint, wrist_1_joint, wrist_2_joint,","[1.6762179136276245, -1.0392478148089808, 2.1713476181030273, -2.6855347792254847, -1.567089859639303, 2.8153133392333984]","[0.0, -1.2783173588104546e-05, -0.0, 0.0, 0.0, 0.0]","[0.1281738430261612, -4.902649402618408, -2.185765266418457, -0.4755249619483948, 0.0515899695456028, -0.0538330152630806]"
1584453083288911482,,1398936,,1584453083,288415356,'',"[shoulder_pan_joint, shoulder_lift_joint, elbow_joint, wrist_1_joint, wrist_2_joint,","[1.6762537956237793, -1.0392115751849573, 2.1713714599609375, -2.6855109373675745, -1.5671375433551233, 2.8153252601623535]","[0.0, -1.2783173588104546e-05, -0.0, 0.0, 0.0, 0.0]","[0.1373291164636612, -5.035400867462158, -2.192490816116333, -0.4665527939796448, 0.0515899695456028, -0.0493469275534153]"
1584453083400985145,,1398950,,1584453083,400442502,'',"[shoulder_pan_joint, shoulder_lift_joint, elbow_joint, wrist_1_joint, wrist_2_joint,","[1.6762058734893799, -1.039295498524801, 2.1713356971740723, -2.6855347792254847, -1.5671256224261683, 2.815289258956909]","[0.0, -1.2783173588104546e-05, -0.0, 0.0, 0.0, 0.0]","[0.1281738430261612, -5.090332508087158, -2.188007116317749, -0.4149627983570099, 0.0493469275534153, -0.0515899695456028]"
1584453083512942702,,1398964,,1584453083,512474197,'',"[shoulder_pan_joint, shoulder_lift_joint, elbow_joint, wrist_1_joint, wrist_2_joint,","[1.6762179136276245, -1.039271656666891, 2.1713476181030273, -2.685558621083395, -1.567101780568258, 2.8153011798858643]","[0.0, -1.2783173588104546e-05, -0.0, 0.0, 0.0, 0.0]","[0.1556396633386612, -5.076599597930908, -2.183523416519165, -0.4867401719093323, 0.0650482252240181, -0.0471038855612278]"
1584453083624748886,,1398978,,1584453083,624392961,'',"[shoulder_pan_joint, shoulder_lift_joint, elbow_joint, wrist_1_joint, wrist_2_joint,","[1.6762179136276245, -1.039283577595846, 2.1713476181030273, -2.6855109373675745, -1.567101780568258, 2.8153252601623535]","[0.0, 0.0, -0.0, 0.0, 0.0, 0.0]","[0.1007080152630806, -5.058289051055908, -2.183523416519165, -0.4979553818702698, 0.0493469275534153, -0.0560760572552681]"
1584453083736937314,,1398992,,1584453083,736413435,'',"[shoulder_pan_joint, shoulder_lift_joint, elbow_joint, wrist_1_joint, wrist_2_joint,","[1.6762179136276245, -1.0392478148089808, 2.171323776245117, -2.6855347792254847, -1.5671256224261683, 2.8153011798858643]","[0.0, 0.0, -0.0, 0.0, 0.0, 0.0]","[0.1235962063074112, -4.911804676055908, -2.185765266418457, -0.4957123398780823, 0.0471038855612278, -0.0583190992474556]"
1584453083848911361,,1399006,,1584453083,848370761,'',"[shoulder_pan_joint, shoulder_lift_joint, elbow_joint, wrist_1_joint, wrist_2_joint,","[1.6762298345565796, -1.039283577595846, 2.1713476181030273, -2.6855109373675745, -1.567101780568258, 2.815289258956909]","[0.0, 0.0, -0.0, 0.0, 0.0, 0.0]","[0.1510620266199112, -4.957581043243408, -2.19921612739563, -0.4822540879249573, 0.0515899695456028, -0.0515899695456028]"
1584453083960828993,,1399020,,1584453083,960349147,'',"[shoulder_pan_joint, shoulder_lift_joint, elbow_joint, wrist_1_joint, wrist_2_joint,","[1.6762179136276245, -1.0392592589007776, 2.1713356971740723, -2.6855347792254847, -1.567101780568258, 2.8153371810913086]","[0.0, 0.0, -0.0, 0.0, 0.0, 0.0]","[0.1647949367761612, -5.058289051055908, -2.190248966217041, -0.4844971299171448, 0.0493469275534153, -0.0471038855612278]"
1584453084072726707,,1399034,,1584453084,72311822,'',"[shoulder_pan_joint, shoulder_lift_joint, elbow_joint, wrist_1_joint, wrist_2_joint,","[1.6762179136276245, -1.0392354170428675, 2.1713356971740723, -2.6855347792254847, -1.567101780568258, 2.815289258956909]","[0.0, 0.0, -0.0, 0.0, 0.0, 0.0]","[0.1556396633386612, -4.930115222930908, -2.181281566619873, -0.4553375840187073, 0.0403747595846653, -0.0448608435690403]"
1584453084184890299,,1399048,,1584453084,184448884,'',"[shoulder_pan_joint, shoulder_lift_joint, elbow_joint, wrist_1_joint, wrist_2_joint,","[1.6762058734893799, -1.0393074194537562, 2.1713356971740723, -2.6855228582965296, -1.567101780568258, 2.815361261367798]","[0.0, 0.0, -0.0, 0.0, 0.0, 0.006442719604820013]","[0.009155274368822575, -5.250549793243408, -2.1386873722076416, -0.4687958359718323, 0.0515899695456028, 0.0897216871380806]"
1584453084296718934,,1399062,,1584453084,296327754,'',"[shoulder_pan_joint, shoulder_lift_joint, elbow_joint, wrist_1_joint, wrist_2_joint,","[1.6762058734893799, -1.039271656666891, 2.1713476181030273, -2.6855347792254847, -1.567089859639303, 2.813636541366577]","[0.0, 0.0, -0.0, 0.0, 0.0, -0.02040194533765316]","[-0.0686645582318306, -5.191040515899658, -2.181281566619873, -0.4755249619483948, 0.0515899695456028, -0.2960815727710724]"
1584453084408706377,,1399076,,1584453084,408284519,'',"[shoulder_pan_joint, shoulder_lift_joint, elbow_joint, wrist_1_joint, wrist_2_joint,","[1.6762058734893799, -1.039271656666891, 2.1713476181030273, -2.6854990164386194, -1.567089859639303, 2.8112659454345703]","[0.0, 0.0, -0.0, 0.0, 0.0, -0.02088131383061409]","[0.004577637184411287, -5.049133777618408, -2.277679443359375, -0.4373932480812073, 0.0448608435690403, -0.2938385307788849]"
1584453084520689791,,1399090,,1584453084,520269406,'',"[shoulder_pan_joint, shoulder_lift_joint, elbow_joint, wrist_1_joint, wrist_2_joint,","[1.6761938333511353, -1.039295498524801, 2.171311855316162, -2.6855109373675745, -1.567089859639303, 2.808260440826416]","[0.0, 0.0, -0.0, 0.0, 0.0, -0.030545393005013466]","[-0.0366210974752903, -5.163574695587158, -2.194732427597046, -0.4530945420265198, 0.0583190992474556, -0.2893524467945099]"
1584453084632752184,,1399104,,1584453084,632330526,'',"[shoulder_pan_joint, shoulder_lift_joint, elbow_joint, wrist_1_joint, wrist_2_joint,","[1.6762058734893799, -1.039295498524801, 2.1713356971740723, -2.6855228582965296, -1.567101780568258, 2.8050153255462646]","[0.0, 0.0, -0.0, 0.0, 0.0, -0.03549247980117798]","[-0.0823974683880806, -5.126953601837158, -2.183523416519165, -0.4979553818702698, 0.0672912672162056, -0.2557068169116974]"
1584453084744692278,,1399118,,1584453084,744318800,'',"[shoulder_pan_joint, shoulder_lift_joint, elbow_joint, wrist_1_joint, wrist_2_joint,","[1.6762537956237793, -1.039271656666891, 2.171323776245117, -2.6855228582965296, -1.5671256224261683, 2.800321340560913]","[0.0, 0.0, -0.0, 0.0, 0.0, -0.052270397543907166]","[-0.0503540076315403, -5.062866687774658, -2.288888454437256, -0.4508515000343323, 0.0605621412396431, -0.2422485649585724]"
1584453084856681123,,1399132,,1584453084,856300292,'',"[shoulder_pan_joint, shoulder_lift_joint, elbow_joint, wrist_1_joint, wrist_2_joint,","[1.6762058734893799, -1.039271656666891, 2.171323776245117, -2.6855228582965296, -1.5670536200152796, 2.794118642807007]","[0.0, 0.0, -0.0, 0.0, 0.0, -0.04964345321059227]","[0.0732421949505806, -5.209351062774658, -2.2395687103271484, -0.4329071640968323, 0.0403747595846653, -0.3701019585132599]"
1584453084968592332,,1399146,,1584453084,968271774,'',"[shoulder_pan_joint, shoulder_lift_joint, elbow_joint, wrist_1_joint, wrist_2_joint,","[1.6762058734893799, -1.039271656666891, 2.171323776245117, -2.6855347792254847, -1.567101780568258, 2.7895805835723877]","[0.0, 0.0, -0.0, 0.0, 0.0, -0.03790850192308426]","[0.01831054873764515, -5.026245594024658, -2.286646842956543, -0.4575806260108948, 0.0628051832318306, -0.2736511528491974]"
1584453085080889914,,1399160,,1584453085,80363912,'',"[shoulder_pan_joint, shoulder_lift_joint, elbow_joint, wrist_1_joint, wrist_2_joint,","[1.6762058734893799, -1.039283577595846, 2.171323776245117, -2.6855467001544397, -1.5671256224261683, 2.7848267555236816]","[0.0, 0.0, -0.0, 0.0, 0.0, -0.049796853214502335]","[-0.1007080152630806, -5.076599597930908, -2.2395687103271484, -0.4463654160499573, 0.0471038855612278, -0.2422485649585724]"
1584453085192851698,,1399174,,1584453085,192369187,'',"[shoulder_pan_joint, shoulder_lift_joint, elbow_joint, wrist_1_joint, wrist_2_joint,","[1.6761938333511353, -1.039283577595846, 2.171311855316162, -2.685558621083395, -1.5671137014972132, 2.7789833545684814]","[0.0, 0.0, -0.0, 0.0, 0.0, -0.04690146446228027]","[0.02288818545639515, -5.058289051055908, -2.2350850105285645, -0.4508515000343323, 0.0493469275534153, -0.3364563286304474]"
1584453085304713206,,1399188,,1584453085,304360747,'',"[shoulder_pan_joint, shoulder_lift_joint, elbow_joint, wrist_1_joint, wrist_2_joint,","[1.6762298345565796, -1.0393074194537562, 2.1713595390319824, -2.68557054201235, -1.5670655409442347, 2.774553060531616]","[0.0, 0.0, -0.0, 0.0, 0.0, -0.035952676087617874]","[-0.0778198316693306, -5.191040515899658, -2.1633472442626953, -0.4957123398780823, 0.0672912672162056, -0.2781372368335724]"
1584453085416670021,,1399202,,1584453085,416327832,'',"[shoulder_pan_joint, shoulder_lift_joint, elbow_joint, wrist_1_joint, wrist_2_joint,","[1.6762058734893799, -1.039283577595846, 2.1713356971740723, -2.685558621083395, -1.567089859639303, 2.7703857421875]","[0.0, 0.0, -0.0, 0.0, 0.0, -0.040535442531108856]","[0.01373291201889515, -5.113220691680908, -2.2462942600250244, -0.4508515000343323, 0.0493469275534153, -0.2601929008960724]"
1584453085528729578,,1399216,,1584453085,528311968,'',"[shoulder_pan_joint, shoulder_lift_joint, elbow_joint, wrist_1_joint, wrist_2_joint,","[1.6762179136276245, -1.039295498524801, 2.171311855316162, -2.6855467001544397, -1.567089859639303, 2.7653329372406006]","[0.0, 0.0, -0.0, 0.0, 0.0, -0.04182015359401703]","[0.0961303785443306, -5.094910144805908, -2.3247575759887695, -0.4194488823413849, 0.0493469275534153, -0.3229980766773224]"
1584453085640683718,,1399230,,1584453085,640276628,'',"[shoulder_pan_joint, shoulder_lift_joint, elbow_joint, wrist_1_joint, wrist_2_joint,","[1.6762058734893799, -1.0393193403827112, 2.171299457550049, -2.6855467001544397, -1.5671256224261683, 2.7613096237182617]","[0.0, 0.0, -0.0, 0.0, 0.0, -0.026576217263936996]","[0.0, -5.122375965118408, -2.2306015491485596, -0.4508515000343323, 0.0538330152630806, -0.3566437065601349]"
1584453085752642677,,1399244,,1584453085,752245195,'',"[shoulder_pan_joint, shoulder_lift_joint, elbow_joint, wrist_1_joint, wrist_2_joint,","[1.6762418746948242, -1.0393193403827112, 2.171323776245117, -2.6855467001544397, -1.567101780568258, 2.758938789367676]","[0.0, 0.0, -0.0, 0.0, 0.0, -0.02107306197285652]","[-0.0686645582318306, -5.172729969024658, -2.2171506881713867, -0.4710388779640198, 0.0560760572552681, -0.2646789848804474]"
1584453085864673972,,1399258,,1584453085,864267683,'',"[shoulder_pan_joint, shoulder_lift_joint, elbow_joint, wrist_1_joint, wrist_2_joint,","[1.6762179136276245, -1.0393074194537562, 2.1713356971740723, -2.685558621083395, -1.567077938710348, 2.7561845779418945]","[0.0, 0.0, -0.0, 0.0, 0.0, -0.02546408213675022]","[-0.0366210974752903, -5.099487781524658, -2.27319598197937, -0.4553375840187073, 0.0583190992474556, -0.2758941948413849]"
1584453085976718450,,1399272,,1584453085,976317271,'',"[shoulder_pan_joint, shoulder_lift_joint, elbow_joint, wrist_1_joint, wrist_2_joint,","[1.6762058734893799, -1.0393193403827112, 2.171311855316162, -2.6855467001544397, -1.567077938710348, 2.7523770332336426]","[0.0, 0.0, -0.0, 0.0, 0.0, -0.03587597608566284]","[-0.004577637184411287, -4.985046863555908, -2.264228582382202, -0.4351502060890198, 0.0515899695456028, -0.2915954887866974]"
1584453086088842448,,1399286,,1584453086,88356681,'',"[shoulder_pan_joint, shoulder_lift_joint, elbow_joint, wrist_1_joint, wrist_2_joint,","[1.6762298345565796, -1.0393312613116663, 2.171323776245117, -2.685558621083395, -1.5670536200152796, 2.7508203983306885]","[0.0, 0.0, -0.0, 0.0, 0.0, 0.0024735440965741873]","[-0.02288818545639515, -5.090332508087158, -2.2373268604278564, -0.4194488823413849, 0.0403747595846653, -0.02018737979233265]"
1584453086200649253,,1399300,,1584453086,200280564,'',"[shoulder_pan_joint, shoulder_lift_joint, elbow_joint, wrist_1_joint, wrist_2_joint,","[1.6762179136276245, -1.0393312613116663, 2.171311855316162, -2.685582462941305, -1.567077938710348, 2.7508325576782227]","[0.0, -2.5566347176209092e-05, -0.0, 0.0, 0.0, 0.00028762139845639467]","[0.1739502102136612, -5.108643054962158, -2.194732427597046, -0.4889832139015198, 0.0538330152630806, -0.02467346377670765]"
1584453086312549122,,1399314,,1584453086,312215418,'',"[shoulder_pan_joint, shoulder_lift_joint, elbow_joint, wrist_1_joint, wrist_2_joint,","[1.6762298345565796, -1.0393431822406214, 2.171299457550049, -2.68557054201235, -1.567089859639303, 2.7508203983306885]","[0.0, -2.5566347176209092e-05, -0.0, 0.0, 0.0, 0.00015339808305725455]","[0.1602173000574112, -5.213928699493408, -2.196974277496338, -0.5001984238624573, 0.0538330152630806, -0.02467346377670765]"
1584453086424594872,,1399328,,1584453086,424308958,'',"[shoulder_pan_joint, shoulder_lift_joint, elbow_joint, wrist_1_joint, wrist_2_joint,","[1.6762537956237793, -1.0393431822406214, 2.171299457550049, -2.6855347792254847, -1.567077938710348, 2.750856399536133]","[0.0, -2.5566347176209092e-05, -0.0, 0.0, 0.0, 9.58738019107841e-05]","[0.1693725734949112, -5.191040515899658, -2.192490816116333, -0.4800110459327698, 0.0471038855612278, -0.02467346377670765]"
1584453086536578618,,1399342,,1584453086,536266115,'',"[shoulder_pan_joint, shoulder_lift_joint, elbow_joint, wrist_1_joint, wrist_2_joint,","[1.6762298345565796, -1.0393312613116663, 2.171311855316162, -2.68557054201235, -1.567101780568258, 2.7508203983306885]","[0.0, -2.5566347176209092e-05, -0.0, 0.0, 0.0, 7.669904152862728e-05]","[0.1510620266199112, -5.245972156524658, -2.194732427597046, -0.4912262558937073, 0.0471038855612278, -0.02467346377670765]"
1584453086648780541,,1399356,,1584453086,648353283,'',"[shoulder_pan_joint, shoulder_lift_joint, elbow_joint, wrist_1_joint, wrist_2_joint,","[1.6762298345565796, -1.0393431822406214, 2.171299457550049, -2.68557054201235, -1.567077938710348, 2.7508444786071777]","[0.0, 0.0, -0.0, 0.0, 0.0, 5.752428114647046e-05]","[0.1510620266199112, -5.223083972930908, -2.181281566619873, -0.4687958359718323, 0.0538330152630806, -0.01794433780014515]"
1584453086760699015,,1399370,,1584453086,760282036,'',"[shoulder_pan_joint, shoulder_lift_joint, elbow_joint, wrist_1_joint, wrist_2_joint,","[1.6762537956237793, -1.0393312613116663, 2.171299457550049, -2.685558621083395, -1.567077938710348, 2.7508444786071777]","[0.0, 0.0, -0.0, 0.0, 0.0, 3.834952076431364e-05]","[0.1373291164636612, -5.195618152618408, -2.196974277496338, -0.4463654160499573, 0.0538330152630806, -0.02243042178452015]"
1584453086872559169,,1399384,,1584453086,872226818,'',"[shoulder_pan_joint, shoulder_lift_joint, elbow_joint, wrist_1_joint, wrist_2_joint,","[1.6762058734893799, -1.0393431822406214, 2.1713476181030273, -2.685558621083395, -1.567077938710348, 2.7508444786071777]","[0.0, 0.0, -0.0, 0.0, 0.0, 3.834952076431364e-05]","[0.1419067531824112, -5.218506336212158, -2.192490816116333, -0.5069275498390198, 0.0605621412396431, -0.0269165076315403]"
1584453086984581036,,1399398,,1584453086,984240420,'',"[shoulder_pan_joint, shoulder_lift_joint, elbow_joint, wrist_1_joint, wrist_2_joint,","[1.6762298345565796, -1.0393555800067347, 2.171299457550049, -2.685606304799215, -1.5670655409442347, 2.748749017715454]","[0.0, 0.0, -0.0, 0.0, 0.0, -0.06130170822143555]","[0.1281738430261612, -5.172729969024658, -2.196974277496338, -0.5046845078468323, 0.0426178015768528, -0.3431854546070099]"
1584453087096546557,,1399412,,1584453087,96256575,'',"[shoulder_pan_joint, shoulder_lift_joint, elbow_joint, wrist_1_joint, wrist_2_joint,","[1.6762298345565796, -1.0393670240985315, 2.171299457550049, -2.685558621083395, -1.5670536200152796, 2.731626510620117]","[0.0, 0.0, -0.0, 0.0, 0.0, -0.20160342752933502]","[0.1327514797449112, -5.145264148712158, -2.201457977294922, -0.4755249619483948, 0.0583190992474556, -0.4934692978858948]"
1584453087208648293,,1399426,,1584453087,208239339,'',"[shoulder_pan_joint, shoulder_lift_joint, elbow_joint, wrist_1_joint, wrist_2_joint,","[1.6762179136276245, -1.0393431822406214, 2.171311855316162, -2.685582462941305, -1.5670536200152796, 2.709080219268799]","[0.0, 0.0, -0.0, 0.0, 0.0, -0.20089396834373474]","[0.1739502102136612, -5.076599597930908, -2.183523416519165, -0.4620667099952698, 0.0538330152630806, -0.3992615044116974]"
1584453087320703972,,1399440,,1584453087,320305689,'',"[shoulder_pan_joint, shoulder_lift_joint, elbow_joint, wrist_1_joint, wrist_2_joint,","[1.6762298345565796, -1.0393555800067347, 2.171323776245117, -2.68557054201235, -1.5670416990863245, 2.6865460872650146]","[0.0, 0.0, -0.0, 0.0, 0.0, -0.1977493017911911]","[0.1556396633386612, -5.218506336212158, -2.183523416519165, -0.4284210503101349, 0.0560760572552681, -0.4665527939796448]"
1584453087432577813,,1399454,,1584453087,432231686,'',"[shoulder_pan_joint, shoulder_lift_joint, elbow_joint, wrist_1_joint, wrist_2_joint,","[1.6762418746948242, -1.0393431822406214, 2.171311855316162, -2.68557054201235, -1.5670655409442347, 2.6643476486206055]","[0.0, 0.0, -0.0, 0.0, 0.0, -0.20110487937927246]","[0.1831054836511612, -5.044556140899658, -2.188007116317749, -0.4261780083179474, 0.0493469275534153, -0.3925323784351349]"
1584453087544421888,,1399468,,1584453087,544119393,'',"[shoulder_pan_joint, shoulder_lift_joint, elbow_joint, wrist_1_joint, wrist_2_joint,","[1.6762298345565796, -1.0393794218646448, 2.1712756156921387, -2.68559438387026, -1.5670536200152796, 2.641993522644043]","[0.0, 0.0, -0.0, 0.0, 0.0, -0.19849711656570435]","[0.1510620266199112, -5.158997058868408, -2.185765266418457, -0.4553375840187073, 0.0493469275534153, -0.4598236680030823]"
1584453087656584056,,1399482,,1584453087,656215638,'',"[shoulder_pan_joint, shoulder_lift_joint, elbow_joint, wrist_1_joint, wrist_2_joint,","[1.6762298345565796, -1.0393794218646448, 2.1712875366210938, -2.685558621083395, -1.567077938710348, 2.6194605827331543]","[0.0, 0.0, -0.0, 0.0, 0.0, -0.20100900530815125]","[0.1556396633386612, -5.072021961212158, -2.17903995513916, -0.4665527939796448, 0.0538330152630806, -0.4373932480812073]"
1584453087768568904,,1399496,,1584453087,768203972,'',"[shoulder_pan_joint, shoulder_lift_joint, elbow_joint, wrist_1_joint, wrist_2_joint,","[1.6762418746948242, -1.0393431822406214, 2.171299457550049, -2.68557054201235, -1.5670655409442347, 2.5970115661621094]","[0.0, 0.0, -0.0, 0.0, 0.0, -0.20112405717372894]","[0.1785278469324112, -5.039978504180908, -2.190248966217041, -0.4934692978858948, 0.0538330152630806, -0.3947754204273224]"
1584453087880499931,,1399510,,1584453087,880199319,'',"[shoulder_pan_joint, shoulder_lift_joint, elbow_joint, wrist_1_joint, wrist_2_joint,","[1.6762418746948242, -1.0393555800067347, 2.171299457550049, -2.685558621083395, -1.567077938710348, 2.574765920639038]","[0.0, -1.2783173588104546e-05, -0.0, 0.0, 0.0, -0.20125828683376312]","[0.1464843899011612, -5.076599597930908, -2.190248966217041, -0.4957123398780823, 0.0560760572552681, -0.5226288437843323]"
1584453087992511318,,1399524,,1584453087,992210356,'',"[shoulder_pan_joint, shoulder_lift_joint, elbow_joint, wrist_1_joint, wrist_2_joint,","[1.6762298345565796, -1.0393670240985315, 2.171311855316162, -2.685582462941305, -1.567077938710348, 2.552257537841797]","[0.0, 0.0, -0.0, 0.0, 0.0, -0.20210197567939758]","[0.1602173000574112, -5.117798328399658, -2.190248966217041, -0.5001984238624573, 0.0560760572552681, -0.3656158745288849]"
1584453088104620758,,1399538,,1584453088,104263911,'',"[shoulder_pan_joint, shoulder_lift_joint, elbow_joint, wrist_1_joint, wrist_2_joint,","[1.6762418746948242, -1.0393794218646448, 2.171299457550049, -2.685558621083395, -1.5670536200152796, 2.5298092365264893]","[0.0, 0.0, -0.0, 0.0, 0.0, -0.19857381284236908]","[0.1693725734949112, -5.181885242462158, -2.192490816116333, -0.4912262558937073, 0.0471038855612278, -0.5316010117530823]"
1584453088216516128,,1399552,,1584453088,216217831,'',"[shoulder_pan_joint, shoulder_lift_joint, elbow_joint, wrist_1_joint, wrist_2_joint,","[1.6762179136276245, -1.0393794218646448, 2.171323776245117, -2.68557054201235, -1.5670536200152796, 2.507516860961914]","[0.0, 0.0, -0.0, 0.0, 0.0, -0.20001192390918732]","[0.1327514797449112, -5.126953601837158, -2.192490816116333, -0.5024414658546448, 0.0538330152630806, -0.4216919243335724]"
1584453088328460039,,1399566,,1584453088,328165038,'',"[shoulder_pan_joint, shoulder_lift_joint, elbow_joint, wrist_1_joint, wrist_2_joint,","[1.6762418746948242, -1.0393312613116663, 2.1713476181030273, -2.6855467001544397, -1.5670536200152796, 2.484996795654297]","[0.0, 0.0, -0.0, 0.0, 0.0, -0.196617990732193]","[0.1556396633386612, -5.090332508087158, -2.188007116317749, -0.4755249619483948, 0.0515899695456028, -0.4867401719093323]"
1584453088440703320,,1399580,,1584453088,440172348,'',"[shoulder_pan_joint, shoulder_lift_joint, elbow_joint, wrist_1_joint, wrist_2_joint,","[1.6762058734893799, -1.0393555800067347, 2.171323776245117, -2.68557054201235, -1.5670536200152796, 2.4626212120056152]","[0.0, 0.0, -0.0, 0.0, 0.0, -0.19918741285800934]","[0.2014160305261612, -5.232239246368408, -2.188007116317749, -0.4687958359718323, 0.0448608435690403, -0.4530945420265198]"
1584453088552434783,,1399594,,1584453088,552157536,'',"[shoulder_pan_joint, shoulder_lift_joint, elbow_joint, wrist_1_joint, wrist_2_joint,","[1.6762179136276245, -1.0393670240985315, 2.171311855316162, -2.685606304799215, -1.5670416990863245, 2.44016170501709]","[0.0, 0.0, -0.0, 0.0, 0.0, -0.19997356832027435]","[0.1647949367761612, -5.177307605743408, -2.19921612739563, -0.4822540879249573, 0.0560760572552681, -0.4329071640968323]"
1584453088664501715,,1399608,,1584453088,664162922,'',"[shoulder_pan_joint, shoulder_lift_joint, elbow_joint, wrist_1_joint, wrist_2_joint,","[1.6762298345565796, -1.0393670240985315, 2.1713356971740723, -2.68557054201235, -1.5670536200152796, 2.417881965637207]","[0.0, 0.0, -0.0, 0.0, 0.0, -0.2007022202014923]","[0.1419067531824112, -5.026245594024658, -2.201457977294922, -0.4777680039405823, 0.0493469275534153, -0.4710388779640198]"
1584453088776457798,,1399622,,1584453088,776154862,'',"[shoulder_pan_joint, shoulder_lift_joint, elbow_joint, wrist_1_joint, wrist_2_joint,","[1.6762418746948242, -1.0393794218646448, 2.1712875366210938, -2.685558621083395, -1.567089859639303, 2.3955304622650146]","[0.0, 0.0, -0.0, 0.0, 0.0, -0.20039542019367218]","[0.1968383938074112, -5.081177234649658, -2.19921612739563, -0.4687958359718323, 0.0493469275534153, -0.3566437065601349]"
1584453088888471981,,1399636,,1584453088,888154708,'',"[shoulder_pan_joint, shoulder_lift_joint, elbow_joint, wrist_1_joint, wrist_2_joint,","[1.6762058734893799, -1.0393555800067347, 2.171323776245117, -2.68559438387026, -1.5670416990863245, 2.3730592727661133]","[0.0, 0.0, -0.0, 0.0, 0.0, -0.19966678321361542]","[0.1327514797449112, -5.108643054962158, -2.190248966217041, -0.4261780083179474, 0.0448608435690403, -0.5607605576515198]"
1584453089000528401,,1399650,,1584453089,203204,'',"[shoulder_pan_joint, shoulder_lift_joint, elbow_joint, wrist_1_joint, wrist_2_joint,","[1.6762298345565796, -1.0393913427936, 2.171323776245117, -2.68561822572817, -1.5670416990863245, 2.350672483444214]","[0.0, 0.0, -0.0, 0.0, 0.0, -0.20279227197170258]","[0.1510620266199112, -5.076599597930908, -2.192490816116333, -0.5001984238624573, 0.0515899695456028, -0.3902893364429474]"
1584453089112491118,,1399664,,1584453089,112215473,'',"[shoulder_pan_joint, shoulder_lift_joint, elbow_joint, wrist_1_joint, wrist_2_joint,","[1.6762298345565796, -1.039403263722555, 2.1712875366210938, -2.685582462941305, -1.5670536200152796, 2.328369140625]","[0.0, 0.0, -0.0, 0.0, 0.0, -0.19761507213115692]","[0.1739502102136612, -5.113220691680908, -2.190248966217041, -0.4373932480812073, 0.0426178015768528, -0.5136566758155823]"
1584453089224398791,,1399678,,1584453089,224141661,'',"[shoulder_pan_joint, shoulder_lift_joint, elbow_joint, wrist_1_joint, wrist_2_joint,","[1.6762298345565796, -1.0393913427936, 2.171323776245117, -2.685558621083395, -1.5670536200152796, 2.3058266639709473]","[0.0, 0.0, -0.0, 0.0, 0.0, -0.20018449425697327]","[0.1373291164636612, -5.062866687774658, -2.188007116317749, -0.4486084580421448, 0.0426178015768528, -0.4329071640968323]"
1584453089336476031,,1399692,,1584453089,336209804,'',"[shoulder_pan_joint, shoulder_lift_joint, elbow_joint, wrist_1_joint, wrist_2_joint,","[1.6762298345565796, -1.0393670240985315, 2.1713356971740723, -2.685558621083395, -1.567077938710348, 2.283451795578003]","[0.0, 0.0, -0.0, 0.0, 0.0, -0.19801774621009827]","[0.1419067531824112, -5.177307605743408, -2.194732427597046, -0.4800110459327698, 0.0403747595846653, -0.5271149277687073]"
1584453089448424261,,1399706,,1584453089,448105004,'',"[shoulder_pan_joint, shoulder_lift_joint, elbow_joint, wrist_1_joint, wrist_2_joint,","[1.6762298345565796, -1.0393193403827112, 2.171311855316162, -2.68557054201235, -1.5670416990863245, 2.2610652446746826]","[0.0, 0.0, -0.0, 0.0, 0.0, -0.2018526941537857]","[0.1510620266199112, -5.062866687774658, -2.192490816116333, -0.4800110459327698, 0.0515899695456028, -0.4777680039405823]"
1584453089560477806,,1399720,,1584453089,560174349,'',"[shoulder_pan_joint, shoulder_lift_joint, elbow_joint, wrist_1_joint, wrist_2_joint,","[1.6762298345565796, -1.0393555800067347, 2.171323776245117, -2.68559438387026, -1.567077938710348, 2.238487482070923]","[0.0, 0.0, -0.0, 0.0, 0.0, -0.19997356832027435]","[0.1190185695886612, -5.067444324493408, -2.201457977294922, -0.4710388779640198, 0.0538330152630806, -0.4396362900733948]"
1584453089672391872,,1399734,,1584453089,672071884,'',"[shoulder_pan_joint, shoulder_lift_joint, elbow_joint, wrist_1_joint, wrist_2_joint,","[1.6762298345565796, -1.0393913427936, 2.171323776245117, -2.685558621083395, -1.5670655409442347, 2.216184616088867]","[0.0, 0.0, -0.0, 0.0, 0.0, -0.19966678321361542]","[0.1556396633386612, -4.989624500274658, -2.205941677093506, -0.4777680039405823, 0.0538330152630806, -0.5293579697608948]"
1584453089784564860,,1399748,,1584453089,784157770,'',"[shoulder_pan_joint, shoulder_lift_joint, elbow_joint, wrist_1_joint, wrist_2_joint,","[1.6762418746948242, -1.0393670240985315, 2.171311855316162, -2.68559438387026, -1.5670655409442347, 2.1937501430511475]","[0.0, 0.0, -0.0, 0.0, 0.0, -0.20252381265163422]","[0.1144409328699112, -4.971313953399658, -2.190248966217041, -0.4508515000343323, 0.0471038855612278, -0.3678589165210724]"
1584453089896516977,,1399762,,1584453089,896132459,'',"[shoulder_pan_joint, shoulder_lift_joint, elbow_joint, wrist_1_joint, wrist_2_joint,","[1.6762179136276245, -1.0393913427936, 2.171311855316162, -2.685582462941305, -1.5670297781573694, 2.1714119911193848]","[0.0, 0.0, -0.0, 0.0, 0.0, -0.19822867214679718]","[0.1464843899011612, -5.104065418243408, -2.190248966217041, -0.4889832139015198, 0.0448608435690403, -0.5630035996437073]"
1584453090008390997,,1399776,,1584453090,8078022,'',"[shoulder_pan_joint, shoulder_lift_joint, elbow_joint, wrist_1_joint, wrist_2_joint,","[1.6762418746948242, -1.0393913427936, 2.171311855316162, -2.685558621083395, -1.5670536200152796, 2.148941993713379]","[0.0, 0.0, -0.0, 0.0, 0.0, -0.20041459798812866]","[0.1785278469324112, -5.104065418243408, -2.19921612739563, -0.4553375840187073, 0.0583190992474556, -0.4418793320655823]"
1584453090120563776,,1399790,,1584453090,120204294,'',"[shoulder_pan_joint, shoulder_lift_joint, elbow_joint, wrist_1_joint, wrist_2_joint,","[1.6762537956237793, -1.0393431822406214, 2.1713476181030273, -2.685582462941305, -1.5670536200152796, 2.1266157627105713]","[0.0, 0.0, -0.0, 0.0, 0.0, -0.1994558572769165]","[0.1602173000574112, -4.957581043243408, -2.201457977294922, -0.4687958359718323, 0.0448608435690403, -0.4934692978858948]"
1584453090232322601,,1399804,,1584453090,232039953,'',"[shoulder_pan_joint, shoulder_lift_joint, elbow_joint, wrist_1_joint, wrist_2_joint,","[1.6761938333511353, -1.0393555800067347, 2.171299457550049, -2.685582462941305, -1.5670416990863245, 2.1041452884674072]","[0.0, 0.0, -0.0, 0.0, 0.0, -0.20039542019367218]","[0.1373291164636612, -4.975891590118408, -2.205941677093506, -0.4687958359718323, 0.0403747595846653, -0.4665527939796448]"
1584453090344515367,,1399818,,1584453090,344143112,'',"[shoulder_pan_joint, shoulder_lift_joint, elbow_joint, wrist_1_joint, wrist_2_joint,","[1.6762058734893799, -1.0393312613116663, 2.171323776245117, -2.68557054201235, -1.5670297781573694, 2.0818309783935547]","[0.0, 0.0, -0.0, 0.0, 0.0, -0.19782599806785583]","[0.1602173000574112, -4.985046863555908, -2.190248966217041, -0.5024414658546448, 0.0493469275534153, -0.5316010117530823]"
1584453090456584682,,1399832,,1584453090,456246270,'',"[shoulder_pan_joint, shoulder_lift_joint, elbow_joint, wrist_1_joint, wrist_2_joint,","[1.6762298345565796, -1.0393794218646448, 2.1713476181030273, -2.685558621083395, -1.5670178572284144, 2.059277057647705]","[0.0, 0.0, -0.0, 0.0, 0.0, -0.2008364349603653]","[0.1876831203699112, -5.099487781524658, -2.2104251384735107, -0.5024414658546448, 0.0493469275534153, -0.4912262558937073]"
1584453090568408359,,1399846,,1584453090,568090675,'',"[shoulder_pan_joint, shoulder_lift_joint, elbow_joint, wrist_1_joint, wrist_2_joint,","[1.6762418746948242, -1.0393431822406214, 2.171311855316162, -2.6855467001544397, -1.5670178572284144, 2.0369749069213867]","[0.0, 0.0, -0.0, 0.0, 0.0, -0.20125828683376312]","[0.1602173000574112, -5.030823230743408, -2.185765266418457, -0.4710388779640198, 0.0515899695456028, -0.4463654160499573]"
1584453090680530953,,1399860,,1584453090,680200125,'',"[shoulder_pan_joint, shoulder_lift_joint, elbow_joint, wrist_1_joint, wrist_2_joint,","[1.6762179136276245, -1.0393670240985315, 2.171323776245117, -2.6855467001544397, -1.5670536200152796, 2.0146961212158203]","[0.0, 0.0, -0.0, 0.0, 0.0, -0.20006944239139557]","[0.1235962063074112, -5.030823230743408, -2.203699827194214, -0.4643097519874573, 0.0493469275534153, -0.5831909775733948]"
1584453090792335103,,1399874,,1584453090,792010758,'',"[shoulder_pan_joint, shoulder_lift_joint, elbow_joint, wrist_1_joint, wrist_2_joint,","[1.6762418746948242, -1.0393555800067347, 2.1713476181030273, -2.68557054201235, -1.567077938710348, 1.9921302795410156]","[0.0, 0.0, -0.0, 0.0, 0.0, -0.20215949416160583]","[0.1556396633386612, -5.062866687774658, -2.2193925380706787, -0.4710388779640198, 0.0426178015768528, -0.4306641221046448]"
1584453090904508042,,1399888,,1584453090,904114647,'',"[shoulder_pan_joint, shoulder_lift_joint, elbow_joint, wrist_1_joint, wrist_2_joint,","[1.6762418746948242, -1.0393670240985315, 2.1713356971740723, -2.6855467001544397, -1.567077938710348, 1.9698516130447388]","[0.0, 0.0, -0.0, 0.0, 0.0, -0.19801774621009827]","[0.1464843899011612, -5.067444324493408, -2.196974277496338, -0.4732819199562073, 0.0448608435690403, -0.5854340195655823]"
1584453091016370391,,1399902,,1584453091,16038611,'',"[shoulder_pan_joint, shoulder_lift_joint, elbow_joint, wrist_1_joint, wrist_2_joint,","[1.6762298345565796, -1.0393794218646448, 2.171323776245117, -2.685558621083395, -1.5670536200152796, 1.9474890232086182]","[0.0, 0.0, -0.0, 0.0, 0.0, -0.20028036832809448]","[0.1327514797449112, -5.062866687774658, -2.183523416519165, -0.5114136338233948, 0.0560760572552681, -0.4486084580421448]"
1584453091128493687,,1399916,,1584453091,128139565,'',"[shoulder_pan_joint, shoulder_lift_joint, elbow_joint, wrist_1_joint, wrist_2_joint,","[1.6762418746948242, -1.0393913427936, 2.1713595390319824, -2.685558621083395, -1.5670536200152796, 1.9250545501708984]","[0.0, 0.0, -0.0, 0.0, 0.0, -0.19734662771224976]","[0.1739502102136612, -5.067444324493408, -2.2171506881713867, -0.4867401719093323, 0.0515899695456028, -0.5248718857765198]"
1584453091240459419,,1399930,,1584453091,240107251,'',"[shoulder_pan_joint, shoulder_lift_joint, elbow_joint, wrist_1_joint, wrist_2_joint,","[1.6762179136276245, -1.0393913427936, 2.171311855316162, -2.685558621083395, -1.5670536200152796, 1.9026200771331787]","[0.0, 0.0, -0.0, 0.0, 0.0, -0.19976265728473663]","[0.1739502102136612, -5.058289051055908, -2.2149088382720947, -0.4934692978858948, 0.0381317175924778, -0.4844971299171448]"
1584453091352509107,,1399944,,1584453091,352140899,'',"[shoulder_pan_joint, shoulder_lift_joint, elbow_joint, wrist_1_joint, wrist_2_joint,","[1.6762418746948242, -1.0393555800067347, 2.171311855316162, -2.685558621083395, -1.5670178572284144, 1.8802452087402344]","[0.0, 0.0, -0.0, 0.0, 0.0, -0.19993522763252258]","[0.1327514797449112, -5.044556140899658, -2.201457977294922, -0.4598236680030823, 0.0471038855612278, -0.4777680039405823]"
1584453091464415298,,1399958,,1584453091,464050076,'',"[shoulder_pan_joint, shoulder_lift_joint, elbow_joint, wrist_1_joint, wrist_2_joint,","[1.6762058734893799, -1.0393670240985315, 2.1713356971740723, -2.685558621083395, -1.5670297781573694, 1.8578941822052002]","[0.0, 0.0, -0.0, 0.0, 0.0, -0.2017376571893692]","[0.1464843899011612, -5.131531238555908, -2.19921612739563, -0.4396362900733948, 0.0448608435690403, -0.5248718857765198]"
1584453091576389446,,1399972,,1584453091,576010678,'',"[shoulder_pan_joint, shoulder_lift_joint, elbow_joint, wrist_1_joint, wrist_2_joint,","[1.6762179136276245, -1.0393913427936, 2.1712875366210938, -2.685558621083395, -1.5670536200152796, 1.8354953527450562]","[0.0, 0.0, -0.0, 0.0, 0.0, -0.2006063461303711]","[0.1693725734949112, -4.994202136993408, -2.2104251384735107, -0.4777680039405823, 0.0515899695456028, -0.4037475883960724]"
1584453091688298241,,1399986,,1584453091,687989444,'',"[shoulder_pan_joint, shoulder_lift_joint, elbow_joint, wrist_1_joint, wrist_2_joint,","[1.6762179136276245, -1.039403263722555, 2.171323776245117, -2.685582462941305, -1.5670297781573694, 1.8130720853805542]","[0.0, 0.0, -0.0, 0.0, 0.0, -0.2010473608970642]","[0.1419067531824112, -5.145264148712158, -2.2104251384735107, -0.4418793320655823, 0.0403747595846653, -0.5697327256202698]"
1584453091800469366,,1400000,,1584453091,800095648,'',"[shoulder_pan_joint, shoulder_lift_joint, elbow_joint, wrist_1_joint, wrist_2_joint,","[1.6762418746948242, -1.0393913427936, 2.1712875366210938, -2.6855467001544397, -1.5670536200152796, 1.7907087802886963]","[0.0, 0.0, -0.0, 0.0, 0.0, -0.2017376571893692]","[0.1190185695886612, -5.012512683868408, -2.2328433990478516, -0.4844971299171448, 0.0471038855612278, -0.4441223740577698]"
1584453091912375957,,1400014,,1584453091,912053856,'',"[shoulder_pan_joint, shoulder_lift_joint, elbow_joint, wrist_1_joint, wrist_2_joint,","[1.6762298345565796, -1.0393670240985315, 2.1713476181030273, -2.685558621083395, -1.5670416990863245, 1.7683451175689697]","[0.0, 0.0, -0.0, 0.0, 0.0, -0.19884225726127625]","[0.1373291164636612, -5.081177234649658, -2.192490816116333, -0.4575806260108948, 0.0515899695456028, -0.5630035996437073]"
1584453092024299330,,1400028,,1584453092,23978671,'',"[shoulder_pan_joint, shoulder_lift_joint, elbow_joint, wrist_1_joint, wrist_2_joint,","[1.6762418746948242, -1.0393913427936, 2.171323776245117, -2.68557054201235, -1.5670416990863245, 1.7458735704421997]","[0.0, 0.0, -0.0, 0.0, 0.0, -0.2008172571659088]","[0.1602173000574112, -4.989624500274658, -2.203699827194214, -0.4687958359718323, 0.0471038855612278, -0.4463654160499573]"
1584453092136476948,,1400042,,1584453092,136114901,'',"[shoulder_pan_joint, shoulder_lift_joint, elbow_joint, wrist_1_joint, wrist_2_joint,","[1.6762298345565796, -1.0393670240985315, 2.171323776245117, -2.685558621083395, -1.5670297781573694, 1.723449945449829]","[0.0, 0.0, -0.0, 0.0, 0.0, -0.19782599806785583]","[0.1876831203699112, -5.076599597930908, -2.2395687103271484, -0.4418793320655823, 0.0897216871380806, -0.5293579697608948]"
1584453092248329188,,1400056,,1584453092,247973052,'',"[shoulder_pan_joint, shoulder_lift_joint, elbow_joint, wrist_1_joint, wrist_2_joint,","[1.6762298345565796, -1.0393794218646448, 2.1713595390319824, -2.68557054201235, -1.5670178572284144, 1.7010859251022339]","[0.0, 0.0, -0.0, 0.0, 0.0, -0.19985853135585785]","[0.0961303785443306, -5.177307605743408, -2.2216341495513916, -0.4486084580421448, 0.0493469275534153, -0.5001984238624573]"
1584453092360475566,,1400070,,1584453092,360164365,'',"[shoulder_pan_joint, shoulder_lift_joint, elbow_joint, wrist_1_joint, wrist_2_joint,","[1.6762179136276245, -1.0393913427936, 2.171299457550049, -2.6855347792254847, -1.5670416990863245, 1.6786378622055054]","[0.0, 0.0, -0.0, 0.0, 0.0, -0.20028036832809448]","[0.1693725734949112, -5.017090320587158, -2.2126669883728027, -0.4710388779640198, 0.0403747595846653, -0.4844971299171448]"
1584453092472542708,,1400084,,1584453092,472201210,'',"[shoulder_pan_joint, shoulder_lift_joint, elbow_joint, wrist_1_joint, wrist_2_joint,","[1.6762179136276245, -1.0393555800067347, 2.1713476181030273, -2.68557054201235, -1.5670416990863245, 1.6563090085983276]","[0.0, 0.0, -0.0, 0.0, 0.0, -0.1995709091424942]","[0.1419067531824112, -5.108643054962158, -2.2149088382720947, -0.4575806260108948, 0.0448608435690403, -0.4777680039405823]"
1584453092584320268,,1400098,,1584453092,583970124,'',"[shoulder_pan_joint, shoulder_lift_joint, elbow_joint, wrist_1_joint, wrist_2_joint,","[1.6762179136276245, -1.0393670240985315, 2.1713476181030273, -2.6855467001544397, -1.5670297781573694, 1.6338363885879517]","[0.0, 0.0, -0.0, 0.0, 0.0, -0.20365512371063232]","[0.1602173000574112, -5.090332508087158, -2.2485358715057373, -0.4486084580421448, 0.0358886756002903, -0.3835602104663849]"
1584453092696365148,,1400112,,1584453092,696001118,'',"[shoulder_pan_joint, shoulder_lift_joint, elbow_joint, wrist_1_joint, wrist_2_joint,","[1.6762418746948242, -1.0393670240985315, 2.1713356971740723, -2.685558621083395, -1.5670178572284144, 1.6113877296447754]","[0.0, 0.0, -0.0, 0.0, 0.0, -0.1984395980834961]","[0.1739502102136612, -5.044556140899658, -2.2373268604278564, -0.4889832139015198, 0.0538330152630806, -0.5428162217140198]"
1584453092808421569,,1400126,,1584453092,808004079,'',"[shoulder_pan_joint, shoulder_lift_joint, elbow_joint, wrist_1_joint, wrist_2_joint,","[1.6762298345565796, -1.0393913427936, 2.171323776245117, -2.6855228582965296, -1.5670178572284144, 1.5889865159988403]","[0.0, 0.0, -0.0, 0.0, 0.0, -0.20164178311824799]","[0.1556396633386612, -5.094910144805908, -2.2306015491485596, -0.4620667099952698, 0.0403747595846653, -0.4800110459327698]"
1584453092920283076,,1400140,,1584453092,919956697,'',"[shoulder_pan_joint, shoulder_lift_joint, elbow_joint, wrist_1_joint, wrist_2_joint,","[1.6762298345565796, -1.0393913427936, 2.1713595390319824, -2.68557054201235, -1.5670416990863245, 1.5665969848632812]","[0.0, 0.0, -0.0, 0.0, 0.0, -0.19813279807567596]","[0.1510620266199112, -5.062866687774658, -2.2238759994506836, -0.4800110459327698, 0.0426178015768528, -0.5719757676124573]"
1584453093032408556,,1400154,,1584453093,32016353,'',"[shoulder_pan_joint, shoulder_lift_joint, elbow_joint, wrist_1_joint, wrist_2_joint,","[1.6762298345565796, -1.0393794218646448, 2.1713476181030273, -2.6855467001544397, -1.5670416990863245, 1.544147253036499]","[0.0, 0.0, -0.0, 0.0, 0.0, -0.19985853135585785]","[0.1693725734949112, -5.062866687774658, -2.2328433990478516, -0.5024414658546448, 0.0381317175924778, -0.4755249619483948]"
1584453093144371232,,1400168,,1584453093,143980583,'',"[shoulder_pan_joint, shoulder_lift_joint, elbow_joint, wrist_1_joint, wrist_2_joint,","[1.6762418746948242, -1.0393555800067347, 2.1713356971740723, -2.685582462941305, -1.5670178572284144, 1.5217453241348267]","[0.0, 0.0, -0.0, 0.0, 0.0, -0.1984395980834961]","[0.1281738430261612, -5.026245594024658, -2.2216341495513916, -0.4755249619483948, 0.02243042178452015, -0.5316010117530823]"
1584453093256406283,,1400182,,1584453093,255932999,'',"[shoulder_pan_joint, shoulder_lift_joint, elbow_joint, wrist_1_joint, wrist_2_joint,","[1.6762418746948242, -1.0393794218646448, 2.171323776245117, -2.68557054201235, -1.5670178572284144, 1.4993666410446167]","[0.0, 0.0, -0.0, 0.0, 0.0, -0.20164178311824799]","[0.1235962063074112, -5.099487781524658, -2.2507777214050293, -0.4530945420265198, -0.004486084450036287, -0.4553375840187073]"
1584453093368347389,,1400196,,1584453093,367954636,'',"[shoulder_pan_joint, shoulder_lift_joint, elbow_joint, wrist_1_joint, wrist_2_joint,","[1.6762537956237793, -1.0393555800067347, 2.1713476181030273, -2.685558621083395, -1.5670297781573694, 1.476952075958252]","[0.0, 0.0, -0.0, 0.0, 0.0, -0.1995709091424942]","[0.1556396633386612, -5.058289051055908, -2.2350850105285645, -0.4687958359718323, -0.0426178015768528, -0.5091705918312073]"
1584453093480328179,,1400210,,1584453093,479941046,'',"[shoulder_pan_joint, shoulder_lift_joint, elbow_joint, wrist_1_joint, wrist_2_joint,","[1.6762298345565796, -1.0393670240985315, 2.1713476181030273, -2.6855467001544397, -1.5670416990863245, 1.4546209573745728]","[0.0, 0.0, -0.0, 0.0, 0.0, -0.1995709091424942]","[0.1373291164636612, -5.049133777618408, -2.2507777214050293, -0.4777680039405823, -0.0291595496237278, -0.5831909775733948]"
1584453093592307546,,1400224,,1584453093,591967201,'',"[shoulder_pan_joint, shoulder_lift_joint, elbow_joint, wrist_1_joint, wrist_2_joint,","[1.6762298345565796, -1.0393670240985315, 2.171311855316162, -2.685558621083395, -1.5670297781573694, 1.4320976734161377]","[0.0, 0.0, -0.0, 0.0, 0.0, -0.20279227197170258]","[0.1739502102136612, -5.058289051055908, -2.2552614212036133, -0.4912262558937073, -0.0314025916159153, -0.4127197563648224]"
1584453093704307332,,1400238,,1584453093,703953932,'',"[shoulder_pan_joint, shoulder_lift_joint, elbow_joint, wrist_1_joint, wrist_2_joint,","[1.6762179136276245, -1.0393794218646448, 2.1713356971740723, -2.685558621083395, -1.5670416990863245, 1.4098141193389893]","[0.0, 0.0, -0.0, 0.0, 0.0, -0.19897648692131042]","[0.1602173000574112, -5.072021961212158, -2.2552614212036133, -0.4755249619483948, -0.0314025916159153, -0.5854340195655823]"
1584453093816436689,,1400252,,1584453093,816044667,'',"[shoulder_pan_joint, shoulder_lift_joint, elbow_joint, wrist_1_joint, wrist_2_joint,","[1.6762418746948242, -1.0393555800067347, 2.1713356971740723, -2.6855467001544397, -1.5670655409442347, 1.3874576091766357]","[0.0, 0.0, -0.0, 0.0, 0.0, -0.20206362009048462]","[0.1098632961511612, -5.035400867462158, -2.2485358715057373, -0.4934692978858948, -0.0291595496237278, -0.4710388779640198]"
1584453093928416377,,1400266,,1584453093,928015108,'',"[shoulder_pan_joint, shoulder_lift_joint, elbow_joint, wrist_1_joint, wrist_2_joint,","[1.6762418746948242, -1.0393555800067347, 2.1713356971740723, -2.6855467001544397, -1.5670297781573694, 1.364885687828064]","[0.0, 0.0, -0.0, 0.0, 0.0, -0.195927694439888]","[0.1419067531824112, -4.994202136993408, -2.2462942600250244, -0.4822540879249573, -0.02467346377670765, -0.6235657334327698]"
1584453094040268727,,1400280,,1584453094,39914155,'',"[shoulder_pan_joint, shoulder_lift_joint, elbow_joint, wrist_1_joint, wrist_2_joint,","[1.6762418746948242, -1.0393670240985315, 2.171311855316162, -2.6855347792254847, -1.5670297781573694, 1.342589020729065]","[0.0, 0.0, -0.0, 0.0, 0.0, -0.19997356832027435]","[0.1281738430261612, -5.049133777618408, -2.2373268604278564, -0.4418793320655823, -0.0269165076315403, -0.4934692978858948]"
1584453094152399918,,1400294,,1584453094,151997917,'',"[shoulder_pan_joint, shoulder_lift_joint, elbow_joint, wrist_1_joint, wrist_2_joint,","[1.6762298345565796, -1.0393431822406214, 2.171311855316162, -2.6855347792254847, -1.5670416990863245, 1.3201358318328857]","[0.0, 0.0, -0.0, 0.0, 0.0, -0.19918741285800934]","[0.1190185695886612, -5.035400867462158, -2.2530195713043213, -0.4822540879249573, -0.0291595496237278, -0.5181427597999573]"
