PorkPy/robot-pulling-data/deg40_stops2/joint_states_throttle.csv
rosbagTimestamp,header,seq,stamp,secs,nsecs,frame_id,name,wrist_3_joint],position,velocity,effort
1584443828547539603,,242043,,1584443828,547151569,'',"[shoulder_pan_joint, shoulder_lift_joint, elbow_joint, wrist_1_joint, wrist_2_joint,","[1.4047702550888062, -1.1718485991107386, 2.4830822944641113, -2.8628390471087855, -1.5669458548175257, 2.7206225395202637]","[0.0, 0.0, -0.0, 0.0, 0.0, 0.0]","[-0.7369995713233948, -2.980041742324829, -1.1231471300125122, -0.6056213974952698, 0.02018737979233265, -0.0022430422250181437]"
1584443828659554188,,242057,,1584443828,659154292,'',"[shoulder_pan_joint, shoulder_lift_joint, elbow_joint, wrist_1_joint, wrist_2_joint,","[1.4047822952270508, -1.1718485991107386, 2.4830703735351562, -2.8628514448748987, -1.5669458548175257, 2.7206225395202637]","[0.0, 0.0, -0.0, 0.0, 0.0, 0.0]","[-0.7141113877296448, -2.989197015762329, -1.132114291191101, -0.5944061875343323, 0.01570129580795765, -0.004486084450036287]"
1584443828771500316,,242071,,1584443828,771127441,'',"[shoulder_pan_joint, shoulder_lift_joint, elbow_joint, wrist_1_joint, wrist_2_joint,","[1.4047822952270508, -1.1718362013446253, 2.4830822944641113, -2.8628514448748987, -1.5669100920306605, 2.7206108570098877]","[0.0, 0.0, -0.0, 0.0, 0.0, 0.0]","[-0.7461548447608948, -2.989197015762329, -1.1410815715789795, -0.5876770615577698, 0.01570129580795765, -0.008972168900072575]"
1584443828883403003,,242085,,1584443828,883085831,'',"[shoulder_pan_joint, shoulder_lift_joint, elbow_joint, wrist_1_joint, wrist_2_joint,","[1.4047822952270508, -1.1718362013446253, 2.4830703735351562, -2.862863365803854, -1.5669220129596155, 2.7205989360809326]","[0.0, 0.0, -0.0, 0.0, 0.0, 0.0]","[-0.7186890244483948, -2.993774652481079, -1.145565152168274, -0.5966492295265198, 0.02018737979233265, -0.006729126907885075]"
1584443828995601382,,242099,,1584443828,995232003,'',"[shoulder_pan_joint, shoulder_lift_joint, elbow_joint, wrist_1_joint, wrist_2_joint,","[1.4047702550888062, -1.1718605200396937, 2.4831063747406006, -2.862863365803854, -1.5669339338885706, 2.7206108570098877]","[0.0, 0.0, -0.0, 0.0, 0.0, 0.0]","[-0.7186890244483948, -2.993774652481079, -1.134356141090393, -0.6011353135108948, 0.0269165076315403, -0.004486084450036287]"
1584443829107511983,,242113,,1584443829,107122827,'',"[shoulder_pan_joint, shoulder_lift_joint, elbow_joint, wrist_1_joint, wrist_2_joint,","[1.4047822952270508, -1.1718362013446253, 2.4830822944641113, -2.8628514448748987, -1.5669100920306605, 2.7205870151519775]","[0.0, 0.0, -0.0, 0.0, 0.0, 0.0]","[-0.7324219346046448, -3.007507562637329, -1.134356141090393, -0.5921631455421448, 0.0358886756002903, -0.004486084450036287]"
1584443829219440488,,242127,,1584443829,219092780,'',"[shoulder_pan_joint, shoulder_lift_joint, elbow_joint, wrist_1_joint, wrist_2_joint,","[1.4047822952270508, -1.1718485991107386, 2.4830822944641113, -2.8628514448748987, -1.5669339338885706, 2.7206344604492188]","[0.0, 0.0, -0.0, 0.0, 0.0, 0.0]","[-0.7415772080421448, -3.021240472793579, -1.145565152168274, -0.5966492295265198, 0.02243042178452015, -0.004486084450036287]"
1584443829331429496,,242141,,1584443829,331087849,'',"[shoulder_pan_joint, shoulder_lift_joint, elbow_joint, wrist_1_joint, wrist_2_joint,","[1.4048062562942505, -1.1718485991107386, 2.4831063747406006, -2.8628271261798304, -1.5669339338885706, 2.7205989360809326]","[0.0, 0.0, -0.0, 0.0, 0.0, 0.0]","[-0.7324219346046448, -3.021240472793579, -1.150048851966858, -0.5921631455421448, 0.02018737979233265, -0.006729126907885075]"
1584443829443455293,,242155,,1584443829,443080233,'',"[shoulder_pan_joint, shoulder_lift_joint, elbow_joint, wrist_1_joint, wrist_2_joint,","[1.404758334159851, -1.1718485991107386, 2.4830944538116455, -2.862887207661764, -1.5669339338885706, 2.7206225395202637]","[0.0, 0.0, -0.0, 0.0, 0.0, 0.0]","[-0.7141113877296448, -2.975464105606079, -1.1298725605010986, -0.5988922715187073, 0.01794433780014515, -0.006729126907885075]"
1584443829555425957,,242169,,1584443829,555120337,'',"[shoulder_pan_joint, shoulder_lift_joint, elbow_joint, wrist_1_joint, wrist_2_joint,","[1.4047822952270508, -1.1718247572528284, 2.483058452606201, -2.8628514448748987, -1.5669100920306605, 2.7205989360809326]","[0.0, 0.0, -0.0, 0.0, 0.0, 0.0]","[-0.7415772080421448, -2.970886468887329, -1.134356141090393, -0.6033783555030823, 0.01794433780014515, -0.004486084450036287]"
1584443829667472482,,242183,,1584443829,667141634,'',"[shoulder_pan_joint, shoulder_lift_joint, elbow_joint, wrist_1_joint, wrist_2_joint,","[1.4047942161560059, -1.1718247572528284, 2.483058452606201, -2.8628152052508753, -1.5669577757464808, 2.720646381378174]","[0.0, 0.0, -0.0, 0.0, 0.0, 0.0]","[-0.7369995713233948, -2.970886468887329, -1.1276307106018066, -0.5966492295265198, 0.01570129580795765, -0.0022430422250181437]"
1584443829779405275,,242197,,1584443829,779073416,'',"[shoulder_pan_joint, shoulder_lift_joint, elbow_joint, wrist_1_joint, wrist_2_joint,","[1.4048062562942505, -1.1718362013446253, 2.4830822944641113, -2.8628271261798304, -1.5669577757464808, 2.7206108570098877]","[0.0, 0.0, -0.0, 0.0, 0.0, 0.0]","[-0.7186890244483948, -2.993774652481079, -1.134356141090393, -0.6033783555030823, 0.01570129580795765, -0.004486084450036287]"
1584443829891435860,,242211,,1584443829,891089364,'',"[shoulder_pan_joint, shoulder_lift_joint, elbow_joint, wrist_1_joint, wrist_2_joint,","[1.4047702550888062, -1.1718485991107386, 2.4830822944641113, -2.8628271261798304, -1.5669458548175257, 2.7206225395202637]","[0.0, 0.0, -0.0, 0.0, 0.0, 0.0]","[-0.7553101181983948, -2.989197015762329, -1.134356141090393, -0.5921631455421448, 0.02467346377670765, -0.0022430422250181437]"
1584443830003428074,,242225,,1584443830,3091947,'',"[shoulder_pan_joint, shoulder_lift_joint, elbow_joint, wrist_1_joint, wrist_2_joint,","[1.4047702550888062, -1.1718485991107386, 2.4830703735351562, -2.862863365803854, -1.5669339338885706, 2.7206344604492188]","[0.0, 0.0, -0.0, 0.0, 0.0, 0.0]","[-0.7186890244483948, -2.989197015762329, -1.1276307106018066, -0.5921631455421448, 0.01794433780014515, -0.004486084450036287]"
1584443830115466003,,242239,,1584443830,115093278,'',"[shoulder_pan_joint, shoulder_lift_joint, elbow_joint, wrist_1_joint, wrist_2_joint,","[1.4047822952270508, -1.1718485991107386, 2.4830703735351562, -2.8628514448748987, -1.5669339338885706, 2.7206225395202637]","[0.0, 0.0, -0.0, 0.0, 0.0, 0.0]","[-0.7278442978858948, -2.993774652481079, -1.132114291191101, -0.5831909775733948, 0.02243042178452015, -0.004486084450036287]"
1584443830227453007,,242253,,1584443830,227074902,'',"[shoulder_pan_joint, shoulder_lift_joint, elbow_joint, wrist_1_joint, wrist_2_joint,","[1.4048062562942505, -1.1718485991107386, 2.4830822944641113, -2.8628390471087855, -1.5669220129596155, 2.7206108570098877]","[0.0, 0.0, -0.0, 0.0, 0.0, 0.0]","[-0.7049561142921448, -3.007507562637329, -1.1433234214782715, -0.5944061875343323, 0.011215210892260075, -0.0022430422250181437]"
1584443830339462103,,242267,,1584443830,339065092,'',"[shoulder_pan_joint, shoulder_lift_joint, elbow_joint, wrist_1_joint, wrist_2_joint,","[1.4047822952270508, -1.17180043855776, 2.483058452606201, -2.862875286732809, -1.5669339338885706, 2.7206108570098877]","[0.0, 0.0, -0.0, 0.0, 0.0, 0.0]","[-0.7003784775733948, -2.975464105606079, -1.1545324325561523, -0.5988922715187073, 0.0269165076315403, -0.004486084450036287]"
1584443830451477450,,242281,,1584443830,451106017,'',"[shoulder_pan_joint, shoulder_lift_joint, elbow_joint, wrist_1_joint, wrist_2_joint,","[1.4047822952270508, -1.1718485991107386, 2.4830944538116455, -2.8628390471087855, -1.5669100920306605, 2.7206225395202637]","[0.0, 0.0, -0.0, 0.0, 0.0, 0.0]","[-0.7186890244483948, -2.989197015762329, -1.145565152168274, -0.5944061875343323, 0.02018737979233265, -0.008972168900072575]"
1584443830563465146,,242295,,1584443830,563069267,'',"[shoulder_pan_joint, shoulder_lift_joint, elbow_joint, wrist_1_joint, wrist_2_joint,","[1.4047702550888062, -1.1718485991107386, 2.4830822944641113, -2.8628271261798304, -1.5669339338885706, 2.7206108570098877]","[0.0, 0.0, -0.0, 0.0, 0.0, 0.0]","[-0.7278442978858948, -2.984619379043579, -1.1298725605010986, -0.5966492295265198, 0.02018737979233265, -0.011215210892260075]"
1584443830675475974,,242309,,1584443830,675096847,'',"[shoulder_pan_joint, shoulder_lift_joint, elbow_joint, wrist_1_joint, wrist_2_joint,","[1.4047942161560059, -1.1718485991107386, 2.483058452606201, -2.8628271261798304, -1.5669339338885706, 2.7206108570098877]","[0.0, 0.0, -0.0, 0.0, 0.0, 0.0]","[-0.7415772080421448, -3.025818109512329, -1.132114291191101, -0.5944061875343323, 0.02243042178452015, -0.004486084450036287]"
1584443830787420710,,242323,,1584443830,787060097,'',"[shoulder_pan_joint, shoulder_lift_joint, elbow_joint, wrist_1_joint, wrist_2_joint,","[1.4047942161560059, -1.1718485991107386, 2.4830822944641113, -2.8628514448748987, -1.5669220129596155, 2.7206108570098877]","[0.0, 0.0, -0.0, 0.0, 0.0, 0.0]","[-0.7324219346046448, -3.002929925918579, -1.1231471300125122, -0.6011353135108948, 0.01345825381577015, 0.0]"
1584443830899408766,,242337,,1584443830,899066056,'',"[shoulder_pan_joint, shoulder_lift_joint, elbow_joint, wrist_1_joint, wrist_2_joint,","[1.404758334159851, -1.1718247572528284, 2.4830703735351562, -2.8628390471087855, -1.5669220129596155, 2.7205989360809326]","[0.0, 0.0, -0.0, 0.0, 0.0, 0.0]","[-0.7186890244483948, -3.016662836074829, -1.150048851966858, -0.5944061875343323, 0.02243042178452015, -0.004486084450036287]"
1584443831011328785,,242351,,1584443831,11012585,'',"[shoulder_pan_joint, shoulder_lift_joint, elbow_joint, wrist_1_joint, wrist_2_joint,","[1.4047822952270508, -1.17180043855776, 2.48313045501709, -2.862863365803854, -1.5669577757464808, 2.7206108570098877]","[0.0, 0.0, -0.0, 0.0, 0.0, 0.0]","[-0.7415772080421448, -2.957153558731079, -1.147807002067566, -0.5944061875343323, 0.02018737979233265, -0.004486084450036287]"
1584443831123243264,,242365,,1584443831,122991384,'',"[shoulder_pan_joint, shoulder_lift_joint, elbow_joint, wrist_1_joint, wrist_2_joint,","[1.4047702550888062, -1.1718123594867151, 2.4830822944641113, -2.8628152052508753, -1.5669339338885706, 2.7205989360809326]","[0.0, 0.0, -0.0, 0.0, 0.0, 0.0]","[-0.7507324814796448, -2.970886468887329, -1.1298725605010986, -0.5944061875343323, 0.01570129580795765, -0.004486084450036287]"
1584443831235277837,,242379,,1584443831,234988106,'',"[shoulder_pan_joint, shoulder_lift_joint, elbow_joint, wrist_1_joint, wrist_2_joint,","[1.4048062562942505, -1.1718485991107386, 2.4830822944641113, -2.8628390471087855, -1.5669339338885706, 2.7206225395202637]","[0.0, 0.0, -0.0, 0.0, 0.0, 0.0]","[-0.7324219346046448, -2.998352289199829, -1.132114291191101, -0.6011353135108948, 0.01794433780014515, -0.004486084450036287]"
1584443831347274038,,242393,,1584443831,347012630,'',"[shoulder_pan_joint, shoulder_lift_joint, elbow_joint, wrist_1_joint, wrist_2_joint,","[1.4048062562942505, -1.1718485991107386, 2.4830703735351562, -2.8628390471087855, -1.5669220129596155, 2.7206225395202637]","[0.0, 0.0, -0.0, 0.0, 0.0, 0.0]","[-0.7186890244483948, -2.993774652481079, -1.145565152168274, -0.5966492295265198, 0.02018737979233265, -0.004486084450036287]"
1584443831459231397,,242407,,1584443831,458967324,'',"[shoulder_pan_joint, shoulder_lift_joint, elbow_joint, wrist_1_joint, wrist_2_joint,","[1.4047702550888062, -1.1718247572528284, 2.483046531677246, -2.862863365803854, -1.5669220129596155, 2.7206225395202637]","[0.0, 0.0, -0.0, 0.0, 0.0, 0.0]","[-0.7232666611671448, -2.925110101699829, -1.134356141090393, -0.6011353135108948, 0.0314025916159153, -0.004486084450036287]"
1584443831571236244,,242421,,1584443831,571000434,'',"[shoulder_pan_joint, shoulder_lift_joint, elbow_joint, wrist_1_joint, wrist_2_joint,","[1.4047702550888062, -1.1718485991107386, 2.4830822944641113, -2.8628271261798304, -1.5669100920306605, 2.7206225395202637]","[0.0, 0.0, -0.0, 0.0, 0.0, 0.0]","[-0.7369995713233948, -3.002929925918579, -1.145565152168274, -0.5921631455421448, 0.01345825381577015, -0.0022430422250181437]"
1584443831683290103,,242435,,1584443831,683008919,'',"[shoulder_pan_joint, shoulder_lift_joint, elbow_joint, wrist_1_joint, wrist_2_joint,","[1.4047822952270508, -1.1718605200396937, 2.4830822944641113, -2.862863365803854, -1.5669577757464808, 2.7206225395202637]","[0.0, 0.0, -0.0, 0.0, 0.0, 0.0]","[-0.7324219346046448, -2.993774652481079, -1.1567742824554443, -0.5966492295265198, 0.011215210892260075, -0.006729126907885075]"
1584443831795244226,,242449,,1584443831,794978691,'',"[shoulder_pan_joint, shoulder_lift_joint, elbow_joint, wrist_1_joint, wrist_2_joint,","[1.4047942161560059, -1.1718605200396937, 2.483058452606201, -2.8628390471087855, -1.5669339338885706, 2.7205870151519775]","[0.0, 0.0, -0.0, 0.0, 0.0, 0.0]","[-0.7461548447608948, -2.970886468887329, -1.147807002067566, -0.6011353135108948, 0.01345825381577015, -0.006729126907885075]"
1584443831907242131,,242463,,1584443831,906991383,'',"[shoulder_pan_joint, shoulder_lift_joint, elbow_joint, wrist_1_joint, wrist_2_joint,","[1.4048181772232056, -1.1718605200396937, 2.4830944538116455, -2.8628271261798304, -1.5669577757464808, 2.7205989360809326]","[0.0, 0.0, -0.0, 0.0, 0.0, 0.0]","[-0.7736206650733948, -3.007507562637329, -1.1545324325561523, -0.5921631455421448, 0.01570129580795765, 0.0]"
1584443832019201994,,242477,,1584443832,18949182,'',"[shoulder_pan_joint, shoulder_lift_joint, elbow_joint, wrist_1_joint, wrist_2_joint,","[1.4048062562942505, -1.1718247572528284, 2.483058452606201, -2.8628390471087855, -1.5669577757464808, 2.7206344604492188]","[0.0, 0.0, -0.0, 0.0, 0.0, 0.0]","[-0.7324219346046448, -3.039551019668579, -1.147807002067566, -0.5921631455421448, 0.01570129580795765, -0.008972168900072575]"
1584443832131243169,,242491,,1584443832,130964700,'',"[shoulder_pan_joint, shoulder_lift_joint, elbow_joint, wrist_1_joint, wrist_2_joint,","[1.4048062562942505, -1.1718485991107386, 2.483034372329712, -2.862875286732809, -1.5669458548175257, 2.7206344604492188]","[0.0, 0.0, -0.0, 0.0, 0.0, 0.0]","[-0.7186890244483948, -2.915954828262329, -1.150048851966858, -0.5899201035499573, 0.01794433780014515, -0.006729126907885075]"
1584443832243190940,,242505,,1584443832,242935614,'',"[shoulder_pan_joint, shoulder_lift_joint, elbow_joint, wrist_1_joint, wrist_2_joint,","[1.4047822952270508, -1.1718485991107386, 2.4830703735351562, -2.8628390471087855, -1.5669339338885706, 2.7206225395202637]","[0.0, 0.0, -0.0, 0.0, 0.0, 0.0]","[-0.7095337510108948, -3.021240472793579, -1.136597990989685, -0.6056213974952698, 0.02243042178452015, 0.0]"
1584443832355218530,,242519,,1584443832,354961310,'',"[shoulder_pan_joint, shoulder_lift_joint, elbow_joint, wrist_1_joint, wrist_2_joint,","[1.4047822952270508, -1.1718724409686487, 2.4830703735351562, -2.862863365803854, -1.5669577757464808, 2.7206225395202637]","[0.0, 0.0, -0.0, 0.0, 0.0, 0.0]","[-0.7278442978858948, -2.966308832168579, -1.1410815715789795, -0.5899201035499573, 0.02467346377670765, -0.004486084450036287]"
1584443832467176360,,242533,,1584443832,466930121,'',"[shoulder_pan_joint, shoulder_lift_joint, elbow_joint, wrist_1_joint, wrist_2_joint,","[1.4047942161560059, -1.1718605200396937, 2.4830703735351562, -2.8628271261798304, -1.5669577757464808, 2.7205989360809326]","[0.0, 0.0, -0.0, 0.0, 0.0, 0.0]","[-0.7141113877296448, -3.016662836074829, -1.1410815715789795, -0.5944061875343323, 0.01794433780014515, -0.006729126907885075]"
1584443832579344442,,242547,,1584443832,579043641,'',"[shoulder_pan_joint, shoulder_lift_joint, elbow_joint, wrist_1_joint, wrist_2_joint,","[1.4057537317276, -1.1718605200396937, 2.482290744781494, -2.8622048536883753, -1.5669577757464808, 2.721484661102295]","[0.013371199369430542, 0.0, -0.013780261389911175, 0.01347985677421093, 0.0, 0.0070946612395346165]","[0.8651733994483948, -2.906799554824829, -1.8876044750213623, -0.2198181450366974, 0.008972168900072575, 0.3207550346851349]"
1584443832691222653,,242561,,1584443832,690949774,'',"[shoulder_pan_joint, shoulder_lift_joint, elbow_joint, wrist_1_joint, wrist_2_joint,","[1.405417799949646, -1.1718362013446253, 2.482266664505005, -2.8620970884906214, -1.5669577757464808, 2.717808723449707]","[-0.01900857873260975, 0.0, 0.00535614974796772, -0.0041609229519963264, 0.0, -0.03624029830098152]","[-0.9246827363967896, -3.863525867462158, -1.0379582643508911, -0.5764618515968323, 0.008972168900072575, -0.3588867485523224]"
1584443832803240194,,242575,,1584443832,802978085,'',"[shoulder_pan_joint, shoulder_lift_joint, elbow_joint, wrist_1_joint, wrist_2_joint,","[1.4045661687850952, -1.17180043855776, 2.481642723083496, -2.8617380301104944, -1.566981617604391, 2.715977191925049]","[0.016630908474326134, 0.0, -0.01715501956641674, 0.012022574432194233, 0.0, 0.0393466092646122]","[0.6774902939796448, -2.961731195449829, -1.8068993091583252, -0.2355194389820099, -0.0022430422250181437, 0.1054229810833931]"
1584443832915190991,,242589,,1584443832,914926628,'',"[shoulder_pan_joint, shoulder_lift_joint, elbow_joint, wrist_1_joint, wrist_2_joint,","[1.4085845947265625, -1.1708291212665003, 2.477623701095581, -2.859319512044088, -1.5670059362994593, 2.723017454147339]","[0.04290033131837845, 0.017717478796839714, -0.05677007511258125, 0.0262310728430748, 0.0, 0.05842549353837967]","[0.8102417588233948, -2.645874261856079, -1.5827182531356812, -0.1547699123620987, 0.011215210892260075, 0.3723450005054474]"
1584443833027183896,,242603,,1584443833,26921166,'',"[shoulder_pan_joint, shoulder_lift_joint, elbow_joint, wrist_1_joint, wrist_2_joint,","[1.4152175188064575, -1.1672804991351526, 2.466465473175049, -2.8539674917804163, -1.5670536200152796, 2.728837013244629]","[0.07239111512899399, 0.04659466817975044, -0.13107866048812866, 0.07006457448005676, 0.0, 0.04640292003750801]","[0.9109498262405396, -2.641296625137329, -1.6253126859664917, -0.1143951565027237, 0.01345825381577015, 0.3072967827320099]"
1584443833139169578,,242617,,1584443833,138924631,'',"[shoulder_pan_joint, shoulder_lift_joint, elbow_joint, wrist_1_joint, wrist_2_joint,","[1.4225945472717285, -1.1609495321856897, 2.448960304260254, -2.8441742102252405, -1.5670297781573694, 2.735050678253174]","[0.06224127113819122, 0.07300470024347305, -0.18172559142112732, 0.10329443216323853, 0.0, 0.058042000979185104]","[1.0437012910842896, -2.604675531387329, -1.9436497688293457, -0.1682281643152237, 0.011215210892260075, 0.3274841606616974]"
1584443833251209170,,242631,,1584443833,250940830,'',"[shoulder_pan_joint, shoulder_lift_joint, elbow_joint, wrist_1_joint, wrist_2_joint,","[1.4303191900253296, -1.1517418066607874, 2.427159547805786, -2.831531349812643, -1.5670059362994593, 2.7407267093658447]","[0.071700818836689, 0.08117315173149109, -0.20670391619205475, 0.11600729823112488, 0.0, 0.042759716510772705]","[0.8651733994483948, -2.709961175918579, -1.786723017692566, -0.0829925611615181, -0.0022430422250181437, 0.3611297905445099]"
1584443833363176297,,242645,,1584443833,362901565,'',"[shoulder_pan_joint, shoulder_lift_joint, elbow_joint, wrist_1_joint, wrist_2_joint,","[1.4389193058013916, -1.1415990034686487, 2.4026706218719482, -2.8175957838641565, -1.5670416990863245, 2.745168685913086]","[0.08372978866100311, 0.09587380290031433, -0.23028887808322906, 0.12745463848114014, 0.0, 0.039384957402944565]","[1.4144898653030396, -2.975464105606079, -1.8024157285690308, -0.0426178015768528, -0.004486084450036287, 0.2893524467945099]"
1584443833475132604,,242659,,1584443833,474863292,'',"[shoulder_pan_joint, shoulder_lift_joint, elbow_joint, wrist_1_joint, wrist_2_joint,","[1.4474116563796997, -1.130352799092428, 2.3767282962799072, -2.8028820196734827, -1.5670416990863245, 2.749778985977173]","[0.06670259684324265, 0.10353092104196548, -0.23570893704891205, 0.13077186048030853, 0.0, 0.04019029811024666]","[0.9475709199905396, -2.961731195449829, -1.9301989078521729, -0.0874786451458931, -0.01570129580795765, 0.3386993706226349]"
1584443833587176775,,242673,,1584443833,586903064,'',"[shoulder_pan_joint, shoulder_lift_joint, elbow_joint, wrist_1_joint, wrist_2_joint,","[1.4555556774139404, -1.118842903767721, 2.351001262664795, -2.7882521788226526, -1.5670178572284144, 2.753837823867798]","[0.07547185570001602, 0.10025843232870102, -0.2241785079240799, 0.12461676448583603, -3.834952076431364e-05, 0.028512869030237198]","[0.8880616426467896, -3.186035394668579, -2.176798105239868, -0.0471038855612278, -0.02018737979233265, 0.3297272026538849]"
1584443833699180591,,242687,,1584443833,698907752,'',"[shoulder_pan_joint, shoulder_lift_joint, elbow_joint, wrist_1_joint, wrist_2_joint,","[1.4645037651062012, -1.1083644072162073, 2.326845645904541, -2.7746403853045862, -1.5670655409442347, 2.756819725036621]","[0.09326603263616562, 0.09371344745159149, -0.21400310099124908, 0.12078181654214859, -3.834952076431364e-05, 0.02557913027703762]","[1.0940552949905396, -3.094482660293579, -2.0557403564453125, -0.1413116604089737, -0.02243042178452015, 0.3454284965991974]"
1584443833811149641,,242701,,1584443833,810877664,'',"[shoulder_pan_joint, shoulder_lift_joint, elbow_joint, wrist_1_joint, wrist_2_joint,","[1.4752393960952759, -1.0982573668109339, 2.303361415863037, -2.761231247578756, -1.5670536200152796, 2.7592501640319824]","[0.09557978808879852, 0.08884305506944656, -0.21005310118198395, 0.11044661700725555, -0.00013422331539914012, 0.021744178608059883]","[1.2130738496780396, -3.208923578262329, -2.102818250656128, -0.0942077711224556, -0.01570129580795765, 0.3297272026538849]"
1584443833923149279,,242715,,1584443833,922874386,'',"[shoulder_pan_joint, shoulder_lift_joint, elbow_joint, wrist_1_joint, wrist_2_joint,","[1.4852428436279297, -1.0879223982440394, 2.279876232147217, -2.7485769430743616, -1.5670536200152796, 2.7617526054382324]","[0.08406215161085129, 0.08635033667087555, -0.213261678814888, 0.11851919442415237, -0.00013422331539914012, 0.030161898583173752]","[1.1764527559280396, -3.282165765762329, -2.10506010055542, -0.1525268703699112, -0.02467346377670765, 0.2983246147632599]"
1584443834035145701,,242729,,1584443834,34868103,'',"[shoulder_pan_joint, shoulder_lift_joint, elbow_joint, wrist_1_joint, wrist_2_joint,","[1.4949467182159424, -1.0774319807635706, 2.2548184394836426, -2.734713856373922, -1.5670297781573694, 2.7652971744537354]","[0.08361473679542542, 0.09710098803043365, -0.23202738165855408, 0.12674516439437866, -0.00011504856229294091, 0.03154247999191284]","[1.2725831270217896, -3.387451410293579, -2.1319618225097656, -0.1054229810833931, -0.02467346377670765, 0.3274841606616974]"
1584443834147138135,,242743,,1584443834,146861068,'',"[shoulder_pan_joint, shoulder_lift_joint, elbow_joint, wrist_1_joint, wrist_2_joint,","[1.5048902034759521, -1.0656111876117151, 2.2281875610351562, -2.7204554716693323, -1.5670536200152796, 2.768493890762329]","[0.08681052923202515, 0.10456635802984238, -0.23884081840515137, 0.12916117906570435, -7.669904152862728e-05, 0.02310558594763279]","[0.9338380098342896, -3.552246570587158, -2.176798105239868, -0.0426178015768528, -0.0358886756002903, 0.3835602104663849]"
1584443834259138975,,242757,,1584443834,258872518,'',"[shoulder_pan_joint, shoulder_lift_joint, elbow_joint, wrist_1_joint, wrist_2_joint,","[1.5136102437973022, -1.0538018385516565, 2.2023367881774902, -2.7060416380511683, -1.567101780568258, 2.7686259746551514]","[0.07530567795038223, 0.09906959533691406, -0.2222738265991211, 0.12363885343074799, -5.752428114647046e-05, -0.03930825740098953]","[1.2176514863967896, -3.831482410430908, -2.3964955806732178, -0.01570129580795765, -0.0381317175924778, -0.2310333549976349]"
1584443834371126029,,242771,,1584443834,370847890,'',"[shoulder_pan_joint, shoulder_lift_joint, elbow_joint, wrist_1_joint, wrist_2_joint,","[1.5214906930923462, -1.0431798140155237, 2.178957462310791, -2.6928847471820276, -1.5671256224261683, 2.7650938034057617]","[0.07107444107532501, 0.09109289199113846, -0.19371621310710907, 0.10191385447978973, -0.00028762139845639467, -0.01635606959462166]","[0.8605957627296448, -3.781128406524658, -2.443573474884033, 0.0448608435690403, -0.0403747595846653, -0.3319702446460724]"
1584443834483290915,,242785,,1584443834,482945180,'',"[shoulder_pan_joint, shoulder_lift_joint, elbow_joint, wrist_1_joint, wrist_2_joint,","[1.5308701992034912, -1.034140412007467, 2.1587696075439453, -2.6820266882525843, -1.567209545766012, 2.766554355621338]","[0.09219224750995636, 0.07712088525295258, -0.173736110329628, 0.09462743997573853, -0.0006135923322290182, 0.04640292003750801]","[0.7324219346046448, -3.730774402618408, -2.454782485961914, -0.1457977443933487, -0.0269165076315403, 0.2915954887866974]"
1584443834595241652,,242799,,1584443834,594914832,'',"[shoulder_pan_joint, shoulder_lift_joint, elbow_joint, wrist_1_joint, wrist_2_joint,","[1.5413897037506104, -1.0258086363421839, 2.1402502059936523, -2.671659294758932, -1.567221466694967, 2.770864963531494]","[0.09390519559383392, 0.06574386358261108, -0.15661944448947906, 0.09006384760141373, -0.0001917476038215682, 0.025195635855197906]","[0.8834840059280396, -3.900146961212158, -2.465991497039795, -0.1300964504480362, -0.0314025916159153, 0.3678589165210724]"
1584443834707208759,,242813,,1584443834,706860489,'',"[shoulder_pan_joint, shoulder_lift_joint, elbow_joint, wrist_1_joint, wrist_2_joint,","[1.5512733459472656, -1.0183513800250452, 2.122774600982666, -2.662165943776266, -1.5672453085528772, 2.772624969482422]","[0.09307428449392319, 0.06716279685497284, -0.15764209628105164, 0.07666069269180298, -0.00011504856229294091, 0.003719903528690338]","[1.0620118379592896, -4.019165515899658, -2.4189136028289795, -0.0448608435690403, -0.0314025916159153, 0.2287903130054474]"
1584443834819159515,,242827,,1584443834,818832866,'',"[shoulder_pan_joint, shoulder_lift_joint, elbow_joint, wrist_1_joint, wrist_2_joint,","[1.5615044832229614, -1.0109785238849085, 2.105154037475586, -2.6528762022601526, -1.5672934691058558, 2.7699906826019287]","[0.09494063258171082, 0.07258285582065582, -0.1657082736492157, 0.08714928478002548, -9.58738019107841e-05, -0.027765052393078804]","[0.7827759385108948, -3.932190418243408, -2.443573474884033, -0.1772003322839737, -0.02243042178452015, -0.2758941948413849]"
1584443834931167759,,242841,,1584443834,930847903,'',"[shoulder_pan_joint, shoulder_lift_joint, elbow_joint, wrist_1_joint, wrist_2_joint,","[1.5719517469406128, -1.0019868055926722, 2.0846176147460938, -2.642006222401754, -1.5672453085528772, 2.767057180404663]","[0.08289887756109238, 0.08517428487539291, -0.2022809386253357, 0.10814564675092697, -9.58738019107841e-05, -0.021283984184265137]","[0.8056641221046448, -3.991699695587158, -2.4346063137054443, -0.1570129543542862, -0.0269165076315403, -0.3005676567554474]"
1584443835043194157,,242855,,1584443835,42869662,'',"[shoulder_pan_joint, shoulder_lift_joint, elbow_joint, wrist_1_joint, wrist_2_joint,","[1.5807193517684937, -0.9907177130328577, 2.0588107109069824, -2.6285627524005335, -1.5672453085528772, 2.765596389770508]","[0.07172638922929764, 0.11159710586071014, -0.25317075848579407, 0.131615549325943, -9.58738019107841e-05, -0.004256796557456255]","[0.9658814668655396, -4.074097156524658, -2.5175533294677734, -0.0583190992474556, -0.0448608435690403, -0.2557068169116974]"
1584443835155167957,,242869,,1584443835,154859351,'',"[shoulder_pan_joint, shoulder_lift_joint, elbow_joint, wrist_1_joint, wrist_2_joint,","[1.5881083011627197, -0.9768832365619105, 2.0280213356018066, -2.6124489943133753, -1.5672815481769007, 2.769033193588257]","[0.06855615973472595, 0.13417218625545502, -0.2928241491317749, 0.15389662981033325, -7.669904152862728e-05, 0.03825364634394646]","[1.3412476778030396, -4.188538074493408, -2.571356773376465, 0.008972168900072575, -0.0740203931927681, 0.3566437065601349]"
1584443835267095670,,242883,,1584443835,266814395,'',"[shoulder_pan_joint, shoulder_lift_joint, elbow_joint, wrist_1_joint, wrist_2_joint,","[1.5958805084228516, -0.9613583723651331, 1.9955997467041016, -2.5950549284564417, -1.5673649946795862, 2.7720861434936523]","[0.06959159672260284, 0.13513092696666718, -0.2788904905319214, 0.15238182246685028, -0.0009012137306854129, 0.019213110208511353]","[0.6591797471046448, -4.362488269805908, -2.7977795600891113, -0.0897216871380806, -0.0829925611615181, 0.3566437065601349]"
1584443835379147836,,242897,,1584443835,378844961,'',"[shoulder_pan_joint, shoulder_lift_joint, elbow_joint, wrist_1_joint, wrist_2_joint,","[1.6050562858581543, -0.9473202864276331, 1.9659857749938965, -2.5790374914752405, -1.567460838948385, 2.773571014404297]","[0.09182153642177582, 0.11754128336906433, -0.24951475858688354, 0.13203740119934082, -0.0008053399506025016, 0.011140535585582256]","[0.7049561142921448, -4.170227527618408, -2.815714120864868, -0.0336456336081028, -0.0740203931927681, 0.3544006645679474]"
1584443835491198559,,242911,,1584443835,490871428,'',"[shoulder_pan_joint, shoulder_lift_joint, elbow_joint, wrist_1_joint, wrist_2_joint,","[1.6168824434280396, -0.9354766050921839, 1.9413776397705078, -2.565498177205221, -1.5675328413592737, 2.7725889682769775]","[0.12215600907802582, 0.09120794385671616, -0.19882948696613312, 0.10404224693775177, -0.0005368932615965605, -0.02972087822854519]","[0.5310059189796448, -4.559326648712158, -2.918837308883667, 0.0336456336081028, -0.0650482252240181, -0.2579498589038849]"
1584443835603169413,,242925,,1584443835,602858643,'',"[shoulder_pan_joint, shoulder_lift_joint, elbow_joint, wrist_1_joint, wrist_2_joint,","[1.6321394443511963, -0.9262459913836878, 1.9219541549682617, -2.554891888295309, -1.5675328413592737, 2.7703499794006348]","[0.1455492079257965, 0.06244580075144768, -0.14071717858314514, 0.07650729268789291, -0.00023009712458588183, -0.01570412889122963]","[0.8377075791358948, -4.838562488555908, -3.028686046600342, -0.0762634351849556, -0.02243042178452015, -0.2557068169116974]"
1584443835715089222,,242939,,1584443835,714796556,'',"[shoulder_pan_joint, shoulder_lift_joint, elbow_joint, wrist_1_joint, wrist_2_joint,","[1.6488473415374756, -0.9208634535418909, 1.9109463691711426, -2.5485709349261683, -1.5675328413592737, 2.7685656547546387]","[0.15373045206069946, 0.03479579836130142, -0.057613763958215714, 0.03696893900632858, -0.00013422331539914012, -0.01823519729077816]","[0.6683350205421448, -4.911804676055908, -3.1295676231384277, -0.1211242824792862, 0.02243042178452015, -0.2691650688648224]"
1584443835827103487,,242953,,1584443835,826805932,'',"[shoulder_pan_joint, shoulder_lift_joint, elbow_joint, wrist_1_joint, wrist_2_joint,","[1.666730523109436, -0.91931659380068, 1.909409523010254, -2.5471461454974573, -1.5675209204303187, 2.767655611038208]","[0.15984080731868744, -0.009881393052637577, 0.02069595828652382, -0.016087623313069344, 0.0, 0.02371917851269245]","[0.6912232041358948, -6.793213367462158, -2.2350850105285645, -0.5674896836280823, 0.1368255764245987, 0.1345825344324112]"
1584443835939139573,,242967,,1584443835,938811300,'',"[shoulder_pan_joint, shoulder_lift_joint, elbow_joint, wrist_1_joint, wrist_2_joint,","[1.6849734783172607, -0.9205153624164026, 1.9118704795837402, -2.5488103071795862, -1.5675209204303187, 2.7716190814971924]","[0.17002898454666138, -0.006698383018374443, 0.013729128055274487, -0.004716990981251001, 0.0, 0.03133155778050423]","[0.6591797471046448, -6.962585926055908, -2.093851089477539, -0.6482391953468323, 0.1256103664636612, 0.3386993706226349]"
1584443836051139441,,242981,,1584443836,50815526,'',"[shoulder_pan_joint, shoulder_lift_joint, elbow_joint, wrist_1_joint, wrist_2_joint,","[1.7046916484832764, -0.9206350485431116, 1.9117865562438965, -2.5484989325152796, -1.5674966017352503, 2.7746009826660156]","[0.1763950139284134, 0.0001661812566453591, -0.0022114890161901712, 0.002281796419993043, 0.0, 0.02057451754808426]","[0.6637573838233948, -6.042480945587158, -2.8784847259521484, -0.2915954887866974, 0.1323394924402237, 0.3611297905445099]"
1584443836163102951,,242995,,1584443836,162792512,'',"[shoulder_pan_joint, shoulder_lift_joint, elbow_joint, wrist_1_joint, wrist_2_joint,","[1.7247933149337769, -0.9205873648272913, 1.9117984771728516, -2.5484989325152796, -1.5675089995013636, 2.776768207550049]","[0.1848958283662796, 0.00014061490946915, -0.0002812298189383, 0.00026844663079828024, 9.58738019107841e-05, 0.02546408213675022]","[0.9887696504592896, -6.340027332305908, -2.7596688270568848, -0.3229980766773224, 0.1592559963464737, 0.2871094048023224]"
1584443836275112798,,243009,,1584443836,274777773,'',"[shoulder_pan_joint, shoulder_lift_joint, elbow_joint, wrist_1_joint, wrist_2_joint,","[1.745458960533142, -0.9205992857562464, 1.9118342399597168, -2.5484755674945276, -1.5674966017352503, 2.780144691467285]","[0.185650035738945, 8.948221511673182e-05, -0.0001917476038215682, 0.00013422331539914012, 0.00028762139845639467, 0.03315316140651703]","[0.6591797471046448, -6.381226062774658, -2.7865705490112305, -0.3140259087085724, 0.1682281643152237, 0.3431854546070099]"
1584443836387195531,,243023,,1584443836,386846389,'',"[shoulder_pan_joint, shoulder_lift_joint, elbow_joint, wrist_1_joint, wrist_2_joint,","[1.7660040855407715, -0.9206231276141565, 1.9118704795837402, -2.5484755674945276, -1.5674250761615198, 2.783797025680542]","[0.18081799149513245, 6.391586794052273e-05, -0.00017896443023346364, 9.58738019107841e-05, 0.00046019424917176366, 0.03207937255501747]","[0.8193970322608948, -6.449890613555908, -2.835890293121338, -0.2871094048023224, 0.2220611870288849, 0.3813171684741974]"
1584443836499106513,,243037,,1584443836,498777930,'',"[shoulder_pan_joint, shoulder_lift_joint, elbow_joint, wrist_1_joint, wrist_2_joint,","[1.785577654838562, -0.9205992857562464, 1.9119062423706055, -2.548439327870504, -1.5674126783954065, 2.7874011993408203]","[0.1716652363538742, 3.834952076431364e-05, -0.00011504856229294091, 9.58738019107841e-05, 0.00028762139845639467, 0.03292306512594223]","[0.8468628525733948, -6.559753894805908, -2.831406831741333, -0.2915954887866974, 0.2781372368335724, 0.3611297905445099]"
1584443836611154301,,243051,,1584443836,610773170,'',"[shoulder_pan_joint, shoulder_lift_joint, elbow_joint, wrist_1_joint, wrist_2_joint,","[1.8038678169250488, -0.9206231276141565, 1.9121222496032715, -2.5482595602618616, -1.56744891801943, 2.7913286685943604]","[0.1558268815279007, 0.0, 0.0015595471486449242, 0.0007861651829443872, 0.00023009712458588183, 0.03773592785000801]","[0.7278442978858948, -6.784058094024658, -2.721558094024658, -0.3678589165210724, 0.1345825344324112, 0.2893524467945099]"
1584443836723150141,,243065,,1584443836,722746178,'',"[shoulder_pan_joint, shoulder_lift_joint, elbow_joint, wrist_1_joint, wrist_2_joint,","[1.8208026885986328, -0.9206112066852015, 1.9123144149780273, -2.5476015249835413, -1.5675328413592737, 2.7968008518218994]","[0.14391297101974487, 0.0, 0.001981391804292798, 0.006826214492321014, -1.917476038215682e-05, 0.05282646417617798]","[0.7095337510108948, -6.765747547149658, -2.831406831741333, -0.4015045464038849, 0.2265472710132599, 0.3386993706226349]"
1584443836835029755,,243079,,1584443836,834745134,'',"[shoulder_pan_joint, shoulder_lift_joint, elbow_joint, wrist_1_joint, wrist_2_joint,","[1.8361061811447144, -0.9212587515460413, 1.9154596328735352, -2.5478766600238245, -1.5675566832171839, 2.801961660385132]","[0.13262543082237244, -0.02280518226325512, 0.07138124108314514, -0.017123060300946236, -1.917476038215682e-05, 0.037582531571388245]","[0.8331299424171448, -7.580567359924316, -2.74397611618042, -0.868057370185852, 0.2915954887866974, 0.3454284965991974]"
1584443836947087541,,243093,,1584443836,946740644,'',"[shoulder_pan_joint, shoulder_lift_joint, elbow_joint, wrist_1_joint, wrist_2_joint,","[1.850881576538086, -0.9265812079059046, 1.927055835723877, -2.5523536841021937, -1.567436997090475, 2.8050034046173096]","[0.13501587510108948, -0.06709887832403183, 0.10849079489707947, -0.059307534247636795, 0.0005944175645709038, 0.018005099147558212]","[0.7324219346046448, -7.580567359924316, -2.457024335861206, -0.8119812607765198, 0.2534637749195099, 0.3790741264820099]"
1584443837059053707,,243107,,1584443837,58714073,'',"[shoulder_pan_joint, shoulder_lift_joint, elbow_joint, wrist_1_joint, wrist_2_joint,","[1.8655256032943726, -0.933929745350973, 1.938856601715088, -2.558650795613424, -1.567436997090475, 2.80542254447937]","[0.1273971050977707, -0.05083868280053139, 0.08517428487539291, -0.04939418286085129, 0.0003451456723269075, -0.03413107246160507]","[0.6774902939796448, -6.985474109649658, -2.300097703933716, -0.948806881904602, 0.3028106987476349, -0.1368255764245987]"
1584443837171024360,,243121,,1584443837,170732095,'',"[shoulder_pan_joint, shoulder_lift_joint, elbow_joint, wrist_1_joint, wrist_2_joint,","[1.8795572519302368, -0.9387729803668421, 1.9471511840820312, -2.5626848379718226, -1.56744891801943, 2.8006088733673096]","[0.12703917920589447, -0.03618916496634483, 0.06670259684324265, -0.027956800535321236, 0.00023009712458588183, -0.048416268080472946]","[0.7781983017921448, -7.159424781799316, -2.383044719696045, -0.9420777559280396, 0.3050537407398224, -0.2310333549976349]"
1584443837283069282,,243135,,1584443837,282710102,'',"[shoulder_pan_joint, shoulder_lift_joint, elbow_joint, wrist_1_joint, wrist_2_joint,","[1.893673062324524, -0.9426692167865198, 1.9539337158203125, -2.5650790373431605, -1.5675447622882288, 2.795088291168213]","[0.12282072752714157, -0.03411829099059105, 0.06468285620212555, -0.021648304536938667, -1.917476038215682e-05, -0.041244909167289734]","[0.8377075791358948, -6.958008289337158, -2.36735200881958, -0.984695553779602, 0.2983246147632599, -0.3072967827320099]"
1584443837395125015,,243149,,1584443837,394803084,'',"[shoulder_pan_joint, shoulder_lift_joint, elbow_joint, wrist_1_joint, wrist_2_joint,","[1.9072489738464355, -0.9462416807757776, 1.9637656211853027, -2.569472614918844, -1.5674846808062952, 2.790945529937744]","[0.11820600181818008, -0.03773592785000801, 0.09779127687215805, -0.053459230810403824, -1.917476038215682e-05, -0.03050704300403595]","[0.6134033799171448, -7.324219703674316, -2.4996187686920166, -0.9555360078811646, 0.4172058403491974, -0.2803802788257599]"
1584443837507128029,,243163,,1584443837,506795168,'',"[shoulder_pan_joint, shoulder_lift_joint, elbow_joint, wrist_1_joint, wrist_2_joint,","[1.9207170009613037, -0.951456371937887, 1.9753971099853516, -2.575709644948141, -1.56744891801943, 2.7873291969299316]","[0.11205729842185974, -0.052142564207315445, 0.10120438784360886, -0.05959515646100044, 3.834952076431364e-05, -0.03171505406498909]","[0.8148193955421448, -7.278443336486816, -2.4233973026275635, -0.975723385810852, 0.3566437065601349, -0.2400055229663849]"
1584443837619063217,,243177,,1584443837,618710408,'',"[shoulder_pan_joint, shoulder_lift_joint, elbow_joint, wrist_1_joint, wrist_2_joint,","[1.9322900772094727, -0.957498852406637, 1.9862966537475586, -2.5819104353534144, -1.5674126783954065, 2.7827670574188232]","[0.09078609943389893, -0.047272175550460815, 0.09317655116319656, -0.057025738060474396, 0.0003834952076431364, -0.04958593100309372]","[0.7507324814796448, -7.104493141174316, -2.3471755981445312, -0.868057370185852, 0.4239349663257599, -0.2781372368335724]"
1584443837731056152,,243191,,1584443837,730705397,'',"[shoulder_pan_joint, shoulder_lift_joint, elbow_joint, wrist_1_joint, wrist_2_joint,","[1.942016363143921, -0.9621494452105921, 1.9955039024353027, -2.5874293486224573, -1.5673530737506312, 2.77763032913208]","[0.07772169262170792, -0.03960227221250534, 0.08160778135061264, -0.045099034905433655, 0.0004793690168298781, -0.041321609169244766]","[0.8926392793655396, -6.893921375274658, -2.3113067150115967, -0.921890377998352, 0.3925323784351349, -0.3162689507007599]"
1584443837843016657,,243205,,1584443837,842673216,'',"[shoulder_pan_joint, shoulder_lift_joint, elbow_joint, wrist_1_joint, wrist_2_joint,","[1.9502910375595093, -0.9660700003253382, 2.0029702186584473, -2.591619316731588, -1.5673530737506312, 2.7741219997406006]","[0.07363107800483704, -0.031983498483896255, 0.048882856965065, -0.02630777098238468, 0.00032597093377262354, -0.02895388752222061]","[0.8010864853858948, -7.008362293243408, -2.378561019897461, -0.9510499238967896, 0.3902893364429474, -0.2467346489429474]"
1584443837955103497,,243219,,1584443837,954723228,'',"[shoulder_pan_joint, shoulder_lift_joint, elbow_joint, wrist_1_joint, wrist_2_joint,","[1.9572947025299072, -0.9688389937030237, 2.008780002593994, -2.594336811696188, -1.567341152821676, 2.770948648452759]","[0.053881075233221054, -0.0178836602717638, 0.057434797286987305, -0.030008500441908836, 0.00017257283616345376, -0.02858956716954708]","[0.7873535752296448, -6.958008289337158, -2.439089775085449, -0.8927308320999146, 0.4082336723804474, -0.2534637749195099]"
1584443838066987790,,243233,,1584443838,66684704,'',"[shoulder_pan_joint, shoulder_lift_joint, elbow_joint, wrist_1_joint, wrist_2_joint,","[1.9631950855255127, -0.9702900091754358, 2.013413429260254, -2.5971019903766077, -1.5673530737506312, 2.767188787460327]","[0.05319078639149666, -0.008858739398419857, 0.030858580023050308, -0.01950073055922985, 0.00011504856229294091, -0.03616359829902649]","[0.7919312119483948, -7.136536598205566, -2.544455051422119, -0.8187103867530823, 0.3790741264820099, -0.3005676567554474]"
1584443838179001023,,243247,,1584443838,178675926,'',"[shoulder_pan_joint, shoulder_lift_joint, elbow_joint, wrist_1_joint, wrist_2_joint,","[1.9687834978103638, -0.9716685453998011, 2.0176267623901367, -2.599424664174215, -1.5673649946795862, 2.763967990875244]","[0.04893398657441139, -0.01931537501513958, 0.05198916792869568, -0.021590780466794968, 7.669904152862728e-05, -0.021111411973834038]","[0.5767822861671448, -6.985474109649658, -2.4301226139068604, -0.8119812607765198, 0.4216919243335724, -0.3005676567554474]"
1584443838291076382,,243261,,1584443838,290710419,'',"[shoulder_pan_joint, shoulder_lift_joint, elbow_joint, wrist_1_joint, wrist_2_joint,","[1.9753673076629639, -0.9747856299029749, 2.0241451263427734, -2.6027281920062464, -1.5673649946795862, 2.7623515129089355]","[0.06895244121551514, -0.03092249669134617, 0.045699845999479294, -0.025368208065629005, 5.752428114647046e-05, -0.0019558256026357412]","[0.6454468369483948, -6.935120105743408, -2.374077320098877, -0.926376461982727, 0.4059906303882599, -0.1861725002527237]"
1584443838403046544,,243275,,1584443838,402677826,'',"[shoulder_pan_joint, shoulder_lift_joint, elbow_joint, wrist_1_joint, wrist_2_joint,","[1.9834259748458862, -0.9775307814227503, 2.027937412261963, -2.6041529814349573, -1.56744891801943, 2.765943765640259]","[0.07162412256002426, -0.02292023040354252, 0.027292074635624886, -0.004544418305158615, 3.834952076431364e-05, 0.035703402012586594]","[0.8285523056983948, -6.674194812774658, -2.4346063137054443, -1.0317994356155396, 0.3790741264820099, 0.3386993706226349]"
1584443838515021937,,243289,,1584443838,514696950,'',"[shoulder_pan_joint, shoulder_lift_joint, elbow_joint, wrist_1_joint, wrist_2_joint,","[1.9914010763168335, -0.9801562468158167, 2.0327391624450684, -2.6052306334124964, -1.5674727598773401, 2.769033193588257]","[0.06909305602312088, -0.024109065532684326, 0.05799725651741028, -0.017736652866005898, 0.0, 0.016931314021348953]","[0.6454468369483948, -6.935120105743408, -2.477200746536255, -1.195541501045227, 0.4867401719093323, 0.3835602104663849]"
1584443838627033136,,243303,,1584443838,626650011,'',"[shoulder_pan_joint, shoulder_lift_joint, elbow_joint, wrist_1_joint, wrist_2_joint,","[1.9988725185394287, -0.9825895468341272, 2.038753032684326, -2.6078642050372522, -1.5674846808062952, 2.7674522399902344]","[0.07005178928375244, -0.01666925847530365, 0.04304094612598419, -0.01835024543106556, 0.0, -0.05046796798706055]","[1.2588502168655396, -7.095337867736816, -2.5130696296691895, -1.1708680391311646, 0.4687958359718323, -0.2848663628101349]"
1584443838739020170,,243317,,1584443838,738636735,'',"[shoulder_pan_joint, shoulder_lift_joint, elbow_joint, wrist_1_joint, wrist_2_joint,","[2.0061395168304443, -0.9846041838275355, 2.0433740615844727, -2.609635655079977, -1.5674966017352503, 2.762279748916626]","[0.0550059974193573, -0.019149193540215492, 0.04617282375693321, -0.015512380748987198, 0.0, -0.03963422775268555]","[0.8102417588233948, -6.752014636993408, -2.4323644638061523, -1.114791989326477, 0.4306641221046448, -0.3252411186695099]"
1584443838851058130,,243331,,1584443838,850654487,'',"[shoulder_pan_joint, shoulder_lift_joint, elbow_joint, wrist_1_joint, wrist_2_joint,","[2.0118839740753174, -0.9872053305255335, 2.049111843109131, -2.612305466328756, -1.5674727598773401, 2.758950710296631]","[0.04493285343050957, -0.025323467329144478, 0.04048430919647217, -0.020670391619205475, 0.0, -0.026154372841119766]","[1.0849000215530396, -6.788635730743408, -2.4233973026275635, -1.051986813545227, 0.4306641221046448, -0.2758941948413849]"
1584443838963022842,,243345,,1584443838,962627745,'',"[shoulder_pan_joint, shoulder_lift_joint, elbow_joint, wrist_1_joint, wrist_2_joint,","[2.0148940086364746, -0.9895194212542933, 2.052112579345703, -2.614316765462057, -1.5674727598773401, 2.755394458770752]","[0.005650162696838379, -0.01679708994925022, 0.012859872542321682, -0.008858739398419857, -5.752428114647046e-05, -0.03756335377693176]","[0.9887696504592896, -6.527710437774658, -2.371835470199585, -0.9959107637405396, 0.4508515000343323, -0.2601929008960724]"
1584443839074979450,,243359,,1584443839,74586967,'',"[shoulder_pan_joint, shoulder_lift_joint, elbow_joint, wrist_1_joint, wrist_2_joint,","[2.014594316482544, -0.9901779333697718, 2.0522327423095703, -2.6144002119647425, -1.567460838948385, 2.750150203704834]","[-0.006992395967245102, -0.0003962783666793257, -0.001508414512500167, -0.0004985437844879925, -5.752428114647046e-05, -0.03670049086213112]","[-0.3158569633960724, -5.859375476837158, -2.90090274810791, -0.6796417832374573, 0.4261780083179474, -0.2579498589038849]"
1584443839187073323,,243373,,1584443839,186684708,'',"[shoulder_pan_joint, shoulder_lift_joint, elbow_joint, wrist_1_joint, wrist_2_joint,","[2.0142223834991455, -0.9901540915118616, 2.052196502685547, -2.6143644491778772, -1.5675209204303187, 2.7488210201263428]","[-0.0004474110610317439, -0.0002556634717620909, -0.0004090615548193455, 0.02617354691028595, -0.03087136335670948, 0.0023584954906255007]","[0.0915527418255806, -5.648804187774658, -2.4816842079162598, -0.4418793320655823, 0.1143951565027237, 0.0]"
1584443839299076408,,243387,,1584443839,298673125,'',"[shoulder_pan_joint, shoulder_lift_joint, elbow_joint, wrist_1_joint, wrist_2_joint,","[2.0142223834991455, -0.9901898542987269, 2.05220890045166, -2.6140411535846155, -1.5679047743426722, 2.7488090991973877]","[-0.00014061490946915, -0.00011504856229294091, -0.00017896443023346364, 0.00046019424917176366, -0.0005560680292546749, 0.00026844663079828024]","[0.0457763709127903, -5.749512195587158, -2.5175533294677734, -0.5181427597999573, 0.1614990383386612, 0.01345825381577015]"
1584443839411135907,,243401,,1584443839,410729950,'',"[shoulder_pan_joint, shoulder_lift_joint, elbow_joint, wrist_1_joint, wrist_2_joint,","[2.0142345428466797, -0.9901540915118616, 2.0521726608276367, -2.6140769163714808, -1.5678804556476038, 2.7487969398498535]","[-8.948221511673182e-05, -7.669904152862728e-05, -0.00011504856229294091, 0.00017257283616345376, 5.752428114647046e-05, 0.00013422331539914012]","[0.0503540076315403, -5.790710926055908, -2.5242786407470703, -0.6549683213233948, 0.3364563286304474, 0.0]"
1584443839523063921,,243415,,1584443839,522663895,'',"[shoulder_pan_joint, shoulder_lift_joint, elbow_joint, wrist_1_joint, wrist_2_joint,","[2.0142223834991455, -0.9901779333697718, 2.052196502685547, -2.614113155995504, -1.5676887671100062, 2.7488210201263428]","[-6.391586794052273e-05, -5.1132694352418184e-05, -7.669904152862728e-05, -1.917476038215682e-05, 0.0012463594321161509, 9.58738019107841e-05]","[0.0411987341940403, -5.822754383087158, -2.5287623405456543, -0.8411408066749573, 0.5585175156593323, 0.01345825381577015]"
1584443839635054522,,243429,,1584443839,634651660,'',"[shoulder_pan_joint, shoulder_lift_joint, elbow_joint, wrist_1_joint, wrist_2_joint,","[2.0142223834991455, -0.9901898542987269, 2.052196502685547, -2.6143768469439905, -1.5675089995013636, 2.7488090991973877]","[-3.834952076431364e-05, -3.834952076431364e-05, -6.391586794052273e-05, -0.0008245147182606161, 0.0007286408799700439, 5.752428114647046e-05]","[0.0732421949505806, -5.671692371368408, -2.5287623405456543, -0.8074951767921448, 0.5540314316749573, 0.011215210892260075]"
1584443839746993006,,243443,,1584443839,746586978,'',"[shoulder_pan_joint, shoulder_lift_joint, elbow_joint, wrist_1_joint, wrist_2_joint,","[2.0142223834991455, -0.9901779333697718, 2.052196502685547, -2.6143768469439905, -1.567436997090475, 2.7488090991973877]","[-3.834952076431364e-05, -2.5566347176209092e-05, -5.1132694352418184e-05, -0.0002109223569277674, 0.0002109223569277674, 5.752428114647046e-05]","[0.02288818545639515, -5.886841297149658, -2.5242786407470703, -0.8119812607765198, 0.5001984238624573, 0.006729126907885075]"
1584443839859019974,,243457,,1584443839,858603327,'',"[shoulder_pan_joint, shoulder_lift_joint, elbow_joint, wrist_1_joint, wrist_2_joint,","[2.0142223834991455, -0.9901898542987269, 2.0522208213806152, -2.6144002119647425, -1.567436997090475, 2.7488210201263428]","[-2.5566347176209092e-05, -2.5566347176209092e-05, -3.834952076431364e-05, -0.00011504856229294091, 0.00011504856229294091, 3.834952076431364e-05]","[0.0640869215130806, -5.841064929962158, -2.5310041904449463, -0.7917938828468323, 0.5248718857765198, 0.011215210892260075]"
1584443839970937158,,243471,,1584443839,970570975,'',"[shoulder_pan_joint, shoulder_lift_joint, elbow_joint, wrist_1_joint, wrist_2_joint,","[2.0142223834991455, -0.9901779333697718, 2.052184581756592, -2.6144002119647425, -1.56744891801943, 2.7488210201263428]","[-2.5566347176209092e-05, -2.5566347176209092e-05, -3.834952076431364e-05, -7.669904152862728e-05, 7.669904152862728e-05, 3.834952076431364e-05]","[0.0320434607565403, -5.758667469024658, -2.546696901321411, -0.8097382187843323, 0.5495453476905823, 0.01345825381577015]"
1584443840083002118,,243485,,1584443840,82595138,'',"[shoulder_pan_joint, shoulder_lift_joint, elbow_joint, wrist_1_joint, wrist_2_joint,","[2.0142223834991455, -0.9901779333697718, 2.0522208213806152, -2.6144121328936976, -1.56744891801943, 2.7488090991973877]","[-2.5566347176209092e-05, -1.2783173588104546e-05, -2.5566347176209092e-05, -5.752428114647046e-05, 5.752428114647046e-05, 3.834952076431364e-05]","[0.0686645582318306, -5.648804187774658, -2.5197949409484863, -0.8052521347999573, 0.5787048935890198, 0.011215210892260075]"
1584443840194971379,,243499,,1584443840,194590959,'',"[shoulder_pan_joint, shoulder_lift_joint, elbow_joint, wrist_1_joint, wrist_2_joint,","[2.01425838470459, -0.9901779333697718, 2.05220890045166, -2.6143882910357874, -1.567460838948385, 2.7487969398498535]","[-1.2783173588104546e-05, -1.2783173588104546e-05, -2.5566347176209092e-05, -5.752428114647046e-05, 5.752428114647046e-05, 1.917476038215682e-05]","[0.0640869215130806, -5.758667469024658, -2.5265204906463623, -0.8097382187843323, 0.5338440537452698, 0.008972168900072575]"
1584443840307043442,,243513,,1584443840,306622547,'',"[shoulder_pan_joint, shoulder_lift_joint, elbow_joint, wrist_1_joint, wrist_2_joint,","[2.0142104625701904, -0.9901421705829065, 2.052184581756592, -2.6143882910357874, -1.56744891801943, 2.7487969398498535]","[-1.2783173588104546e-05, -1.2783173588104546e-05, -2.5566347176209092e-05, -3.834952076431364e-05, 3.834952076431364e-05, 1.917476038215682e-05]","[0.0595092847943306, -5.804443836212158, -2.5265204906463623, -0.8052521347999573, 0.5787048935890198, 0.008972168900072575]"
1584443840418957700,,243527,,1584443840,418585636,'',"[shoulder_pan_joint, shoulder_lift_joint, elbow_joint, wrist_1_joint, wrist_2_joint,","[2.014186382293701, -0.9901898542987269, 2.052196502685547, -2.6144121328936976, -1.5674126783954065, 2.7488090991973877]","[-1.2783173588104546e-05, -1.2783173588104546e-05, -2.5566347176209092e-05, -3.834952076431364e-05, 3.834952076431364e-05, 1.917476038215682e-05]","[0.0686645582318306, -5.639648914337158, -2.5310041904449463, -0.8007660508155823, 0.5046845078468323, 0.01345825381577015]"
1584443840530958460,,243541,,1584443840,530584623,'',"[shoulder_pan_joint, shoulder_lift_joint, elbow_joint, wrist_1_joint, wrist_2_joint,","[2.0141985416412354, -0.9901779333697718, 2.0521488189697266, -2.614004913960592, -1.5680483023272913, 2.747671365737915]","[-0.000690291344653815, -1.2783173588104546e-05, -0.0026589001063257456, 0.006155097857117653, -0.00293373828753829, -0.030545393005013466]","[-0.1785278469324112, -5.392456531524658, -2.661029100418091, -0.4104767143726349, 0.01794433780014515, -0.2983246147632599]"
1584443840643029080,,243555,,1584443840,642577859,'',"[shoulder_pan_joint, shoulder_lift_joint, elbow_joint, wrist_1_joint, wrist_2_joint,","[2.014186382293701, -0.9901779333697718, 2.052184581756592, -2.6139333883868616, -1.5682280699359339, 2.7436838150024414]","[-0.0001661812566453591, 0.0, -0.0003195793251506984, 0.000517718552146107, -0.001073786523193121, -0.039442483335733414]","[-0.1190185695886612, -5.813599109649658, -2.46150803565979, -0.4329071640968323, 0.02018737979233265, -0.2512207329273224]"
1584443840755029560,,243569,,1584443840,754564462,'',"[shoulder_pan_joint, shoulder_lift_joint, elbow_joint, wrist_1_joint, wrist_2_joint,","[2.014150619506836, -0.9901779333697718, 2.0521607398986816, -2.613945786152975, -1.5682881514178675, 2.738259792327881]","[-8.948221511673182e-05, 0.0, -0.0, 0.0001917476038215682, -0.0004218447138555348, -0.058214571326971054]","[-0.0640869215130806, -5.708313465118408, -2.6206765174865723, -0.3835602104663849, 0.02018737979233265, -0.2422485649585724]"
1584443840866915395,,243583,,1584443840,866512253,'',"[shoulder_pan_joint, shoulder_lift_joint, elbow_joint, wrist_1_joint, wrist_2_joint,","[2.014162540435791, -0.9902022520648401, 2.0521726608276367, -2.6139333883868616, -1.5682881514178675, 2.7313151359558105]","[-6.391586794052273e-05, 0.0, -0.0, 0.0001917476038215682, -0.0003451456723269075, -0.05710243433713913]","[0.0823974683880806, -5.740356922149658, -2.557905912399292, -0.4149627983570099, 0.02467346377670765, -0.3409424126148224]"
1584443840978920012,,243597,,1584443840,978534964,'',"[shoulder_pan_joint, shoulder_lift_joint, elbow_joint, wrist_1_joint, wrist_2_joint,","[2.014174461364746, -0.9902022520648401, 2.0521488189697266, -2.6139095465289515, -1.5683119932757776, 2.7251248359680176]","[-5.1132694352418184e-05, 0.0, -0.0, 0.00015339808305725455, -0.00017257283616345376, -0.05681481584906578]","[-0.0366210974752903, -5.657959461212158, -2.5848076343536377, -0.3947754204273224, 0.02243042178452015, -0.2826233208179474]"
1584443841090880877,,243611,,1584443841,90551974,'',"[shoulder_pan_joint, shoulder_lift_joint, elbow_joint, wrist_1_joint, wrist_2_joint,","[2.0141265392303467, -0.9902022520648401, 2.0521607398986816, -2.6139214674579065, -1.5682881514178675, 2.7177608013153076]","[-3.834952076431364e-05, 0.0, -0.0, 9.58738019107841e-05, -9.58738019107841e-05, -0.06222209706902504]","[-0.009155274368822575, -5.841064929962158, -2.472717046737671, -0.4239349663257599, 0.02018737979233265, -0.3229980766773224]"
1584443841202822056,,243625,,1584443841,202517288,'',"[shoulder_pan_joint, shoulder_lift_joint, elbow_joint, wrist_1_joint, wrist_2_joint,","[2.014174461364746, -0.9901779333697718, 2.0521488189697266, -2.6139214674579065, -1.5683358351336878, 2.7116305828094482]","[-2.5566347176209092e-05, 0.0, -0.0, 9.58738019107841e-05, -7.669904152862728e-05, -0.04659466817975044]","[-0.004577637184411287, -5.635071277618408, -2.5803239345550537, -0.3902893364429474, 0.008972168900072575, -0.2758941948413849]"
1584443841314839166,,243639,,1584443841,314494032,'',"[shoulder_pan_joint, shoulder_lift_joint, elbow_joint, wrist_1_joint, wrist_2_joint,","[2.014162540435791, -0.9901898542987269, 2.0521726608276367, -2.6139333883868616, -1.5683239142047327, 2.7066495418548584]","[-2.5566347176209092e-05, 0.0, -0.0, 9.58738019107841e-05, -7.669904152862728e-05, -0.04575097933411598]","[0.0, -5.648804187774658, -2.663270950317383, -0.3633728325366974, 0.01570129580795765, -0.2803802788257599]"
1584443841426920326,,243653,,1584443841,426536059,'',"[shoulder_pan_joint, shoulder_lift_joint, elbow_joint, wrist_1_joint, wrist_2_joint,","[2.014174461364746, -0.9901779333697718, 2.0521607398986816, -2.6138976255999964, -1.568348232899801, 2.702195644378662]","[-2.5566347176209092e-05, 0.0, -0.0, 7.669904152862728e-05, -7.669904152862728e-05, -0.026633741334080696]","[-0.02288818545639515, -5.886841297149658, -2.4928932189941406, -0.4194488823413849, 0.01794433780014515, -0.3431854546070099]"
1584443841538919674,,243667,,1584443841,538510570,'',"[shoulder_pan_joint, shoulder_lift_joint, elbow_joint, wrist_1_joint, wrist_2_joint,","[2.014162540435791, -0.9901898542987269, 2.052112579345703, -2.6139095465289515, -1.5683239142047327, 2.699944019317627]","[-1.2783173588104546e-05, 0.0, -0.0, 5.752428114647046e-05, -7.669904152862728e-05, -0.011830827221274376]","[0.0640869215130806, -5.767822742462158, -2.5780820846557617, -0.3790741264820099, 0.01794433780014515, -0.3342132866382599]"
1584443841650926064,,243681,,1584443841,650532379,'',"[shoulder_pan_joint, shoulder_lift_joint, elbow_joint, wrist_1_joint, wrist_2_joint,","[2.014186382293701, -0.9901779333697718, 2.0521488189697266, -2.6139095465289515, -1.5682881514178675, 2.7010817527770996]","[-1.2783173588104546e-05, 0.0, -2.5566347176209092e-05, 0.0008245147182606161, -5.752428114647046e-05, 0.03622112050652504]","[-0.01831054873764515, -5.964661121368408, -2.385286331176758, -0.4777680039405823, 0.01345825381577015, 0.3274841606616974]"
1584443841762859288,,243695,,1584443841,762493856,'',"[shoulder_pan_joint, shoulder_lift_joint, elbow_joint, wrist_1_joint, wrist_2_joint,","[2.0142104625701904, -0.9901779333697718, 2.052196502685547, -2.6138737837420862, -1.5683601538287562, 2.7040152549743652]","[-1.2783173588104546e-05, 0.0, -0.0, 0.00026844663079828024, -5.752428114647046e-05, 0.018196847289800644]","[0.02288818545639515, -5.854797840118408, -2.6005003452301025, -0.3970184624195099, 0.01794433780014515, 0.3028106987476349]"
1584443841874901936,,243709,,1584443841,874509684,'',"[shoulder_pan_joint, shoulder_lift_joint, elbow_joint, wrist_1_joint, wrist_2_joint,","[2.014174461364746, -0.9901898542987269, 2.0521488189697266, -2.6138857046710413, -1.5683119932757776, 2.7055721282958984]","[-1.2783173588104546e-05, 0.0, -0.0, 0.00013422331539914012, -3.834952076431364e-05, 0.008551943115890026]","[-0.02288818545639515, -5.653381824493408, -2.560147762298584, -0.4194488823413849, 0.01345825381577015, 0.2960815727710724]"
1584443841986866568,,243723,,1584443841,986498582,'',"[shoulder_pan_joint, shoulder_lift_joint, elbow_joint, wrist_1_joint, wrist_2_joint,","[2.014174461364746, -0.9901898542987269, 2.0521249771118164, -2.613861862813131, -1.5683119932757776, 2.70304536819458]","[-1.2783173588104546e-05, 0.0, -0.0, 9.58738019107841e-05, -3.834952076431364e-05, -0.03599102422595024]","[0.0274658240377903, -5.763245105743408, -2.537729501724243, -0.4194488823413849, 0.01794433780014515, -0.3409424126148224]"
1584443842098832703,,243737,,1584443842,98511574,'',"[shoulder_pan_joint, shoulder_lift_joint, elbow_joint, wrist_1_joint, wrist_2_joint,","[2.014186382293701, -0.9901898542987269, 2.0521488189697266, -2.6138857046710413, -1.5683358351336878, 2.699944019317627]","[-1.2783173588104546e-05, 0.0, -0.0, 5.752428114647046e-05, -3.834952076431364e-05, -0.017851701006293297]","[0.0595092847943306, -5.722046375274658, -2.5108277797698975, -0.4239349663257599, 0.01794433780014515, -0.3364563286304474]"
1584443842210943088,,243751,,1584443842,210533884,'',"[shoulder_pan_joint, shoulder_lift_joint, elbow_joint, wrist_1_joint, wrist_2_joint,","[2.0142104625701904, -0.9901660124408167, 2.0521607398986816, -2.6138857046710413, -1.5683000723468226, 2.6988186836242676]","[-1.2783173588104546e-05, 0.0, -0.0, 5.752428114647046e-05, -1.917476038215682e-05, 0.015205584466457367]","[0.1052856519818306, -5.776978015899658, -2.5287623405456543, -0.4172058403491974, 0.02018737979233265, 0.0852356031537056]"
1584443842322861534,,243765,,1584443842,322474041,'',"[shoulder_pan_joint, shoulder_lift_joint, elbow_joint, wrist_1_joint, wrist_2_joint,","[2.014162540435791, -0.9902022520648401, 2.0521368980407715, -2.613849941884176, -1.568348232899801, 2.7025668621063232]","[-1.2783173588104546e-05, 0.0, -0.0, 3.834952076431364e-05, -1.917476038215682e-05, 0.030890539288520813]","[-0.0320434607565403, -5.731201648712158, -2.560147762298584, -0.4059906303882599, 0.01570129580795765, 0.3342132866382599]"
1584443842434884786,,243779,,1584443842,434493025,'',"[shoulder_pan_joint, shoulder_lift_joint, elbow_joint, wrist_1_joint, wrist_2_joint,","[2.014186382293701, -0.9901898542987269, 2.0521607398986816, -2.613849941884176, -1.5683358351336878, 2.7052011489868164]","[-1.2783173588104546e-05, 0.0, -0.0, 3.834952076431364e-05, -1.917476038215682e-05, 0.017314808443188667]","[-0.0503540076315403, -5.845642566680908, -2.474958896636963, -0.4351502060890198, 0.0291595496237278, 0.3274841606616974]"
1584443842546896135,,243793,,1584443842,546500908,'',"[shoulder_pan_joint, shoulder_lift_joint, elbow_joint, wrist_1_joint, wrist_2_joint,","[2.014162540435791, -0.9901898542987269, 2.0521607398986816, -2.6138976255999964, -1.5683239142047327, 2.7055482864379883]","[0.0, 0.0, -0.0, 0.0, -1.917476038215682e-05, -0.0409381128847599]","[-0.2700805962085724, -5.850220203399658, -2.4794423580169678, -0.4418793320655823, 0.02467346377670765, -0.2086029201745987]"
1584443842658860167,,243807,,1584443842,658468296,'',"[shoulder_pan_joint, shoulder_lift_joint, elbow_joint, wrist_1_joint, wrist_2_joint,","[2.014186382293701, -0.9901779333697718, 2.052184581756592, -2.613837544118063, -1.5683358351336878, 2.7009143829345703]","[0.0, 0.0, -0.0, 0.0, -1.917476038215682e-05, -0.037640053778886795]","[-0.0274658240377903, -5.744934558868408, -2.539971351623535, -0.4284210503101349, 0.02467346377670765, -0.3364563286304474]"
1584443842770804682,,243821,,1584443842,770456943,'',"[shoulder_pan_joint, shoulder_lift_joint, elbow_joint, wrist_1_joint, wrist_2_joint,","[2.014150619506836, -0.9902022520648401, 2.0521607398986816, -2.613849941884176, -1.568348232899801, 2.6979329586029053]","[0.0, 0.0, -0.0, 0.0, -1.917476038215682e-05, -0.016087623313069344]","[0.01373291201889515, -5.781555652618408, -2.566873073577881, -0.4059906303882599, 0.01794433780014515, -0.2826233208179474]"
1584443842882824547,,243835,,1584443842,882456230,'',"[shoulder_pan_joint, shoulder_lift_joint, elbow_joint, wrist_1_joint, wrist_2_joint,","[2.014150619506836, -0.9901779333697718, 2.0521607398986816, -2.613849941884176, -1.5683239142047327, 2.6975018978118896]","[0.0, 0.0, -0.0, 0.0, -1.917476038215682e-05, 0.000862864195369184]","[-0.02288818545639515, -5.671692371368408, -2.5242786407470703, -0.4104767143726349, 0.01794433780014515, -0.004486084450036287]"
1584443842994762279,,243849,,1584443842,994472699,'',"[shoulder_pan_joint, shoulder_lift_joint, elbow_joint, wrist_1_joint, wrist_2_joint,","[2.014186382293701, -0.9901779333697718, 2.0521488189697266, -2.613849941884176, -1.5684078375445765, 2.6975018978118896]","[0.0, 0.0, -0.0, 0.0, -0.0005752427969127893, 0.00023009712458588183]","[0.0595092847943306, -5.744934558868408, -2.535487651824951, -0.3768310844898224, -0.02243042178452015, 0.006729126907885075]"
1584443843106756567,,243863,,1584443843,106463651,'',"[shoulder_pan_joint, shoulder_lift_joint, elbow_joint, wrist_1_joint, wrist_2_joint,","[2.014174461364746, -0.9902022520648401, 2.0521607398986816, -2.613837544118063, -1.5684197584735315, 2.6974899768829346]","[0.0, 0.0, -0.0, 3.834952076431364e-05, -0.00024927189224399626, 0.00011504856229294091]","[0.0732421949505806, -5.630493640899658, -2.535487651824951, -0.3925323784351349, -0.02018737979233265, 0.004486084450036287]"
1584443843218773177,,243877,,1584443843,218458590,'',"[shoulder_pan_joint, shoulder_lift_joint, elbow_joint, wrist_1_joint, wrist_2_joint,","[2.014174461364746, -0.9902022520648401, 2.0521607398986816, -2.6138256231891077, -1.5684440771686, 2.6974899768829346]","[0.0, 0.0, -0.0, 3.834952076431364e-05, -0.00013422331539914012, 7.669904152862728e-05]","[0.0732421949505806, -5.662537097930908, -2.551180362701416, -0.3835602104663849, -0.01345825381577015, 0.004486084450036287]"
1584443843330754450,,243891,,1584443843,330452296,'',"[shoulder_pan_joint, shoulder_lift_joint, elbow_joint, wrist_1_joint, wrist_2_joint,","[2.014162540435791, -0.9901779333697718, 2.052112579345703, -2.613837544118063, -1.5684321562396448, 2.6975018978118896]","[0.0, 0.0, -0.0, 3.834952076431364e-05, -9.58738019107841e-05, 5.752428114647046e-05]","[0.0549316480755806, -5.749512195587158, -2.5310041904449463, -0.3858032524585724, 0.008972168900072575, -0.0022430422250181437]"
1584443843442753316,,243905,,1584443843,442439782,'',"[shoulder_pan_joint, shoulder_lift_joint, elbow_joint, wrist_1_joint, wrist_2_joint,","[2.014150619506836, -0.9901660124408167, 2.052088737487793, -2.6137779394732874, -1.5684321562396448, 2.698028564453125]","[0.0, 0.0, -0.0, 9.58738019107841e-05, -5.752428114647046e-05, 0.030622093006968498]","[0.1922607570886612, -5.726624011993408, -2.6229183673858643, -0.3678589165210724, -0.0314025916159153, 0.2332763969898224]"
1584443843554790444,,243919,,1584443843,554469636,'',"[shoulder_pan_joint, shoulder_lift_joint, elbow_joint, wrist_1_joint, wrist_2_joint,","[2.014054775238037, -0.9901183287249964, 2.0520529747009277, -2.613598648701803, -1.5684078375445765, 2.70150089263916]","[-0.0006263754912652075, 0.0, -0.0, 0.002281796419993043, -5.752428114647046e-05, 0.028321120887994766]","[-0.0732421949505806, -5.758667469024658, -2.4906516075134277, -0.4486084580421448, -0.02467346377670765, 0.3319702446460724]"
1584443843666727305,,243933,,1584443843,666425351,'',"[shoulder_pan_joint, shoulder_lift_joint, elbow_joint, wrist_1_joint, wrist_2_joint,","[2.012183904647827, -0.9901540915118616, 2.051980972290039, -2.6135385672198694, -1.5683720747577112, 2.703524351119995]","[-0.03773592785000801, 0.0, -0.0019174760673195124, 0.0003834952076431364, -3.834952076431364e-05, 0.010852914303541183]","[-0.6179810166358948, -5.690002918243408, -2.5287623405456543, -0.4373932480812073, -0.0493469275534153, 0.2893524467945099]"
1584443843778771065,,243947,,1584443843,778422865,'',"[shoulder_pan_joint, shoulder_lift_joint, elbow_joint, wrist_1_joint, wrist_2_joint,","[2.005743980407715, -0.9900582472430628, 2.05072021484375, -2.6133111158954065, -1.5682881514178675, 2.7005553245544434]","[-0.07836085557937622, 0.006238188594579697, -0.03670049086213112, 0.02245364338159561, -3.834952076431364e-05, -0.04605777561664581]","[-0.6637573838233948, -4.728699207305908, -2.831406831741333, -0.1951446682214737, -0.0919647291302681, -0.4015045464038849]"
1584443843890808413,,243961,,1584443843,890455895,'',"[shoulder_pan_joint, shoulder_lift_joint, elbow_joint, wrist_1_joint, wrist_2_joint,","[1.9956345558166504, -0.9885481039630335, 2.0436744689941406, -2.610246483479635, -1.5682523886310022, 2.695993423461914]","[-0.09229451417922974, 0.023610521107912064, -0.07351603358983994, 0.03163835406303406, -3.834952076431364e-05, -0.04055461660027504]","[-1.0162354707717896, -4.248047351837158, -2.7888123989105225, -0.0403747595846653, -0.1502838283777237, -0.2983246147632599]"
1584443844002756715,,243975,,1584443844,2424896,'',"[shoulder_pan_joint, shoulder_lift_joint, elbow_joint, wrist_1_joint, wrist_2_joint,","[1.9860408306121826, -0.9849875609027308, 2.0350561141967773, -2.606140438710348, -1.5683119932757776, 2.691131830215454]","[-0.07508835941553116, 0.04180097579956055, -0.07650729268789291, 0.03869466483592987, -1.917476038215682e-05, -0.05102403834462166]","[-0.9109498262405396, -4.151916980743408, -2.8022632598876953, -0.1166381984949112, -0.1592559963464737, -0.2646789848804474]"
1584443844114767594,,243989,,1584443844,114413243,'',"[shoulder_pan_joint, shoulder_lift_joint, elbow_joint, wrist_1_joint, wrist_2_joint,","[1.9783772230148315, -0.9808276335345667, 2.02911376953125, -2.6030519644366663, -1.5682643095599573, 2.684893846511841]","[-0.06167881190776825, 0.02515728585422039, -0.03629142791032791, 0.018158497288823128, -1.917476038215682e-05, -0.053229134529829025]","[-1.0894776582717896, -4.705811023712158, -2.7977795600891113, -0.1009368970990181, -0.1570129543542862, -0.3386993706226349]"
1584443844226729711,,244003,,1584443844,226390348,'',"[shoulder_pan_joint, shoulder_lift_joint, elbow_joint, wrist_1_joint, wrist_2_joint,","[1.9724292755126953, -0.9791010061847132, 2.0246009826660156, -2.6010168234454554, -1.5682523886310022, 2.6791346073150635]","[-0.04567427933216095, 0.01091683004051447, -0.04319434240460396, 0.01882961392402649, -1.917476038215682e-05, -0.05717913433909416]","[-0.9933472871780396, -4.435730457305908, -2.8896937370300293, -0.0314025916159153, -0.1682281643152237, -0.2826233208179474]"
1584443844338779683,,244017,,1584443844,338411226,'',"[shoulder_pan_joint, shoulder_lift_joint, elbow_joint, wrist_1_joint, wrist_2_joint,","[1.9676681756973267, -0.9778903166400355, 2.0206761360168457, -2.5989096800433558, -1.5682643095599573, 2.671663522720337]","[-0.039154861122369766, 0.008897088468074799, -0.021347898989915848, 0.013499030843377113, -1.917476038215682e-05, -0.06622961908578873]","[-0.9155274629592896, -4.229736804962158, -2.808988571166992, -0.0314025916159153, -0.1525268703699112, -0.3409424126148224]"
1584443844450751639,,244031,,1584443844,450430039,'',"[shoulder_pan_joint, shoulder_lift_joint, elbow_joint, wrist_1_joint, wrist_2_joint,","[1.963734745979309, -0.9776986281024378, 2.020231246948242, -2.598922077809469, -1.5682161490069788, 2.6651737689971924]","[-0.026985278353095055, -0.0007925567333586514, 0.0009587380336597562, -0.002070874208584428, -1.917476038215682e-05, -0.047457531094551086]","[-1.0986329317092896, -5.351257801055908, -2.2171506881713867, -0.3386993706226349, -0.1502838283777237, -0.2781372368335724]"
1584443844562671819,,244045,,1584443844,562389943,'',"[shoulder_pan_joint, shoulder_lift_joint, elbow_joint, wrist_1_joint, wrist_2_joint,","[1.9616121053695679, -0.9776747862445276, 2.020231246948242, -2.599053208027975, -1.5681923071490687, 2.6593427658081055]","[-0.013383982703089714, -0.0001917476038215682, 0.00024288029817398638, -0.0004793690168298781, -1.917476038215682e-05, -0.06367938220500946]","[-0.7324219346046448, -5.538940906524658, -2.0759165287017822, -0.3925323784351349, -0.1480407863855362, -0.3072967827320099]"
1584443844674590606,,244059,,1584443844,674371336,'',"[shoulder_pan_joint, shoulder_lift_joint, elbow_joint, wrist_1_joint, wrist_2_joint,","[1.960245132446289, -0.9777348677264612, 2.020195484161377, -2.5990894476519983, -1.5681923071490687, 2.652709722518921]","[-0.011006312444806099, 0.0, 0.00014061490946915, -0.0004410194815136492, -1.917476038215682e-05, -0.04906821250915527]","[-1.0391236543655396, -5.255127429962158, -2.362868309020996, -0.2915954887866974, -0.1435547024011612, -0.3611297905445099]"
1584443844786658170,,244073,,1584443844,786394548,'',"[shoulder_pan_joint, shoulder_lift_joint, elbow_joint, wrist_1_joint, wrist_2_joint,","[1.959441065788269, -0.9776867071734827, 2.020219326019287, -2.5991132895099085, -1.5681923071490687, 2.6483991146087646]","[0.0003451456723269075, 0.0, 8.948221511673182e-05, -0.00023009712458588183, -1.917476038215682e-05, -0.033364083617925644]","[-0.3295898735523224, -5.342102527618408, -2.2530195713043213, -0.3072967827320099, -0.1480407863855362, -0.2848663628101349]"
1584443844898603567,,244087,,1584443844,898385440,'',"[shoulder_pan_joint, shoulder_lift_joint, elbow_joint, wrist_1_joint, wrist_2_joint,","[1.9598968029022217, -0.9776867071734827, 2.020231246948242, -2.5991252104388636, -1.5682280699359339, 2.6450109481811523]","[0.005650162696838379, 0.0, 7.669904152862728e-05, -0.00013422331539914012, -1.917476038215682e-05, -0.0346679650247097]","[0.4760742783546448, -5.369568347930908, -2.194732427597046, -0.3454284965991974, -0.1457977443933487, -0.2444916069507599]"
1584443845010776818,,244101,,1584443845,10407840,'',"[shoulder_pan_joint, shoulder_lift_joint, elbow_joint, wrist_1_joint, wrist_2_joint,","[1.9601253271102905, -0.9777348677264612, 2.0202431678771973, -2.5991490522967737, -1.5681923071490687, 2.6407368183135986]","[0.0003962783666793257, 0.0, 5.1132694352418184e-05, -9.58738019107841e-05, -1.917476038215682e-05, -0.03756335377693176]","[0.0, -5.323791980743408, -2.1633472442626953, -0.3476715385913849, -0.1435547024011612, -0.3117828667163849]"
1584443845122697859,,244115,,1584443845,122366391,'',"[shoulder_pan_joint, shoulder_lift_joint, elbow_joint, wrist_1_joint, wrist_2_joint,","[1.9601492881774902, -0.977722469960348, 2.020219326019287, -2.599173370991842, -1.5682042280780237, 2.6369411945343018]","[0.00020453077740967274, -1.2783173588104546e-05, 5.1132694352418184e-05, -7.669904152862728e-05, -1.917476038215682e-05, -0.027458256110548973]","[0.0595092847943306, -5.172729969024658, -2.3157904148101807, -0.2848663628101349, -0.1435547024011612, -0.3611297905445099]"
1584443845234722965,,244129,,1584443845,234365718,'',"[shoulder_pan_joint, shoulder_lift_joint, elbow_joint, wrist_1_joint, wrist_2_joint,","[1.9601612091064453, -0.9777706305133265, 2.020219326019287, -2.5991490522967737, -1.5681923071490687, 2.6352293491363525]","[0.00010226538870483637, -1.2783173588104546e-05, 3.834952076431364e-05, -7.669904152862728e-05, -1.917476038215682e-05, -0.002147573046386242]","[-0.0366210974752903, -5.291748523712158, -2.2238759994506836, -0.3297272026538849, -0.1368255764245987, -0.1031799390912056]"
1584443845346732321,,244143,,1584443845,346401654,'',"[shoulder_pan_joint, shoulder_lift_joint, elbow_joint, wrist_1_joint, wrist_2_joint,","[1.9601492881774902, -0.9779027144061487, 2.020183563232422, -2.599160973225729, -1.5681684652911585, 2.6352651119232178]","[6.391586794052273e-05, -0.00424401368945837, -0.0, -7.669904152862728e-05, 0.0, 0.00036432043998502195]","[-0.0457763709127903, -5.488586902618408, -2.5265204906463623, -0.3521576225757599, -0.0403747595846653, 0.0022430422250181437]"
1584443845458715167,,244157,,1584443845,458381434,'',"[shoulder_pan_joint, shoulder_lift_joint, elbow_joint, wrist_1_joint, wrist_2_joint,","[1.9601372480392456, -0.977938477193014, 2.020231246948242, -2.5991972128497522, -1.5681684652911585, 2.635312795639038]","[5.1132694352418184e-05, -0.00023009712458588183, -0.0, -7.669904152862728e-05, 0.0, 0.00017257283616345376]","[-0.004577637184411287, -5.488586902618408, -2.539971351623535, -0.3386993706226349, -0.0403747595846653, 0.006729126907885075]"
1584443845570623184,,244171,,1584443845,570319016,'',"[shoulder_pan_joint, shoulder_lift_joint, elbow_joint, wrist_1_joint, wrist_2_joint,","[1.9601492881774902, -0.9779146353351038, 2.020231246948242, -2.599185291920797, -1.5681923071490687, 2.635300874710083]","[3.834952076431364e-05, -0.00010226538870483637, -0.0, -7.669904152862728e-05, 0.0, 9.58738019107841e-05]","[-0.0503540076315403, -5.273437976837158, -2.544455051422119, -0.3386993706226349, -0.0426178015768528, 0.008972168900072575]"
1584443845682571916,,244185,,1584443845,682319786,'',"[shoulder_pan_joint, shoulder_lift_joint, elbow_joint, wrist_1_joint, wrist_2_joint,","[1.9601253271102905, -0.9778903166400355, 2.020207405090332, -2.5992091337787073, -1.5682042280780237, 2.635288715362549]","[2.5566347176209092e-05, -6.391586794052273e-05, -0.0, -7.669904152862728e-05, 0.0, 7.669904152862728e-05]","[-0.0503540076315403, -5.021667957305908, -2.539971351623535, -0.3431854546070099, -0.0381317175924778, 0.004486084450036287]"
1584443845794673204,,244199,,1584443845,794344350,'',"[shoulder_pan_joint, shoulder_lift_joint, elbow_joint, wrist_1_joint, wrist_2_joint,","[1.9601492881774902, -0.9779265562640589, 2.020219326019287, -2.599173370991842, -1.5682042280780237, 2.635300874710083]","[2.5566347176209092e-05, -3.834952076431364e-05, -0.0, -7.669904152862728e-05, 0.0, 5.752428114647046e-05]","[0.0, -4.751587390899658, -2.535487651824951, -0.3476715385913849, -0.0381317175924778, 0.0022430422250181437]"
1584443845906594606,,244213,,1584443845,906331405,'',"[shoulder_pan_joint, shoulder_lift_joint, elbow_joint, wrist_1_joint, wrist_2_joint,","[1.9601492881774902, -0.9779265562640589, 2.020231246948242, -2.599173370991842, -1.5682042280780237, 2.635312795639038]","[2.5566347176209092e-05, -3.834952076431364e-05, -0.0, -7.669904152862728e-05, 0.0, 3.834952076431364e-05]","[0.01831054873764515, -4.389954090118408, -2.5332460403442383, -0.3454284965991974, -0.0381317175924778, 0.006729126907885075]"
1584443846018616916,,244227,,1584443846,18334950,'',"[shoulder_pan_joint, shoulder_lift_joint, elbow_joint, wrist_1_joint, wrist_2_joint,","[1.9601612091064453, -0.9777944723712366, 2.020183563232422, -2.5991972128497522, -1.5681803862201136, 2.635312795639038]","[1.2783173588104546e-05, 0.0017896442441269755, -0.0, -5.752428114647046e-05, 0.0, 3.834952076431364e-05]","[-0.0686645582318306, -4.664612293243408, -2.544455051422119, -0.3431854546070099, -0.0403747595846653, 0.006729126907885075]"
1584443846130578442,,244241,,1584443846,130309791,'',"[shoulder_pan_joint, shoulder_lift_joint, elbow_joint, wrist_1_joint, wrist_2_joint,","[1.9601612091064453, -0.9777825514422815, 2.020219326019287, -2.599185291920797, -1.5681803862201136, 2.635300874710083]","[1.2783173588104546e-05, 0.0001917476038215682, -0.0, -5.752428114647046e-05, 0.0, 3.834952076431364e-05]","[-0.0549316480755806, -4.632568836212158, -2.5332460403442383, -0.3386993706226349, -0.0426178015768528, 0.004486084450036287]"
1584443846242572450,,244255,,1584443846,242333814,'',"[shoulder_pan_joint, shoulder_lift_joint, elbow_joint, wrist_1_joint, wrist_2_joint,","[1.9601372480392456, -0.9777706305133265, 2.020219326019287, -2.5991972128497522, -1.5681803862201136, 2.635288715362549]","[1.2783173588104546e-05, 0.00010226538870483637, -0.0, -3.834952076431364e-05, 0.0, 3.834952076431364e-05]","[0.01373291201889515, -4.632568836212158, -2.535487651824951, -0.3431854546070099, -0.0471038855612278, 0.008972168900072575]"
1584443846354600440,,244269,,1584443846,354333542,'',"[shoulder_pan_joint, shoulder_lift_joint, elbow_joint, wrist_1_joint, wrist_2_joint,","[1.9601372480392456, -0.9777467886554163, 2.0202555656433105, -2.5992091337787073, -1.5682042280780237, 2.635312795639038]","[1.2783173588104546e-05, 6.391586794052273e-05, -0.0, -3.834952076431364e-05, 0.0, 3.834952076431364e-05]","[-0.009155274368822575, -4.600525379180908, -2.5310041904449463, -0.3409424126148224, -0.0403747595846653, 0.0022430422250181437]"
1584443846466596281,,244283,,1584443846,466320076,'',"[shoulder_pan_joint, shoulder_lift_joint, elbow_joint, wrist_1_joint, wrist_2_joint,","[1.9601612091064453, -0.9777944723712366, 2.0202431678771973, -2.5992210547076624, -1.5682042280780237, 2.635300874710083]","[1.2783173588104546e-05, 6.391586794052273e-05, -0.0, -3.834952076431364e-05, 0.0, 3.834952076431364e-05]","[-0.02288818545639515, -4.641724109649658, -2.539971351623535, -0.3409424126148224, -0.0448608435690403, 0.004486084450036287]"
1584443846578630874,,244297,,1584443846,578348738,'',"[shoulder_pan_joint, shoulder_lift_joint, elbow_joint, wrist_1_joint, wrist_2_joint,","[1.960113286972046, -0.9777706305133265, 2.0202555656433105, -2.5992091337787073, -1.5682161490069788, 2.635312795639038]","[1.2783173588104546e-05, 0.0, -0.0, -1.917476038215682e-05, 0.0, 3.834952076431364e-05]","[-0.0457763709127903, -4.545593738555908, -2.535487651824951, -0.3431854546070099, -0.0403747595846653, 0.004486084450036287]"
1584443846690563146,,244311,,1584443846,690319712,'',"[shoulder_pan_joint, shoulder_lift_joint, elbow_joint, wrist_1_joint, wrist_2_joint,","[1.9600893259048462, -0.9778903166400355, 2.020327568054199, -2.599269215260641, -1.5681684652911585, 2.635288715362549]","[-1.2783173588104546e-05, -0.009318933822214603, 0.006749515421688557, -0.012444419786334038, 0.0, 0.0]","[-0.2792358696460724, -6.138611316680908, -2.006420373916626, -0.4306641221046448, -0.0381317175924778, -0.2108459621667862]"
1584443846802587881,,244325,,1584443846,802312277,'',"[shoulder_pan_joint, shoulder_lift_joint, elbow_joint, wrist_1_joint, wrist_2_joint,","[1.9600772857666016, -0.9780462423907679, 2.020291805267334, -2.599281136189596, -1.5681684652911585, 2.636953115463257]","[-0.00026844663079828024, -0.0004090615548193455, -0.000472977408207953, 0.0005752427969127893, 1.917476038215682e-05, 0.03792767599225044]","[-0.0549316480755806, -5.795288562774658, -2.450299024581909, -0.3588867485523224, -0.0448608435690403, 0.2579498589038849]"
1584443846914534589,,244339,,1584443846,914262131,'',"[shoulder_pan_joint, shoulder_lift_joint, elbow_joint, wrist_1_joint, wrist_2_joint,","[1.9600170850753784, -0.9780104796039026, 2.0202431678771973, -2.5993168989764612, -1.5681560675250452, 2.641263723373413]","[-0.0005113269435241818, 0.0, -0.0001917476038215682, 0.00026844663079828024, 1.917476038215682e-05, 0.03365170583128929]","[0.0, -5.804443836212158, -2.5803239345550537, -0.3274841606616974, -0.0426178015768528, 0.3274841606616974]"
1584443847026544407,,244353,,1584443847,26300361,'',"[shoulder_pan_joint, shoulder_lift_joint, elbow_joint, wrist_1_joint, wrist_2_joint,","[1.9595133066177368, -0.9779866377459925, 2.020303726196289, -2.5993168989764612, -1.568108383809225, 2.6442089080810547]","[-0.01275760680437088, 0.0, -0.00011504856229294091, 0.00013422331539914012, 1.917476038215682e-05, 0.01666286587715149]","[-0.6088257431983948, -5.786133289337158, -2.5175533294677734, -0.3386993706226349, -0.0493469275534153, 0.3611297905445099]"
1584443847138593406,,244367,,1584443847,138321669,'',"[shoulder_pan_joint, shoulder_lift_joint, elbow_joint, wrist_1_joint, wrist_2_joint,","[1.9557117223739624, -0.9779985586749476, 2.020219326019287, -2.5993407408343714, -1.5680602232562464, 2.641754388809204]","[-0.056833989918231964, 0.0, -8.948221511673182e-05, 9.58738019107841e-05, 9.58738019107841e-05, -0.05391942709684372]","[-0.6637573838233948, -5.584717273712158, -2.5960166454315186, -0.3297272026538849, -0.0650482252240181, -0.3454284965991974]"
1584443847250541327,,244381,,1584443847,250262928,'',"[shoulder_pan_joint, shoulder_lift_joint, elbow_joint, wrist_1_joint, wrist_2_joint,","[1.9471609592437744, -0.9780224005328577, 2.020195484161377, -2.5993288199054163, -1.5680726210223597, 2.635995388031006]","[-0.09182153642177582, 0.0, -8.948221511673182e-05, 7.669904152862728e-05, 9.58738019107841e-05, -0.04947088286280632]","[-0.8514404892921448, -5.612183094024658, -2.4861679077148438, -0.3656158745288849, -0.0919647291302681, -0.3409424126148224]"
1584443847362496292,,244395,,1584443847,362254200,'',"[shoulder_pan_joint, shoulder_lift_joint, elbow_joint, wrist_1_joint, wrist_2_joint,","[1.9361040592193604, -0.9780104796039026, 2.020183563232422, -2.5993645826922815, -1.5680726210223597, 2.630391836166382]","[-0.0953369066119194, 0.0, -8.948221511673182e-05, 5.752428114647046e-05, 9.58738019107841e-05, -0.0564504936337471]","[-0.6866455674171448, -5.548096179962158, -2.5130696296691895, -0.3633728325366974, -0.1121521145105362, -0.2758941948413849]"
1584443847474694270,,244409,,1584443847,474403938,'',"[shoulder_pan_joint, shoulder_lift_joint, elbow_joint, wrist_1_joint, wrist_2_joint,","[1.926245927810669, -0.9780224005328577, 2.0201354026794434, -2.5993765036212366, -1.568108383809225, 2.6230640411376953]","[-0.08087913691997528, 0.0, -0.00012783173588104546, 3.834952076431364e-05, 7.669904152862728e-05, -0.06599952280521393]","[-0.9521485567092896, -5.593872547149658, -2.441331624984741, -0.3768310844898224, -0.1233673244714737, -0.3274841606616974]"
1584443847586533879,,244423,,1584443847,586271339,'',"[shoulder_pan_joint, shoulder_lift_joint, elbow_joint, wrist_1_joint, wrist_2_joint,","[1.9180666208267212, -0.9780104796039026, 2.020171642303467, -2.5993645826922815, -1.5680845419513147, 2.6158926486968994]","[-0.07383561134338379, 0.0, -0.00012783173588104546, 3.834952076431364e-05, 5.752428114647046e-05, -0.06883738934993744]","[-0.9613038301467896, -5.561829090118408, -2.5085859298706055, -0.3588867485523224, -0.1300964504480362, -0.2848663628101349]"
1584443847698538316,,244437,,1584443847,698255798,'',"[shoulder_pan_joint, shoulder_lift_joint, elbow_joint, wrist_1_joint, wrist_2_joint,","[1.9101749658584595, -0.9780224005328577, 2.0201473236083984, -2.5993884245501917, -1.5680726210223597, 2.6073920726776123]","[-0.06029823049902916, 0.0, -0.00012783173588104546, -3.834952076431364e-05, 5.752428114647046e-05, -0.0736694261431694]","[-1.0849000215530396, -5.511475086212158, -2.3382084369659424, -0.4104767143726349, -0.1300964504480362, -0.4104767143726349]"
1584443847810517625,,244451,,1584443847,810249395,'',"[shoulder_pan_joint, shoulder_lift_joint, elbow_joint, wrist_1_joint, wrist_2_joint,","[1.9044548273086548, -0.9779985586749476, 2.020171642303467, -2.5993765036212366, -1.568108383809225, 2.6004831790924072]","[-0.04229952022433281, 0.0, -8.948221511673182e-05, -3.834952076431364e-05, 3.834952076431364e-05, -0.059422582387924194]","[-1.1444092988967896, -5.584717273712158, -2.371835470199585, -0.4037475883960724, -0.1256103664636612, -0.3028106987476349]"
1584443847922523655,,244465,,1584443847,922242160,'',"[shoulder_pan_joint, shoulder_lift_joint, elbow_joint, wrist_1_joint, wrist_2_joint,","[1.900904893875122, -0.9780462423907679, 2.020171642303467, -2.5994961897479456, -1.5680964628802698, 2.593491315841675]","[-0.01986505091190338, 0.0, -6.391586794052273e-05, -0.0012271846644580364, 3.834952076431364e-05, -0.05361263081431389]","[-1.0620118379592896, -5.497742176055908, -2.5310041904449463, -0.3319702446460724, -0.1211242824792862, -0.3454284965991974]"
1584443848034554471,,244479,,1584443848,34267796,'',"[shoulder_pan_joint, shoulder_lift_joint, elbow_joint, wrist_1_joint, wrist_2_joint,","[1.9000412225723267, -0.978070084248678, 2.020195484161377, -2.599556271229879, -1.56812030473818, 2.589109420776367]","[-0.0008053399506025016, 0.0, -5.1132694352418184e-05, -0.0005368932615965605, 1.917476038215682e-05, -0.021341508254408836]","[-0.1556396633386612, -5.534363269805908, -2.448057174682617, -0.3454284965991974, -0.1076660305261612, -0.3072967827320099]"
1584443848146525315,,244493,,1584443848,146256353,'',"[shoulder_pan_joint, shoulder_lift_joint, elbow_joint, wrist_1_joint, wrist_2_joint,","[1.9000293016433716, -0.9781182448016565, 2.0201597213745117, -2.5996044317828577, -1.5680964628802698, 2.587313413619995]","[0.00014061490946915, -1.2783173588104546e-05, -5.1132694352418184e-05, -0.0005560680292546749, 1.917476038215682e-05, -0.016643691807985306]","[-0.0320434607565403, -5.589294910430908, -2.4077045917510986, -0.3656158745288849, -0.1076660305261612, -0.2871094048023224]"
1584443848258541614,,244507,,1584443848,258255931,'',"[shoulder_pan_joint, shoulder_lift_joint, elbow_joint, wrist_1_joint, wrist_2_joint,","[1.9000651836395264, -0.978070084248678, 2.0201473236083984, -2.599628273640768, -1.56812030473818, 2.585721015930176]","[0.00011504856229294091, -1.2783173588104546e-05, -3.834952076431364e-05, -0.0001917476038215682, 1.917476038215682e-05, -0.009529856033623219]","[-0.009155274368822575, -5.593872547149658, -2.4032208919525146, -0.3701019585132599, -0.1211242824792862, -0.2826233208179474]"
1584443848370475849,,244521,,1584443848,370216696,'',"[shoulder_pan_joint, shoulder_lift_joint, elbow_joint, wrist_1_joint, wrist_2_joint,","[1.900077223777771, -0.9780820051776331, 2.020207405090332, -2.599628273640768, -1.568132225667135, 2.5854575634002686]","[7.669904152862728e-05, -1.2783173588104546e-05, -3.834952076431364e-05, -0.00011504856229294091, 1.917476038215682e-05, -0.0004218447138555348]","[0.1190185695886612, -5.502319812774658, -2.4278807640075684, -0.3566437065601349, -0.1166381984949112, -0.0314025916159153]"
1584443848482498370,,244535,,1584443848,482205394,'',"[shoulder_pan_joint, shoulder_lift_joint, elbow_joint, wrist_1_joint, wrist_2_joint,","[1.9000532627105713, -0.9781063238727015, 2.020171642303467, -2.599616352711813, -1.568108383809225, 2.585493564605713]","[5.1132694352418184e-05, -6.391586794052273e-05, -2.5566347176209092e-05, -7.669904152862728e-05, 0.0, 5.752428114647046e-05]","[0.2197265923023224, -5.740356922149658, -2.5085859298706055, -0.3386993706226349, -0.0471038855612278, 0.0650482252240181]"
1584443848594507595,,244549,,1584443848,594220299,'',"[shoulder_pan_joint, shoulder_lift_joint, elbow_joint, wrist_1_joint, wrist_2_joint,","[1.9000651836395264, -0.9780944029437464, 2.020195484161377, -2.599640194569723, -1.5680964628802698, 2.585481643676758]","[3.834952076431364e-05, -6.391586794052273e-05, -2.5566347176209092e-05, -5.752428114647046e-05, 0.0, 5.752428114647046e-05]","[0.2243042290210724, -5.795288562774658, -2.5265204906463623, -0.3386993706226349, -0.0403747595846653, 0.0560760572552681]"
1584443848706443444,,244563,,1584443848,706184461,'',"[shoulder_pan_joint, shoulder_lift_joint, elbow_joint, wrist_1_joint, wrist_2_joint,","[1.900077223777771, -0.9781420866595667, 2.020183563232422, -2.599616352711813, -1.5680845419513147, 2.5854697227478027]","[3.834952076431364e-05, -6.391586794052273e-05, -2.5566347176209092e-05, -3.834952076431364e-05, 0.0, 5.752428114647046e-05]","[0.2105713039636612, -5.845642566680908, -2.5310041904449463, -0.3386993706226349, -0.0471038855612278, 0.0628051832318306]"
1584443848818526237,,244577,,1584443848,818228411,'',"[shoulder_pan_joint, shoulder_lift_joint, elbow_joint, wrist_1_joint, wrist_2_joint,","[1.900077223777771, -0.9781301657306116, 2.020183563232422, -2.599628273640768, -1.568108383809225, 2.585505485534668]","[3.834952076431364e-05, -7.669904152862728e-05, -2.5566347176209092e-05, -3.834952076431364e-05, 0.0, 5.752428114647046e-05]","[0.2426147758960724, -5.804443836212158, -2.5287623405456543, -0.3386993706226349, -0.0448608435690403, 0.0605621412396431]"
1584443848930495067,,244591,,1584443848,930190179,'',"[shoulder_pan_joint, shoulder_lift_joint, elbow_joint, wrist_1_joint, wrist_2_joint,","[1.9000651836395264, -0.9781182448016565, 2.020171642303467, -2.599652115498678, -1.568108383809225, 2.585505485534668]","[3.834952076431364e-05, -7.669904152862728e-05, -1.2783173588104546e-05, -3.834952076431364e-05, 0.0, 5.752428114647046e-05]","[0.2380371391773224, -5.708313465118408, -2.5220367908477783, -0.3386993706226349, -0.0448608435690403, 0.0650482252240181]"
1584443849042430656,,244605,,1584443849,42196439,'',"[shoulder_pan_joint, shoulder_lift_joint, elbow_joint, wrist_1_joint, wrist_2_joint,","[1.9000532627105713, -0.9781182448016565, 2.020183563232422, -2.599640194569723, -1.5680845419513147, 2.585481643676758]","[3.834952076431364e-05, -7.669904152862728e-05, -1.2783173588104546e-05, -1.917476038215682e-05, 0.0, 3.834952076431364e-05]","[0.2517700493335724, -5.731201648712158, -2.542213201522827, -0.3342132866382599, -0.0358886756002903, 0.0605621412396431]"
1584443849154467553,,244619,,1584443849,154198982,'',"[shoulder_pan_joint, shoulder_lift_joint, elbow_joint, wrist_1_joint, wrist_2_joint,","[1.900077223777771, -0.9781182448016565, 2.020195484161377, -2.599640194569723, -1.568132225667135, 2.585481643676758]","[3.834952076431364e-05, -5.1132694352418184e-05, -1.2783173588104546e-05, -1.917476038215682e-05, 0.0, 3.834952076431364e-05]","[0.1968383938074112, -5.744934558868408, -2.5175533294677734, -0.3252411186695099, -0.0471038855612278, 0.0672912672162056]"
1584443849266415975,,244633,,1584443849,266155139,'',"[shoulder_pan_joint, shoulder_lift_joint, elbow_joint, wrist_1_joint, wrist_2_joint,","[1.900089144706726, -0.9781063238727015, 2.020171642303467, -2.599616352711813, -1.568108383809225, 2.585505485534668]","[2.5566347176209092e-05, -3.834952076431364e-05, -1.2783173588104546e-05, -1.917476038215682e-05, 0.0, 3.834952076431364e-05]","[0.2517700493335724, -5.758667469024658, -2.5130696296691895, -0.3409424126148224, -0.0493469275534153, 0.0605621412396431]"
1584443849378473201,,244647,,1584443849,378178020,'',"[shoulder_pan_joint, shoulder_lift_joint, elbow_joint, wrist_1_joint, wrist_2_joint,","[1.9000651836395264, -0.9781301657306116, 2.020183563232422, -2.599640194569723, -1.56812030473818, 2.5855414867401123]","[2.5566347176209092e-05, -2.5566347176209092e-05, -1.2783173588104546e-05, -1.917476038215682e-05, 0.0, 1.917476038215682e-05]","[0.2105713039636612, -5.749512195587158, -2.5220367908477783, -0.3386993706226349, -0.0448608435690403, 0.0605621412396431]"
1584443849490464222,,244661,,1584443849,490167579,'',"[shoulder_pan_joint, shoulder_lift_joint, elbow_joint, wrist_1_joint, wrist_2_joint,","[1.9000532627105713, -0.9781301657306116, 2.020183563232422, -2.599652115498678, -1.568108383809225, 2.585493564605713]","[2.5566347176209092e-05, -2.5566347176209092e-05, -1.2783173588104546e-05, -1.917476038215682e-05, 0.0, 1.917476038215682e-05]","[0.1922607570886612, -5.758667469024658, -2.5242786407470703, -0.3499145805835724, -0.0403747595846653, 0.0583190992474556]"
1584443849602517961,,244675,,1584443849,602253818,'',"[shoulder_pan_joint, shoulder_lift_joint, elbow_joint, wrist_1_joint, wrist_2_joint,","[1.9000651836395264, -0.9781420866595667, 2.0201597213745117, -2.599652115498678, -1.5681560675250452, 2.585493564605713]","[1.2783173588104546e-05, -2.5566347176209092e-05, -1.2783173588104546e-05, -1.917476038215682e-05, 0.0, 1.917476038215682e-05]","[0.1739502102136612, -5.722046375274658, -2.5130696296691895, -0.3364563286304474, -0.0471038855612278, 0.0628051832318306]"
1584443849714482413,,244689,,1584443849,714180520,'',"[shoulder_pan_joint, shoulder_lift_joint, elbow_joint, wrist_1_joint, wrist_2_joint,","[1.9000532627105713, -0.9781540075885218, 2.020183563232422, -2.599664036427633, -1.5680964628802698, 2.585493564605713]","[1.2783173588104546e-05, -1.2783173588104546e-05, -1.2783173588104546e-05, -1.917476038215682e-05, 0.0, 1.917476038215682e-05]","[0.1327514797449112, -5.795288562774658, -2.5220367908477783, -0.3431854546070099, -0.0426178015768528, 0.0628051832318306]"
1584443849826447326,,244703,,1584443849,826154830,'',"[shoulder_pan_joint, shoulder_lift_joint, elbow_joint, wrist_1_joint, wrist_2_joint,","[1.900077223777771, -0.9781540075885218, 2.020183563232422, -2.599664036427633, -1.5681560675250452, 2.585493564605713]","[1.2783173588104546e-05, 0.0, -1.2783173588104546e-05, -1.917476038215682e-05, 0.0, 1.917476038215682e-05]","[0.1922607570886612, -5.772400379180908, -2.5130696296691895, -0.3386993706226349, -0.0426178015768528, 0.0583190992474556]"
1584443849938425363,,244717,,1584443849,938161882,'',"[shoulder_pan_joint, shoulder_lift_joint, elbow_joint, wrist_1_joint, wrist_2_joint,","[1.900077223777771, -0.9781540075885218, 2.020207405090332, -2.599664036427633, -1.56812030473818, 2.585493564605713]","[1.2783173588104546e-05, 0.0, -1.2783173588104546e-05, 0.0, 0.0, 1.917476038215682e-05]","[0.2197265923023224, -5.799866199493408, -2.5175533294677734, -0.3409424126148224, -0.0471038855612278, 0.0628051832318306]"
1584443850050423719,,244731,,1584443850,50143746,'',"[shoulder_pan_joint, shoulder_lift_joint, elbow_joint, wrist_1_joint, wrist_2_joint,","[1.900089144706726, -0.9781182448016565, 2.020183563232422, -2.5996044317828577, -1.56812030473818, 2.585493564605713]","[1.2783173588104546e-05, 0.0, -1.2783173588104546e-05, 0.0, 0.0, 1.917476038215682e-05]","[0.2197265923023224, -5.722046375274658, -2.5242786407470703, -0.3386993706226349, -0.0493469275534153, 0.0605621412396431]"
1584443850162446660,,244745,,1584443850,162151229,'',"[shoulder_pan_joint, shoulder_lift_joint, elbow_joint, wrist_1_joint, wrist_2_joint,","[1.900077223777771, -0.9781783262835901, 2.020195484161377, -2.599616352711813, -1.568108383809225, 2.585481643676758]","[1.2783173588104546e-05, 0.0, -1.2783173588104546e-05, 0.0, 0.0, 1.917476038215682e-05]","[0.2426147758960724, -5.786133289337158, -2.5242786407470703, -0.3431854546070099, -0.0471038855612278, 0.0650482252240181]"
1584443850274399540,,244759,,1584443850,274124698,'',"[shoulder_pan_joint, shoulder_lift_joint, elbow_joint, wrist_1_joint, wrist_2_joint,","[1.9000412225723267, -0.9781540075885218, 2.020195484161377, -2.599628273640768, -1.568132225667135, 2.585505485534668]","[1.2783173588104546e-05, 0.0, -1.2783173588104546e-05, 0.0, 0.0, 0.0]","[0.1693725734949112, -5.744934558868408, -2.5130696296691895, -0.3386993706226349, -0.0403747595846653, 0.0628051832318306]"
1584443850386553236,,244773,,1584443850,386157928,'',"[shoulder_pan_joint, shoulder_lift_joint, elbow_joint, wrist_1_joint, wrist_2_joint,","[1.900077223777771, -0.9781659285174769, 2.020195484161377, -2.599628273640768, -1.568108383809225, 2.585493564605713]","[1.2783173588104546e-05, 0.0, -0.0, 0.0, 0.0, 0.0]","[0.2059936672449112, -5.708313465118408, -2.5063440799713135, -0.3454284965991974, -0.0426178015768528, 0.0628051832318306]"
1584443850498344845,,244787,,1584443850,498101752,'',"[shoulder_pan_joint, shoulder_lift_joint, elbow_joint, wrist_1_joint, wrist_2_joint,","[1.9000412225723267, -0.9781301657306116, 2.020207405090332, -2.599628273640768, -1.5680964628802698, 2.585517644882202]","[1.2783173588104546e-05, 0.0, -0.0, 0.0, 0.0, 0.0]","[0.1876831203699112, -5.722046375274658, -2.5242786407470703, -0.3386993706226349, -0.0471038855612278, 0.0672912672162056]"
1584443850610490736,,244801,,1584443850,610165649,'',"[shoulder_pan_joint, shoulder_lift_joint, elbow_joint, wrist_1_joint, wrist_2_joint,","[1.900077223777771, -0.9781420866595667, 2.020183563232422, -2.5995920340167444, -1.568108383809225, 2.585517644882202]","[0.0, 0.0, -0.0, 0.0, 0.0, 0.0]","[0.2471924126148224, -5.786133289337158, -2.5197949409484863, -0.3454284965991974, -0.0471038855612278, 0.0829925611615181]"
1584443850722443967,,244815,,1584443850,722078225,'',"[shoulder_pan_joint, shoulder_lift_joint, elbow_joint, wrist_1_joint, wrist_2_joint,","[1.9001011848449707, -0.9781540075885218, 2.020207405090332, -2.599628273640768, -1.568108383809225, 2.585505485534668]","[0.0, 0.0, -0.0, 0.0, 0.0, 0.0]","[0.2426147758960724, -5.758667469024658, -2.5175533294677734, -0.3386993706226349, -0.0471038855612278, 0.0650482252240181]"
1584443850834467840,,244829,,1584443850,834099022,'',"[shoulder_pan_joint, shoulder_lift_joint, elbow_joint, wrist_1_joint, wrist_2_joint,","[1.900089144706726, -0.9781301657306116, 2.020207405090332, -2.599616352711813, -1.568108383809225, 2.585517644882202]","[0.0, 0.0, -0.0, 0.0, 0.0, 0.0]","[0.2014160305261612, -5.731201648712158, -2.5063440799713135, -0.3476715385913849, -0.0493469275534153, 0.0672912672162056]"
1584443850946498536,,244843,,1584443850,946135398,'',"[shoulder_pan_joint, shoulder_lift_joint, elbow_joint, wrist_1_joint, wrist_2_joint,","[1.900077223777771, -0.9781182448016565, 2.020183563232422, -2.599652115498678, -1.5680964628802698, 2.585505485534668]","[0.0, 0.0, -0.0, 0.0, 0.0, 0.0]","[0.1922607570886612, -5.699158191680908, -2.5242786407470703, -0.3386993706226349, -0.0448608435690403, 0.0717773512005806]"
