PorkPy/robot-pulling-data/ztwist20/joint_states_throttle.csv
rosbagTimestamp,header,seq,stamp,secs,nsecs,frame_id,name,wrist_3_joint],position,velocity,effort
1584450539208608767,,1080912,,1584450539,208239478,'',"[shoulder_pan_joint, shoulder_lift_joint, elbow_joint, wrist_1_joint, wrist_2_joint,","[1.4047702550888062, -1.17180043855776, 2.4830822944641113, -2.8628514448748987, -1.5670178572284144, 2.7207064628601074]","[0.0, 0.0, -0.0, 0.0, 0.0, 0.0]","[-0.1876831203699112, -4.202270984649658, -0.9370768070220947, -0.5091705918312073, -0.0583190992474556, 0.0381317175924778]"
1584450539320524789,,1080926,,1584450539,320245177,'',"[shoulder_pan_joint, shoulder_lift_joint, elbow_joint, wrist_1_joint, wrist_2_joint,","[1.4048181772232056, -1.1718247572528284, 2.4830944538116455, -2.8628390471087855, -1.5670178572284144, 2.7207064628601074]","[0.0, 0.0, -0.0, 0.0, 0.0, 0.0]","[-0.1510620266199112, -4.261780261993408, -0.9527694582939148, -0.5024414658546448, -0.0538330152630806, 0.0403747595846653]"
1584450539432513017,,1080940,,1584450539,432251258,'',"[shoulder_pan_joint, shoulder_lift_joint, elbow_joint, wrist_1_joint, wrist_2_joint,","[1.4047822952270508, -1.17180043855776, 2.4830703735351562, -2.8628390471087855, -1.5670416990863245, 2.720754384994507]","[0.0, 0.0, -0.0, 0.0, 0.0, 0.0]","[-0.1647949367761612, -4.197693347930908, -0.9639785289764404, -0.5114136338233948, -0.0560760572552681, 0.0448608435690403]"
1584450539544598686,,1080954,,1584450539,544309676,'',"[shoulder_pan_joint, shoulder_lift_joint, elbow_joint, wrist_1_joint, wrist_2_joint,","[1.4047702550888062, -1.1717646757708948, 2.483046531677246, -2.8628514448748987, -1.5670178572284144, 2.7207422256469727]","[0.0, 0.0, -0.0, 0.0, 0.0, 0.0]","[-0.1281738430261612, -4.193115711212158, -0.9527694582939148, -0.5158997178077698, -0.0515899695456028, 0.0471038855612278]"
1584450539656495212,,1080968,,1584450539,656250114,'',"[shoulder_pan_joint, shoulder_lift_joint, elbow_joint, wrist_1_joint, wrist_2_joint,","[1.4048062562942505, -1.17177659669985, 2.483058452606201, -2.862863365803854, -1.5670297781573694, 2.7207303047180176]","[0.0, 0.0, -0.0, 0.0, 0.0, 0.0]","[-0.1464843899011612, -4.188538074493408, -0.9438022375106812, -0.5069275498390198, -0.0628051832318306, 0.0560760572552681]"
1584450539768542941,,1080982,,1584450539,768217162,'',"[shoulder_pan_joint, shoulder_lift_joint, elbow_joint, wrist_1_joint, wrist_2_joint,","[1.4048062562942505, -1.171788517628805, 2.4830703735351562, -2.8628514448748987, -1.5670297781573694, 2.7207422256469727]","[0.0, 0.0, -0.0, 0.0, 0.0, 0.0]","[-0.1419067531824112, -4.216003894805908, -0.9415604472160339, -0.5136566758155823, -0.0560760572552681, 0.0426178015768528]"
1584450539880558960,,1080996,,1584450539,880225938,'',"[shoulder_pan_joint, shoulder_lift_joint, elbow_joint, wrist_1_joint, wrist_2_joint,","[1.4047942161560059, -1.171788517628805, 2.4830822944641113, -2.8628271261798304, -1.5670178572284144, 2.7207303047180176]","[0.0, 0.0, -0.0, 0.0, 0.0, 0.0]","[-0.1235962063074112, -4.270935535430908, -0.9594948887825012, -0.5069275498390198, -0.0583190992474556, 0.0471038855612278]"
1584450539992582292,,1081010,,1584450539,992282703,'',"[shoulder_pan_joint, shoulder_lift_joint, elbow_joint, wrist_1_joint, wrist_2_joint,","[1.4047942161560059, -1.1717522780047815, 2.483046531677246, -2.8628271261798304, -1.5670297781573694, 2.7207064628601074]","[0.0, 0.0, -0.0, 0.0, 0.0, 0.0]","[-0.1510620266199112, -4.257202625274658, -0.9505276679992676, -0.5158997178077698, -0.0605621412396431, 0.0448608435690403]"
1584450540104450305,,1081024,,1584450540,104217621,'',"[shoulder_pan_joint, shoulder_lift_joint, elbow_joint, wrist_1_joint, wrist_2_joint,","[1.4047822952270508, -1.1717646757708948, 2.4830703735351562, -2.8628514448748987, -1.5670178572284144, 2.7207422256469727]","[0.0, 0.0, -0.0, 0.0, 0.0, 0.0]","[-0.1647949367761612, -4.302978992462158, -0.9482858777046204, -0.5158997178077698, -0.0538330152630806, 0.0538330152630806]"
1584450540216439875,,1081038,,1584450540,216221156,'',"[shoulder_pan_joint, shoulder_lift_joint, elbow_joint, wrist_1_joint, wrist_2_joint,","[1.4047942161560059, -1.17177659669985, 2.4830703735351562, -2.8628390471087855, -1.5670059362994593, 2.7207183837890625]","[0.0, 0.0, -0.0, 0.0, 0.0, 0.0]","[-0.1464843899011612, -4.216003894805908, -0.9393185973167419, -0.5136566758155823, -0.0605621412396431, 0.0493469275534153]"
1584450540328445405,,1081052,,1584450540,328203633,'',"[shoulder_pan_joint, shoulder_lift_joint, elbow_joint, wrist_1_joint, wrist_2_joint,","[1.4048062562942505, -1.171788517628805, 2.483046531677246, -2.862863365803854, -1.5670536200152796, 2.7207064628601074]","[0.0, 0.0, -0.0, 0.0, 0.0, 0.0]","[-0.1922607570886612, -4.266357898712158, -0.9684621691703796, -0.5136566758155823, -0.0605621412396431, 0.0493469275534153]"
1584450540440488494,,1081066,,1584450540,440260989,'',"[shoulder_pan_joint, shoulder_lift_joint, elbow_joint, wrist_1_joint, wrist_2_joint,","[1.4047942161560059, -1.171788517628805, 2.4830703735351562, -2.8628514448748987, -1.5670178572284144, 2.7207183837890625]","[0.0, 0.0, -0.0, 0.0, 0.0, 0.0]","[-0.1373291164636612, -4.216003894805908, -0.9662203192710876, -0.5158997178077698, -0.0583190992474556, 0.0538330152630806]"
1584450540552586306,,1081080,,1584450540,552274664,'',"[shoulder_pan_joint, shoulder_lift_joint, elbow_joint, wrist_1_joint, wrist_2_joint,","[1.4048062562942505, -1.17177659669985, 2.4830703735351562, -2.8628390471087855, -1.5670059362994593, 2.7207422256469727]","[0.0, 0.0, -0.0, 0.0, 0.0, 0.0]","[-0.1373291164636612, -4.202270984649658, -0.9550113081932068, -0.5114136338233948, -0.0538330152630806, 0.0336456336081028]"
1584450540664415827,,1081094,,1584450540,664201437,'',"[shoulder_pan_joint, shoulder_lift_joint, elbow_joint, wrist_1_joint, wrist_2_joint,","[1.4047822952270508, -1.171788517628805, 2.4830822944641113, -2.862863365803854, -1.5670297781573694, 2.7207422256469727]","[0.0, 0.0, -0.0, 0.0, 0.0, 0.0]","[-0.1739502102136612, -4.216003894805908, -0.9684621691703796, -0.5114136338233948, -0.0583190992474556, 0.0471038855612278]"
1584450540776427789,,1081108,,1584450540,776180056,'',"[shoulder_pan_joint, shoulder_lift_joint, elbow_joint, wrist_1_joint, wrist_2_joint,","[1.4048062562942505, -1.17180043855776, 2.483058452606201, -2.8628390471087855, -1.5670178572284144, 2.7207422256469727]","[0.0, 0.0, -0.0, 0.0, 0.0, 0.0]","[-0.1785278469324112, -4.193115711212158, -0.9617367386817932, -0.5136566758155823, -0.0538330152630806, 0.0538330152630806]"
1584450540888566186,,1081122,,1584450540,888282145,'',"[shoulder_pan_joint, shoulder_lift_joint, elbow_joint, wrist_1_joint, wrist_2_joint,","[1.4047942161560059, -1.1717646757708948, 2.483046531677246, -2.8628514448748987, -1.5670178572284144, 2.7207183837890625]","[0.0, 0.0, -0.0, 0.0, 0.0, 0.0]","[-0.1556396633386612, -4.156494617462158, -0.9684621691703796, -0.5114136338233948, -0.0538330152630806, 0.0448608435690403]"
1584450541000454768,,1081136,,1584450541,191826,'',"[shoulder_pan_joint, shoulder_lift_joint, elbow_joint, wrist_1_joint, wrist_2_joint,","[1.4047942161560059, -1.17180043855776, 2.483058452606201, -2.8628390471087855, -1.5669940153705042, 2.7207422256469727]","[0.0, 0.0, -0.0, 0.0, 0.0, 0.0]","[-0.1373291164636612, -4.188538074493408, -0.957253098487854, -0.5136566758155823, -0.0605621412396431, 0.0448608435690403]"
1584450541112576304,,1081150,,1584450541,112272626,'',"[shoulder_pan_joint, shoulder_lift_joint, elbow_joint, wrist_1_joint, wrist_2_joint,","[1.4048062562942505, -1.17177659669985, 2.4830822944641113, -2.862863365803854, -1.5670178572284144, 2.7207303047180176]","[0.0, 0.0, -0.0, 0.0, 0.0, 0.0]","[-0.1922607570886612, -4.216003894805908, -0.9594948887825012, -0.5181427597999573, -0.0628051832318306, 0.0358886756002903]"
1584450541224365910,,1081164,,1584450541,224157801,'',"[shoulder_pan_joint, shoulder_lift_joint, elbow_joint, wrist_1_joint, wrist_2_joint,","[1.4047942161560059, -1.17180043855776, 2.4830703735351562, -2.8628390471087855, -1.5670178572284144, 2.7207303047180176]","[0.0, 0.0, -0.0, 0.0, 0.0, 0.0]","[-0.1510620266199112, -4.211426258087158, -0.9684621691703796, -0.5114136338233948, -0.0628051832318306, 0.0515899695456028]"
1584450541336428446,,1081178,,1584450541,336130850,'',"[shoulder_pan_joint, shoulder_lift_joint, elbow_joint, wrist_1_joint, wrist_2_joint,","[1.4047942161560059, -1.171788517628805, 2.4830703735351562, -2.8628514448748987, -1.5670059362994593, 2.7207303047180176]","[0.0, 0.0, -0.0, 0.0, 0.0, 0.0]","[-0.1647949367761612, -4.216003894805908, -0.9617367386817932, -0.5069275498390198, -0.0605621412396431, 0.0426178015768528]"
1584450541448382700,,1081192,,1584450541,448129597,'',"[shoulder_pan_joint, shoulder_lift_joint, elbow_joint, wrist_1_joint, wrist_2_joint,","[1.4047822952270508, -1.171788517628805, 2.483034372329712, -2.8628390471087855, -1.566981617604391, 2.7207303047180176]","[0.0, 0.0, -0.0, 0.0, 0.0, 0.0]","[-0.1510620266199112, -4.252624988555908, -0.9707039594650269, -0.5091705918312073, -0.0628051832318306, 0.0403747595846653]"
1584450541560580278,,1081206,,1584450541,560199557,'',"[shoulder_pan_joint, shoulder_lift_joint, elbow_joint, wrist_1_joint, wrist_2_joint,","[1.4047942161560059, -1.171788517628805, 2.483046531677246, -2.8628390471087855, -1.5670059362994593, 2.7207422256469727]","[0.0, 0.0, -0.0, 0.0, 0.0, 0.0]","[-0.1647949367761612, -4.293823719024658, -0.9662203192710876, -0.5158997178077698, -0.0493469275534153, 0.0493469275534153]"
1584450541672434094,,1081220,,1584450541,672132150,'',"[shoulder_pan_joint, shoulder_lift_joint, elbow_joint, wrist_1_joint, wrist_2_joint,","[1.4048181772232056, -1.17180043855776, 2.4830222129821777, -2.8628514448748987, -1.5669940153705042, 2.7207303047180176]","[0.0, 0.0, -0.0, 0.0, 0.0, 0.0]","[-0.1785278469324112, -4.234314441680908, -0.9594948887825012, -0.5181427597999573, -0.0538330152630806, 0.0314025916159153]"
1584450541784353503,,1081234,,1584450541,784097545,'',"[shoulder_pan_joint, shoulder_lift_joint, elbow_joint, wrist_1_joint, wrist_2_joint,","[1.4047822952270508, -1.171788517628805, 2.483034372329712, -2.862875286732809, -1.5669940153705042, 2.7207303047180176]","[0.0, 0.0, -0.0, 0.0, 0.0, 0.0]","[-0.1373291164636612, -4.257202625274658, -0.9707039594650269, -0.5114136338233948, -0.0471038855612278, 0.0314025916159153]"
1584450541896465000,,1081248,,1584450541,896105118,'',"[shoulder_pan_joint, shoulder_lift_joint, elbow_joint, wrist_1_joint, wrist_2_joint,","[1.4047702550888062, -1.17180043855776, 2.483058452606201, -2.862863365803854, -1.5670059362994593, 2.7207303047180176]","[0.0, 0.0, -0.0, 0.0, 0.0, 0.0]","[-0.1556396633386612, -4.225159168243408, -0.9729457497596741, -0.4957123398780823, -0.0538330152630806, 0.0471038855612278]"
1584450542008437739,,1081262,,1584450542,8126057,'',"[shoulder_pan_joint, shoulder_lift_joint, elbow_joint, wrist_1_joint, wrist_2_joint,","[1.4047822952270508, -1.17177659669985, 2.4830822944641113, -2.862887207661764, -1.5670297781573694, 2.7207064628601074]","[0.0, 0.0, -0.0, 0.0, 0.0, 0.0]","[-0.1464843899011612, -4.225159168243408, -0.9617367386817932, -0.5136566758155823, -0.0583190992474556, 0.0426178015768528]"
1584450542120437026,,1081276,,1584450542,120176029,'',"[shoulder_pan_joint, shoulder_lift_joint, elbow_joint, wrist_1_joint, wrist_2_joint,","[1.4047942161560059, -1.17177659669985, 2.4830822944641113, -2.8628152052508753, -1.5670059362994593, 2.7206943035125732]","[0.0, 0.0, -0.0, 0.0, 0.0, 0.0]","[-0.1510620266199112, -4.234314441680908, -0.9662203192710876, -0.5136566758155823, -0.0515899695456028, 0.0493469275534153]"
1584450542232356715,,1081290,,1584450542,232120905,'',"[shoulder_pan_joint, shoulder_lift_joint, elbow_joint, wrist_1_joint, wrist_2_joint,","[1.4047942161560059, -1.17180043855776, 2.483046531677246, -2.8628152052508753, -1.5670178572284144, 2.7207064628601074]","[0.0, 0.0, -0.0, 0.0, 0.0, 0.0]","[-0.1647949367761612, -4.234314441680908, -0.9617367386817932, -0.5114136338233948, -0.0560760572552681, 0.0538330152630806]"
1584450542344401378,,1081304,,1584450542,344097130,'',"[shoulder_pan_joint, shoulder_lift_joint, elbow_joint, wrist_1_joint, wrist_2_joint,","[1.4047702550888062, -1.17180043855776, 2.483058452606201, -2.8628271261798304, -1.5669940153705042, 2.7207303047180176]","[0.0, 0.0, -0.0, 0.0, 0.0, 0.0]","[-0.1190185695886612, -4.206848621368408, -0.9639785289764404, -0.5046845078468323, -0.0560760572552681, 0.0471038855612278]"
1584450542456348198,,1081318,,1584450542,456111075,'',"[shoulder_pan_joint, shoulder_lift_joint, elbow_joint, wrist_1_joint, wrist_2_joint,","[1.4047942161560059, -1.1717646757708948, 2.4830703735351562, -2.862863365803854, -1.5669940153705042, 2.7206943035125732]","[0.0, 0.0, -0.0, 0.0, 0.0, 0.0]","[-0.1693725734949112, -4.243469715118408, -0.9550113081932068, -0.5248718857765198, -0.0583190992474556, 0.0448608435690403]"
1584450542568328570,,1081332,,1584450542,568088572,'',"[shoulder_pan_joint, shoulder_lift_joint, elbow_joint, wrist_1_joint, wrist_2_joint,","[1.4048062562942505, -1.1718123594867151, 2.4830703735351562, -2.8628390471087855, -1.5670178572284144, 2.7207064628601074]","[0.0, 0.0, -0.0, 0.0, 0.0, 0.0]","[-0.1373291164636612, -4.293823719024658, -0.9617367386817932, -0.5248718857765198, -0.0515899695456028, 0.0448608435690403]"
1584450542680374977,,1081346,,1584450542,680098731,'',"[shoulder_pan_joint, shoulder_lift_joint, elbow_joint, wrist_1_joint, wrist_2_joint,","[1.4048302173614502, -1.1718123594867151, 2.483058452606201, -2.8628514448748987, -1.5670297781573694, 2.7207183837890625]","[0.0, 0.0, -0.0, 0.0, 0.0, 0.0]","[-0.1556396633386612, -4.193115711212158, -0.9617367386817932, -0.5203858017921448, -0.0471038855612278, 0.0358886756002903]"
1584450542792360008,,1081360,,1584450542,792084503,'',"[shoulder_pan_joint, shoulder_lift_joint, elbow_joint, wrist_1_joint, wrist_2_joint,","[1.4047942161560059, -1.17177659669985, 2.4830703735351562, -2.8628271261798304, -1.5670297781573694, 2.720754384994507]","[0.0, 0.0, -0.0, 0.0, 0.0, 0.0]","[-0.1510620266199112, -4.211426258087158, -0.9639785289764404, -0.5114136338233948, -0.0583190992474556, 0.0314025916159153]"
1584450542904345750,,1081374,,1584450542,904080775,'',"[shoulder_pan_joint, shoulder_lift_joint, elbow_joint, wrist_1_joint, wrist_2_joint,","[1.4047702550888062, -1.17177659669985, 2.4830822944641113, -2.8628271261798304, -1.5670297781573694, 2.7207183837890625]","[0.0, 0.0, -0.0, 0.0, 0.0, 0.0]","[-0.1602173000574112, -4.261780261993408, -0.9594948887825012, -0.5091705918312073, -0.0515899695456028, 0.0560760572552681]"
1584450543016370195,,1081388,,1584450543,16101313,'',"[shoulder_pan_joint, shoulder_lift_joint, elbow_joint, wrist_1_joint, wrist_2_joint,","[1.4047702550888062, -1.171788517628805, 2.4830703735351562, -2.8628390471087855, -1.5669940153705042, 2.7207183837890625]","[0.0, 0.0, -0.0, 0.0, 0.0, 0.0]","[-0.1419067531824112, -4.261780261993408, -0.9707039594650269, -0.5248718857765198, -0.0560760572552681, 0.0426178015768528]"
1584450543128319089,,1081402,,1584450543,128058472,'',"[shoulder_pan_joint, shoulder_lift_joint, elbow_joint, wrist_1_joint, wrist_2_joint,","[1.4050579071044922, -1.1716325918780726, 2.482530355453491, -2.86216909090151, -1.567077938710348, 2.720874071121216]","[0.0178836602717638, 0.009574596770107746, -0.027534956112504005, 0.031063111498951912, 0.002281796419993043, 0.0131155364215374]","[0.6454468369483948, -2.838135004043579, -1.8158665895462036, -0.2871094048023224, 0.02243042178452015, 0.3229980766773224]"
1584450543240286277,,1081416,,1584450543,240059624,'',"[shoulder_pan_joint, shoulder_lift_joint, elbow_joint, wrist_1_joint, wrist_2_joint,","[1.4075648784637451, -1.1704934279071253, 2.4796507358551025, -2.859678570424215, -1.567077938710348, 2.7200241088867188]","[0.020747089758515358, 0.00526666734367609, -0.016566993668675423, 0.01273204106837511, 0.00026844663079828024, -0.04042039439082146]","[1.0253907442092896, -2.984619379043579, -1.9817605018615723, -0.2041168361902237, 0.0471038855612278, -0.3095398247241974]"
1584450543352299691,,1081430,,1584450543,352052850,'',"[shoulder_pan_joint, shoulder_lift_joint, elbow_joint, wrist_1_joint, wrist_2_joint,","[1.410287857055664, -1.1702778975116175, 2.4775876998901367, -2.8587802092181605, -1.5670655409442347, 2.717664957046509]","[0.03388819471001625, 0.004601942375302315, -0.029439648613333702, 0.013077186420559883, 0.00013422331539914012, -0.001725728390738368]","[0.7873535752296448, -2.664184808731079, -1.7351614236831665, -0.1345825344324112, 0.0583190992474556, -0.0403747595846653]"
1584450543464298468,,1081444,,1584450543,464082665,'',"[shoulder_pan_joint, shoulder_lift_joint, elbow_joint, wrist_1_joint, wrist_2_joint,","[1.415169596672058, -1.168551270161764, 2.4713003635406494, -2.8560269514666956, -1.5670416990863245, 2.7219996452331543]","[0.042823631316423416, 0.023853402584791183, -0.08232364058494568, 0.03834952041506767, 0.0, 0.03087136335670948]","[0.9246827363967896, -2.549743890762329, -1.737403154373169, -0.1166381984949112, 0.0695343092083931, 0.3858032524585724]"
1584450543576429983,,1081458,,1584450543,576072235,'',"[shoulder_pan_joint, shoulder_lift_joint, elbow_joint, wrist_1_joint, wrist_2_joint,","[1.4192959070205688, -1.1651337782489222, 2.4604547023773193, -2.8502324263202112, -1.5670059362994593, 2.7241907119750977]","[0.03257152438163757, 0.03497476130723953, -0.1139364242553711, 0.06293155997991562, 0.0, 0.016030099242925644]","[0.8697510361671448, -2.444458246231079, -1.8853626251220703, -0.1278534084558487, 0.0538330152630806, 0.3476715385913849]"
1584450543688342900,,1081472,,1584450543,688067435,'',"[shoulder_pan_joint, shoulder_lift_joint, elbow_joint, wrist_1_joint, wrist_2_joint,","[1.4224623441696167, -1.1598590056048792, 2.447232723236084, -2.8427374998675745, -1.5670416990863245, 2.7258191108703613]","[0.02929903380572796, 0.05826570466160774, -0.12417574971914291, 0.07186700403690338, 0.0, 0.015148060396313667]","[0.9063721895217896, -2.764892816543579, -1.912264347076416, -0.1457977443933487, 0.0403747595846653, 0.3364563286304474]"
1584450543800275773,,1081486,,1584450543,800046665,'',"[shoulder_pan_joint, shoulder_lift_joint, elbow_joint, wrist_1_joint, wrist_2_joint,","[1.4262408018112183, -1.153276268635885, 2.43363881111145, -2.834524456654684, -1.5670297781573694, 2.727292060852051]","[0.040113598108291626, 0.04737444221973419, -0.12051975727081299, 0.07146432995796204, 0.0, 0.012195147573947906]","[1.1993409395217896, -2.975464105606079, -1.912264347076416, -0.1637420803308487, 0.0381317175924778, 0.3095398247241974]"
1584450543912274551,,1081500,,1584450543,912044701,'',"[shoulder_pan_joint, shoulder_lift_joint, elbow_joint, wrist_1_joint, wrist_2_joint,","[1.4308828115463257, -1.1485284010516565, 2.422168016433716, -2.827484909688131, -1.5670059362994593, 2.72495698928833]","[0.046249520033597946, 0.04256796836853027, -0.09733108431100845, 0.054552193731069565, 0.0, -0.03514733538031578]","[0.7049561142921448, -2.883911371231079, -2.019871234893799, -0.1031799390912056, 0.0515899695456028, -0.3117828667163849]"
1584450544024325876,,1081514,,1584450544,24055300,'',"[shoulder_pan_joint, shoulder_lift_joint, elbow_joint, wrist_1_joint, wrist_2_joint,","[1.4370841979980469, -1.1437566916095179, 2.4116694927215576, -2.8215583006488245, -1.5670416990863245, 2.721867799758911]","[0.06548819690942764, 0.04085502400994301, -0.09693480283021927, 0.054187871515750885, 0.0, -0.02208932302892208]","[0.7919312119483948, -2.980041742324829, -2.1342036724090576, -0.1413116604089737, 0.0583190992474556, -0.2848663628101349]"
1584450544136355600,,1081528,,1584450544,136060439,'',"[shoulder_pan_joint, shoulder_lift_joint, elbow_joint, wrist_1_joint, wrist_2_joint,","[1.4452522993087769, -1.1397159735309046, 2.4005343914031982, -2.815392796193258, -1.5670536200152796, 2.720287322998047]","[0.07530567795038223, 0.033185116946697235, -0.09924855828285217, 0.05556845664978027, 0.0, -0.00138058268930763]","[1.0345460176467896, -2.842712640762329, -2.089367389678955, -0.0964508131146431, 0.0672912672162056, -0.0471038855612278]"
1584450544248358956,,1081542,,1584450544,248083421,'',"[shoulder_pan_joint, shoulder_lift_joint, elbow_joint, wrist_1_joint, wrist_2_joint,","[1.4542003870010376, -1.1351607481585901, 2.388787269592285, -2.8087485472308558, -1.5670655409442347, 2.7244784832000732]","[0.08357638865709305, 0.04809029772877693, -0.10195859521627426, 0.060266271233558655, 0.0, 0.03967257961630821]","[1.0116578340530396, -2.879333734512329, -2.019871234893799, -0.1951446682214737, 0.0471038855612278, 0.3521576225757599]"
1584450544360350369,,1081556,,1584450544,359994855,'',"[shoulder_pan_joint, shoulder_lift_joint, elbow_joint, wrist_1_joint, wrist_2_joint,","[1.4636162519454956, -1.129453484212057, 2.376488447189331, -2.8017686049090784, -1.5670536200152796, 2.728837013244629]","[0.09441652148962021, 0.04658188298344612, -0.10874645411968231, 0.06584613025188446, 0.0, 0.03840704634785652]","[1.1856080293655396, -3.218078851699829, -2.1297199726104736, -0.0874786451458931, 0.1166381984949112, 0.3072967827320099]"
1584450544472291388,,1081570,,1584450544,472067289,'',"[shoulder_pan_joint, shoulder_lift_joint, elbow_joint, wrist_1_joint, wrist_2_joint,","[1.4749877452850342, -1.124669377003805, 2.3637449741363525, -2.7943933645831507, -1.5671137014972132, 2.7339494228363037]","[0.1078132838010788, 0.047400008887052536, -0.11261975765228271, 0.06515583395957947, 0.0, 0.05319078639149666]","[1.0620118379592896, -2.975464105606079, -2.0736746788024902, -0.1906585842370987, 0.0942077711224556, 0.3386993706226349]"
1584450544584255050,,1081584,,1584450544,583988542,'',"[shoulder_pan_joint, shoulder_lift_joint, elbow_joint, wrist_1_joint, wrist_2_joint,","[1.4868382215499878, -1.1186750570880335, 2.350569486618042, -2.7872584501849573, -1.5670655409442347, 2.7390620708465576]","[0.10464306175708771, 0.05285842344164848, -0.12066037207841873, 0.0654626339673996, 0.0, 0.035530831664800644]","[1.0162354707717896, -3.254699945449829, -2.2350850105285645, -0.1009368970990181, 0.1009368970990181, 0.3544006645679474]"
1584450544696387756,,1081598,,1584450544,696073289,'',"[shoulder_pan_joint, shoulder_lift_joint, elbow_joint, wrist_1_joint, wrist_2_joint,","[1.4985569715499878, -1.1137235800372522, 2.337033748626709, -2.7798355261432093, -1.5670416990863245, 2.7425825595855713]","[0.10696959495544434, 0.04139191657304764, -0.12054532766342163, 0.06904831528663635, 0.0, 0.028973063454031944]","[0.8468628525733948, -3.034973382949829, -2.2081832885742188, -0.1682281643152237, 0.1099090725183487, 0.3409424126148224]"
1584450544808305792,,1081612,,1584450544,808034185,'',"[shoulder_pan_joint, shoulder_lift_joint, elbow_joint, wrist_1_joint, wrist_2_joint,","[1.5110074281692505, -1.1083162466632288, 2.3243257999420166, -2.772604767476217, -1.5670536200152796, 2.745623826980591]","[0.10884872078895569, 0.052871204912662506, -0.1078132838010788, 0.06180025264620781, 0.0, 0.032232772558927536]","[0.9841920137405396, -3.263855218887329, -2.3157904148101807, -0.1278534084558487, 0.1054229810833931, 0.2624359428882599]"
1584450544920259125,,1081626,,1584450544,920018465,'',"[shoulder_pan_joint, shoulder_lift_joint, elbow_joint, wrist_1_joint, wrist_2_joint,","[1.52277410030365, -1.1034844557391565, 2.313417673110962, -2.766223732625143, -1.5670536200152796, 2.7496232986450195]","[0.10381215065717697, 0.028378644958138466, -0.08518707007169724, 0.04929830878973007, 0.0, 0.03599102422595024]","[0.9292603731155396, -3.131103754043579, -2.362868309020996, -0.1233673244714737, 0.1300964504480362, 0.3386993706226349]"
1584450545032257581,,1081640,,1584450545,32018444,'',"[shoulder_pan_joint, shoulder_lift_joint, elbow_joint, wrist_1_joint, wrist_2_joint,","[1.5346848964691162, -1.1005352179156702, 2.304669141769409, -2.7612913290606897, -1.5670416990863245, 2.753371238708496]","[0.10532056540250778, 0.027650004252791405, -0.05890486389398575, 0.03345995768904686, 0.0, 0.028934713453054428]","[0.7781983017921448, -3.181457757949829, -2.297855854034424, -0.0919647291302681, 0.1637420803308487, 0.3813171684741974]"
1584450545144247531,,1081654,,1584450545,144000410,'',"[shoulder_pan_joint, shoulder_lift_joint, elbow_joint, wrist_1_joint, wrist_2_joint,","[1.54623544216156, -1.0979931990252894, 2.299809455871582, -2.758538071309225, -1.5670655409442347, 2.755622148513794]","[0.09768901020288467, 0.017679128795862198, -0.03580566868185997, 0.017851701006293297, 1.917476038215682e-05, 0.01290461327880621]","[0.7690430283546448, -3.465271234512329, -2.369593858718872, -0.1457977443933487, 0.1614990383386612, 0.3252411186695099]"
1584450545256260154,,1081668,,1584450545,255980151,'',"[shoulder_pan_joint, shoulder_lift_joint, elbow_joint, wrist_1_joint, wrist_2_joint,","[1.5566587448120117, -1.0967467466937464, 2.2970850467681885, -2.756861988698141, -1.5670536200152796, 2.7561490535736084]","[0.08870244026184082, 0.002710032742470503, -0.007171360310167074, 0.0070946612395346165, 1.917476038215682e-05, -0.03328738361597061]","[0.9338380098342896, -3.662109851837158, -2.2261178493499756, -0.1929016262292862, 0.1525268703699112, -0.1682281643152237]"
1584450545368177910,,1081682,,1584450545,367953751,'',"[shoulder_pan_joint, shoulder_lift_joint, elbow_joint, wrist_1_joint, wrist_2_joint,","[1.566997766494751, -1.0967944304095667, 2.2973973751068115, -2.7569578329669397, -1.5670536200152796, 2.751227617263794]","[0.0948127955198288, -0.000818123109638691, 0.0030040456913411617, -0.001073786523193121, 1.917476038215682e-05, -0.043239083141088486]","[0.7095337510108948, -4.499817371368408, -1.5692673921585083, -0.4620667099952698, 0.1951446682214737, -0.3028106987476349]"
1584450545480236879,,1081696,,1584450545,479995759,'',"[shoulder_pan_joint, shoulder_lift_joint, elbow_joint, wrist_1_joint, wrist_2_joint,","[1.577204942703247, -1.0967586676227015, 2.2974092960357666, -2.7569220701800745, -1.567101780568258, 2.7472281455993652]","[0.08751360327005386, 0.0, 0.0003451456723269075, -0.00024927189224399626, 1.917476038215682e-05, -0.03470631688833237]","[0.7965088486671448, -4.417419910430908, -1.6275544166564941, -0.4216919243335724, 0.1839294582605362, -0.3252411186695099]"
1584450545592237971,,1081710,,1584450545,591983966,'',"[shoulder_pan_joint, shoulder_lift_joint, elbow_joint, wrist_1_joint, wrist_2_joint,","[1.586129069328308, -1.0967825094806116, 2.2974812984466553, -2.7569220701800745, -1.5671737829791468, 2.743983507156372]","[0.07719758152961731, 0.0, 0.0001917476038215682, -0.0002109223569277674, 1.917476038215682e-05, -0.02437112107872963]","[0.9521485567092896, -4.348755359649658, -1.7934484481811523, -0.3835602104663849, 0.2198181450366974, -0.2826233208179474]"
1584450545704244832,,1081724,,1584450545,704031474,'',"[shoulder_pan_joint, shoulder_lift_joint, elbow_joint, wrist_1_joint, wrist_2_joint,","[1.594645380973816, -1.09680682817568, 2.2976250648498535, -2.756861988698141, -1.5671613852130335, 2.740750789642334]","[0.07175195217132568, 0.0, 0.0009843043517321348, 0.00013422331539914012, 1.917476038215682e-05, -0.029931800439953804]","[1.0391236543655396, -4.499817371368408, -1.6813578605651855, -0.4329071640968323, 0.1906585842370987, -0.2624359428882599]"
1584450545816229934,,1081738,,1584450545,815938509,'',"[shoulder_pan_joint, shoulder_lift_joint, elbow_joint, wrist_1_joint, wrist_2_joint,","[1.6023815870285034, -1.096938435231344, 2.298729181289673, -2.7570651213275355, -1.5671737829791468, 2.736344337463379]","[0.06024709716439247, -0.009727994911372662, 0.027100328356027603, -0.013422331772744656, 0.0, -0.05278811603784561]","[0.8377075791358948, -5.218506336212158, -1.5401238203048706, -0.7065582871437073, 0.2758941948413849, -0.3005676567554474]"
1584450545928192063,,1081752,,1584450545,927965940,'',"[shoulder_pan_joint, shoulder_lift_joint, elbow_joint, wrist_1_joint, wrist_2_joint,","[1.6080429553985596, -1.0983651320086878, 2.3015971183776855, -2.7586219946490687, -1.5671613852130335, 2.7308599948883057]","[0.04237622022628784, -0.011006312444806099, 0.021616347134113312, -0.010891263373196125, 0.0, -0.046671368181705475]","[0.8102417588233948, -5.328369617462158, -1.2980083227157593, -0.8187103867530823, 0.2332763969898224, -0.3342132866382599]"
1584450546040182844,,1081766,,1584450546,39953897,'',"[shoulder_pan_joint, shoulder_lift_joint, elbow_joint, wrist_1_joint, wrist_2_joint,","[1.612444519996643, -1.098832909260885, 2.303049325942993, -2.758920971547262, -1.5671613852130335, 2.726393938064575]","[0.03996020182967186, -0.0005496764788404107, 0.002684466540813446, -0.00046019424917176366, 0.0, -0.04337330907583237]","[1.1627198457717896, -4.747009754180908, -1.4885622262954712, -0.5944061875343323, 0.2198181450366974, -0.2803802788257599]"
1584450546152271308,,1081780,,1584450546,151971398,'',"[shoulder_pan_joint, shoulder_lift_joint, elbow_joint, wrist_1_joint, wrist_2_joint,","[1.616498589515686, -1.09882098833193, 2.303121328353882, -2.758561913167135, -1.5672453085528772, 2.7206344604492188]","[0.03140825778245926, 7.669904152862728e-05, 0.00029401297797448933, 0.003662379225715995, 0.0, -0.05859806761145592]","[0.8148193955421448, -4.389954090118408, -1.8920880556106567, -0.5136566758155823, 0.2377624809741974, -0.2915954887866974]"
1584450546264200486,,1081794,,1584450546,263939539,'',"[shoulder_pan_joint, shoulder_lift_joint, elbow_joint, wrist_1_joint, wrist_2_joint,","[1.619773268699646, -1.0987971464740198, 2.3031692504882812, -2.7582266966449183, -1.5672815481769007, 2.715402126312256]","[0.026192722842097282, 7.669904152862728e-05, 0.0001661812566453591, 0.0016873788554221392, -0.00026844663079828024, -0.03771675378084183]","[0.9979249238967896, -4.421997547149658, -1.8539773225784302, -0.5360870957374573, 0.2803802788257599, -0.3588867485523224]"
1584450546376237053,,1081808,,1584450546,376000602,'',"[shoulder_pan_joint, shoulder_lift_joint, elbow_joint, wrist_1_joint, wrist_2_joint,","[1.6226637363433838, -1.098809067402975, 2.303253412246704, -2.75796348253359, -1.5673053900348108, 2.7127678394317627]","[0.02449255995452404, 8.948221511673182e-05, 0.0012144014472141862, 0.001073786523193121, -0.00023009712458588183, -0.014937138184905052]","[0.8834840059280396, -4.408264636993408, -1.8876044750213623, -0.5226288437843323, 0.2826233208179474, -0.2871094048023224]"
1584450546488242894,,1081822,,1584450546,488010690,'',"[shoulder_pan_joint, shoulder_lift_joint, elbow_joint, wrist_1_joint, wrist_2_joint,","[1.6250025033950806, -1.09882098833193, 2.3041889667510986, -2.758202854787008, -1.5672934691058558, 2.71090030670166]","[0.014815698377788067, -0.001981391804292798, 0.02648673579096794, -0.017544904723763466, -0.00017257283616345376, -0.022913837805390358]","[1.2084962129592896, -5.328369617462158, -1.4885622262954712, -0.8119812607765198, 0.3028106987476349, -0.3072967827320099]"
1584450546600151572,,1081836,,1584450546,599916503,'',"[shoulder_pan_joint, shoulder_lift_joint, elbow_joint, wrist_1_joint, wrist_2_joint,","[1.6250025033950806, -1.1004274527179163, 2.307633399963379, -2.7607887426959437, -1.567077938710348, 2.7074637413024902]","[-0.017730262130498886, -0.02021019719541073, 0.014342720620334148, -0.02285631373524666, 0.0008436894277110696, -0.04398690164089203]","[-0.6958008408546448, -5.282593250274658, -1.3024919033050537, -0.7491760849952698, 0.1996307522058487, -0.2893524467945099]"
1584450546712229417,,1081850,,1584450546,712035003,'',"[shoulder_pan_joint, shoulder_lift_joint, elbow_joint, wrist_1_joint, wrist_2_joint,","[1.623563289642334, -1.1008947531329554, 2.307513475418091, -2.761087719594137, -1.567101780568258, 2.7048418521881104]","[-0.0010610034223645926, 0.0007669904152862728, -0.0017512948252260685, 0.0010929612908512354, 0.00026844663079828024, -0.001764077926054597]","[-0.1327514797449112, -4.463196277618408, -1.9032971858978271, -0.4710388779640198, 0.2220611870288849, -0.02243042178452015]"
1584450546824116866,,1081864,,1584450546,823910891,'',"[shoulder_pan_joint, shoulder_lift_joint, elbow_joint, wrist_1_joint, wrist_2_joint,","[1.623623251914978, -1.1008709112750452, 2.3075613975524902, -2.7610400358783167, -1.5671256224261683, 2.7048778533935547]","[0.0001917476038215682, 0.0001661812566453591, -0.0003707120195031166, 0.00023009712458588183, -0.0005560680292546749, 0.00032597093377262354]","[-0.1235962063074112, -4.582214832305908, -1.8898463249206543, -0.4463654160499573, 0.0672912672162056, 0.01794433780014515]"
1584450546936221100,,1081878,,1584450546,936015075,'',"[shoulder_pan_joint, shoulder_lift_joint, elbow_joint, wrist_1_joint, wrist_2_joint,","[1.623623251914978, -1.1008828322040003, 2.307549476623535, -2.7610281149493616, -1.5671256224261683, 2.7048537731170654]","[0.00011504856229294091, 8.948221511673182e-05, -0.0001661812566453591, 0.0002109223569277674, -0.0001917476038215682, 0.00015339808305725455]","[-0.1052856519818306, -4.591370105743408, -1.9055389165878296, -0.4508515000343323, 0.0740203931927681, 0.01794433780014515]"
1584450547048154184,,1081892,,1584450547,47904077,'',"[shoulder_pan_joint, shoulder_lift_joint, elbow_joint, wrist_1_joint, wrist_2_joint,","[1.6235992908477783, -1.1008709112750452, 2.307549476623535, -2.760991875325338, -1.5671256224261683, 2.7048299312591553]","[7.669904152862728e-05, 6.391586794052273e-05, -0.00011504856229294091, 0.00017257283616345376, -0.00011504856229294091, 9.58738019107841e-05]","[-0.0961303785443306, -4.545593738555908, -1.8831208944320679, -0.4441223740577698, 0.0762634351849556, 0.01345825381577015]"
1584450547160124147,,1081906,,1584450547,159921929,'',"[shoulder_pan_joint, shoulder_lift_joint, elbow_joint, wrist_1_joint, wrist_2_joint,","[1.6235753297805786, -1.1008947531329554, 2.307549476623535, -2.761051956807272, -1.5671256224261683, 2.7048418521881104]","[5.1132694352418184e-05, 5.1132694352418184e-05, -7.669904152862728e-05, 9.58738019107841e-05, -7.669904152862728e-05, 7.669904152862728e-05]","[-0.0686645582318306, -4.655457019805908, -1.8943299055099487, -0.4441223740577698, 0.0986938551068306, 0.01794433780014515]"
1584450547272098538,,1081920,,1584450547,271897082,'',"[shoulder_pan_joint, shoulder_lift_joint, elbow_joint, wrist_1_joint, wrist_2_joint,","[1.6236112117767334, -1.1008709112750452, 2.307549476623535, -2.7610037962542933, -1.567089859639303, 2.7048659324645996]","[3.834952076431364e-05, 3.834952076431364e-05, -6.391586794052273e-05, 7.669904152862728e-05, -3.834952076431364e-05, 5.752428114647046e-05]","[-0.0732421949505806, -4.609680652618408, -1.9032971858978271, -0.4620667099952698, 0.1659851223230362, 0.02018737979233265]"
1584450547384278253,,1081934,,1584450547,383933910,'',"[shoulder_pan_joint, shoulder_lift_joint, elbow_joint, wrist_1_joint, wrist_2_joint,","[1.6235992908477783, -1.1008709112750452, 2.30753755569458, -2.7610161940204065, -1.5671256224261683, 2.7048418521881104]","[2.5566347176209092e-05, 2.5566347176209092e-05, -5.1132694352418184e-05, 5.752428114647046e-05, -3.834952076431364e-05, 3.834952076431364e-05]","[-0.0732421949505806, -4.504395008087158, -1.8943299055099487, -0.4508515000343323, 0.1570129543542862, 0.01345825381577015]"
1584450547496181953,,1081948,,1584450547,495906999,'',"[shoulder_pan_joint, shoulder_lift_joint, elbow_joint, wrist_1_joint, wrist_2_joint,","[1.6235992908477783, -1.1008709112750452, 2.307549476623535, -2.7610400358783167, -1.5671256224261683, 2.7048659324645996]","[2.5566347176209092e-05, 2.5566347176209092e-05, -3.834952076431364e-05, 3.834952076431364e-05, -3.834952076431364e-05, 3.834952076431364e-05]","[-0.1419067531824112, -4.563904285430908, -1.8965717554092407, -0.4418793320655823, 0.1794433742761612, 0.01794433780014515]"
1584450547608178736,,1081962,,1584450547,607903602,'',"[shoulder_pan_joint, shoulder_lift_joint, elbow_joint, wrist_1_joint, wrist_2_joint,","[1.6235992908477783, -1.1008709112750452, 2.30753755569458, -2.7610281149493616, -1.5671137014972132, 2.7048659324645996]","[2.5566347176209092e-05, 2.5566347176209092e-05, -3.834952076431364e-05, 3.834952076431364e-05, -3.834952076431364e-05, 3.834952076431364e-05]","[-0.0686645582318306, -4.504395008087158, -1.9055389165878296, -0.4373932480812073, 0.1368255764245987, 0.011215210892260075]"
1584450547720307966,,1081976,,1584450547,719980334,'',"[shoulder_pan_joint, shoulder_lift_joint, elbow_joint, wrist_1_joint, wrist_2_joint,","[1.623623251914978, -1.1008828322040003, 2.30753755569458, -2.7610037962542933, -1.567101780568258, 2.7048537731170654]","[1.2783173588104546e-05, 1.2783173588104546e-05, -2.5566347176209092e-05, 3.834952076431364e-05, -3.834952076431364e-05, 1.917476038215682e-05]","[-0.0823974683880806, -4.595947742462158, -1.8898463249206543, -0.4306641221046448, 0.1592559963464737, 0.01570129580795765]"
1584450547832189825,,1081990,,1584450547,831858727,'',"[shoulder_pan_joint, shoulder_lift_joint, elbow_joint, wrist_1_joint, wrist_2_joint,","[1.6236112117767334, -1.1008709112750452, 2.307549476623535, -2.7610281149493616, -1.567089859639303, 2.7048659324645996]","[1.2783173588104546e-05, 1.2783173588104546e-05, -2.5566347176209092e-05, 1.917476038215682e-05, 0.0, 1.917476038215682e-05]","[-0.0869751051068306, -4.669189929962158, -1.8898463249206543, -0.4284210503101349, 0.1457977443933487, 0.011215210892260075]"
1584450547944225120,,1082004,,1584450547,943878453,'',"[shoulder_pan_joint, shoulder_lift_joint, elbow_joint, wrist_1_joint, wrist_2_joint,","[1.6235753297805786, -1.1008589903460901, 2.30753755569458, -2.760979954396383, -1.567101780568258, 2.7048659324645996]","[1.2783173588104546e-05, 1.2783173588104546e-05, -2.5566347176209092e-05, 1.917476038215682e-05, 0.0, 1.917476038215682e-05]","[-0.0732421949505806, -4.508972644805908, -1.8988134860992432, -0.4486084580421448, 0.1570129543542862, 0.01345825381577015]"
1584450548056240658,,1082018,,1584450548,55873092,'',"[shoulder_pan_joint, shoulder_lift_joint, elbow_joint, wrist_1_joint, wrist_2_joint,","[1.6235872507095337, -1.1008828322040003, 2.3075733184814453, -2.7610161940204065, -1.5671256224261683, 2.7048778533935547]","[1.2783173588104546e-05, 1.2783173588104546e-05, -2.5566347176209092e-05, 1.917476038215682e-05, 0.0, 1.917476038215682e-05]","[-0.0549316480755806, -4.627991199493408, -1.8898463249206543, -0.4553375840187073, 0.1547699123620987, 0.01345825381577015]"
1584450548168161610,,1082032,,1584450548,167863684,'',"[shoulder_pan_joint, shoulder_lift_joint, elbow_joint, wrist_1_joint, wrist_2_joint,","[1.6236112117767334, -1.1008828322040003, 2.3075733184814453, -2.7610281149493616, -1.567101780568258, 2.7048778533935547]","[1.2783173588104546e-05, 1.2783173588104546e-05, -2.5566347176209092e-05, 1.917476038215682e-05, 0.0, 1.917476038215682e-05]","[-0.0778198316693306, -4.582214832305908, -1.8876044750213623, -0.4373932480812073, 0.2086029201745987, 0.01345825381577015]"
1584450548280172279,,1082046,,1584450548,279898518,'',"[shoulder_pan_joint, shoulder_lift_joint, elbow_joint, wrist_1_joint, wrist_2_joint,","[1.6235872507095337, -1.1008828322040003, 2.3075613975524902, -2.7610037962542933, -1.567101780568258, 2.703261137008667]","[1.2783173588104546e-05, 1.2783173588104546e-05, -1.2783173588104546e-05, 1.917476038215682e-05, 0.0, -0.05037209391593933]","[-0.1007080152630806, -4.536438465118408, -1.8965717554092407, -0.4530945420265198, 0.1502838283777237, -0.3858032524585724]"
1584450548392184351,,1082060,,1584450548,391942940,'',"[shoulder_pan_joint, shoulder_lift_joint, elbow_joint, wrist_1_joint, wrist_2_joint,","[1.623623251914978, -1.1008709112750452, 2.30753755569458, -2.7610161940204065, -1.567101780568258, 2.687192916870117]","[1.2783173588104546e-05, 1.2783173588104546e-05, -1.2783173588104546e-05, 1.917476038215682e-05, 0.0, -0.1992449313402176]","[-0.0869751051068306, -4.541016101837158, -1.9010553359985352, -0.4284210503101349, 0.1659851223230362, -0.5181427597999573]"
1584450548504148333,,1082074,,1584450548,503892305,'',"[shoulder_pan_joint, shoulder_lift_joint, elbow_joint, wrist_1_joint, wrist_2_joint,","[1.6235872507095337, -1.1008465925799769, 2.3075854778289795, -2.7610161940204065, -1.567077938710348, 2.6646947860717773]","[1.2783173588104546e-05, 1.2783173588104546e-05, -1.2783173588104546e-05, 1.917476038215682e-05, 0.0, -0.20215949416160583]","[-0.0595092847943306, -4.559326648712158, -1.8965717554092407, -0.4553375840187073, 0.1682281643152237, -0.4082336723804474]"
1584450548616148092,,1082088,,1584450548,615905959,'',"[shoulder_pan_joint, shoulder_lift_joint, elbow_joint, wrist_1_joint, wrist_2_joint,","[1.6236112117767334, -1.1008709112750452, 2.307549476623535, -2.7610281149493616, -1.567089859639303, 2.6422932147979736]","[1.2783173588104546e-05, 1.2783173588104546e-05, -1.2783173588104546e-05, 1.917476038215682e-05, 0.0, -0.19976265728473663]","[-0.0778198316693306, -4.522705554962158, -1.8943299055099487, -0.4575806260108948, 0.1614990383386612, -0.4530945420265198]"
1584450548728180231,,1082102,,1584450548,727947877,'',"[shoulder_pan_joint, shoulder_lift_joint, elbow_joint, wrist_1_joint, wrist_2_joint,","[1.6236112117767334, -1.1008828322040003, 2.307549476623535, -2.7610281149493616, -1.567089859639303, 2.619771957397461]","[0.0, 0.0, -1.2783173588104546e-05, 0.0, 0.0, -0.19997356832027435]","[-0.0732421949505806, -4.609680652618408, -1.8920880556106567, -0.4418793320655823, 0.1502838283777237, -0.4732819199562073]"
1584450548840151006,,1082116,,1584450548,839891130,'',"[shoulder_pan_joint, shoulder_lift_joint, elbow_joint, wrist_1_joint, wrist_2_joint,","[1.623635172843933, -1.1008709112750452, 2.3075854778289795, -2.7610281149493616, -1.5670655409442347, 2.597346782684326]","[0.0, 0.0, -1.2783173588104546e-05, 0.0, 0.0, -0.20146921277046204]","[-0.0732421949505806, -4.541016101837158, -1.8988134860992432, -0.4463654160499573, 0.1368255764245987, -0.3835602104663849]"
1584450548952090191,,1082130,,1584450548,951834113,'',"[shoulder_pan_joint, shoulder_lift_joint, elbow_joint, wrist_1_joint, wrist_2_joint,","[1.623623251914978, -1.1009071508990687, 2.307549476623535, -2.760991875325338, -1.567077938710348, 2.5750889778137207]","[0.0, 0.0, -1.2783173588104546e-05, 0.0, 0.0, -0.2013925015926361]","[-0.0823974683880806, -4.646301746368408, -1.8988134860992432, -0.4373932480812073, 0.1749572902917862, -0.5046845078468323]"
1584450549064102463,,1082144,,1584450549,63840674,'',"[shoulder_pan_joint, shoulder_lift_joint, elbow_joint, wrist_1_joint, wrist_2_joint,","[1.6235992908477783, -1.1008589903460901, 2.30753755569458, -2.7610161940204065, -1.5670416990863245, 2.5526046752929688]","[0.0, 0.0, -1.2783173588104546e-05, 0.0, 0.0, -0.20229372382164001]","[-0.0823974683880806, -4.586792469024658, -1.8898463249206543, -0.4530945420265198, 0.1570129543542862, -0.3880462944507599]"
1584450549176222056,,1082158,,1584450549,175831957,'',"[shoulder_pan_joint, shoulder_lift_joint, elbow_joint, wrist_1_joint, wrist_2_joint,","[1.6235992908477783, -1.1008828322040003, 2.3075613975524902, -2.7610037962542933, -1.5670297781573694, 2.530264377593994]","[0.0, 0.0, -1.2783173588104546e-05, 0.0, 0.0, -0.19761507213115692]","[-0.0961303785443306, -4.595947742462158, -1.9032971858978271, -0.4329071640968323, 0.1614990383386612, -0.5316010117530823]"
1584450549288141925,,1082172,,1584450549,287915152,'',"[shoulder_pan_joint, shoulder_lift_joint, elbow_joint, wrist_1_joint, wrist_2_joint,","[1.6235992908477783, -1.1008465925799769, 2.30753755569458, -2.7610161940204065, -1.5670178572284144, 2.5079474449157715]","[0.0, 0.0, -1.2783173588104546e-05, 0.0, 0.0, -0.2006063461303711]","[-0.1007080152630806, -4.559326648712158, -1.8853626251220703, -0.4575806260108948, 0.1345825344324112, -0.4261780083179474]"
1584450549400060473,,1082186,,1584450549,399838468,'',"[shoulder_pan_joint, shoulder_lift_joint, elbow_joint, wrist_1_joint, wrist_2_joint,","[1.6236112117767334, -1.1009071508990687, 2.307549476623535, -2.760991875325338, -1.5670416990863245, 2.4854040145874023]","[0.0, 0.0, -1.2783173588104546e-05, 0.0, 3.834952076431364e-05, -0.19822867214679718]","[-0.0732421949505806, -4.541016101837158, -1.8920880556106567, -0.4553375840187073, 0.1682281643152237, -0.4889832139015198]"
1584450549512080930,,1082200,,1584450549,511835852,'',"[shoulder_pan_joint, shoulder_lift_joint, elbow_joint, wrist_1_joint, wrist_2_joint,","[1.6236112117767334, -1.1008589903460901, 2.3075613975524902, -2.7610400358783167, -1.5670297781573694, 2.46307635307312]","[0.0, 0.0, -1.2783173588104546e-05, 0.0, 3.834952076431364e-05, -0.19895730912685394]","[-0.0640869215130806, -4.554749011993408, -1.9010553359985352, -0.4418793320655823, 0.1973877102136612, -0.4306641221046448]"
1584450549624060982,,1082214,,1584450549,623847253,'',"[shoulder_pan_joint, shoulder_lift_joint, elbow_joint, wrist_1_joint, wrist_2_joint,","[1.6236112117767334, -1.1008465925799769, 2.307549476623535, -2.7610037962542933, -1.5670536200152796, 2.4406046867370605]","[0.0, 0.0, -1.2783173588104546e-05, 0.0, 3.834952076431364e-05, -0.1994558572769165]","[-0.0778198316693306, -4.513550281524658, -1.9212316274642944, -0.4553375840187073, 0.1256103664636612, -0.4441223740577698]"
1584450549736159335,,1082228,,1584450549,735904349,'',"[shoulder_pan_joint, shoulder_lift_joint, elbow_joint, wrist_1_joint, wrist_2_joint,","[1.6235992908477783, -1.1008947531329554, 2.3075733184814453, -2.7610037962542933, -1.5670297781573694, 2.418229103088379]","[0.0, 0.0, -0.0, 0.0, 3.834952076431364e-05, -0.20089396834373474]","[-0.0549316480755806, -4.591370105743408, -1.9032971858978271, -0.4486084580421448, 0.1906585842370987, -0.5540314316749573]"
1584450549847994095,,1082242,,1584450549,847797027,'',"[shoulder_pan_joint, shoulder_lift_joint, elbow_joint, wrist_1_joint, wrist_2_joint,","[1.6236112117767334, -1.1008828322040003, 2.307549476623535, -2.760979954396383, -1.5670059362994593, 2.395913600921631]","[0.0, 0.0, -0.0, 0.0, 3.834952076431364e-05, -0.20206362009048462]","[-0.0686645582318306, -4.518127918243408, -1.9055389165878296, -0.4732819199562073, 0.1637420803308487, -0.3880462944507599]"
1584450549959961974,,1082256,,1584450549,959783601,'',"[shoulder_pan_joint, shoulder_lift_joint, elbow_joint, wrist_1_joint, wrist_2_joint,","[1.6236112117767334, -1.1008947531329554, 2.3075973987579346, -2.760968033467428, -1.5669696966754358, 2.3734664916992188]","[0.0, 0.0, -0.0, 0.0, 3.834952076431364e-05, -0.19863134622573853]","[-0.0915527418255806, -4.518127918243408, -1.8898463249206543, -0.4912262558937073, 0.1525268703699112, -0.5809479355812073]"
1584450550071969729,,1082270,,1584450550,71764635,'',"[shoulder_pan_joint, shoulder_lift_joint, elbow_joint, wrist_1_joint, wrist_2_joint,","[1.623635172843933, -1.1008947531329554, 2.307549476623535, -2.760979954396383, -1.5669696966754358, 2.351043701171875]","[0.0, 0.0, -0.0, 0.0, 3.834952076431364e-05, -0.20206362009048462]","[-0.1190185695886612, -4.563904285430908, -1.8876044750213623, -0.5114136338233948, 0.1637420803308487, -0.4149627983570099]"
1584450550184058574,,1082284,,1584450550,183839494,'',"[shoulder_pan_joint, shoulder_lift_joint, elbow_joint, wrist_1_joint, wrist_2_joint,","[1.6235992908477783, -1.1008709112750452, 2.3075613975524902, -2.7610400358783167, -1.5669577757464808, 2.3287642002105713]","[0.0, 0.0, -0.0, 0.0, 3.834952076431364e-05, -0.19937916100025177]","[-0.0869751051068306, -4.563904285430908, -1.8898463249206543, -0.5046845078468323, 0.1794433742761612, -0.4979553818702698]"
1584450550296069212,,1082298,,1584450550,295832510,'',"[shoulder_pan_joint, shoulder_lift_joint, elbow_joint, wrist_1_joint, wrist_2_joint,","[1.623623251914978, -1.1009071508990687, 2.3075733184814453, -2.760979954396383, -1.5669339338885706, 2.3062937259674072]","[0.0, 0.0, -0.0, 0.0, 3.834952076431364e-05, -0.20028036832809448]","[-0.1144409328699112, -4.646301746368408, -1.8965717554092407, -0.4979553818702698, 0.1143951565027237, -0.4620667099952698]"
1584450550408007226,,1082312,,1584450550,407770865,'',"[shoulder_pan_joint, shoulder_lift_joint, elbow_joint, wrist_1_joint, wrist_2_joint,","[1.6236112117767334, -1.1008465925799769, 2.3075854778289795, -2.7610037962542933, -1.5669577757464808, 2.283846855163574]","[0.0, 0.0, -0.0, 0.0, 5.752428114647046e-05, -0.19884225726127625]","[-0.0549316480755806, -4.586792469024658, -1.8965717554092407, -0.5069275498390198, 0.0448608435690403, -0.4441223740577698]"
1584450550520014319,,1082326,,1584450550,519747811,'',"[shoulder_pan_joint, shoulder_lift_joint, elbow_joint, wrist_1_joint, wrist_2_joint,","[1.6236112117767334, -1.1008947531329554, 2.3075613975524902, -2.7610037962542933, -1.5670059362994593, 2.2615199089050293]","[0.0, 0.0, -0.0, 0.0, -0.00028762139845639467, -0.20110487937927246]","[-0.0778198316693306, -4.545593738555908, -1.9032971858978271, -0.5046845078468323, -0.02018737979233265, -0.4575806260108948]"
1584450550632041158,,1082340,,1584450550,631782835,'',"[shoulder_pan_joint, shoulder_lift_joint, elbow_joint, wrist_1_joint, wrist_2_joint,","[1.6236112117767334, -1.1008589903460901, 2.3075854778289795, -2.7610037962542933, -1.5669940153705042, 2.239013910293579]","[0.0, 0.0, -0.0, 0.0, -0.00032597093377262354, -0.2015267312526703]","[-0.0778198316693306, -4.655457019805908, -1.8988134860992432, -0.5024414658546448, 0.006729126907885075, -0.4329071640968323]"
1584450550744093665,,1082354,,1584450550,743862123,'',"[shoulder_pan_joint, shoulder_lift_joint, elbow_joint, wrist_1_joint, wrist_2_joint,","[1.6236112117767334, -1.1008828322040003, 2.3075733184814453, -2.7610037962542933, -1.5670178572284144, 2.216627836227417]","[0.0, 0.0, -0.0, 0.0, -0.00015339808305725455, -0.19849711656570435]","[-0.0961303785443306, -4.632568836212158, -1.8831208944320679, -0.4867401719093323, 0.0022430422250181437, -0.5674896836280823]"
1584450550856106889,,1082368,,1584450550,855802310,'',"[shoulder_pan_joint, shoulder_lift_joint, elbow_joint, wrist_1_joint, wrist_2_joint,","[1.6235992908477783, -1.1008709112750452, 2.3075733184814453, -2.7610281149493616, -1.5669940153705042, 2.194289207458496]","[0.0, 0.0, -0.0, 0.0, -9.58738019107841e-05, -0.2018526941537857]","[-0.1007080152630806, -4.650879383087158, -1.8876044750213623, -0.4957123398780823, -0.0022430422250181437, -0.3970184624195099]"
1584450550968012071,,1082382,,1584450550,967760631,'',"[shoulder_pan_joint, shoulder_lift_joint, elbow_joint, wrist_1_joint, wrist_2_joint,","[1.6236112117767334, -1.1009071508990687, 2.307549476623535, -2.7610037962542933, -1.5669940153705042, 2.171926498413086]","[0.0, 0.0, -0.0, 0.0, -7.669904152862728e-05, -0.19997356832027435]","[-0.0503540076315403, -4.637146472930908, -1.9010553359985352, -0.5024414658546448, -0.006729126907885075, -0.5674896836280823]"
1584450551079970232,,1082396,,1584450551,79729483,'',"[shoulder_pan_joint, shoulder_lift_joint, elbow_joint, wrist_1_joint, wrist_2_joint,","[1.6236112117767334, -1.1008828322040003, 2.3075733184814453, -2.760979954396383, -1.5669940153705042, 2.1495165824890137]","[0.0, 0.0, -0.0, 0.0, -5.752428114647046e-05, -0.19702066481113434]","[-0.0732421949505806, -4.664612293243408, -1.8943299055099487, -0.4957123398780823, 0.0022430422250181437, -0.5024414658546448]"
1584450551192056783,,1082410,,1584450551,191781369,'',"[shoulder_pan_joint, shoulder_lift_joint, elbow_joint, wrist_1_joint, wrist_2_joint,","[1.623563289642334, -1.1008709112750452, 2.3075854778289795, -2.760991875325338, -1.5669577757464808, 2.127094268798828]","[0.0, 0.0, -0.0, 0.0, -3.834952076431364e-05, -0.1986505091190338]","[-0.1052856519818306, -4.522705554962158, -1.869670033454895, -0.4934692978858948, 0.006729126907885075, -0.5517883896827698]"
1584450551303998163,,1082424,,1584450551,303720544,'',"[shoulder_pan_joint, shoulder_lift_joint, elbow_joint, wrist_1_joint, wrist_2_joint,","[1.623623251914978, -1.1009190718280237, 2.307549476623535, -2.760991875325338, -1.566981617604391, 2.1046483516693115]","[0.0, 0.0, -0.0, 0.0, -3.834952076431364e-05, -0.20100900530815125]","[-0.0686645582318306, -4.595947742462158, -1.9010553359985352, -0.5001984238624573, 0.0, -0.4665527939796448]"
1584450551416027307,,1082438,,1584450551,415752053,'',"[shoulder_pan_joint, shoulder_lift_joint, elbow_joint, wrist_1_joint, wrist_2_joint,","[1.623623251914978, -1.1008709112750452, 2.3075613975524902, -2.7610037962542933, -1.5669940153705042, 2.0823097229003906]","[0.0, 0.0, -0.0, 0.0, -3.834952076431364e-05, -0.198784738779068]","[-0.0732421949505806, -4.650879383087158, -1.8965717554092407, -0.5091705918312073, -0.008972168900072575, -0.5271149277687073]"
1584450551527985888,,1082452,,1584450551,527694654,'',"[shoulder_pan_joint, shoulder_lift_joint, elbow_joint, wrist_1_joint, wrist_2_joint,","[1.6236112117767334, -1.1008947531329554, 2.3075854778289795, -2.7610037962542933, -1.5669577757464808, 2.0597801208496094]","[0.0, 0.0, -0.0, 0.0, -1.917476038215682e-05, -0.19976265728473663]","[-0.0640869215130806, -4.591370105743408, -1.8965717554092407, -0.5091705918312073, 0.0, -0.5024414658546448]"
1584450551640131329,,1082466,,1584450551,639799018,'',"[shoulder_pan_joint, shoulder_lift_joint, elbow_joint, wrist_1_joint, wrist_2_joint,","[1.623623251914978, -1.1008947531329554, 2.3075854778289795, -2.760991875325338, -1.566981617604391, 2.037501335144043]","[0.0, 0.0, -0.0, 0.0, -1.917476038215682e-05, -0.20181435346603394]","[-0.1007080152630806, -4.568481922149658, -1.8763954639434814, -0.5046845078468323, -0.004486084450036287, -0.4441223740577698]"
1584450551752060907,,1082480,,1584450551,751731732,'',"[shoulder_pan_joint, shoulder_lift_joint, elbow_joint, wrist_1_joint, wrist_2_joint,","[1.623623251914978, -1.1008589903460901, 2.30753755569458, -2.7610037962542933, -1.5670178572284144, 2.0151867866516113]","[0.0, 0.0, -0.0, 0.0, -1.917476038215682e-05, -0.20039542019367218]","[-0.0823974683880806, -4.568481922149658, -1.9077807664871216, -0.4867401719093323, -0.004486084450036287, -0.5540314316749573]"
1584450551864037683,,1082494,,1584450551,863731882,'',"[shoulder_pan_joint, shoulder_lift_joint, elbow_joint, wrist_1_joint, wrist_2_joint,","[1.6236112117767334, -1.1008465925799769, 2.3075613975524902, -2.7610281149493616, -1.566981617604391, 1.9925613403320312]","[0.0, 0.0, -0.0, 0.0, -1.917476038215682e-05, -0.20194856822490692]","[-0.0503540076315403, -4.573059558868408, -1.8808790445327759, -0.4957123398780823, -0.011215210892260075, -0.4306641221046448]"
1584450551976032332,,1082508,,1584450551,975742009,'',"[shoulder_pan_joint, shoulder_lift_joint, elbow_joint, wrist_1_joint, wrist_2_joint,","[1.6235992908477783, -1.1008828322040003, 2.3075733184814453, -2.760991875325338, -1.5669696966754358, 1.9702227115631104]","[0.0, 0.0, -0.0, 0.0, -1.917476038215682e-05, -0.19813279807567596]","[-0.0778198316693306, -4.655457019805908, -1.8988134860992432, -0.5091705918312073, -0.01570129580795765, -0.5854340195655823]"
1584450552087966498,,1082522,,1584450552,87675665,'',"[shoulder_pan_joint, shoulder_lift_joint, elbow_joint, wrist_1_joint, wrist_2_joint,","[1.6235992908477783, -1.1008346716510218, 2.3075973987579346, -2.7610161940204065, -1.5670059362994593, 1.9477885961532593]","[0.0, 0.0, -0.0, 0.0, -1.917476038215682e-05, -0.2008364349603653]","[-0.1144409328699112, -4.508972644805908, -1.9055389165878296, -0.5316010117530823, -0.0448608435690403, -0.4463654160499573]"
1584450552200120936,,1082536,,1584450552,199728984,'',"[shoulder_pan_joint, shoulder_lift_joint, elbow_joint, wrist_1_joint, wrist_2_joint,","[1.623623251914978, -1.1008227507220667, 2.3076093196868896, -2.760991875325338, -1.5669940153705042, 1.9253418445587158]","[0.0, 0.0, -0.0, 0.0, -1.917476038215682e-05, -0.19761507213115692]","[-0.0869751051068306, -4.664612293243408, -1.8943299055099487, -0.5585175156593323, -0.0291595496237278, -0.4867401719093323]"
1584450552311906675,,1082550,,1584450552,311656798,'',"[shoulder_pan_joint, shoulder_lift_joint, elbow_joint, wrist_1_joint, wrist_2_joint,","[1.6236112117767334, -1.1008589903460901, 2.3076093196868896, -2.7610161940204065, -1.566981617604391, 1.9029552936553955]","[0.0, 0.0, -0.0, 0.0, -1.917476038215682e-05, -0.19870804250240326]","[-0.0640869215130806, -4.522705554962158, -1.8988134860992432, -0.5921631455421448, -0.0358886756002903, -0.4643097519874573]"
1584450552423928595,,1082564,,1584450552,423640447,'',"[shoulder_pan_joint, shoulder_lift_joint, elbow_joint, wrist_1_joint, wrist_2_joint,","[1.623623251914978, -1.1008828322040003, 2.3075733184814453, -2.7610161940204065, -1.5669696966754358, 1.8805444240570068]","[0.0, 0.0, -0.0, 0.0, 0.0, -0.2008172571659088]","[-0.1007080152630806, -4.614258289337158, -1.914506196975708, -0.5697327256202698, -0.0403747595846653, -0.4687958359718323]"
1584450552536079957,,1082578,,1584450552,535717821,'',"[shoulder_pan_joint, shoulder_lift_joint, elbow_joint, wrist_1_joint, wrist_2_joint,","[1.6235992908477783, -1.1008828322040003, 2.307549476623535, -2.7610037962542933, -1.566981617604391, 1.858229398727417]","[0.0, 0.0, -0.0, 0.0, 0.0, -0.2008172571659088]","[-0.0640869215130806, -4.554749011993408, -1.9010553359985352, -0.5787048935890198, -0.0448608435690403, -0.4800110459327698]"
1584450552648026917,,1082592,,1584450552,647691561,'',"[shoulder_pan_joint, shoulder_lift_joint, elbow_joint, wrist_1_joint, wrist_2_joint,","[1.6236112117767334, -1.1008828322040003, 2.3075733184814453, -2.760991875325338, -1.5669940153705042, 1.835770606994629]","[0.0, 0.0, -0.0, 0.0, 0.0, -0.2004912942647934]","[-0.0732421949505806, -4.646301746368408, -1.8898463249206543, -0.5742188096046448, -0.0605621412396431, -0.4127197563648224]"
1584450552760004455,,1082606,,1584450552,759631358,'',"[shoulder_pan_joint, shoulder_lift_joint, elbow_joint, wrist_1_joint, wrist_2_joint,","[1.6236112117767334, -1.1008709112750452, 2.3075733184814453, -2.7610281149493616, -1.5669940153705042, 1.8133713006973267]","[0.0, 0.0, -0.0, 0.0, 0.0, -0.20006944239139557]","[-0.0915527418255806, -4.627991199493408, -1.8853626251220703, -0.5787048935890198, -0.0740203931927681, -0.6101074814796448]"
1584450552871900189,,1082620,,1584450552,871594738,'',"[shoulder_pan_joint, shoulder_lift_joint, elbow_joint, wrist_1_joint, wrist_2_joint,","[1.623623251914978, -1.1008465925799769, 2.3076093196868896, -2.7610037962542933, -1.5669940153705042, 1.790984034538269]","[0.0, 0.0, -0.0, 0.0, 0.0, -0.2032141089439392]","[-0.0915527418255806, -4.559326648712158, -1.9010553359985352, -0.5787048935890198, -0.0605621412396431, -0.4486084580421448]"
1584450552983914866,,1082634,,1584450552,983637728,'',"[shoulder_pan_joint, shoulder_lift_joint, elbow_joint, wrist_1_joint, wrist_2_joint,","[1.6236112117767334, -1.1008709112750452, 2.3075854778289795, -2.7610037962542933, -1.566981617604391, 1.7686446905136108]","[0.0, 0.0, -0.0, 0.0, 0.0, -0.19976265728473663]","[-0.0595092847943306, -4.550171375274658, -1.8898463249206543, -0.5854340195655823, -0.0695343092083931, -0.5876770615577698]"
1584450553096015693,,1082648,,1584450553,95708760,'',"[shoulder_pan_joint, shoulder_lift_joint, elbow_joint, wrist_1_joint, wrist_2_joint,","[1.6235992908477783, -1.1008709112750452, 2.3075733184814453, -2.7610161940204065, -1.5669577757464808, 1.7461248636245728]","[0.0, 0.0, -0.0, 0.0, 0.0, -0.1994558572769165]","[-0.0778198316693306, -4.545593738555908, -1.9055389165878296, -0.5809479355812073, -0.0605621412396431, -0.4575806260108948]"
1584450553208006164,,1082662,,1584450553,207681769,'',"[shoulder_pan_joint, shoulder_lift_joint, elbow_joint, wrist_1_joint, wrist_2_joint,","[1.623623251914978, -1.1008709112750452, 2.3075854778289795, -2.7610281149493616, -1.5669696966754358, 1.7315194606781006]","[0.0, 0.0, -0.0, 0.0, 0.0, -0.04939418286085129]","[-0.0778198316693306, -4.573059558868408, -1.9010553359985352, -0.5719757676124573, -0.0717773512005806, -0.3902893364429474]"
1584450553320034797,,1082676,,1584450553,319596609,'',"[shoulder_pan_joint, shoulder_lift_joint, elbow_joint, wrist_1_joint, wrist_2_joint,","[1.6235992908477783, -1.1008465925799769, 2.3075854778289795, -2.7610400358783167, -1.5670059362994593, 1.731028437614441]","[0.0, 0.0, -0.0, 0.0, 0.0, 0.001898301299661398]","[-0.0732421949505806, -4.531860828399658, -1.8943299055099487, -0.5944061875343323, -0.0807495191693306, -0.008972168900072575]"
1584450553431894705,,1082690,,1584450553,431593132,'',"[shoulder_pan_joint, shoulder_lift_joint, elbow_joint, wrist_1_joint, wrist_2_joint,","[1.6236112117767334, -1.1008828322040003, 2.3075733184814453, -2.7610161940204065, -1.566981617604391, 1.7312321662902832]","[0.0, 0.0, -0.0, 0.0, 0.0, 0.000997087568975985]","[-0.0823974683880806, -4.627991199493408, -1.8808790445327759, -0.5473023056983948, -0.0717773512005806, -0.008972168900072575]"
1584450553543920522,,1082704,,1584450553,543626303,'',"[shoulder_pan_joint, shoulder_lift_joint, elbow_joint, wrist_1_joint, wrist_2_joint,","[1.6235992908477783, -1.1008709112750452, 2.3075733184814453, -2.760991875325338, -1.5669940153705042, 1.7312321662902832]","[0.0, 0.0, -0.0, 0.0, 0.0, 0.00023009712458588183]","[-0.0549316480755806, -4.595947742462158, -1.9100226163864136, -0.5921631455421448, -0.0897216871380806, 0.0]"
1584450553655967620,,1082718,,1584450553,655601015,'',"[shoulder_pan_joint, shoulder_lift_joint, elbow_joint, wrist_1_joint, wrist_2_joint,","[1.6235872507095337, -1.1008828322040003, 2.3076093196868896, -2.7610161940204065, -1.566981617604391, 1.7312321662902832]","[0.0, 0.0, -0.0, 0.0, 0.0, 0.00013422331539914012]","[-0.0915527418255806, -4.431152820587158, -1.8965717554092407, -0.5831909775733948, -0.0829925611615181, 0.0]"
1584450553767950286,,1082732,,1584450553,767581087,'',"[shoulder_pan_joint, shoulder_lift_joint, elbow_joint, wrist_1_joint, wrist_2_joint,","[1.6235992908477783, -1.1008828322040003, 2.3075733184814453, -2.7610281149493616, -1.5670178572284144, 1.7312442064285278]","[0.0, 0.0, -0.0, 0.0, 0.0, 7.669904152862728e-05]","[-0.0549316480755806, -4.563904285430908, -1.8898463249206543, -0.5876770615577698, -0.0874786451458931, 0.0]"
1584450553879846622,,1082746,,1584450553,879553164,'',"[shoulder_pan_joint, shoulder_lift_joint, elbow_joint, wrist_1_joint, wrist_2_joint,","[1.623623251914978, -1.1008709112750452, 2.307549476623535, -2.7610161940204065, -1.5669940153705042, 1.731256127357483]","[0.0, 0.0, -0.0, 0.0, 0.0, 5.752428114647046e-05]","[-0.0549316480755806, -4.508972644805908, -1.8965717554092407, -0.5988922715187073, -0.0897216871380806, -0.004486084450036287]"
1584450553991976805,,1082760,,1584450553,991653040,'',"[shoulder_pan_joint, shoulder_lift_joint, elbow_joint, wrist_1_joint, wrist_2_joint,","[1.6236472129821777, -1.1008947531329554, 2.3075854778289795, -2.7610161940204065, -1.5669940153705042, 1.7312442064285278]","[0.0, 0.0, -0.0, 0.0, 0.0, 5.752428114647046e-05]","[-0.0411987341940403, -4.650879383087158, -1.8988134860992432, -0.5988922715187073, -0.0829925611615181, 0.0]"
1584450554103879893,,1082774,,1584450554,103576175,'',"[shoulder_pan_joint, shoulder_lift_joint, elbow_joint, wrist_1_joint, wrist_2_joint,","[1.6236112117767334, -1.1008709112750452, 2.3075613975524902, -2.7610161940204065, -1.5669940153705042, 1.7312321662902832]","[0.0, 0.0, -0.0, 0.0, 0.0, 3.834952076431364e-05]","[-0.0869751051068306, -4.623413562774658, -1.8898463249206543, -0.5921631455421448, -0.0740203931927681, 0.0]"
1584450554215872488,,1082788,,1584450554,215575763,'',"[shoulder_pan_joint, shoulder_lift_joint, elbow_joint, wrist_1_joint, wrist_2_joint,","[1.6235992908477783, -1.1008465925799769, 2.3075613975524902, -2.7610161940204065, -1.5670059362994593, 1.7312202453613281]","[0.0, 0.0, -0.0, 0.0, 0.0, 3.834952076431364e-05]","[-0.0549316480755806, -4.531860828399658, -1.9010553359985352, -0.5854340195655823, -0.0852356031537056, 0.0]"
1584450554327940514,,1082802,,1584450554,327572828,'',"[shoulder_pan_joint, shoulder_lift_joint, elbow_joint, wrist_1_joint, wrist_2_joint,","[1.623635172843933, -1.1008709112750452, 2.3075973987579346, -2.7610037962542933, -1.566981617604391, 1.7312082052230835]","[0.0, 0.0, -0.0, 0.0, 0.0, 3.834952076431364e-05]","[-0.0732421949505806, -4.618835926055908, -1.8965717554092407, -0.5831909775733948, -0.0740203931927681, 0.0022430422250181437]"
1584450554439993613,,1082816,,1584450554,439568669,'',"[shoulder_pan_joint, shoulder_lift_joint, elbow_joint, wrist_1_joint, wrist_2_joint,","[1.6236112117767334, -1.1008947531329554, 2.3075733184814453, -2.7610161940204065, -1.5669696966754358, 1.7312321662902832]","[0.0, 0.0, -0.0, 0.0, 0.0, 3.834952076431364e-05]","[-0.0595092847943306, -4.586792469024658, -1.8876044750213623, -0.5876770615577698, -0.0807495191693306, 0.0]"
1584450554551851777,,1082830,,1584450554,551552648,'',"[shoulder_pan_joint, shoulder_lift_joint, elbow_joint, wrist_1_joint, wrist_2_joint,","[1.623635172843933, -1.1008709112750452, 2.3075973987579346, -2.7610400358783167, -1.5670178572284144, 1.7312202453613281]","[0.0, 0.0, -0.0, 0.0, 0.0, 3.834952076431364e-05]","[-0.0732421949505806, -4.545593738555908, -1.8965717554092407, -0.5854340195655823, -0.0807495191693306, -0.004486084450036287]"
1584450554663882654,,1082844,,1584450554,663550894,'',"[shoulder_pan_joint, shoulder_lift_joint, elbow_joint, wrist_1_joint, wrist_2_joint,","[1.623635172843933, -1.1008709112750452, 2.307549476623535, -2.760991875325338, -1.5669940153705042, 1.731256127357483]","[0.0, 0.0, -0.0, 0.0, 0.0, 3.834952076431364e-05]","[-0.0686645582318306, -4.660034656524658, -1.8988134860992432, -0.5944061875343323, -0.0807495191693306, 0.0022430422250181437]"
1584450554775877483,,1082858,,1584450554,775549080,'',"[shoulder_pan_joint, shoulder_lift_joint, elbow_joint, wrist_1_joint, wrist_2_joint,","[1.623623251914978, -1.1008709112750452, 2.3075733184814453, -2.7610400358783167, -1.566981617604391, 1.7312082052230835]","[0.0, 0.0, -0.0, 0.0, 0.0, 3.834952076431364e-05]","[-0.0640869215130806, -4.536438465118408, -1.8831208944320679, -0.5854340195655823, -0.0874786451458931, -0.0022430422250181437]"
1584450554887804696,,1082872,,1584450554,887501209,'',"[shoulder_pan_joint, shoulder_lift_joint, elbow_joint, wrist_1_joint, wrist_2_joint,","[1.6235992908477783, -1.1008709112750452, 2.3075733184814453, -2.7610161940204065, -1.5670059362994593, 1.731256127357483]","[0.0, 0.0, -0.0, 0.0, 0.0, 3.834952076431364e-05]","[-0.0823974683880806, -4.724121570587158, -1.8719117641448975, -0.5630035996437073, -0.0807495191693306, -0.004486084450036287]"
1584450554999947162,,1082886,,1584450554,999559167,'',"[shoulder_pan_joint, shoulder_lift_joint, elbow_joint, wrist_1_joint, wrist_2_joint,","[1.6236472129821777, -1.1009071508990687, 2.3075733184814453, -2.7610400358783167, -1.566981617604391, 1.7297112941741943]","[0.0, 0.0, -0.0, 0.0, 0.0, -0.051062386482954025]","[-0.0778198316693306, -4.573059558868408, -1.8943299055099487, -0.5809479355812073, -0.0852356031537056, -0.3454284965991974]"
1584450555111890225,,1082900,,1584450555,111580967,'',"[shoulder_pan_joint, shoulder_lift_joint, elbow_joint, wrist_1_joint, wrist_2_joint,","[1.6236112117767334, -1.1008709112750452, 2.3075733184814453, -2.760979954396383, -1.5670059362994593, 1.7138004302978516]","[0.0, 0.0, -0.0, 0.0, 0.0, -0.20336750149726868]","[-0.0503540076315403, -4.591370105743408, -1.8943299055099487, -0.5764618515968323, -0.0740203931927681, -0.4665527939796448]"
1584450555223823419,,1082914,,1584450555,223537986,'',"[shoulder_pan_joint, shoulder_lift_joint, elbow_joint, wrist_1_joint, wrist_2_joint,","[1.623623251914978, -1.1008709112750452, 2.3075733184814453, -2.7610037962542933, -1.5669940153705042, 1.6912086009979248]","[0.0, 0.0, -0.0, 0.0, 0.0, -0.19966678321361542]","[-0.0686645582318306, -4.518127918243408, -1.8920880556106567, -0.5854340195655823, -0.0740203931927681, -0.5428162217140198]"
1584450555335866088,,1082928,,1584450555,335548285,'',"[shoulder_pan_joint, shoulder_lift_joint, elbow_joint, wrist_1_joint, wrist_2_joint,","[1.623635172843933, -1.1008589903460901, 2.307525396347046, -2.760991875325338, -1.566981617604391, 1.6686887741088867]","[0.0, 0.0, -0.0, 0.0, 0.0, -0.2007022202014923]","[-0.0869751051068306, -4.641724109649658, -1.8898463249206543, -0.5876770615577698, -0.0785064771771431, -0.4710388779640198]"
1584450555448050221,,1082942,,1584450555,447582528,'',"[shoulder_pan_joint, shoulder_lift_joint, elbow_joint, wrist_1_joint, wrist_2_joint,","[1.6236472129821777, -1.1008828322040003, 2.3075733184814453, -2.761051956807272, -1.5669696966754358, 1.6462880373001099]","[0.0, 0.0, -0.0, 0.0, 0.0, -0.1984395980834961]","[-0.0732421949505806, -4.586792469024658, -1.8965717554092407, -0.5764618515968323, -0.0785064771771431, -0.5540314316749573]"
1584450555559858232,,1082956,,1584450555,559522725,'',"[shoulder_pan_joint, shoulder_lift_joint, elbow_joint, wrist_1_joint, wrist_2_joint,","[1.6236112117767334, -1.1008589903460901, 2.3075733184814453, -2.7610037962542933, -1.5669940153705042, 1.6241508722305298]","[0.0, 0.0, -0.0, 0.0, 0.0, -0.1715373992919922]","[-0.1098632961511612, -4.632568836212158, -1.8920880556106567, -0.5899201035499573, -0.0852356031537056, -0.5473023056983948]"
1584450555671883408,,1082970,,1584450555,671508869,'',"[shoulder_pan_joint, shoulder_lift_joint, elbow_joint, wrist_1_joint, wrist_2_joint,","[1.623623251914978, -1.1008709112750452, 2.3075854778289795, -2.7610281149493616, -1.5669940153705042, 1.6147758960723877]","[0.0, 0.0, -0.0, 0.0, 0.0, -0.004908738657832146]","[-0.0686645582318306, -4.527283191680908, -1.8876044750213623, -0.5944061875343323, -0.0785064771771431, -0.2018737941980362]"
1584450555783860785,,1082984,,1584450555,783493639,'',"[shoulder_pan_joint, shoulder_lift_joint, elbow_joint, wrist_1_joint, wrist_2_joint,","[1.623635172843933, -1.1008227507220667, 2.3075733184814453, -2.7610161940204065, -1.5669940153705042, 1.6150275468826294]","[0.0, 0.0, -0.0, 0.0, 0.0, 0.0027228158432990313]","[-0.0961303785443306, -4.577637195587158, -1.8808790445327759, -0.6011353135108948, -0.0829925611615181, 0.008972168900072575]"
1584450555895886723,,1082998,,1584450555,895565353,'',"[shoulder_pan_joint, shoulder_lift_joint, elbow_joint, wrist_1_joint, wrist_2_joint,","[1.623635172843933, -1.1008828322040003, 2.3076093196868896, -2.7610161940204065, -1.566981617604391, 1.6151829957962036]","[0.0, 0.0, -0.0, 0.0, 0.0, 0.0007861651829443872]","[-0.0961303785443306, -4.664612293243408, -1.8988134860992432, -0.5921631455421448, -0.0874786451458931, 0.0022430422250181437]"
1584450556007872516,,1083012,,1584450556,7507995,'',"[shoulder_pan_joint, shoulder_lift_joint, elbow_joint, wrist_1_joint, wrist_2_joint,","[1.6236112117767334, -1.1008828322040003, 2.3075854778289795, -2.7610281149493616, -1.5669696966754358, 1.6151949167251587]","[0.0, 0.0, -0.0, 0.0, 0.0, 0.0002109223569277674]","[-0.0778198316693306, -4.536438465118408, -1.8876044750213623, -0.5854340195655823, -0.0807495191693306, 0.0]"
1584450556119771676,,1083026,,1584450556,119505750,'',"[shoulder_pan_joint, shoulder_lift_joint, elbow_joint, wrist_1_joint, wrist_2_joint,","[1.6235992908477783, -1.1008828322040003, 2.3075973987579346, -2.7610037962542933, -1.5669940153705042, 1.615242838859558]","[0.0, 0.0, -0.0, 0.0, 0.0, 0.00011504856229294091]","[-0.1052856519818306, -4.573059558868408, -1.8920880556106567, -0.5674896836280823, -0.0740203931927681, 0.006729126907885075]"
1584450556231726321,,1083040,,1584450556,231489298,'',"[shoulder_pan_joint, shoulder_lift_joint, elbow_joint, wrist_1_joint, wrist_2_joint,","[1.6235992908477783, -1.1008709112750452, 2.3075733184814453, -2.7610037962542933, -1.566981617604391, 1.6152188777923584]","[0.0, 0.0, -0.0, 0.0, 0.0, 7.669904152862728e-05]","[-0.1007080152630806, -4.545593738555908, -1.8853626251220703, -0.5988922715187073, -0.0785064771771431, 0.0022430422250181437]"
1584450556343757909,,1083054,,1584450556,343486262,'',"[shoulder_pan_joint, shoulder_lift_joint, elbow_joint, wrist_1_joint, wrist_2_joint,","[1.623623251914978, -1.1008828322040003, 2.3075733184814453, -2.7610281149493616, -1.5670178572284144, 1.615230917930603]","[0.0, 0.0, -0.0, 0.0, 0.0, 5.752428114647046e-05]","[-0.1007080152630806, -4.531860828399658, -1.8831208944320679, -0.5787048935890198, -0.0919647291302681, 0.006729126907885075]"
1584450556455812290,,1083068,,1584450556,455487273,'',"[shoulder_pan_joint, shoulder_lift_joint, elbow_joint, wrist_1_joint, wrist_2_joint,","[1.623623251914978, -1.1008828322040003, 2.3075613975524902, -2.760956112538473, -1.566981617604391, 1.6151829957962036]","[0.0, 0.0, -0.0, 0.0, 0.0, 5.752428114647046e-05]","[-0.0595092847943306, -4.664612293243408, -1.8943299055099487, -0.5854340195655823, -0.0897216871380806, 0.006729126907885075]"
1584450556567726760,,1083082,,1584450556,567456024,'',"[shoulder_pan_joint, shoulder_lift_joint, elbow_joint, wrist_1_joint, wrist_2_joint,","[1.6236112117767334, -1.1008828322040003, 2.3075733184814453, -2.7610400358783167, -1.566981617604391, 1.6152069568634033]","[0.0, 0.0, -0.0, 0.0, 0.0, 3.834952076431364e-05]","[-0.0823974683880806, -4.536438465118408, -1.8943299055099487, -0.5944061875343323, -0.0807495191693306, 0.0022430422250181437]"
1584450556679710899,,1083096,,1584450556,679449140,'',"[shoulder_pan_joint, shoulder_lift_joint, elbow_joint, wrist_1_joint, wrist_2_joint,","[1.6236591339111328, -1.1008589903460901, 2.3075973987579346, -2.7610161940204065, -1.5670059362994593, 1.6152188777923584]","[0.0, 0.0, -0.0, 0.0, 0.0, 3.834952076431364e-05]","[-0.0823974683880806, -4.646301746368408, -1.8898463249206543, -0.5854340195655823, -0.0740203931927681, 0.0022430422250181437]"
1584450556791783684,,1083110,,1584450556,791452335,'',"[shoulder_pan_joint, shoulder_lift_joint, elbow_joint, wrist_1_joint, wrist_2_joint,","[1.623635172843933, -1.1008346716510218, 2.3075733184814453, -2.7610161940204065, -1.5670178572284144, 1.6152069568634033]","[0.0, 0.0, -0.0, 0.0, 0.0, 1.917476038215682e-05]","[-0.1007080152630806, -4.591370105743408, -1.8898463249206543, -0.5697327256202698, -0.0852356031537056, 0.004486084450036287]"
1584450556903874994,,1083124,,1584450556,903550167,'',"[shoulder_pan_joint, shoulder_lift_joint, elbow_joint, wrist_1_joint, wrist_2_joint,","[1.623623251914978, -1.1008709112750452, 2.3076093196868896, -2.7610161940204065, -1.5669940153705042, 1.615230917930603]","[0.0, 0.0, -0.0, 0.0, 0.0, 1.917476038215682e-05]","[-0.0823974683880806, -4.504395008087158, -1.8876044750213623, -0.5652466416358948, -0.0829925611615181, 0.0022430422250181437]"
1584450557015786899,,1083138,,1584450557,15527855,'',"[shoulder_pan_joint, shoulder_lift_joint, elbow_joint, wrist_1_joint, wrist_2_joint,","[1.6235992908477783, -1.1008709112750452, 2.3075733184814453, -2.7610037962542933, -1.5669577757464808, 1.615242838859558]","[0.0, 0.0, -0.0, 0.0, 0.0, 1.917476038215682e-05]","[-0.1098632961511612, -4.568481922149658, -1.9010553359985352, -0.5674896836280823, -0.0762634351849556, 0.006729126907885075]"
1584450557127758485,,1083152,,1584450557,127485435,'',"[shoulder_pan_joint, shoulder_lift_joint, elbow_joint, wrist_1_joint, wrist_2_joint,","[1.623623251914978, -1.1008589903460901, 2.3075854778289795, -2.760991875325338, -1.5670059362994593, 1.615230917930603]","[0.0, 0.0, -0.0, 0.0, 0.0, 1.917476038215682e-05]","[-0.0457763709127903, -4.637146472930908, -1.8943299055099487, -0.5944061875343323, -0.0807495191693306, 0.004486084450036287]"
1584450557239753295,,1083166,,1584450557,239444638,'',"[shoulder_pan_joint, shoulder_lift_joint, elbow_joint, wrist_1_joint, wrist_2_joint,","[1.623623251914978, -1.1008947531329554, 2.3075733184814453, -2.7610037962542933, -1.5669696966754358, 1.6152069568634033]","[0.0, 0.0, -0.0, 0.0, 0.0, 1.917476038215682e-05]","[-0.0549316480755806, -4.637146472930908, -1.8876044750213623, -0.5966492295265198, -0.0829925611615181, 0.004486084450036287]"
1584450557351759134,,1083180,,1584450557,351476937,'',"[shoulder_pan_joint, shoulder_lift_joint, elbow_joint, wrist_1_joint, wrist_2_joint,","[1.623635172843933, -1.1008828322040003, 2.307549476623535, -2.7610281149493616, -1.5669940153705042, 1.6152548789978027]","[0.0, 0.0, -0.0, 0.0, 0.0, 1.917476038215682e-05]","[-0.0732421949505806, -4.454041004180908, -1.8920880556106567, -0.5809479355812073, -0.0785064771771431, 0.006729126907885075]"
1584450557463762750,,1083194,,1584450557,463473009,'',"[shoulder_pan_joint, shoulder_lift_joint, elbow_joint, wrist_1_joint, wrist_2_joint,","[1.6236112117767334, -1.1008709112750452, 2.3075733184814453, -2.7610161940204065, -1.566981617604391, 1.6151949167251587]","[0.0, 0.0, -0.0, 0.0, 0.0, 1.917476038215682e-05]","[-0.0686645582318306, -4.531860828399658, -1.8876044750213623, -0.5854340195655823, -0.0874786451458931, 0.0]"
1584450557575686247,,1083208,,1584450557,575410151,'',"[shoulder_pan_joint, shoulder_lift_joint, elbow_joint, wrist_1_joint, wrist_2_joint,","[1.623635172843933, -1.1008828322040003, 2.3075854778289795, -2.7610281149493616, -1.5669940153705042, 1.6152188777923584]","[0.0, 0.0, -0.0, 0.0, 0.0, 1.917476038215682e-05]","[-0.1007080152630806, -4.536438465118408, -1.8786371946334839, -0.5876770615577698, -0.0829925611615181, 0.004486084450036287]"
1584450557687706744,,1083222,,1584450557,687420209,'',"[shoulder_pan_joint, shoulder_lift_joint, elbow_joint, wrist_1_joint, wrist_2_joint,","[1.623623251914978, -1.1008709112750452, 2.3075613975524902, -2.7610161940204065, -1.5670178572284144, 1.6152548789978027]","[0.0, 0.0, -0.0, 0.0, 0.0, 1.917476038215682e-05]","[-0.0366210974752903, -4.582214832305908, -1.9010553359985352, -0.5742188096046448, -0.0807495191693306, 0.0022430422250181437]"
1584450557799748000,,1083236,,1584450557,799480751,'',"[shoulder_pan_joint, shoulder_lift_joint, elbow_joint, wrist_1_joint, wrist_2_joint,","[1.6236112117767334, -1.1008589903460901, 2.3075854778289795, -2.7610161940204065, -1.5670178572284144, 1.6152188777923584]","[0.0, 0.0, -0.0, 0.0, 0.0, 0.0]","[-0.0869751051068306, -4.586792469024658, -1.8831208944320679, -0.5854340195655823, -0.0919647291302681, 0.006729126907885075]"
1584450557911806409,,1083250,,1584450557,911433743,'',"[shoulder_pan_joint, shoulder_lift_joint, elbow_joint, wrist_1_joint, wrist_2_joint,","[1.6235872507095337, -1.1008828322040003, 2.3075973987579346, -2.7610281149493616, -1.5669696966754358, 1.615242838859558]","[0.0, 0.0, -0.0, 0.0, 0.0, 0.0]","[-0.1007080152630806, -4.577637195587158, -1.8741536140441895, -0.5831909775733948, -0.0852356031537056, 0.0022430422250181437]"
1584450558023791711,,1083264,,1584450558,23478215,'',"[shoulder_pan_joint, shoulder_lift_joint, elbow_joint, wrist_1_joint, wrist_2_joint,","[1.6236112117767334, -1.1008346716510218, 2.3075854778289795, -2.7610281149493616, -1.566981617604391, 1.615242838859558]","[0.0, 0.0, -0.0, 0.0, 0.0, 0.0]","[-0.0640869215130806, -4.536438465118408, -1.8808790445327759, -0.5831909775733948, -0.0762634351849556, -0.0022430422250181437]"
1584450558135715517,,1083278,,1584450558,135395890,'',"[shoulder_pan_joint, shoulder_lift_joint, elbow_joint, wrist_1_joint, wrist_2_joint,","[1.623635172843933, -1.1008465925799769, 2.307549476623535, -2.7610400358783167, -1.5670178572284144, 1.615230917930603]","[0.0, 0.0, -0.0, 0.0, 0.0, 0.0]","[-0.0961303785443306, -4.600525379180908, -1.8853626251220703, -0.6011353135108948, -0.0807495191693306, 0.004486084450036287]"
1584450558247862271,,1083292,,1584450558,247431446,'',"[shoulder_pan_joint, shoulder_lift_joint, elbow_joint, wrist_1_joint, wrist_2_joint,","[1.623623251914978, -1.1008465925799769, 2.3075854778289795, -2.7610037962542933, -1.5670059362994593, 1.615230917930603]","[0.0, 0.0, -0.0, 0.0, 0.0, 0.0]","[-0.0503540076315403, -4.609680652618408, -1.8876044750213623, -0.5854340195655823, -0.0762634351849556, -0.02018737979233265]"
1584450558359694988,,1083306,,1584450558,359427077,'',"[shoulder_pan_joint, shoulder_lift_joint, elbow_joint, wrist_1_joint, wrist_2_joint,","[1.6236112117767334, -1.1008346716510218, 2.3075973987579346, -2.7610037962542933, -1.566981617604391, 1.6120461225509644]","[0.0, 0.0, -0.0, 0.0, 0.0, -0.08847234398126602]","[-0.1144409328699112, -4.637146472930908, -1.8876044750213623, -0.5966492295265198, -0.0829925611615181, -0.4665527939796448]"
1584450558471635515,,1083320,,1584450558,471380509,'',"[shoulder_pan_joint, shoulder_lift_joint, elbow_joint, wrist_1_joint, wrist_2_joint,","[1.6236112117767334, -1.1008709112750452, 2.3075854778289795, -2.7610400358783167, -1.5670178572284144, 1.592913269996643]","[0.0, 0.0, -0.0, 0.0, 0.0, -0.20279227197170258]","[-0.0778198316693306, -4.637146472930908, -1.8898463249206543, -0.5831909775733948, -0.0807495191693306, -0.5001984238624573]"
1584450558583661283,,1083334,,1584450558,583398823,'',"[shoulder_pan_joint, shoulder_lift_joint, elbow_joint, wrist_1_joint, wrist_2_joint,","[1.623635172843933, -1.1008828322040003, 2.3075613975524902, -2.7610037962542933, -1.5669696966754358, 1.5702368021011353]","[0.0, 0.0, -0.0, 0.0, 0.0, -0.20269639790058136]","[-0.0915527418255806, -4.573059558868408, -1.8853626251220703, -0.5697327256202698, -0.0852356031537056, -0.4844971299171448]"
1584450558695646785,,1083348,,1584450558,695388503,'',"[shoulder_pan_joint, shoulder_lift_joint, elbow_joint, wrist_1_joint, wrist_2_joint,","[1.6235753297805786, -1.1008589903460901, 2.3075973987579346, -2.7610037962542933, -1.5669696966754358, 1.5478229522705078]","[0.0, 0.0, -0.0, 0.0, 0.0, -0.19985853135585785]","[-0.0778198316693306, -4.563904285430908, -1.8988134860992432, -0.5719757676124573, -0.0807495191693306, -0.5921631455421448]"
1584450558807677121,,1083362,,1584450558,807404001,'',"[shoulder_pan_joint, shoulder_lift_joint, elbow_joint, wrist_1_joint, wrist_2_joint,","[1.6236112117767334, -1.1008947531329554, 2.3075613975524902, -2.7610037962542933, -1.5669696966754358, 1.525421142578125]","[0.0, 0.0, -0.0, 0.0, 0.0, -0.20121993124485016]","[-0.1098632961511612, -4.664612293243408, -1.8898463249206543, -0.5876770615577698, -0.0874786451458931, -0.4777680039405823]"
1584450558919616627,,1083376,,1584450558,919366140,'',"[shoulder_pan_joint, shoulder_lift_joint, elbow_joint, wrist_1_joint, wrist_2_joint,","[1.6236472129821777, -1.1008709112750452, 2.3075854778289795, -2.760979954396383, -1.5669577757464808, 1.5029828548431396]","[0.0, 0.0, -0.0, 0.0, 0.0, -0.20018449425697327]","[-0.0915527418255806, -4.650879383087158, -1.8920880556106567, -0.5921631455421448, -0.0829925611615181, -0.6011353135108948]"
1584450559031650339,,1083390,,1584450559,31401785,'',"[shoulder_pan_joint, shoulder_lift_joint, elbow_joint, wrist_1_joint, wrist_2_joint,","[1.6236112117767334, -1.1008589903460901, 2.3075733184814453, -2.760991875325338, -1.5669940153705042, 1.4805922508239746]","[0.0, 0.0, -0.0, 0.0, 0.0, -0.1994558572769165]","[-0.1419067531824112, -4.527283191680908, -1.8920880556106567, -0.5764618515968323, -0.0785064771771431, -0.5136566758155823]"
1584450559143651822,,1083404,,1584450559,143399009,'',"[shoulder_pan_joint, shoulder_lift_joint, elbow_joint, wrist_1_joint, wrist_2_joint,","[1.6235992908477783, -1.1008947531329554, 2.3075733184814453, -2.760979954396383, -1.5669577757464808, 1.4582730531692505]","[0.0, 0.0, -0.0, 0.0, 0.0, -0.196617990732193]","[-0.0595092847943306, -4.609680652618408, -1.8898463249206543, -0.5876770615577698, -0.0874786451458931, -0.6235657334327698]"
1584450559255649777,,1083418,,1584450559,255397836,'',"[shoulder_pan_joint, shoulder_lift_joint, elbow_joint, wrist_1_joint, wrist_2_joint,","[1.623635172843933, -1.1008828322040003, 2.3075973987579346, -2.7610161940204065, -1.5669696966754358, 1.4358577728271484]","[0.0, 0.0, -0.0, 0.0, 0.0, -0.20146921277046204]","[-0.1235962063074112, -4.531860828399658, -1.8920880556106567, -0.5944061875343323, -0.0919647291302681, -0.4777680039405823]"
1584450559367604151,,1083432,,1584450559,367360045,'',"[shoulder_pan_joint, shoulder_lift_joint, elbow_joint, wrist_1_joint, wrist_2_joint,","[1.6236112117767334, -1.1008465925799769, 2.3075733184814453, -2.7610281149493616, -1.5669696966754358, 1.4134299755096436]","[0.0, 0.0, -0.0, 0.0, 0.0, -0.19834372401237488]","[-0.0686645582318306, -4.559326648712158, -1.8831208944320679, -0.5921631455421448, -0.0964508131146431, -0.5540314316749573]"
1584450559479643283,,1083446,,1584450559,479389700,'',"[shoulder_pan_joint, shoulder_lift_joint, elbow_joint, wrist_1_joint, wrist_2_joint,","[1.6236112117767334, -1.1008828322040003, 2.3075733184814453, -2.7610037962542933, -1.5670059362994593, 1.3911700248718262]","[0.0, 0.0, -0.0, 0.0, 0.0, -0.2018526941537857]","[-0.0686645582318306, -4.490662097930908, -1.8965717554092407, -0.5966492295265198, -0.1054229810833931, -0.5069275498390198]"
1584450559591623946,,1083460,,1584450559,591346388,'',"[shoulder_pan_joint, shoulder_lift_joint, elbow_joint, wrist_1_joint, wrist_2_joint,","[1.6236112117767334, -1.1008709112750452, 2.3075733184814453, -2.7610037962542933, -1.566981617604391, 1.368550181388855]","[0.0, 0.0, -0.0, 0.0, 0.0, -0.20028036832809448]","[-0.1007080152630806, -4.650879383087158, -1.8898463249206543, -0.5944061875343323, -0.1323394924402237, -0.5001984238624573]"
1584450559703705538,,1083474,,1584450559,703407331,'',"[shoulder_pan_joint, shoulder_lift_joint, elbow_joint, wrist_1_joint, wrist_2_joint,","[1.6236472129821777, -1.1008589903460901, 2.3075854778289795, -2.7610161940204065, -1.566981617604391, 1.3462891578674316]","[0.0, 0.0, -0.0, 0.0, 0.0, -0.1993599832057953]","[-0.0732421949505806, -4.550171375274658, -1.8943299055099487, -0.5876770615577698, -0.1390686184167862, -0.6616974472999573]"
1584450559815586665,,1083488,,1584450559,815350975,'',"[shoulder_pan_joint, shoulder_lift_joint, elbow_joint, wrist_1_joint, wrist_2_joint,","[1.6236112117767334, -1.1008828322040003, 2.3075973987579346, -2.760979954396383, -1.5669940153705042, 1.3239318132400513]","[0.0, 0.0, -0.0, 0.0, 0.0, -0.20279227197170258]","[-0.0595092847943306, -4.591370105743408, -1.9010553359985352, -0.5764618515968323, -0.1368255764245987, -0.4373932480812073]"
1584450559927731795,,1083502,,1584450559,927446242,'',"[shoulder_pan_joint, shoulder_lift_joint, elbow_joint, wrist_1_joint, wrist_2_joint,","[1.623623251914978, -1.1009071508990687, 2.3075973987579346, -2.7610037962542933, -1.5669940153705042, 1.301478624343872]","[0.0, 0.0, -0.0, 0.0, 0.0, -0.1993599832057953]","[-0.0366210974752903, -4.614258289337158, -1.8943299055099487, -0.5674896836280823, -0.1345825344324112, -0.5854340195655823]"
1584450560039750910,,1083516,,1584450560,39372093,'',"[shoulder_pan_joint, shoulder_lift_joint, elbow_joint, wrist_1_joint, wrist_2_joint,","[1.623635172843933, -1.1008709112750452, 2.3075733184814453, -2.7610161940204065, -1.5670178572284144, 1.2790966033935547]","[0.0, 0.0, -0.0, 0.0, 0.0, -0.19870804250240326]","[-0.0595092847943306, -4.595947742462158, -1.8943299055099487, -0.6078644394874573, -0.1211242824792862, -0.4979553818702698]"
1584450560151771178,,1083530,,1584450560,151424240,'',"[shoulder_pan_joint, shoulder_lift_joint, elbow_joint, wrist_1_joint, wrist_2_joint,","[1.6235872507095337, -1.1008709112750452, 2.3075613975524902, -2.760991875325338, -1.5670059362994593, 1.2565706968307495]","[0.0, 0.0, -0.0, 0.0, 0.0, -0.19863134622573853]","[-0.0732421949505806, -4.650879383087158, -1.8876044750213623, -0.5787048935890198, -0.1435547024011612, -0.5383301377296448]"
1584450560263842279,,1083544,,1584450560,263378062,'',"[shoulder_pan_joint, shoulder_lift_joint, elbow_joint, wrist_1_joint, wrist_2_joint,","[1.6236112117767334, -1.1008589903460901, 2.3075613975524902, -2.760991875325338, -1.566981617604391, 1.2342718839645386]","[0.0, 0.0, -0.0, 0.0, 0.0, -0.2004912942647934]","[-0.0640869215130806, -4.563904285430908, -1.8831208944320679, -0.5831909775733948, -0.1390686184167862, -0.5316010117530823]"
1584450560375760526,,1083558,,1584450560,375364536,'',"[shoulder_pan_joint, shoulder_lift_joint, elbow_joint, wrist_1_joint, wrist_2_joint,","[1.6235872507095337, -1.1008947531329554, 2.3075733184814453, -2.7610037962542933, -1.5669940153705042, 1.2118650674819946]","[0.0, 0.0, -0.0, 0.0, 0.0, -0.19895730912685394]","[-0.0732421949505806, -4.600525379180908, -1.8965717554092407, -0.5921631455421448, -0.1480407863855362, -0.5024414658546448]"
1584450560487796994,,1083572,,1584450560,487388380,'',"[shoulder_pan_joint, shoulder_lift_joint, elbow_joint, wrist_1_joint, wrist_2_joint,","[1.6235872507095337, -1.1008947531329554, 2.3076093196868896, -2.7610281149493616, -1.5670178572284144, 1.1895174980163574]","[0.0, 0.0, -0.0, 0.0, 0.0, -0.20215949416160583]","[-0.0915527418255806, -4.605103015899658, -1.8943299055099487, -0.5787048935890198, -0.1390686184167862, -0.5697327256202698]"
1584450560599863176,,1083586,,1584450560,599417784,'',"[shoulder_pan_joint, shoulder_lift_joint, elbow_joint, wrist_1_joint, wrist_2_joint,","[1.623635172843933, -1.1008589903460901, 2.3075973987579346, -2.760979954396383, -1.5670059362994593, 1.1670137643814087]","[0.0, 0.0, -0.0, 0.0, 0.0, -0.20075973868370056]","[-0.0549316480755806, -4.568481922149658, -1.8920880556106567, -0.5764618515968323, -0.1390686184167862, -0.4373932480812073]"
1584450560711763028,,1083600,,1584450560,711374442,'',"[shoulder_pan_joint, shoulder_lift_joint, elbow_joint, wrist_1_joint, wrist_2_joint,","[1.6236112117767334, -1.1008465925799769, 2.3075973987579346, -2.7610037962542933, -1.566981617604391, 1.1536356210708618]","[0.0, 0.0, -0.0, 0.0, 0.0, -0.037160687148571014]","[-0.0778198316693306, -4.600525379180908, -1.869670033454895, -0.5876770615577698, -0.1390686184167862, -0.3925323784351349]"
1584450560823843849,,1083614,,1584450560,823337303,'',"[shoulder_pan_joint, shoulder_lift_joint, elbow_joint, wrist_1_joint, wrist_2_joint,","[1.6236112117767334, -1.1008589903460901, 2.3075733184814453, -2.760979954396383, -1.566981617604391, 1.1533843278884888]","[0.0, 0.0, -0.0, 0.0, 0.0, 0.0007478156476281583]","[-0.1098632961511612, -4.595947742462158, -1.8719117641448975, -0.5854340195655823, -0.1368255764245987, 0.008972168900072575]"
1584450560935643954,,1083628,,1584450560,935326501,'',"[shoulder_pan_joint, shoulder_lift_joint, elbow_joint, wrist_1_joint, wrist_2_joint,","[1.623623251914978, -1.1008828322040003, 2.3075854778289795, -2.7610161940204065, -1.566981617604391, 1.1536235809326172]","[0.0, 0.0, -0.0, 0.0, 0.0, 0.0038349521346390247]","[-0.0823974683880806, -4.568481922149658, -1.8876044750213623, -0.5674896836280823, -0.1413116604089737, 0.0762634351849556]"
1584450561047679920,,1083642,,1584450561,47303057,'',"[shoulder_pan_joint, shoulder_lift_joint, elbow_joint, wrist_1_joint, wrist_2_joint,","[1.6236112117767334, -1.1008828322040003, 2.3075733184814453, -2.760979954396383, -1.5669940153705042, 1.153647541999817]","[0.0, 0.0, -0.0, 0.0, 0.0, 0.0005368932615965605]","[-0.0823974683880806, -4.673767566680908, -1.8943299055099487, -0.5764618515968323, -0.1435547024011612, 0.0448608435690403]"
1584450561159761633,,1083656,,1584450561,159358881,'',"[shoulder_pan_joint, shoulder_lift_joint, elbow_joint, wrist_1_joint, wrist_2_joint,","[1.623623251914978, -1.1008589903460901, 2.3075854778289795, -2.7610161940204065, -1.5669696966754358, 1.1536715030670166]","[0.0, 0.0, -0.0, 0.0, 0.0, 0.0001917476038215682]","[-0.0732421949505806, -4.577637195587158, -1.8965717554092407, -0.6078644394874573, -0.1368255764245987, 0.0538330152630806]"
1584450561271707020,,1083670,,1584450561,271282537,'',"[shoulder_pan_joint, shoulder_lift_joint, elbow_joint, wrist_1_joint, wrist_2_joint,","[1.623623251914978, -1.1008828322040003, 2.3075733184814453, -2.7610281149493616, -1.5670178572284144, 1.1536595821380615]","[0.0, 0.0, -0.0, 0.0, 0.0, 0.00011504856229294091]","[-0.0823974683880806, -4.687500476837158, -1.8741536140441895, -0.5944061875343323, -0.1435547024011612, 0.0650482252240181]"
1584450561383716707,,1083684,,1584450561,383281865,'',"[shoulder_pan_joint, shoulder_lift_joint, elbow_joint, wrist_1_joint, wrist_2_joint,","[1.6236112117767334, -1.1008828322040003, 2.307549476623535, -2.7610281149493616, -1.566981617604391, 1.1536715030670166]","[0.0, 0.0, -0.0, 0.0, 0.0, 7.669904152862728e-05]","[-0.1052856519818306, -4.609680652618408, -1.8920880556106567, -0.5674896836280823, -0.1390686184167862, 0.0426178015768528]"
1584450561495832162,,1083698,,1584450561,495285150,'',"[shoulder_pan_joint, shoulder_lift_joint, elbow_joint, wrist_1_joint, wrist_2_joint,","[1.6235992908477783, -1.1008589903460901, 2.3075854778289795, -2.7610037962542933, -1.566981617604391, 1.1536835432052612]","[0.0, 0.0, -0.0, 0.0, 0.0, 5.752428114647046e-05]","[-0.1190185695886612, -4.582214832305908, -1.8876044750213623, -0.5831909775733948, -0.1435547024011612, 0.0515899695456028]"
1584450561607824757,,1083712,,1584450561,607341645,'',"[shoulder_pan_joint, shoulder_lift_joint, elbow_joint, wrist_1_joint, wrist_2_joint,","[1.623623251914978, -1.1008709112750452, 2.3075733184814453, -2.7610161940204065, -1.5670059362994593, 1.1536835432052612]","[0.0, 0.0, -0.0, 0.0, 0.0, 3.834952076431364e-05]","[-0.0640869215130806, -4.641724109649658, -1.8808790445327759, -0.5764618515968323, -0.1368255764245987, 0.0538330152630806]"
1584450561719665529,,1083726,,1584450561,719251426,'',"[shoulder_pan_joint, shoulder_lift_joint, elbow_joint, wrist_1_joint, wrist_2_joint,","[1.6235753297805786, -1.1008828322040003, 2.3075854778289795, -2.760991875325338, -1.5670178572284144, 1.1536954641342163]","[0.0, 0.0, -0.0, 0.0, 0.0, 3.834952076431364e-05]","[-0.0732421949505806, -4.541016101837158, -1.8898463249206543, -0.5697327256202698, -0.1323394924402237, 0.0471038855612278]"
1584450561831641985,,1083740,,1584450561,831288274,'',"[shoulder_pan_joint, shoulder_lift_joint, elbow_joint, wrist_1_joint, wrist_2_joint,","[1.623635172843933, -1.1008947531329554, 2.3075973987579346, -2.7610281149493616, -1.566981617604391, 1.1536835432052612]","[0.0, 0.0, -0.0, 0.0, 0.0, 3.834952076431364e-05]","[-0.1144409328699112, -4.577637195587158, -1.8920880556106567, -0.5966492295265198, -0.1345825344324112, 0.0493469275534153]"
1584450561943689162,,1083754,,1584450561,943273756,'',"[shoulder_pan_joint, shoulder_lift_joint, elbow_joint, wrist_1_joint, wrist_2_joint,","[1.6236112117767334, -1.1008828322040003, 2.3075973987579346, -2.7610161940204065, -1.5669940153705042, 1.1536835432052612]","[0.0, 0.0, -0.0, 0.0, 0.0, 1.917476038215682e-05]","[-0.0686645582318306, -4.591370105743408, -1.8831208944320679, -0.5921631455421448, -0.1323394924402237, 0.0605621412396431]"
1584450562055712505,,1083768,,1584450562,55251053,'',"[shoulder_pan_joint, shoulder_lift_joint, elbow_joint, wrist_1_joint, wrist_2_joint,","[1.623623251914978, -1.1009190718280237, 2.3075854778289795, -2.7610037962542933, -1.5669940153705042, 1.1536835432052612]","[0.0, 0.0, -0.0, 0.0, 0.0, 1.917476038215682e-05]","[-0.0915527418255806, -4.536438465118408, -1.8786371946334839, -0.5944061875343323, -0.1368255764245987, 0.0493469275534153]"
1584450562167754102,,1083782,,1584450562,167265840,'',"[shoulder_pan_joint, shoulder_lift_joint, elbow_joint, wrist_1_joint, wrist_2_joint,","[1.6236112117767334, -1.1009071508990687, 2.3075733184814453, -2.7610281149493616, -1.566981617604391, 1.1536954641342163]","[0.0, 0.0, -0.0, 0.0, 0.0, 1.917476038215682e-05]","[-0.0823974683880806, -4.595947742462158, -1.8920880556106567, -0.5899201035499573, -0.1368255764245987, 0.0403747595846653]"
1584450562279672578,,1083796,,1584450562,279239169,'',"[shoulder_pan_joint, shoulder_lift_joint, elbow_joint, wrist_1_joint, wrist_2_joint,","[1.623635172843933, -1.1008709112750452, 2.3075854778289795, -2.7610037962542933, -1.5670178572284144, 1.1536835432052612]","[0.0, 0.0, -0.0, 0.0, 0.0, 1.917476038215682e-05]","[-0.0823974683880806, -4.586792469024658, -1.8920880556106567, -0.5876770615577698, -0.1300964504480362, 0.0448608435690403]"
1584450562391655276,,1083810,,1584450562,391238988,'',"[shoulder_pan_joint, shoulder_lift_joint, elbow_joint, wrist_1_joint, wrist_2_joint,","[1.6236472129821777, -1.1008947531329554, 2.3075854778289795, -2.7610161940204065, -1.5670178572284144, 1.1536835432052612]","[0.0, 0.0, -0.0, 0.0, 0.0, 1.917476038215682e-05]","[-0.0915527418255806, -4.495239734649658, -1.8786371946334839, -0.5585175156593323, -0.1368255764245987, 0.0605621412396431]"
1584450562503714866,,1083824,,1584450562,503270236,'',"[shoulder_pan_joint, shoulder_lift_joint, elbow_joint, wrist_1_joint, wrist_2_joint,","[1.6236112117767334, -1.1008589903460901, 2.3075854778289795, -2.760991875325338, -1.5670059362994593, 1.1536954641342163]","[0.0, 0.0, -0.0, 0.0, 0.0, 1.917476038215682e-05]","[-0.0503540076315403, -4.573059558868408, -1.8786371946334839, -0.5742188096046448, -0.1278534084558487, 0.0471038855612278]"
1584450562615705317,,1083838,,1584450562,615259765,'',"[shoulder_pan_joint, shoulder_lift_joint, elbow_joint, wrist_1_joint, wrist_2_joint,","[1.6236112117767334, -1.1008589903460901, 2.3075613975524902, -2.7610037962542933, -1.566981617604391, 1.153707504272461]","[0.0, 0.0, -0.0, 0.0, 0.0, 1.917476038215682e-05]","[-0.0640869215130806, -4.595947742462158, -1.8988134860992432, -0.5831909775733948, -0.1345825344324112, 0.0448608435690403]"
1584450562727577197,,1083852,,1584450562,727208489,'',"[shoulder_pan_joint, shoulder_lift_joint, elbow_joint, wrist_1_joint, wrist_2_joint,","[1.6235992908477783, -1.1008709112750452, 2.30753755569458, -2.7610281149493616, -1.5669458548175257, 1.1536835432052612]","[0.0, 0.0, -0.0, 0.0, 0.0, 1.917476038215682e-05]","[-0.0778198316693306, -4.627991199493408, -1.8876044750213623, -0.5809479355812073, -0.1345825344324112, 0.0448608435690403]"
1584450562839643410,,1083866,,1584450562,839257660,'',"[shoulder_pan_joint, shoulder_lift_joint, elbow_joint, wrist_1_joint, wrist_2_joint,","[1.623623251914978, -1.1008589903460901, 2.3075613975524902, -2.7610161940204065, -1.5670059362994593, 1.1536715030670166]","[0.0, 0.0, -0.0, 0.0, 0.0, 1.917476038215682e-05]","[-0.0686645582318306, -4.586792469024658, -1.8853626251220703, -0.5809479355812073, -0.1413116604089737, 0.0448608435690403]"
1584450562951679086,,1083880,,1584450562,951244274,'',"[shoulder_pan_joint, shoulder_lift_joint, elbow_joint, wrist_1_joint, wrist_2_joint,","[1.623635172843933, -1.1008589903460901, 2.3075613975524902, -2.7610281149493616, -1.5670059362994593, 1.1536835432052612]","[0.0, 0.0, -0.0, 0.0, 0.0, 1.917476038215682e-05]","[-0.0686645582318306, -4.627991199493408, -1.8786371946334839, -0.5921631455421448, -0.1390686184167862, 0.0403747595846653]"
1584450563063694073,,1083894,,1584450563,63249884,'',"[shoulder_pan_joint, shoulder_lift_joint, elbow_joint, wrist_1_joint, wrist_2_joint,","[1.623623251914978, -1.1008828322040003, 2.307549476623535, -2.7610037962542933, -1.5670059362994593, 1.1536835432052612]","[0.0, 0.0, -0.0, 0.0, 0.0, 1.917476038215682e-05]","[-0.0823974683880806, -4.673767566680908, -1.8943299055099487, -0.6101074814796448, -0.1278534084558487, 0.0403747595846653]"
1584450563175555814,,1083908,,1584450563,175187556,'',"[shoulder_pan_joint, shoulder_lift_joint, elbow_joint, wrist_1_joint, wrist_2_joint,","[1.6236472129821777, -1.1008947531329554, 2.3075854778289795, -2.7610161940204065, -1.5670059362994593, 1.1536715030670166]","[0.0, 0.0, -0.0, 0.0, 0.0, 1.917476038215682e-05]","[-0.0823974683880806, -4.664612293243408, -1.9077807664871216, -0.5607605576515198, -0.1368255764245987, 0.0471038855612278]"
1584450563287610746,,1083922,,1584450563,287178559,'',"[shoulder_pan_joint, shoulder_lift_joint, elbow_joint, wrist_1_joint, wrist_2_joint,","[1.6236112117767334, -1.1008947531329554, 2.3075733184814453, -2.761051956807272, -1.5670059362994593, 1.1536954641342163]","[0.0, 0.0, -0.0, 0.0, 0.0, 1.917476038215682e-05]","[-0.0732421949505806, -4.573059558868408, -1.8831208944320679, -0.5876770615577698, -0.1390686184167862, 0.0471038855612278]"
