PorkPy/robot-pulling-data/pivot_at_200mm/joint_states_throttle.csv
rosbagTimestamp,header,seq,stamp,secs,nsecs,frame_id,name,wrist_3_joint],position,velocity,effort
1584446513989213496,,577738,,1584446513,988824821,'',"[shoulder_pan_joint, shoulder_lift_joint, elbow_joint, wrist_1_joint, wrist_2_joint,","[1.4202314615249634, -1.1787903944598597, 2.4583189487457275, -2.8420913855182093, -1.5932348410235804, 2.7539937496185303]","[0.0, 0.0, -0.0, 0.0, 0.0, 0.0]","[0.0503540076315403, -4.069519519805908, -1.7015341520309448, -0.4575806260108948, -0.1121521145105362, 0.0628051832318306]"
1584446514101208807,,577752,,1584446514,100844949,'',"[shoulder_pan_joint, shoulder_lift_joint, elbow_joint, wrist_1_joint, wrist_2_joint,","[1.4202314615249634, -1.1787541548358362, 2.4583189487457275, -2.842078987752096, -1.5932348410235804, 2.7539937496185303]","[0.0, 0.0, -0.0, 0.0, 0.0, 0.0]","[0.0411987341940403, -4.069519519805908, -1.7082595825195312, -0.4441223740577698, -0.0919647291302681, 0.0358886756002903]"
1584446514213092340,,577766,,1584446514,212817167,'',"[shoulder_pan_joint, shoulder_lift_joint, elbow_joint, wrist_1_joint, wrist_2_joint,","[1.4202314615249634, -1.1787903944598597, 2.4583067893981934, -2.8421033064471644, -1.5932467619525355, 2.7540056705474854]","[0.0, 0.0, -0.0, 0.0, 0.0, 0.0]","[0.01373291201889515, -4.096985340118408, -1.7037760019302368, -0.4575806260108948, -0.1188812404870987, 0.0448608435690403]"
1584446514325111667,,577780,,1584446514,324804904,'',"[shoulder_pan_joint, shoulder_lift_joint, elbow_joint, wrist_1_joint, wrist_2_joint,","[1.4202433824539185, -1.1788023153888147, 2.4582948684692383, -2.8420913855182093, -1.5932229200946253, 2.7540175914764404]","[0.0, 0.0, -0.0, 0.0, 0.0, 0.0]","[0.01831054873764515, -4.000854969024658, -1.6970505714416504, -0.4508515000343323, -0.1099090725183487, 0.0493469275534153]"
1584446514437183652,,577794,,1584446514,436823610,'',"[shoulder_pan_joint, shoulder_lift_joint, elbow_joint, wrist_1_joint, wrist_2_joint,","[1.420255422592163, -1.1787541548358362, 2.4583189487457275, -2.8421033064471644, -1.5932467619525355, 2.753969669342041]","[0.0, 0.0, -0.0, 0.0, 0.0, 0.0]","[0.0686645582318306, -4.060364246368408, -1.6723906993865967, -0.4486084580421448, -0.1121521145105362, 0.0403747595846653]"
1584446514549344452,,577808,,1584446514,548910973,'',"[shoulder_pan_joint, shoulder_lift_joint, elbow_joint, wrist_1_joint, wrist_2_joint,","[1.4202433824539185, -1.1787903944598597, 2.4583189487457275, -2.8421033064471644, -1.5932348410235804, 2.7539937496185303]","[0.0, 0.0, -0.0, 0.0, 0.0, 0.0]","[0.009155274368822575, -4.019165515899658, -1.6970505714416504, -0.4486084580421448, -0.1233673244714737, 0.0471038855612278]"
1584446514661136915,,577822,,1584446514,660797291,'',"[shoulder_pan_joint, shoulder_lift_joint, elbow_joint, wrist_1_joint, wrist_2_joint,","[1.4202433824539185, -1.1787903944598597, 2.4583189487457275, -2.8421152273761194, -1.5932467619525355, 2.7540056705474854]","[0.0, 0.0, -0.0, 0.0, 0.0, 0.0]","[0.0595092847943306, -4.028320789337158, -1.7082595825195312, -0.4553375840187073, -0.0986938551068306, 0.0358886756002903]"
1584446514773227574,,577836,,1584446514,772801900,'',"[shoulder_pan_joint, shoulder_lift_joint, elbow_joint, wrist_1_joint, wrist_2_joint,","[1.4202433824539185, -1.1787784735309046, 2.4583189487457275, -2.8421271483050745, -1.5932467619525355, 2.753969669342041]","[0.0, 0.0, -0.0, 0.0, 0.0, 0.0]","[0.0595092847943306, -4.110718250274658, -1.7060178518295288, -0.4463654160499573, -0.0964508131146431, 0.0448608435690403]"
1584446514885018174,,577850,,1584446514,884717563,'',"[shoulder_pan_joint, shoulder_lift_joint, elbow_joint, wrist_1_joint, wrist_2_joint,","[1.4202314615249634, -1.1787665526019495, 2.458282947540283, -2.8421271483050745, -1.5932467619525355, 2.753981590270996]","[0.0, 0.0, -0.0, 0.0, 0.0, 0.0]","[0.01373291201889515, -4.042053699493408, -1.6948087215423584, -0.4418793320655823, -0.1457977443933487, 0.0448608435690403]"
1584446514997246200,,577864,,1584446514,996799196,'',"[shoulder_pan_joint, shoulder_lift_joint, elbow_joint, wrist_1_joint, wrist_2_joint,","[1.4202314615249634, -1.1787665526019495, 2.458282947540283, -2.842078987752096, -1.5932467619525355, 2.753981590270996]","[0.0, 0.0, -0.0, 0.0, 0.0, 0.0]","[0.0366210974752903, -4.060364246368408, -1.7037760019302368, -0.4486084580421448, -0.1054229810833931, 0.0403747595846653]"
1584446515109181640,,577878,,1584446515,108778858,'',"[shoulder_pan_joint, shoulder_lift_joint, elbow_joint, wrist_1_joint, wrist_2_joint,","[1.420195460319519, -1.1787665526019495, 2.4583189487457275, -2.8420913855182093, -1.5932586828814905, 2.7540175914764404]","[0.0, 0.0, -0.0, 0.0, 0.0, 0.0]","[0.02288818545639515, -4.051208972930908, -1.6992924213409424, -0.4643097519874573, -0.1166381984949112, 0.0471038855612278]"
1584446515221124794,,577892,,1584446515,220757288,'',"[shoulder_pan_joint, shoulder_lift_joint, elbow_joint, wrist_1_joint, wrist_2_joint,","[1.4202075004577637, -1.1787541548358362, 2.458282947540283, -2.8421152273761194, -1.5932586828814905, 2.7539937496185303]","[0.0, 0.0, -0.0, 0.0, 0.0, 0.0]","[0.0686645582318306, -4.023743152618408, -1.692566990852356, -0.4329071640968323, -0.1121521145105362, 0.0650482252240181]"
1584446515333128441,,577906,,1584446515,332750416,'',"[shoulder_pan_joint, shoulder_lift_joint, elbow_joint, wrist_1_joint, wrist_2_joint,","[1.4202314615249634, -1.1787784735309046, 2.4583067893981934, -2.842078987752096, -1.5932348410235804, 2.7539937496185303]","[0.0, 0.0, -0.0, 0.0, 0.0, 0.0]","[0.0274658240377903, -4.005432605743408, -1.7015341520309448, -0.4530945420265198, -0.1054229810833931, 0.0605621412396431]"
1584446515445133451,,577920,,1584446515,444788989,'',"[shoulder_pan_joint, shoulder_lift_joint, elbow_joint, wrist_1_joint, wrist_2_joint,","[1.4202314615249634, -1.1787541548358362, 2.4583308696746826, -2.842067066823141, -1.5932229200946253, 2.753981590270996]","[0.0, 0.0, -0.0, 0.0, 0.0, 0.0]","[0.0549316480755806, -4.014587879180908, -1.7037760019302368, -0.4441223740577698, -0.1031799390912056, 0.0403747595846653]"
1584446515557135996,,577934,,1584446515,556763972,'',"[shoulder_pan_joint, shoulder_lift_joint, elbow_joint, wrist_1_joint, wrist_2_joint,","[1.4202433824539185, -1.1787903944598597, 2.4582948684692383, -2.8420913855182093, -1.5932348410235804, 2.7539937496185303]","[0.0, 0.0, -0.0, 0.0, 0.0, 0.0]","[0.0549316480755806, -4.051208972930908, -1.6992924213409424, -0.4553375840187073, -0.1099090725183487, 0.0672912672162056]"
1584446515669147899,,577948,,1584446515,668746510,'',"[shoulder_pan_joint, shoulder_lift_joint, elbow_joint, wrist_1_joint, wrist_2_joint,","[1.4202314615249634, -1.1787665526019495, 2.4582948684692383, -2.8421033064471644, -1.5932467619525355, 2.753969669342041]","[0.0, 0.0, -0.0, 0.0, 0.0, 0.0]","[0.0274658240377903, -4.133606433868408, -1.7037760019302368, -0.4351502060890198, -0.1076660305261612, 0.0560760572552681]"
1584446515781203573,,577962,,1584446515,780808536,'',"[shoulder_pan_joint, shoulder_lift_joint, elbow_joint, wrist_1_joint, wrist_2_joint,","[1.4202314615249634, -1.1787784735309046, 2.4582948684692383, -2.8420913855182093, -1.593198601399557, 2.753957748413086]","[0.0, 0.0, -0.0, 0.0, 0.0, 0.0]","[0.0411987341940403, -4.078674793243408, -1.690325140953064, -0.4575806260108948, -0.1076660305261612, 0.0448608435690403]"
1584446515893141017,,577976,,1584446515,892752572,'',"[shoulder_pan_joint, shoulder_lift_joint, elbow_joint, wrist_1_joint, wrist_2_joint,","[1.4202314615249634, -1.1787665526019495, 2.4582948684692383, -2.8420913855182093, -1.5932348410235804, 2.7540056705474854]","[0.0, 0.0, -0.0, 0.0, 0.0, 0.0]","[-0.009155274368822575, -3.991699695587158, -1.7194687128067017, -0.4620667099952698, -0.1121521145105362, 0.0448608435690403]"
1584446516005115349,,577990,,1584446516,4723418,'',"[shoulder_pan_joint, shoulder_lift_joint, elbow_joint, wrist_1_joint, wrist_2_joint,","[1.4202314615249634, -1.1787903944598597, 2.4583189487457275, -2.8421033064471644, -1.5932348410235804, 2.7539937496185303]","[0.0, 0.0, -0.0, 0.0, 0.0, 0.0]","[0.009155274368822575, -4.032898426055908, -1.7015341520309448, -0.4553375840187073, -0.1143951565027237, 0.0515899695456028]"
1584446516117101964,,578004,,1584446516,116701688,'',"[shoulder_pan_joint, shoulder_lift_joint, elbow_joint, wrist_1_joint, wrist_2_joint,","[1.4202075004577637, -1.1787784735309046, 2.4583189487457275, -2.8420913855182093, -1.5932467619525355, 2.753969669342041]","[0.0, 0.0, -0.0, 0.0, 0.0, 0.0]","[0.0686645582318306, -4.019165515899658, -1.7127432823181152, -0.4463654160499573, -0.1166381984949112, 0.0426178015768528]"
1584446516229244380,,578018,,1584446516,228726865,'',"[shoulder_pan_joint, shoulder_lift_joint, elbow_joint, wrist_1_joint, wrist_2_joint,","[1.4202194213867188, -1.178730312977926, 2.4582948684692383, -2.8421152273761194, -1.5932586828814905, 2.753981590270996]","[0.0, 0.0, -0.0, 0.0, 0.0, 0.0]","[0.009155274368822575, -4.037476062774658, -1.690325140953064, -0.4553375840187073, -0.1009368970990181, 0.0560760572552681]"
1584446516341232549,,578032,,1584446516,340745510,'',"[shoulder_pan_joint, shoulder_lift_joint, elbow_joint, wrist_1_joint, wrist_2_joint,","[1.4202194213867188, -1.1788023153888147, 2.4583308696746826, -2.8421152273761194, -1.5932706038104456, 2.753969669342041]","[0.0, 0.0, -0.0, 0.0, 0.0, 0.0]","[0.01831054873764515, -4.069519519805908, -1.688083291053772, -0.4441223740577698, -0.1300964504480362, 0.0538330152630806]"
1584446516453215618,,578046,,1584446516,452822594,'',"[shoulder_pan_joint, shoulder_lift_joint, elbow_joint, wrist_1_joint, wrist_2_joint,","[1.4202314615249634, -1.1787665526019495, 2.4582948684692383, -2.8420913855182093, -1.5932109991656702, 2.7539937496185303]","[0.0, 0.0, -0.0, 0.0, 0.0, 0.0]","[0.0411987341940403, -4.042053699493408, -1.7172268629074097, -0.4486084580421448, -0.1099090725183487, 0.0358886756002903]"
1584446516565128055,,578060,,1584446516,564693955,'',"[shoulder_pan_joint, shoulder_lift_joint, elbow_joint, wrist_1_joint, wrist_2_joint,","[1.420255422592163, -1.1788142363177698, 2.4582948684692383, -2.8421385923968714, -1.5932467619525355, 2.7539937496185303]","[0.0, 0.0, -0.0, 0.0, 0.0, 0.0]","[0.0366210974752903, -4.028320789337158, -1.7194687128067017, -0.4396362900733948, -0.1121521145105362, 0.0448608435690403]"
1584446516677050550,,578074,,1584446516,676704565,'',"[shoulder_pan_joint, shoulder_lift_joint, elbow_joint, wrist_1_joint, wrist_2_joint,","[1.4202433824539185, -1.1787784735309046, 2.458282947540283, -2.842078987752096, -1.5932467619525355, 2.753969669342041]","[0.0, 0.0, -0.0, 0.0, 0.0, 0.0]","[0.01831054873764515, -3.991699695587158, -1.690325140953064, -0.4373932480812073, -0.1121521145105362, 0.0538330152630806]"
1584446516788992994,,578088,,1584446516,788672425,'',"[shoulder_pan_joint, shoulder_lift_joint, elbow_joint, wrist_1_joint, wrist_2_joint,","[1.4202314615249634, -1.1788023153888147, 2.458271026611328, -2.8421033064471644, -1.5932467619525355, 2.7539937496185303]","[0.0, 0.0, -0.0, 0.0, 0.0, 0.0]","[0.0274658240377903, -4.069519519805908, -1.7194687128067017, -0.4530945420265198, -0.1233673244714737, 0.0538330152630806]"
1584446516900985189,,578102,,1584446516,900669460,'',"[shoulder_pan_joint, shoulder_lift_joint, elbow_joint, wrist_1_joint, wrist_2_joint,","[1.4202314615249634, -1.1787903944598597, 2.4583308696746826, -2.842067066823141, -1.5932229200946253, 2.7539937496185303]","[0.0, 0.0, -0.0, 0.0, 0.0, 0.0]","[0.0411987341940403, -4.005432605743408, -1.7037760019302368, -0.4373932480812073, -0.1099090725183487, 0.0538330152630806]"
1584446517013011879,,578116,,1584446517,12673608,'',"[shoulder_pan_joint, shoulder_lift_joint, elbow_joint, wrist_1_joint, wrist_2_joint,","[1.4202194213867188, -1.1787541548358362, 2.4583067893981934, -2.8421152273761194, -1.5932348410235804, 2.753981590270996]","[0.0, 0.0, -0.0, 0.0, 0.0, 0.0]","[0.009155274368822575, -4.055786609649658, -1.7194687128067017, -0.4598236680030823, -0.1054229810833931, 0.0493469275534153]"
1584446517124977606,,578130,,1584446517,124641418,'',"[shoulder_pan_joint, shoulder_lift_joint, elbow_joint, wrist_1_joint, wrist_2_joint,","[1.4202433824539185, -1.1787784735309046, 2.4582948684692383, -2.842078987752096, -1.5932229200946253, 2.7539937496185303]","[0.0, 0.0, -0.0, 0.0, 0.0, 0.0]","[0.0640869215130806, -4.032898426055908, -1.6992924213409424, -0.4508515000343323, -0.1188812404870987, 0.0426178015768528]"
1584446517236930277,,578144,,1584446517,236678187,'',"[shoulder_pan_joint, shoulder_lift_joint, elbow_joint, wrist_1_joint, wrist_2_joint,","[1.4202194213867188, -1.1787665526019495, 2.4583308696746826, -2.8421152273761194, -1.5932229200946253, 2.7540297508239746]","[0.0, 0.0, -0.0, 0.0, 0.0, 0.0]","[0.004577637184411287, -4.019165515899658, -1.7082595825195312, -0.4508515000343323, -0.1233673244714737, 0.0515899695456028]"
1584446517348977226,,578158,,1584446517,348723112,'',"[shoulder_pan_joint, shoulder_lift_joint, elbow_joint, wrist_1_joint, wrist_2_joint,","[1.4202314615249634, -1.1788023153888147, 2.4583427906036377, -2.8420913855182093, -1.5932348410235804, 2.7539937496185303]","[0.0, 0.0, -0.0, 0.0, 0.0, 0.0]","[0.02288818545639515, -4.055786609649658, -1.7105014324188232, -0.4418793320655823, -0.1211242824792862, 0.0538330152630806]"
1584446517460855258,,578172,,1584446517,460636971,'',"[shoulder_pan_joint, shoulder_lift_joint, elbow_joint, wrist_1_joint, wrist_2_joint,","[1.4202194213867188, -1.1787784735309046, 2.4583308696746826, -2.8420913855182093, -1.593198601399557, 2.7540175914764404]","[0.0, 0.0, -0.0, 0.0, 0.0, 0.0]","[0.0411987341940403, -4.000854969024658, -1.7149850130081177, -0.4239349663257599, -0.1166381984949112, 0.0493469275534153]"
1584446517572824842,,578186,,1584446517,572623897,'',"[shoulder_pan_joint, shoulder_lift_joint, elbow_joint, wrist_1_joint, wrist_2_joint,","[1.4202194213867188, -1.1787541548358362, 2.4583067893981934, -2.842078987752096, -1.5932348410235804, 2.753969669342041]","[0.0, 0.0, -0.0, 0.0, 0.0, 0.0]","[0.0457763709127903, -4.042053699493408, -1.7149850130081177, -0.4530945420265198, -0.1054229810833931, 0.0628051832318306]"
1584446517684881287,,578200,,1584446517,684613648,'',"[shoulder_pan_joint, shoulder_lift_joint, elbow_joint, wrist_1_joint, wrist_2_joint,","[1.4202433824539185, -1.1787665526019495, 2.458282947540283, -2.8421152273761194, -1.5932229200946253, 2.7540056705474854]","[0.0, 0.0, -0.0, 0.0, 0.0, 0.0]","[0.0320434607565403, -4.055786609649658, -1.721710443496704, -0.4486084580421448, -0.1054229810833931, 0.0560760572552681]"
1584446517796893681,,578214,,1584446517,796642493,'',"[shoulder_pan_joint, shoulder_lift_joint, elbow_joint, wrist_1_joint, wrist_2_joint,","[1.420255422592163, -1.1787903944598597, 2.4582948684692383, -2.842078987752096, -1.5932109991656702, 2.753969669342041]","[0.0, 0.0, -0.0, 0.0, 0.0, 0.0]","[0.0823974683880806, -3.973389148712158, -1.7060178518295288, -0.4418793320655823, -0.1166381984949112, 0.0493469275534153]"
1584446517908880357,,578228,,1584446517,908610834,'',"[shoulder_pan_joint, shoulder_lift_joint, elbow_joint, wrist_1_joint, wrist_2_joint,","[1.4202314615249634, -1.1787784735309046, 2.458271026611328, -2.8420913855182093, -1.5932586828814905, 2.753981590270996]","[0.0, 0.0, -0.0, 0.0, 0.0, 0.0]","[0.0595092847943306, -4.000854969024658, -1.723952293395996, -0.4530945420265198, -0.1166381984949112, 0.0471038855612278]"
1584446518020989681,,578242,,1584446518,20566471,'',"[shoulder_pan_joint, shoulder_lift_joint, elbow_joint, wrist_1_joint, wrist_2_joint,","[1.4202314615249634, -1.1787903944598597, 2.4582948684692383, -2.842078987752096, -1.5931866804706019, 2.753981590270996]","[0.0, 0.0, -0.0, 0.0, 0.0, 0.0]","[0.004577637184411287, -4.096985340118408, -1.7486122846603394, -0.4643097519874573, -0.1143951565027237, 0.0493469275534153]"
1584446518133000982,,578256,,1584446518,132589845,'',"[shoulder_pan_joint, shoulder_lift_joint, elbow_joint, wrist_1_joint, wrist_2_joint,","[1.4202433824539185, -1.1788142363177698, 2.4582948684692383, -2.842078987752096, -1.5932229200946253, 2.753981590270996]","[0.0, 0.0, -0.0, 0.0, 0.0, 0.0]","[0.01373291201889515, -4.010010242462158, -1.7082595825195312, -0.4396362900733948, -0.1166381984949112, 0.0493469275534153]"
1584446518244963173,,578270,,1584446518,244556764,'',"[shoulder_pan_joint, shoulder_lift_joint, elbow_joint, wrist_1_joint, wrist_2_joint,","[1.4202194213867188, -1.1788023153888147, 2.4582948684692383, -2.842078987752096, -1.5932348410235804, 2.7539937496185303]","[0.0, 0.0, -0.0, 0.0, 0.0, 0.0]","[0.0320434607565403, -3.987122058868408, -1.7127432823181152, -0.4508515000343323, -0.1121521145105362, 0.0515899695456028]"
1584446518356921655,,578284,,1584446518,356602640,'',"[shoulder_pan_joint, shoulder_lift_joint, elbow_joint, wrist_1_joint, wrist_2_joint,","[1.4202194213867188, -1.1787784735309046, 2.4583067893981934, -2.842078987752096, -1.5932229200946253, 2.7540056705474854]","[0.0, 0.0, -0.0, 0.0, 0.0, 0.0]","[-0.02288818545639515, -4.069519519805908, -1.7329195737838745, -0.4643097519874573, -0.1211242824792862, 0.0762634351849556]"
1584446518469006003,,578298,,1584446518,468613000,'',"[shoulder_pan_joint, shoulder_lift_joint, elbow_joint, wrist_1_joint, wrist_2_joint,","[1.4202314615249634, -1.1788023153888147, 2.4583067893981934, -2.8421152273761194, -1.5932348410235804, 2.753981590270996]","[0.0, 0.0, -0.0, 0.0, 0.0, 0.0]","[0.0640869215130806, -4.078674793243408, -1.7194687128067017, -0.4575806260108948, -0.1166381984949112, 0.0403747595846653]"
1584446518580874007,,578312,,1584446518,580548940,'',"[shoulder_pan_joint, shoulder_lift_joint, elbow_joint, wrist_1_joint, wrist_2_joint,","[1.420255422592163, -1.1787784735309046, 2.4582948684692383, -2.842078987752096, -1.5932348410235804, 2.7540175914764404]","[0.0, 0.0, -0.0, 0.0, 0.0, 0.0]","[0.0686645582318306, -4.087830066680908, -1.7194687128067017, -0.4598236680030823, -0.1076660305261612, 0.0515899695456028]"
1584446518692876362,,578326,,1584446518,692560132,'',"[shoulder_pan_joint, shoulder_lift_joint, elbow_joint, wrist_1_joint, wrist_2_joint,","[1.4202314615249634, -1.1787903944598597, 2.4583067893981934, -2.8421152273761194, -1.5932109991656702, 2.753969669342041]","[0.0, 0.0, -0.0, 0.0, 0.0, 0.0]","[0.0778198316693306, -4.032898426055908, -1.7082595825195312, -0.4553375840187073, -0.1188812404870987, 0.0358886756002903]"
1584446518804860643,,578340,,1584446518,804565162,'',"[shoulder_pan_joint, shoulder_lift_joint, elbow_joint, wrist_1_joint, wrist_2_joint,","[1.4202314615249634, -1.1787541548358362, 2.4583067893981934, -2.8420913855182093, -1.5932467619525355, 2.7539937496185303]","[0.0, 0.0, -0.0, 0.0, 0.0, 0.0]","[0.0274658240377903, -4.096985340118408, -1.7127432823181152, -0.4508515000343323, -0.1121521145105362, 0.02243042178452015]"
1584446518917109648,,578354,,1584446518,916761959,'',"[shoulder_pan_joint, shoulder_lift_joint, elbow_joint, wrist_1_joint, wrist_2_joint,","[1.4202194213867188, -1.1788023153888147, 2.4583189487457275, -2.8421152273761194, -1.5932348410235804, 2.7539937496185303]","[0.0, 0.0, -0.0, 0.0, 0.0, 0.0]","[0.0640869215130806, -4.042053699493408, -1.7149850130081177, -0.4530945420265198, -0.1009368970990181, 0.0471038855612278]"
1584446519028985737,,578368,,1584446519,28634411,'',"[shoulder_pan_joint, shoulder_lift_joint, elbow_joint, wrist_1_joint, wrist_2_joint,","[1.4202314615249634, -1.1787665526019495, 2.4583067893981934, -2.8420913855182093, -1.5932467619525355, 2.7539937496185303]","[0.0, 0.0, -0.0, 0.0, 0.0, 0.0]","[0.004577637184411287, -4.046631336212158, -1.7486122846603394, -0.4373932480812073, -0.1435547024011612, 0.0628051832318306]"
1584446519141129506,,578382,,1584446519,140744107,'',"[shoulder_pan_joint, shoulder_lift_joint, elbow_joint, wrist_1_joint, wrist_2_joint,","[1.4202433824539185, -1.1787665526019495, 2.458282947540283, -2.842067066823141, -1.5932706038104456, 2.753957748413086]","[0.0, 0.0, -0.0, 0.0, 0.0, 0.0]","[0.0411987341940403, -3.991699695587158, -1.7306777238845825, -0.4530945420265198, -0.1166381984949112, 0.0829925611615181]"
1584446519253047844,,578396,,1584446519,252677192,'',"[shoulder_pan_joint, shoulder_lift_joint, elbow_joint, wrist_1_joint, wrist_2_joint,","[1.4202194213867188, -1.1787541548358362, 2.4583189487457275, -2.8420913855182093, -1.5932348410235804, 2.7539937496185303]","[0.0, 0.0, -0.0, 0.0, 0.0, 0.0]","[0.01373291201889515, -4.000854969024658, -1.7127432823181152, -0.4486084580421448, -0.1031799390912056, 0.0426178015768528]"
1584446519364949070,,578410,,1584446519,364597914,'',"[shoulder_pan_joint, shoulder_lift_joint, elbow_joint, wrist_1_joint, wrist_2_joint,","[1.4202194213867188, -1.1787784735309046, 2.4583189487457275, -2.8420913855182093, -1.5932348410235804, 2.753969669342041]","[0.0, 0.0, -0.0, 0.0, 0.0, 0.0]","[0.0503540076315403, -4.055786609649658, -1.726194143295288, -0.4575806260108948, -0.1143951565027237, 0.0471038855612278]"
1584446519476939011,,578424,,1584446519,476592364,'',"[shoulder_pan_joint, shoulder_lift_joint, elbow_joint, wrist_1_joint, wrist_2_joint,","[1.4202314615249634, -1.1787903944598597, 2.4583067893981934, -2.8421271483050745, -1.5932467619525355, 2.7539937496185303]","[0.0, 0.0, -0.0, 0.0, 0.0, 0.0]","[0.0549316480755806, -4.042053699493408, -1.72843599319458, -0.4575806260108948, -0.1256103664636612, 0.0874786451458931]"
1584446519589033477,,578438,,1584446519,588682342,'',"[shoulder_pan_joint, shoulder_lift_joint, elbow_joint, wrist_1_joint, wrist_2_joint,","[1.4202433824539185, -1.1787903944598597, 2.458282947540283, -2.8420913855182093, -1.5932706038104456, 2.753969669342041]","[0.0, 0.0, -0.0, 0.0, 0.0, 0.0]","[0.0411987341940403, -4.087830066680908, -1.7015341520309448, -0.4553375840187073, -0.1099090725183487, 0.0560760572552681]"
1584446519701054447,,578452,,1584446519,700620608,'',"[shoulder_pan_joint, shoulder_lift_joint, elbow_joint, wrist_1_joint, wrist_2_joint,","[1.4202433824539185, -1.178718392048971, 2.4580912590026855, -2.8420313040362757, -1.5933187643634241, 2.753981590270996]","[0.0, 0.0, -0.006762298755347729, 0.0, 0.0, 0.0]","[0.0274658240377903, -4.028320789337158, -1.513222098350525, -0.4508515000343323, -0.0964508131146431, 0.0448608435690403]"
1584446519813036184,,578466,,1584446519,812619897,'',"[shoulder_pan_joint, shoulder_lift_joint, elbow_joint, wrist_1_joint, wrist_2_joint,","[1.4202314615249634, -1.1786463896380823, 2.456651210784912, -2.8412650267230433, -1.5933306852923792, 2.7531914710998535]","[0.0, 0.007248059380799532, -0.039384957402944565, 0.025233983993530273, 0.0, -0.03211772441864014]","[-0.1647949367761612, -2.998352289199829, -1.8293174505233765, -0.3005676567554474, -0.0022430422250181437, -0.2579498589038849]"
1584446519925061721,,578480,,1584446519,924571687,'',"[shoulder_pan_joint, shoulder_lift_joint, elbow_joint, wrist_1_joint, wrist_2_joint,","[1.4202793836593628, -1.1767881552325647, 2.4484446048736572, -2.83689529100527, -1.5933306852923792, 2.7510478496551514]","[0.0, 0.02887718938291073, -0.11651862412691116, 0.0608990378677845, 0.0, -0.0041609229519963264]","[0.2059936672449112, -2.453613519668579, -1.9032971858978271, -0.2400055229663849, -0.02467346377670765, -0.2557068169116974]"
1584446520036826964,,578494,,1584446520,36512547,'',"[shoulder_pan_joint, shoulder_lift_joint, elbow_joint, wrist_1_joint, wrist_2_joint,","[1.4202913045883179, -1.1705411116229456, 2.4314072132110596, -2.8277724424945276, -1.5933306852923792, 2.754197120666504]","[-0.0001661812566453591, 0.08301392942667007, -0.17890051007270813, 0.09991967678070068, 0.0, 0.02853204309940338]","[0.1190185695886612, -2.668762445449829, -1.8068993091583252, -0.1637420803308487, -0.0628051832318306, 0.3499145805835724]"
1584446520148857010,,578508,,1584446520,148513780,'',"[shoulder_pan_joint, shoulder_lift_joint, elbow_joint, wrist_1_joint, wrist_2_joint,","[1.4203393459320068, -1.1607936064349573, 2.410841464996338, -2.815860096608297, -1.5933545271502894, 2.7565560340881348]","[0.00014061490946915, 0.08999354392290115, -0.18572673201560974, 0.1014920026063919, 5.752428114647046e-05, 0.018100973218679428]","[0.1831054836511612, -2.902221918106079, -2.109543800354004, -0.1435547024011612, -0.0762634351849556, 0.2960815727710724]"
1584446520260908597,,578522,,1584446520,260536513,'',"[shoulder_pan_joint, shoulder_lift_joint, elbow_joint, wrist_1_joint, wrist_2_joint,","[1.4203872680664062, -1.15090257326235, 2.390791416168213, -2.8044140974627894, -1.5933664480792444, 2.758484125137329]","[0.0018535602139309049, 0.07460260391235352, -0.16527365148067474, 0.09589297324419022, 5.752428114647046e-05, 0.019539080560207367]","[0.4211426079273224, -3.071594476699829, -2.17903995513916, -0.1592559963464737, -0.0986938551068306, 0.3162689507007599]"
1584446520373074086,,578536,,1584446520,372553625,'',"[shoulder_pan_joint, shoulder_lift_joint, elbow_joint, wrist_1_joint, wrist_2_joint,","[1.4204715490341187, -1.14284593263735, 2.372936487197876, -2.794070545827047, -1.5933664480792444, 2.7604475021362305]","[0.00021731395099777728, 0.0666770339012146, -0.16060778498649597, 0.09044734388589859, 5.752428114647046e-05, 0.020478643476963043]","[0.0961303785443306, -3.144836664199829, -2.1566216945648193, -0.2355194389820099, -0.1121521145105362, 0.2557068169116974]"
1584446520484819661,,578550,,1584446520,484480018,'',"[shoulder_pan_joint, shoulder_lift_joint, elbow_joint, wrist_1_joint, wrist_2_joint,","[1.4204834699630737, -1.135627571736471, 2.3537373542785645, -2.7838948408709925, -1.5933664480792444, 2.7636563777923584]","[0.00017896443023346364, 0.07673738896846771, -0.18438449501991272, 0.09309346228837967, 5.752428114647046e-05, 0.03612525016069412]","[0.1007080152630806, -2.879333734512329, -2.01090407371521, -0.0807495191693306, -0.1188812404870987, 0.3162689507007599]"
1584446520597036407,,578564,,1584446520,596531394,'',"[shoulder_pan_joint, shoulder_lift_joint, elbow_joint, wrist_1_joint, wrist_2_joint,","[1.4209392070770264, -1.1256888548480433, 2.331441879272461, -2.7718504110919397, -1.5934622923480433, 2.767524242401123]","[0.021923143416643143, 0.09232007712125778, -0.2136707454919815, 0.11669759452342987, -0.0007286408799700439, 0.03746747970581055]","[0.5355835556983948, -3.172302484512329, -2.116269111633301, -0.1659851223230362, -0.1256103664636612, 0.3185119926929474]"
1584446520709026128,,578578,,1584446520,708589253,'',"[shoulder_pan_joint, shoulder_lift_joint, elbow_joint, wrist_1_joint, wrist_2_joint,","[1.4283398389816284, -1.113687817250387, 2.3044893741607666, -2.75702935854067, -1.5935943762408655, 2.7722418308258057]","[0.1165441945195198, 0.11233852803707123, -0.25749146938323975, 0.14377234876155853, -0.0010929612908512354, 0.04674806445837021]","[0.4211426079273224, -3.158569574356079, -2.2149088382720947, -0.1368255764245987, -0.1278534084558487, 0.3768310844898224]"
1584446520820740966,,578592,,1584446520,820476452,'',"[shoulder_pan_joint, shoulder_lift_joint, elbow_joint, wrist_1_joint, wrist_2_joint,","[1.4459121227264404, -1.0998876730548304, 2.273900032043457, -2.740556542073385, -1.5935943762408655, 2.77868390083313]","[0.18728627264499664, 0.1306440383195877, -0.27927398681640625, 0.1540692001581192, -0.0004026699753012508, 0.07901918888092041]","[0.8468628525733948, -3.305053949356079, -2.4009790420532227, -0.1547699123620987, -0.1076660305261612, 0.3274841606616974]"
1584446520932917055,,578606,,1584446520,932500267,'',"[shoulder_pan_joint, shoulder_lift_joint, elbow_joint, wrist_1_joint, wrist_2_joint,","[1.4670826196670532, -1.0846617857562464, 2.2430453300476074, -2.7232092062579554, -1.5935824553119105, 2.788790225982666]","[0.18971507251262665, 0.13210131227970123, -0.2698911428451538, 0.14875778555870056, -0.00023009712458588183, 0.08739855885505676]","[0.9658814668655396, -3.588867664337158, -2.374077320098877, -0.02018737979233265, -0.1300964504480362, 0.3252411186695099]"
1584446521044865179,,578620,,1584446521,44486472,'',"[shoulder_pan_joint, shoulder_lift_joint, elbow_joint, wrist_1_joint, wrist_2_joint,","[1.48729407787323, -1.0702384153949183, 2.2127060890197754, -2.70634109178652, -1.5935824553119105, 2.7995667457580566]","[0.16840553283691406, 0.13059289753437042, -0.2724733352661133, 0.14739638566970825, -0.00013422331539914012, 0.09318933635950089]","[1.3549805879592896, -3.794861316680908, -2.5018606185913086, -0.1031799390912056, -0.1413116604089737, 0.4575806260108948]"
1584446521156891558,,578634,,1584446521,156545753,'',"[shoulder_pan_joint, shoulder_lift_joint, elbow_joint, wrist_1_joint, wrist_2_joint,","[1.504314661026001, -1.0562117735492151, 2.1846818923950195, -2.690502468739645, -1.593534294758932, 2.808128595352173]","[0.13718901574611664, 0.11709386855363846, -0.2241785079240799, 0.12078181654214859, -9.58738019107841e-05, 0.06389030069112778]","[1.0437012910842896, -4.289246082305908, -2.748459815979004, -0.0672912672162056, -0.1256103664636612, 0.2893524467945099]"
1584446521268856353,,578648,,1584446521,268460454,'',"[shoulder_pan_joint, shoulder_lift_joint, elbow_joint, wrist_1_joint, wrist_2_joint,","[1.5184201002120972, -1.045793358479635, 2.1636061668395996, -2.6789143721209925, -1.593546215687887, 2.8150739669799805]","[0.11839774996042252, 0.0781179741024971, -0.1542162001132965, 0.08480996638536453, -5.752428114647046e-05, 0.05363180488348007]","[0.9017945528030396, -4.078674793243408, -2.999542474746704, -0.1502838283777237, -0.1166381984949112, 0.3431854546070099]"
1584446521380866051,,578662,,1584446521,380480141,'',"[shoulder_pan_joint, shoulder_lift_joint, elbow_joint, wrist_1_joint, wrist_2_joint,","[1.530906081199646, -1.0390318075763147, 2.149719715118408, -2.6709535757647913, -1.5935824553119105, 2.8202106952667236]","[0.10339030623435974, 0.039205994457006454, -0.09551586955785751, 0.054916512221097946, -5.752428114647046e-05, 0.0368347130715847]","[0.9658814668655396, -4.179382801055908, -2.8874518871307373, -0.2153320610523224, -0.1054229810833931, 0.3431854546070099]"
1584446521492784379,,578676,,1584446521,492444455,'',"[shoulder_pan_joint, shoulder_lift_joint, elbow_joint, wrist_1_joint, wrist_2_joint,","[1.5411020517349243, -1.0352314154254358, 2.142050266265869, -2.666464153920309, -1.5934985319720667, 2.824042558670044]","[0.07542072236537933, 0.024339161813259125, -0.03305728733539581, 0.021705828607082367, -3.834952076431364e-05, 0.03430364653468132]","[1.0574342012405396, -4.440308094024658, -2.824681282043457, -0.1592559963464737, -0.0964508131146431, 0.2893524467945099]"
1584446521604779661,,578690,,1584446521,604422043,'',"[shoulder_pan_joint, shoulder_lift_joint, elbow_joint, wrist_1_joint, wrist_2_joint,","[1.5472792387008667, -1.0344160238849085, 2.14046573638916, -2.6657937208758753, -1.5935223738299769, 2.8277907371520996]","[0.03615081310272217, -0.0015339808305725455, -0.0013677995884791017, -0.00276116537861526, -3.834952076431364e-05, 0.02467791736125946]","[0.9201050996780396, -4.788208484649658, -2.374077320098877, -0.4059906303882599, -0.1031799390912056, 0.2893524467945099]"
1584446521716872013,,578704,,1584446521,716429287,'',"[shoulder_pan_joint, shoulder_lift_joint, elbow_joint, wrist_1_joint, wrist_2_joint,","[1.5488742589950562, -1.0343917051898401, 2.1405506134033203, -2.6659610907184046, -1.593558136616842, 2.828784227371216]","[0.0006519418675452471, -0.0002556634717620909, -0.0003579288604669273, -0.0008245147182606161, -1.917476038215682e-05, -0.0018216022290289402]","[-0.1327514797449112, -4.975891590118408, -2.2306015491485596, -0.4800110459327698, -0.1009368970990181, 0.0022430422250181437]"
1584446521828826549,,578718,,1584446521,828433345,'',"[shoulder_pan_joint, shoulder_lift_joint, elbow_joint, wrist_1_joint, wrist_2_joint,","[1.5488502979278564, -1.034464184437887, 2.140502452850342, -2.6659730116473597, -1.5934985319720667, 2.8287723064422607]","[-0.0003707120195031166, -0.00020453077740967274, -0.0004474110610317439, -0.00032597093377262354, 0.0004410194815136492, -0.00026844663079828024]","[-0.01373291201889515, -5.007935047149658, -2.3090648651123047, -0.3835602104663849, -0.0269165076315403, 0.008972168900072575]"
1584446521940822231,,578732,,1584446521,940448714,'',"[shoulder_pan_joint, shoulder_lift_joint, elbow_joint, wrist_1_joint, wrist_2_joint,","[1.5488742589950562, -1.0344517866717737, 2.1405506134033203, -2.6659491697894495, -1.5934622923480433, 2.828784227371216]","[-0.00012783173588104546, -0.00011504856229294091, -0.0001917476038215682, -0.00015339808305725455, 0.00017257283616345376, -0.00013422331539914012]","[0.009155274368822575, -5.003357410430908, -2.297855854034424, -0.3992615044116974, -0.0269165076315403, 0.008972168900072575]"
1584446522052772379,,578746,,1584446522,52421594,'',"[shoulder_pan_joint, shoulder_lift_joint, elbow_joint, wrist_1_joint, wrist_2_joint,","[1.5488622188568115, -1.0344756285296839, 2.140526294708252, -2.6659491697894495, -1.5934866110431116, 2.828784227371216]","[-7.669904152862728e-05, -7.669904152862728e-05, -0.00011504856229294091, -9.58738019107841e-05, 0.00011504856229294091, -9.58738019107841e-05]","[0.02288818545639515, -5.012512683868408, -2.3045811653137207, -0.4172058403491974, -0.0314025916159153, 0.006729126907885075]"
1584446522164868508,,578760,,1584446522,164511753,'',"[shoulder_pan_joint, shoulder_lift_joint, elbow_joint, wrist_1_joint, wrist_2_joint,","[1.5488742589950562, -1.0344279448138636, 2.140514373779297, -2.6659372488604944, -1.5934622923480433, 2.828796148300171]","[-5.1132694352418184e-05, -5.1132694352418184e-05, -8.948221511673182e-05, -7.669904152862728e-05, 7.669904152862728e-05, -5.752428114647046e-05]","[-0.01373291201889515, -4.971313953399658, -2.300097703933716, -0.4104767143726349, -0.0628051832318306, 0.008972168900072575]"
1584446522276749316,,578774,,1584446522,276404473,'',"[shoulder_pan_joint, shoulder_lift_joint, elbow_joint, wrist_1_joint, wrist_2_joint,","[1.5488622188568115, -1.0344279448138636, 2.140514373779297, -2.6659491697894495, -1.5934746901141565, 2.828784227371216]","[-3.834952076431364e-05, -3.834952076431364e-05, -6.391586794052273e-05, -5.752428114647046e-05, 5.752428114647046e-05, -5.752428114647046e-05]","[-0.0366210974752903, -5.003357410430908, -2.277679443359375, -0.3858032524585724, -0.1166381984949112, 0.008972168900072575]"
1584446522388803347,,578788,,1584446522,388434689,'',"[shoulder_pan_joint, shoulder_lift_joint, elbow_joint, wrist_1_joint, wrist_2_joint,","[1.5489345788955688, -1.0344160238849085, 2.140526294708252, -2.6659134070025843, -1.593546215687887, 2.828808307647705]","[-3.834952076431364e-05, -3.834952076431364e-05, -5.1132694352418184e-05, -3.834952076431364e-05, 3.834952076431364e-05, -3.834952076431364e-05]","[-0.1190185695886612, -4.998779773712158, -2.3045811653137207, -0.4015045464038849, -0.1009368970990181, 0.011215210892260075]"
1584446522500810161,,578802,,1584446522,500453856,'',"[shoulder_pan_joint, shoulder_lift_joint, elbow_joint, wrist_1_joint, wrist_2_joint,","[1.5490543842315674, -1.0344279448138636, 2.140514373779297, -2.6659134070025843, -1.5935705343829554, 2.828784227371216]","[0.0033747577108442783, -2.5566347176209092e-05, 2.5566347176209092e-05, -3.834952076431364e-05, 3.834952076431364e-05, 0.0004410194815136492]","[0.1281738430261612, -5.044556140899658, -2.2575032711029053, -0.4329071640968323, -0.006729126907885075, 0.1884155422449112]"
1584446522612829397,,578816,,1584446522,612496846,'',"[shoulder_pan_joint, shoulder_lift_joint, elbow_joint, wrist_1_joint, wrist_2_joint,","[1.5524365901947021, -1.0344279448138636, 2.1405625343322754, -2.665901486073629, -1.5935705343829554, 2.8295507431030273]","[0.06235631927847862, -2.5566347176209092e-05, 2.5566347176209092e-05, -3.834952076431364e-05, 3.834952076431364e-05, 0.01679708994925022]","[0.4898071885108948, -4.989624500274658, -2.2216341495513916, -0.4329071640968323, 0.0, 0.3050537407398224]"
1584446522724684507,,578830,,1584446522,724360802,'',"[shoulder_pan_joint, shoulder_lift_joint, elbow_joint, wrist_1_joint, wrist_2_joint,","[1.5621280670166016, -1.0344398657428187, 2.140526294708252, -2.665901486073629, -1.5935705343829554, 2.832101345062256]","[0.11256862431764603, -1.2783173588104546e-05, -0.0, -1.917476038215682e-05, 1.917476038215682e-05, 0.02540655806660652]","[0.5126953721046448, -4.939270496368408, -2.27319598197937, -0.3970184624195099, 0.0336456336081028, 0.3723450005054474]"
1584446522836719081,,578844,,1584446522,836388595,'',"[shoulder_pan_joint, shoulder_lift_joint, elbow_joint, wrist_1_joint, wrist_2_joint,","[1.5769293308258057, -1.034464184437887, 2.1405506134033203, -2.6659253279315394, -1.593546215687887, 2.835442304611206]","[0.14632898569107056, -1.2783173588104546e-05, -0.0, -1.917476038215682e-05, 0.0, 0.035415783524513245]","[0.7461548447608948, -4.875183582305908, -2.268712282180786, -0.3902893364429474, 0.0605621412396431, 0.3409424126148224]"
1584446522948690519,,578858,,1584446522,948363168,'',"[shoulder_pan_joint, shoulder_lift_joint, elbow_joint, wrist_1_joint, wrist_2_joint,","[1.5938776731491089, -1.0344517866717737, 2.1405744552612305, -2.6659491697894495, -1.5935104529010218, 2.8397412300109863]","[0.15557122230529785, -1.2783173588104546e-05, -0.0, -1.917476038215682e-05, 0.00023009712458588183, 0.04772597923874855]","[0.8148193955421448, -4.792786121368408, -2.2373268604278564, -0.3902893364429474, 0.0874786451458931, 0.2893524467945099]"
1584446523060755420,,578872,,1584446523,60428480,'',"[shoulder_pan_joint, shoulder_lift_joint, elbow_joint, wrist_1_joint, wrist_2_joint,","[1.6104896068572998, -1.0344160238849085, 2.140538215637207, -2.6659253279315394, -1.5934503714190882, 2.845848321914673]","[0.13465794920921326, -1.2783173588104546e-05, 2.5566347176209092e-05, -1.917476038215682e-05, 0.000997087568975985, 0.05284563824534416]","[1.0711671113967896, -4.856873035430908, -2.2261178493499756, -0.3701019585132599, 0.0919647291302681, 0.3745880424976349]"
1584446523172623053,,578886,,1584446523,172351967,'',"[shoulder_pan_joint, shoulder_lift_joint, elbow_joint, wrist_1_joint, wrist_2_joint,","[1.6236112117767334, -1.0344517866717737, 2.1405506134033203, -2.6659372488604944, -1.5933907667743128, 2.8509373664855957]","[0.09814920276403427, -1.2783173588104546e-05, -0.0, -1.917476038215682e-05, 0.000517718552146107, 0.03762087970972061]","[0.9017945528030396, -4.939270496368408, -2.1229946613311768, -0.4508515000343323, 0.0986938551068306, 0.3095398247241974]"
1584446523284688546,,578900,,1584446523,284371574,'',"[shoulder_pan_joint, shoulder_lift_joint, elbow_joint, wrist_1_joint, wrist_2_joint,","[1.630460262298584, -1.0344880262957972, 2.1405506134033203, -2.6659610907184046, -1.5933783690081995, 2.8533804416656494]","[0.010060357861220837, -1.2783173588104546e-05, -0.0, -1.917476038215682e-05, 0.00028762139845639467, 0.006691991351544857]","[0.4440308213233948, -4.898071765899658, -2.2395687103271484, -0.3970184624195099, 0.0538330152630806, 0.2198181450366974]"
1584446523396588440,,578914,,1584446523,396350917,'',"[shoulder_pan_joint, shoulder_lift_joint, elbow_joint, wrist_1_joint, wrist_2_joint,","[1.6303163766860962, -1.0344517866717737, 2.140538215637207, -2.6659491697894495, -1.5934026877032679, 2.853320360183716]","[0.0, -1.2783173588104546e-05, -0.0, -1.917476038215682e-05, 0.00013422331539914012, -0.0005368932615965605]","[-0.0411987341940403, -4.962158679962158, -2.2597451210021973, -0.4127197563648224, -0.008972168900072575, -0.0336456336081028]"
1584446523508581998,,578928,,1584446523,508354073,'',"[shoulder_pan_joint, shoulder_lift_joint, elbow_joint, wrist_1_joint, wrist_2_joint,","[1.6303163766860962, -1.034464184437887, 2.140538215637207, -2.6659491697894495, -1.5933907667743128, 2.853320360183716]","[0.0, -1.2783173588104546e-05, -0.0, 0.0, 9.58738019107841e-05, -0.0001917476038215682]","[-0.01831054873764515, -5.012512683868408, -2.2530195713043213, -0.4306641221046448, -0.006729126907885075, -0.0291595496237278]"
1584446523620589783,,578942,,1584446523,620331371,'',"[shoulder_pan_joint, shoulder_lift_joint, elbow_joint, wrist_1_joint, wrist_2_joint,","[1.6303163766860962, -1.0344880262957972, 2.140538215637207, -2.6659372488604944, -1.593414608632223, 2.8533084392547607]","[0.0, -1.2783173588104546e-05, -0.0, 0.0, 7.669904152862728e-05, -0.00011504856229294091]","[-0.004577637184411287, -5.003357410430908, -2.2530195713043213, -0.4015045464038849, -0.006729126907885075, -0.02243042178452015]"
1584446523732613728,,578956,,1584446523,732354504,'',"[shoulder_pan_joint, shoulder_lift_joint, elbow_joint, wrist_1_joint, wrist_2_joint,","[1.6303044557571411, -1.034464184437887, 2.1405506134033203, -2.6659610907184046, -1.5933783690081995, 2.853320360183716]","[0.0, 0.0, -0.0, 0.0, 5.752428114647046e-05, -0.00011504856229294091]","[-0.0411987341940403, -4.985046863555908, -2.2597451210021973, -0.4082336723804474, -0.004486084450036287, -0.01794433780014515]"
1584446523844565919,,578970,,1584446523,844308579,'',"[shoulder_pan_joint, shoulder_lift_joint, elbow_joint, wrist_1_joint, wrist_2_joint,","[1.6303163766860962, -1.0344880262957972, 2.1405506134033203, -2.6659610907184046, -1.5933783690081995, 2.8532845973968506]","[0.0, 0.0, -0.0, 0.0, 3.834952076431364e-05, -0.00011504856229294091]","[0.004577637184411287, -4.998779773712158, -2.2485358715057373, -0.4172058403491974, -0.008972168900072575, -0.0336456336081028]"
1584446523956583743,,578984,,1584446523,956316384,'',"[shoulder_pan_joint, shoulder_lift_joint, elbow_joint, wrist_1_joint, wrist_2_joint,","[1.6303163766860962, -1.034464184437887, 2.140526294708252, -2.6659610907184046, -1.5933907667743128, 2.8533084392547607]","[0.0, 0.0, -0.0, 0.0, 3.834952076431364e-05, -9.58738019107841e-05]","[-0.01373291201889515, -4.998779773712158, -2.2530195713043213, -0.3790741264820099, -0.004486084450036287, -0.01794433780014515]"
1584446524068616694,,578998,,1584446524,68357160,'',"[shoulder_pan_joint, shoulder_lift_joint, elbow_joint, wrist_1_joint, wrist_2_joint,","[1.6302924156188965, -1.034464184437887, 2.140538215637207, -2.6659372488604944, -1.593414608632223, 2.8533084392547607]","[0.0, 0.0, -0.0, 0.0, 3.834952076431364e-05, -7.669904152862728e-05]","[-0.02288818545639515, -5.017090320587158, -2.2575032711029053, -0.4216919243335724, -0.004486084450036287, -0.0269165076315403]"
1584446524180576980,,579012,,1584446524,180311816,'',"[shoulder_pan_joint, shoulder_lift_joint, elbow_joint, wrist_1_joint, wrist_2_joint,","[1.6303163766860962, -1.0344756285296839, 2.1405506134033203, -2.6659372488604944, -1.5933783690081995, 2.8532965183258057]","[0.0, 0.0, -0.0, 0.0, 1.917476038215682e-05, -5.752428114647046e-05]","[0.0, -4.980469226837158, -2.26198673248291, -0.4216919243335724, -0.006729126907885075, -0.01794433780014515]"
1584446524292611486,,579026,,1584446524,292363914,'',"[shoulder_pan_joint, shoulder_lift_joint, elbow_joint, wrist_1_joint, wrist_2_joint,","[1.6303163766860962, -1.034464184437887, 2.1405506134033203, -2.6659253279315394, -1.5933907667743128, 2.8532965183258057]","[0.0, 0.0, -0.0, 0.0, 1.917476038215682e-05, -3.834952076431364e-05]","[-0.009155274368822575, -4.994202136993408, -2.2507777214050293, -0.4015045464038849, -0.0022430422250181437, -0.02467346377670765]"
1584446524404513032,,579040,,1584446524,404270019,'',"[shoulder_pan_joint, shoulder_lift_joint, elbow_joint, wrist_1_joint, wrist_2_joint,","[1.6303163766860962, -1.0344999472247522, 2.140538215637207, -2.6659372488604944, -1.5934026877032679, 2.8533084392547607]","[0.0, 0.0, -0.0, 0.0, 1.917476038215682e-05, -3.834952076431364e-05]","[-0.009155274368822575, -4.966736316680908, -2.2530195713043213, -0.4015045464038849, -0.0022430422250181437, -0.01345825381577015]"
1584446524516557145,,579054,,1584446524,516307529,'',"[shoulder_pan_joint, shoulder_lift_joint, elbow_joint, wrist_1_joint, wrist_2_joint,","[1.6302924156188965, -1.0344756285296839, 2.1405506134033203, -2.6659610907184046, -1.5933783690081995, 2.8532845973968506]","[0.0, 0.0, -0.0, 0.0, 1.917476038215682e-05, -3.834952076431364e-05]","[-0.01831054873764515, -4.966736316680908, -2.266470432281494, -0.4329071640968323, -0.004486084450036287, -0.02467346377670765]"
1584446524628522651,,579068,,1584446524,628292080,'',"[shoulder_pan_joint, shoulder_lift_joint, elbow_joint, wrist_1_joint, wrist_2_joint,","[1.6303044557571411, -1.0344999472247522, 2.140526294708252, -2.6659610907184046, -1.5933907667743128, 2.8533084392547607]","[0.0, 0.0, -0.0, 0.0, 1.917476038215682e-05, -1.917476038215682e-05]","[0.0320434607565403, -4.985046863555908, -2.270954132080078, -0.4351502060890198, -0.004486084450036287, -0.02467346377670765]"
1584446524740496813,,579082,,1584446524,740258778,'',"[shoulder_pan_joint, shoulder_lift_joint, elbow_joint, wrist_1_joint, wrist_2_joint,","[1.6303163766860962, -1.0344756285296839, 2.1405625343322754, -2.6659253279315394, -1.5934026877032679, 2.8532965183258057]","[0.0, 0.0, -0.0, 0.0, 1.917476038215682e-05, -1.917476038215682e-05]","[0.0320434607565403, -5.030823230743408, -2.2597451210021973, -0.3970184624195099, -0.006729126907885075, -0.01794433780014515]"
1584446524852529935,,579096,,1584446524,852286110,'',"[shoulder_pan_joint, shoulder_lift_joint, elbow_joint, wrist_1_joint, wrist_2_joint,","[1.6303284168243408, -1.0344517866717737, 2.140514373779297, -2.6659491697894495, -1.593414608632223, 2.8532965183258057]","[0.0, 0.0, -0.0, 0.0, 1.917476038215682e-05, -1.917476038215682e-05]","[-0.004577637184411287, -5.003357410430908, -2.264228582382202, -0.4015045464038849, -0.0022430422250181437, -0.02018737979233265]"
1584446524964537309,,579110,,1584446524,964287623,'',"[shoulder_pan_joint, shoulder_lift_joint, elbow_joint, wrist_1_joint, wrist_2_joint,","[1.6303284168243408, -1.0344517866717737, 2.1405625343322754, -2.6659253279315394, -1.5933907667743128, 2.853320360183716]","[0.0, 0.0, -0.0, 0.0, 1.917476038215682e-05, -1.917476038215682e-05]","[0.0320434607565403, -4.975891590118408, -2.266470432281494, -0.4239349663257599, -0.006729126907885075, -0.0269165076315403]"
1584446525076499869,,579124,,1584446525,76247418,'',"[shoulder_pan_joint, shoulder_lift_joint, elbow_joint, wrist_1_joint, wrist_2_joint,","[1.6303163766860962, -1.0344756285296839, 2.140538215637207, -2.6659730116473597, -1.5933545271502894, 2.8532845973968506]","[0.0, 0.0, -0.0, 0.0, 0.0, -1.917476038215682e-05]","[-0.009155274368822575, -4.998779773712158, -2.2530195713043213, -0.3925323784351349, -0.004486084450036287, -0.02243042178452015]"
1584446525188645431,,579138,,1584446525,188258469,'',"[shoulder_pan_joint, shoulder_lift_joint, elbow_joint, wrist_1_joint, wrist_2_joint,","[1.6303163766860962, -1.0344880262957972, 2.1405506134033203, -2.6659372488604944, -1.5933783690081995, 2.8532724380493164]","[0.0, 0.0, -0.0, 0.0, 0.0, -1.917476038215682e-05]","[-0.01373291201889515, -5.021667957305908, -2.2530195713043213, -0.4373932480812073, -0.0022430422250181437, -0.01570129580795765]"
1584446525300601340,,579152,,1584446525,300275312,'',"[shoulder_pan_joint, shoulder_lift_joint, elbow_joint, wrist_1_joint, wrist_2_joint,","[1.6302924156188965, -1.0344880262957972, 2.1405506134033203, -2.6659610907184046, -1.5934026877032679, 2.853320360183716]","[0.0, 0.0, -0.0, 0.0, 0.0, -1.917476038215682e-05]","[0.004577637184411287, -4.998779773712158, -2.2552614212036133, -0.3925323784351349, -0.0022430422250181437, -0.02018737979233265]"
1584446525412635885,,579166,,1584446525,412272076,'',"[shoulder_pan_joint, shoulder_lift_joint, elbow_joint, wrist_1_joint, wrist_2_joint,","[1.6302924156188965, -1.034464184437887, 2.140538215637207, -2.6659491697894495, -1.5933664480792444, 2.8532965183258057]","[0.0, 0.0, -0.0, 0.0, 0.0, -1.917476038215682e-05]","[0.0457763709127903, -4.975891590118408, -2.2575032711029053, -0.4037475883960724, -0.0022430422250181437, -0.02018737979233265]"
1584446525524648869,,579180,,1584446525,524301381,'',"[shoulder_pan_joint, shoulder_lift_joint, elbow_joint, wrist_1_joint, wrist_2_joint,","[1.6303044557571411, -1.034464184437887, 2.140538215637207, -2.6659610907184046, -1.5933783690081995, 2.8533084392547607]","[0.0, 0.0, -0.0, 0.0, 0.0, 0.0]","[0.0, -5.030823230743408, -2.2597451210021973, -0.4127197563648224, -0.0022430422250181437, -0.02018737979233265]"
1584446525636813226,,579194,,1584446525,636361884,'',"[shoulder_pan_joint, shoulder_lift_joint, elbow_joint, wrist_1_joint, wrist_2_joint,","[1.6303044557571411, -1.034464184437887, 2.140538215637207, -2.6659610907184046, -1.5933907667743128, 2.8532845973968506]","[0.0, 0.0, -0.0, 0.0, 0.0, 0.0]","[0.01373291201889515, -4.980469226837158, -2.270954132080078, -0.3925323784351349, -0.008972168900072575, -0.01794433780014515]"
1584446525748582616,,579208,,1584446525,748274892,'',"[shoulder_pan_joint, shoulder_lift_joint, elbow_joint, wrist_1_joint, wrist_2_joint,","[1.6303044557571411, -1.0344756285296839, 2.1405506134033203, -2.6659134070025843, -1.5933907667743128, 2.8532845973968506]","[0.0, 0.0, -0.0, 0.0, 0.0, 0.0]","[0.004577637184411287, -5.030823230743408, -2.2507777214050293, -0.3970184624195099, -0.006729126907885075, -0.02018737979233265]"
1584446525860493050,,579222,,1584446525,860206004,'',"[shoulder_pan_joint, shoulder_lift_joint, elbow_joint, wrist_1_joint, wrist_2_joint,","[1.6303523778915405, -1.0344756285296839, 2.140538215637207, -2.6659253279315394, -1.5933783690081995, 2.8533084392547607]","[0.0, 0.0, -0.0, 0.0, 0.0, 0.0]","[0.009155274368822575, -4.989624500274658, -2.2552614212036133, -0.4172058403491974, -0.004486084450036287, -0.02467346377670765]"
1584446525972628593,,579236,,1584446525,972259614,'',"[shoulder_pan_joint, shoulder_lift_joint, elbow_joint, wrist_1_joint, wrist_2_joint,","[1.6303163766860962, -1.0344999472247522, 2.1405506134033203, -2.6659253279315394, -1.5934026877032679, 2.8533084392547607]","[0.0, 0.0, -0.0, 0.0, 0.0, 0.0]","[0.0411987341940403, -4.980469226837158, -2.2485358715057373, -0.4037475883960724, -0.0022430422250181437, -0.01794433780014515]"
1584446526084577347,,579250,,1584446526,84205002,'',"[shoulder_pan_joint, shoulder_lift_joint, elbow_joint, wrist_1_joint, wrist_2_joint,","[1.6303163766860962, -1.034464184437887, 2.1405863761901855, -2.6659253279315394, -1.5934026877032679, 2.8532965183258057]","[0.0, 0.0, -0.0, 0.0, 0.0, 0.0]","[-0.009155274368822575, -4.975891590118408, -2.26198673248291, -0.3925323784351349, -0.008972168900072575, -0.02467346377670765]"
1584446526196443458,,579264,,1584446526,196177572,'',"[shoulder_pan_joint, shoulder_lift_joint, elbow_joint, wrist_1_joint, wrist_2_joint,","[1.6302924156188965, -1.0344756285296839, 2.1405506134033203, -2.6659491697894495, -1.5934026877032679, 2.8533084392547607]","[0.0, 0.0, -0.0, 0.0, 0.0, 0.0]","[-0.004577637184411287, -4.971313953399658, -2.2597451210021973, -0.4037475883960724, -0.004486084450036287, -0.01345825381577015]"
1584446526308566909,,579278,,1584446526,308221053,'',"[shoulder_pan_joint, shoulder_lift_joint, elbow_joint, wrist_1_joint, wrist_2_joint,","[1.6303523778915405, -1.0344517866717737, 2.1405744552612305, -2.6659372488604944, -1.593414608632223, 2.8532845973968506]","[0.0, 0.0, -0.0, 0.0, 0.0, 0.0]","[-0.02288818545639515, -4.966736316680908, -2.266470432281494, -0.4373932480812073, -0.008972168900072575, -0.02018737979233265]"
1584446526420571077,,579292,,1584446526,420196979,'',"[shoulder_pan_joint, shoulder_lift_joint, elbow_joint, wrist_1_joint, wrist_2_joint,","[1.6304242610931396, -1.0344398657428187, 2.1405625343322754, -2.6659491697894495, -1.593438450490133, 2.852973222732544]","[0.0, 0.0, -0.0, 0.0, 0.0, -0.028206072747707367]","[-0.2105713039636612, -5.094910144805908, -2.172314405441284, -0.4665527939796448, -0.0022430422250181437, -0.2108459621667862]"
1584446526532557632,,579306,,1584446526,532189615,'',"[shoulder_pan_joint, shoulder_lift_joint, elbow_joint, wrist_1_joint, wrist_2_joint,","[1.6309279203414917, -1.0344756285296839, 2.1405863761901855, -2.6659610907184046, -1.5934746901141565, 2.84952449798584]","[0.018497252836823463, 0.0, -0.0, 0.0, 0.0, -0.023757528513669968]","[0.5722046494483948, -4.985046863555908, -2.302339553833008, -0.4149627983570099, 0.004486084450036287, -0.2826233208179474]"
1584446526644564295,,579320,,1584446526,644185849,'',"[shoulder_pan_joint, shoulder_lift_joint, elbow_joint, wrist_1_joint, wrist_2_joint,","[1.6358696222305298, -1.0344756285296839, 2.1405625343322754, -2.6659491697894495, -1.5935104529010218, 2.847057819366455]","[0.0707804337143898, 0.0, -0.0, 0.0, 0.0, -0.021590780466794968]","[0.5630493760108948, -4.898071765899658, -2.282163143157959, -0.4104767143726349, 0.01345825381577015, -0.2086029201745987]"
1584446526756539399,,579334,,1584446526,756180078,'',"[shoulder_pan_joint, shoulder_lift_joint, elbow_joint, wrist_1_joint, wrist_2_joint,","[1.6460647583007812, -1.0344880262957972, 2.1405982971191406, -2.6659610907184046, -1.5934503714190882, 2.8444113731384277]","[0.10718691349029541, 0.0, -0.0, 0.0, 0.0, -0.021571604534983635]","[0.5355835556983948, -4.902649402618408, -2.2418105602264404, -0.4082336723804474, 0.0358886756002903, -0.2736511528491974]"
1584446526868546042,,579348,,1584446526,868185629,'',"[shoulder_pan_joint, shoulder_lift_joint, elbow_joint, wrist_1_joint, wrist_2_joint,","[1.6601215600967407, -1.0344880262957972, 2.1405506134033203, -2.6659253279315394, -1.593438450490133, 2.8426151275634766]","[0.1381988823413849, 0.0, -0.0, 0.0, 0.0, -0.010028399527072906]","[0.6225586533546448, -4.861450672149658, -2.284404993057251, -0.3880462944507599, 0.0628051832318306, -0.2669220268726349]"
1584446526980556992,,579362,,1584446526,980201709,'',"[shoulder_pan_joint, shoulder_lift_joint, elbow_joint, wrist_1_joint, wrist_2_joint,","[1.6762418746948242, -1.0344756285296839, 2.1405625343322754, -2.6659491697894495, -1.593426529561178, 2.844674587249756]","[0.1471598893404007, 0.0, -0.0, 0.0, -3.834952076431364e-05, 0.05000777542591095]","[0.9246827363967896, -4.966736316680908, -2.1409289836883545, -0.4127197563648224, 0.1009368970990181, 0.3454284965991974]"
1584446527092732750,,579376,,1584446527,92249469,'',"[shoulder_pan_joint, shoulder_lift_joint, elbow_joint, wrist_1_joint, wrist_2_joint,","[1.6919059753417969, -1.0344756285296839, 2.1405863761901855, -2.6659253279315394, -1.593438450490133, 2.850003480911255]","[0.12981311976909637, 0.0, -0.0, 0.0, -3.834952076431364e-05, 0.041244909167289734]","[0.8560181260108948, -4.861450672149658, -2.1678307056427, -0.4172058403491974, 0.0964508131146431, 0.3544006645679474]"
1584446527204571390,,579390,,1584446527,204227889,'',"[shoulder_pan_joint, shoulder_lift_joint, elbow_joint, wrist_1_joint, wrist_2_joint,","[1.7042717933654785, -1.034464184437887, 2.140646457672119, -2.665889565144674, -1.593426529561178, 2.85382342338562]","[0.08913706988096237, 0.0, 0.00017896443023346364, 0.0, -3.834952076431364e-05, 0.026614567264914513]","[1.0391236543655396, -4.916382312774658, -2.1342036724090576, -0.4172058403491974, 0.1121521145105362, 0.2871094048023224]"
1584446527316819754,,579404,,1584446527,316280538,'',"[shoulder_pan_joint, shoulder_lift_joint, elbow_joint, wrist_1_joint, wrist_2_joint,","[1.7113125324249268, -1.0344756285296839, 2.140658378601074, -2.6658652464496058, -1.593426529561178, 2.856661081314087]","[0.04315599426627159, 0.0, 0.0003707120195031166, 0.0, -3.834952076431364e-05, 0.019270634278655052]","[0.8377075791358948, -4.930115222930908, -2.1633472442626953, -0.4418793320655823, 0.0807495191693306, 0.3297272026538849]"
1584446527428734274,,579418,,1584446527,428232248,'',"[shoulder_pan_joint, shoulder_lift_joint, elbow_joint, wrist_1_joint, wrist_2_joint,","[1.7133632898330688, -1.0344756285296839, 2.1406822204589844, -2.665889565144674, -1.593438450490133, 2.8570449352264404]","[-0.0020836573094129562, 0.0, 0.00021731395099777728, 0.0, -3.834952076431364e-05, -0.0019174760673195124]","[0.0823974683880806, -4.930115222930908, -2.196974277496338, -0.4620667099952698, 0.0717773512005806, -0.0336456336081028]"
1584446527540699620,,579432,,1584446527,540234642,'',"[shoulder_pan_joint, shoulder_lift_joint, elbow_joint, wrist_1_joint, wrist_2_joint,","[1.7133034467697144, -1.0344756285296839, 2.1407060623168945, -2.665901486073629, -1.5934746901141565, 2.8570330142974854]","[-0.0002556634717620909, 0.0, 0.00012783173588104546, 0.0, 0.0, -0.00026844663079828024]","[0.2609253227710724, -5.021667957305908, -2.2350850105285645, -0.4261780083179474, -0.004486084450036287, -0.008972168900072575]"
1584446527652515668,,579446,,1584446527,652169281,'',"[shoulder_pan_joint, shoulder_lift_joint, elbow_joint, wrist_1_joint, wrist_2_joint,","[1.7132794857025146, -1.0344756285296839, 2.1406941413879395, -2.665877167378561, -1.5934866110431116, 2.8570687770843506]","[-0.00011504856229294091, 0.0, 8.948221511673182e-05, 0.0, 0.0, -0.00013422331539914012]","[0.2655029594898224, -4.994202136993408, -2.2440524101257324, -0.4418793320655823, -0.004486084450036287, -0.01345825381577015]"
1584446527764510017,,579460,,1584446527,764156407,'',"[shoulder_pan_joint, shoulder_lift_joint, elbow_joint, wrist_1_joint, wrist_2_joint,","[1.7132914066314697, -1.0344756285296839, 2.1406941413879395, -2.6658652464496058, -1.5934866110431116, 2.8570330142974854]","[-7.669904152862728e-05, 0.0, 6.391586794052273e-05, 0.0, 0.0, -0.00011504856229294091]","[0.2609253227710724, -5.039978504180908, -2.2530195713043213, -0.4306641221046448, -0.004486084450036287, -0.011215210892260075]"
1584446527876557095,,579474,,1584446527,876215307,'',"[shoulder_pan_joint, shoulder_lift_joint, elbow_joint, wrist_1_joint, wrist_2_joint,","[1.7132794857025146, -1.0344880262957972, 2.1406822204589844, -2.665877167378561, -1.5934746901141565, 2.8570449352264404]","[-5.1132694352418184e-05, 0.0, 5.1132694352418184e-05, 0.0, 0.0, -0.00011504856229294091]","[0.3158569633960724, -5.085754871368408, -2.2418105602264404, -0.4104767143726349, -0.006729126907885075, -0.01570129580795765]"
1584446527988513314,,579488,,1584446527,988164623,'',"[shoulder_pan_joint, shoulder_lift_joint, elbow_joint, wrist_1_joint, wrist_2_joint,","[1.7132794857025146, -1.0344517866717737, 2.1406941413879395, -2.6658533255206507, -1.5934622923480433, 2.8570449352264404]","[-3.834952076431364e-05, 0.0, 3.834952076431364e-05, 0.0, 0.0, -0.00011504856229294091]","[0.2563476860523224, -5.021667957305908, -2.2373268604278564, -0.4127197563648224, -0.008972168900072575, -0.01794433780014515]"
1584446528100557888,,579502,,1584446528,100210209,'',"[shoulder_pan_joint, shoulder_lift_joint, elbow_joint, wrist_1_joint, wrist_2_joint,","[1.71326744556427, -1.034464184437887, 2.1406822204589844, -2.6658652464496058, -1.5934985319720667, 2.8570330142974854]","[-2.5566347176209092e-05, 0.0, 3.834952076431364e-05, 0.0, 0.0, -7.669904152862728e-05]","[0.2700805962085724, -5.049133777618408, -2.2485358715057373, -0.4127197563648224, -0.006729126907885075, -0.01794433780014515]"
1584446528212565252,,579516,,1584446528,212268748,'',"[shoulder_pan_joint, shoulder_lift_joint, elbow_joint, wrist_1_joint, wrist_2_joint,","[1.7132914066314697, -1.034464184437887, 2.1407179832458496, -2.6659134070025843, -1.5934866110431116, 2.8570568561553955]","[-2.5566347176209092e-05, 0.0, 3.834952076431364e-05, 0.0, 0.0, -5.752428114647046e-05]","[0.3021240532398224, -4.985046863555908, -2.2373268604278564, -0.4373932480812073, -0.0022430422250181437, -0.01345825381577015]"
1584446528324527942,,579530,,1584446528,324105284,'',"[shoulder_pan_joint, shoulder_lift_joint, elbow_joint, wrist_1_joint, wrist_2_joint,","[1.7132914066314697, -1.0344880262957972, 2.1406822204589844, -2.665877167378561, -1.5934622923480433, 2.8570449352264404]","[-2.5566347176209092e-05, 0.0, 3.834952076431364e-05, 0.0, 0.0, -5.752428114647046e-05]","[0.2838135063648224, -5.044556140899658, -2.2350850105285645, -0.4082336723804474, -0.004486084450036287, -0.01570129580795765]"
1584446528436565733,,579544,,1584446528,436142614,'',"[shoulder_pan_joint, shoulder_lift_joint, elbow_joint, wrist_1_joint, wrist_2_joint,","[1.71326744556427, -1.034464184437887, 2.1406702995300293, -2.665877167378561, -1.5934985319720667, 2.857008695602417]","[-1.2783173588104546e-05, 0.0, 3.834952076431364e-05, 0.0, 0.0, -3.834952076431364e-05]","[0.2380371391773224, -5.067444324493408, -2.2373268604278564, -0.4059906303882599, -0.004486084450036287, -0.01794433780014515]"
1584446528548575242,,579558,,1584446528,548157823,'',"[shoulder_pan_joint, shoulder_lift_joint, elbow_joint, wrist_1_joint, wrist_2_joint,","[1.7132794857025146, -1.034464184437887, 2.140646457672119, -2.6658652464496058, -1.5934866110431116, 2.857020616531372]","[-1.2783173588104546e-05, 0.0, 3.834952076431364e-05, 0.0, 0.0, -3.834952076431364e-05]","[0.2563476860523224, -5.030823230743408, -2.2507777214050293, -0.4530945420265198, -0.0022430422250181437, -0.01345825381577015]"
1584446528660475386,,579572,,1584446528,660120393,'',"[shoulder_pan_joint, shoulder_lift_joint, elbow_joint, wrist_1_joint, wrist_2_joint,","[1.7132914066314697, -1.0344756285296839, 2.1406941413879395, -2.665889565144674, -1.5934985319720667, 2.8570568561553955]","[-1.2783173588104546e-05, 0.0, 3.834952076431364e-05, 0.0, 0.0, -1.917476038215682e-05]","[0.2700805962085724, -5.012512683868408, -2.2418105602264404, -0.4149627983570099, -0.004486084450036287, -0.01345825381577015]"
1584446528772476037,,579586,,1584446528,772093122,'',"[shoulder_pan_joint, shoulder_lift_joint, elbow_joint, wrist_1_joint, wrist_2_joint,","[1.71326744556427, -1.0344999472247522, 2.1406822204589844, -2.665901486073629, -1.5934985319720667, 2.8570330142974854]","[-1.2783173588104546e-05, 0.0, 3.834952076431364e-05, 0.0, 0.0, -1.917476038215682e-05]","[0.2334595024585724, -5.012512683868408, -2.2373268604278564, -0.4037475883960724, -0.004486084450036287, -0.01570129580795765]"
1584446528884619375,,579600,,1584446528,884210442,'',"[shoulder_pan_joint, shoulder_lift_joint, elbow_joint, wrist_1_joint, wrist_2_joint,","[1.7132794857025146, -1.034464184437887, 2.1406822204589844, -2.665889565144674, -1.5934746901141565, 2.8570568561553955]","[-1.2783173588104546e-05, 0.0, 3.834952076431364e-05, 0.0, 0.0, -1.917476038215682e-05]","[0.3112793266773224, -5.039978504180908, -2.2283596992492676, -0.4127197563648224, -0.004486084450036287, -0.011215210892260075]"
1584446528996531532,,579614,,1584446528,996131816,'',"[shoulder_pan_joint, shoulder_lift_joint, elbow_joint, wrist_1_joint, wrist_2_joint,","[1.71326744556427, -1.034464184437887, 2.1406822204589844, -2.6659134070025843, -1.5934746901141565, 2.8570568561553955]","[-1.2783173588104546e-05, 0.0, 2.5566347176209092e-05, 0.0, 0.0, -1.917476038215682e-05]","[0.3021240532398224, -5.026245594024658, -2.2261178493499756, -0.4351502060890198, -0.0022430422250181437, -0.01345825381577015]"
1584446529108601663,,579628,,1584446529,108133770,'',"[shoulder_pan_joint, shoulder_lift_joint, elbow_joint, wrist_1_joint, wrist_2_joint,","[1.7132794857025146, -1.0344880262957972, 2.140658378601074, -2.665877167378561, -1.5934866110431116, 2.857020616531372]","[-1.2783173588104546e-05, 0.0, 2.5566347176209092e-05, 0.0, 0.0, -1.917476038215682e-05]","[0.2746582329273224, -5.017090320587158, -2.2350850105285645, -0.4216919243335724, -0.011215210892260075, -0.0269165076315403]"
1584446529220591524,,579642,,1584446529,220163014,'',"[shoulder_pan_joint, shoulder_lift_joint, elbow_joint, wrist_1_joint, wrist_2_joint,","[1.7132914066314697, -1.0345118681537073, 2.1406822204589844, -2.665877167378561, -1.5934746901141565, 2.8570330142974854]","[-1.2783173588104546e-05, 0.0, 2.5566347176209092e-05, 0.0, 0.0, -1.917476038215682e-05]","[0.2838135063648224, -5.012512683868408, -2.2261178493499756, -0.4082336723804474, -0.0022430422250181437, -0.02243042178452015]"
1584446529332488522,,579656,,1584446529,332067106,'',"[shoulder_pan_joint, shoulder_lift_joint, elbow_joint, wrist_1_joint, wrist_2_joint,","[1.71326744556427, -1.0344756285296839, 2.1406702995300293, -2.665877167378561, -1.5934866110431116, 2.857020616531372]","[-1.2783173588104546e-05, 0.0, 2.5566347176209092e-05, 0.0, 0.0, -1.917476038215682e-05]","[0.2746582329273224, -4.989624500274658, -2.2216341495513916, -0.4216919243335724, -0.008972168900072575, -0.02018737979233265]"
1584446529444514861,,579670,,1584446529,444113392,'',"[shoulder_pan_joint, shoulder_lift_joint, elbow_joint, wrist_1_joint, wrist_2_joint,","[1.7133393287658691, -1.0344756285296839, 2.1407060623168945, -2.665877167378561, -1.5934622923480433, 2.8570449352264404]","[0.0, 0.0, 1.2783173588104546e-05, 0.0, 0.0, -1.917476038215682e-05]","[0.2151489406824112, -5.021667957305908, -2.2261178493499756, -0.4127197563648224, 0.0, -0.01345825381577015]"
1584446529556447777,,579684,,1584446529,556052169,'',"[shoulder_pan_joint, shoulder_lift_joint, elbow_joint, wrist_1_joint, wrist_2_joint,","[1.7133753299713135, -1.0344880262957972, 2.140754222869873, -2.6659253279315394, -1.593558136616842, 2.8568289279937744]","[0.0004218447138555348, 0.0, -0.0, 0.0, 0.0, -0.020248547196388245]","[-0.2883911430835724, -5.145264148712158, -2.0736746788024902, -0.4620667099952698, -0.0022430422250181437, -0.1884155422449112]"
1584446529668476100,,579698,,1584446529,668096912,'',"[shoulder_pan_joint, shoulder_lift_joint, elbow_joint, wrist_1_joint, wrist_2_joint,","[1.7136154174804688, -1.0344999472247522, 2.1407899856567383, -2.665889565144674, -1.5935705343829554, 2.853692054748535]","[0.005368933081626892, 0.0, 0.00046019424917176366, 0.0, -0.00036432043998502195, -0.02316311001777649]","[0.1922607570886612, -5.049133777618408, -2.2171506881713867, -0.4261780083179474, 0.0022430422250181437, -0.3005676567554474]"
1584446529780520122,,579712,,1584446529,780106721,'',"[shoulder_pan_joint, shoulder_lift_joint, elbow_joint, wrist_1_joint, wrist_2_joint,","[1.7172855138778687, -1.0344880262957972, 2.140742301940918, -2.6658652464496058, -1.5936420599566858, 2.8516321182250977]","[0.058099523186683655, 0.0, 0.00024288029817398638, 0.0, -0.0003067961661145091, -0.0173915084451437]","[0.3799438774585724, -4.911804676055908, -2.279921293258667, -0.3970184624195099, 0.01794433780014515, -0.2377624809741974]"
1584446529892373098,,579726,,1584446529,892033905,'',"[shoulder_pan_joint, shoulder_lift_joint, elbow_joint, wrist_1_joint, wrist_2_joint,","[1.726184606552124, -1.034464184437887, 2.1408262252807617, -2.665877167378561, -1.5936663786517542, 2.849907636642456]","[0.09853269904851913, 0.0, 0.00014061490946915, 0.0, -0.0001917476038215682, -0.014112623408436775]","[0.7278442978858948, -4.920959949493408, -2.2306015491485596, -0.3902893364429474, 0.0291595496237278, -0.2287903130054474]"
1584446530004549438,,579740,,1584446530,4096092,'',"[shoulder_pan_joint, shoulder_lift_joint, elbow_joint, wrist_1_joint, wrist_2_joint,","[1.7375909090042114, -1.0344756285296839, 2.1416425704956055, -2.6658533255206507, -1.5937379042254847, 2.8479080200195312]","[0.10806895047426224, -0.004832039587199688, 0.024032365530729294, -0.004621117375791073, -0.00011504856229294091, -0.022894663736224174]","[1.0345460176467896, -5.621338367462158, -1.9257152080535889, -0.7469330430030823, 0.0515899695456028, -0.2310333549976349]"
1584446530116593490,,579754,,1584446530,116192562,'',"[shoulder_pan_joint, shoulder_lift_joint, elbow_joint, wrist_1_joint, wrist_2_joint,","[1.749416708946228, -1.0366581122027796, 2.147127628326416, -2.6675651709186, -1.5936663786517542, 2.8445191383361816]","[0.10928335040807724, -0.026640133932232857, 0.056476060301065445, -0.020363595336675644, -0.00011504856229294091, -0.030430344864726067]","[0.9429932832717896, -5.973816394805908, -1.8808790445327759, -0.8972169160842896, 0.0874786451458931, -0.2826233208179474]"
1584446530228566470,,579768,,1584446530,228112443,'',"[shoulder_pan_joint, shoulder_lift_joint, elbow_joint, wrist_1_joint, wrist_2_joint,","[1.7613743543624878, -1.0395715872394007, 2.1523003578186035, -2.6691458860980433, -1.5937140623675745, 2.8416690826416016]","[0.10048852860927582, -0.02598819136619568, 0.03955113887786865, -0.009299758821725845, -0.00011504856229294091, -0.02113058604300022]","[0.9292603731155396, -5.873108386993408, -1.914506196975708, -1.020584225654602, 0.0986938551068306, -0.2512207329273224]"
1584446530340504535,,579782,,1584446530,340048213,'',"[shoulder_pan_joint, shoulder_lift_joint, elbow_joint, wrist_1_joint, wrist_2_joint,","[1.7701295614242554, -1.0423882643329065, 2.1573171615600586, -2.670666042958395, -1.5936663786517542, 2.8390345573425293]","[0.05579855293035507, -0.023060845211148262, 0.0464540533721447, -0.02088131383061409, -9.58738019107841e-05, -0.019539080560207367]","[1.0162354707717896, -5.882263660430908, -1.8517354726791382, -1.034042477607727, 0.0919647291302681, -0.3274841606616974]"
1584446530452485220,,579796,,1584446530,452023909,'',"[shoulder_pan_joint, shoulder_lift_joint, elbow_joint, wrist_1_joint, wrist_2_joint,","[1.775107502937317, -1.0438993612872522, 2.160329818725586, -2.6725452581988733, -1.5936902205096644, 2.8374900817871094]","[0.03791489079594612, -0.0017896442441269755, 0.006621683947741985, -0.0033747577108442783, -5.752428114647046e-05, -0.014361895620822906]","[1.2222291231155396, -5.580139636993408, -1.7575794458389282, -0.881515622138977, 0.0897216871380806, -0.2781372368335724]"
1584446530564462097,,579810,,1584446530,564026073,'',"[shoulder_pan_joint, shoulder_lift_joint, elbow_joint, wrist_1_joint, wrist_2_joint,","[1.7778059244155884, -1.0438392798053187, 2.1603899002075195, -2.672389809285299, -1.5937140623675745, 2.835310459136963]","[0.01062281709164381, 0.0004090615548193455, -0.0, 0.0006327670998871326, 0.0, -0.025003887712955475]","[0.9704591035842896, -4.939270496368408, -2.275437593460083, -0.6527252793312073, 0.0762634351849556, -0.2871094048023224]"
1584446530676603691,,579824,,1584446530,676081567,'',"[shoulder_pan_joint, shoulder_lift_joint, elbow_joint, wrist_1_joint, wrist_2_joint,","[1.777829885482788, -1.043863598500387, 2.1604137420654297, -2.6722939650165003, -1.5937259832965296, 2.8328919410705566]","[-0.004653075244277716, 0.00014061490946915, -0.0, 0.0004026699753012508, 0.0, -0.015263109467923641]","[-0.1876831203699112, -4.962158679962158, -2.288888454437256, -0.6661835312843323, 0.0964508131146431, -0.2400055229663849]"
1584446530788565109,,579838,,1584446530,788096886,'',"[shoulder_pan_joint, shoulder_lift_joint, elbow_joint, wrist_1_joint, wrist_2_joint,","[1.7777220010757446, -1.043863598500387, 2.1603899002075195, -2.672030750905172, -1.593774143849508, 2.8325562477111816]","[-0.00029401297797448933, 7.669904152862728e-05, -0.0, 0.009759953245520592, -0.004716990981251001, -0.0005752427969127893]","[0.0411987341940403, -5.076599597930908, -2.27319598197937, -0.4822540879249573, 0.011215210892260075, 0.0560760572552681]"
1584446530900382479,,579852,,1584446530,899961925,'',"[shoulder_pan_joint, shoulder_lift_joint, elbow_joint, wrist_1_joint, wrist_2_joint,","[1.7777099609375, -1.0438035170184534, 2.1603779792785645, -2.671875301991598, -1.593762222920553, 2.8325202465057373]","[-0.00017896443023346364, 5.1132694352418184e-05, -0.0, -0.0007286408799700439, -0.00028762139845639467, -0.0001917476038215682]","[0.009155274368822575, -5.117798328399658, -2.268712282180786, -0.6258087754249573, -0.006729126907885075, 0.0515899695456028]"
1584446531012398329,,579866,,1584446531,12004595,'',"[shoulder_pan_joint, shoulder_lift_joint, elbow_joint, wrist_1_joint, wrist_2_joint,","[1.7777459621429443, -1.0438035170184534, 2.1603899002075195, -2.671875301991598, -1.593774143849508, 2.8325562477111816]","[-0.00010226538870483637, 3.834952076431364e-05, -0.0, 0.0, -0.00013422331539914012, -0.00011504856229294091]","[-0.01373291201889515, -5.099487781524658, -2.279921293258667, -0.8030090928077698, 0.0, 0.0448608435690403]"
1584446531124502854,,579880,,1584446531,124083111,'',"[shoulder_pan_joint, shoulder_lift_joint, elbow_joint, wrist_1_joint, wrist_2_joint,","[1.7777220010757446, -1.0438035170184534, 2.1603779792785645, -2.672282044087545, -1.593762222920553, 2.8325562477111816]","[-6.391586794052273e-05, 3.834952076431364e-05, -0.0, -0.002147573046386242, -9.58738019107841e-05, -7.669904152862728e-05]","[-0.01373291201889515, -5.104065418243408, -2.279921293258667, -0.8187103867530823, 0.0022430422250181437, 0.0538330152630806]"
1584446531236529124,,579894,,1584446531,236012029,'',"[shoulder_pan_joint, shoulder_lift_joint, elbow_joint, wrist_1_joint, wrist_2_joint,","[1.7777099609375, -1.043863598500387, 2.1604018211364746, -2.6722939650165003, -1.593774143849508, 2.832580327987671]","[-5.1132694352418184e-05, 2.5566347176209092e-05, -0.0, -0.00026844663079828024, -9.58738019107841e-05, -5.752428114647046e-05]","[-0.009155274368822575, -5.099487781524658, -2.297855854034424, -0.8456268906593323, 0.01345825381577015, 0.0426178015768528]"
1584446531348431693,,579908,,1584446531,347976674,'',"[shoulder_pan_joint, shoulder_lift_joint, elbow_joint, wrist_1_joint, wrist_2_joint,","[1.7777220010757446, -1.0438273588763636, 2.1604137420654297, -2.6723063627826136, -1.593774143849508, 2.8325681686401367]","[-3.834952076431364e-05, 2.5566347176209092e-05, -0.0, -0.00013422331539914012, -9.58738019107841e-05, -3.834952076431364e-05]","[-0.004577637184411287, -5.108643054962158, -2.264228582382202, -0.8456268906593323, 0.0403747595846653, 0.0583190992474556]"
1584446531460497345,,579922,,1584446531,460047165,'',"[shoulder_pan_joint, shoulder_lift_joint, elbow_joint, wrist_1_joint, wrist_2_joint,","[1.777698040008545, -1.0438273588763636, 2.1603779792785645, -2.6723297278033655, -1.593774143849508, 2.8325443267822266]","[-2.5566347176209092e-05, 2.5566347176209092e-05, -0.0, -0.00013422331539914012, -9.58738019107841e-05, -3.834952076431364e-05]","[0.01373291201889515, -5.117798328399658, -2.270954132080078, -0.8658143281936646, 0.0897216871380806, 0.0538330152630806]"
1584446531572497596,,579936,,1584446531,572049861,'',"[shoulder_pan_joint, shoulder_lift_joint, elbow_joint, wrist_1_joint, wrist_2_joint,","[1.7776859998703003, -1.0438392798053187, 2.1604018211364746, -2.6723297278033655, -1.5937860647784632, 2.8325681686401367]","[-2.5566347176209092e-05, 1.2783173588104546e-05, -0.0, -0.00013422331539914012, 0.0, -3.834952076431364e-05]","[-0.004577637184411287, -5.104065418243408, -2.264228582382202, -0.8478699326515198, 0.1457977443933487, 0.0538330152630806]"
1584446531684408690,,579950,,1584446531,683968960,'',"[shoulder_pan_joint, shoulder_lift_joint, elbow_joint, wrist_1_joint, wrist_2_joint,","[1.7777099609375, -1.0438392798053187, 2.1603541374206543, -2.6723297278033655, -1.593774143849508, 2.832580327987671]","[-2.5566347176209092e-05, 1.2783173588104546e-05, -0.0, -9.58738019107841e-05, 0.0, -1.917476038215682e-05]","[0.02288818545639515, -5.108643054962158, -2.266470432281494, -0.8344116806983948, 0.1570129543542862, 0.0448608435690403]"
1584446531796552008,,579964,,1584446531,796063346,'',"[shoulder_pan_joint, shoulder_lift_joint, elbow_joint, wrist_1_joint, wrist_2_joint,","[1.777698040008545, -1.0438154379474085, 2.1604018211364746, -2.6723416487323206, -1.593762222920553, 2.8325562477111816]","[-1.2783173588104546e-05, 1.2783173588104546e-05, -0.0, -7.669904152862728e-05, 0.0, -1.917476038215682e-05]","[-0.0411987341940403, -5.104065418243408, -2.2575032711029053, -0.8456268906593323, 0.1659851223230362, 0.0515899695456028]"
1584446531908440030,,579978,,1584446531,907989309,'',"[shoulder_pan_joint, shoulder_lift_joint, elbow_joint, wrist_1_joint, wrist_2_joint,","[1.777698040008545, -1.0438512007342737, 2.1604137420654297, -2.6723535696612757, -1.5937259832965296, 2.8325443267822266]","[-1.2783173588104546e-05, 1.2783173588104546e-05, -0.0, -5.752428114647046e-05, 0.0, -1.917476038215682e-05]","[0.004577637184411287, -5.122375965118408, -2.275437593460083, -0.8254395127296448, 0.1570129543542862, 0.0583190992474556]"
1584446532020370090,,579992,,1584446532,19931251,'',"[shoulder_pan_joint, shoulder_lift_joint, elbow_joint, wrist_1_joint, wrist_2_joint,","[1.7777339220046997, -1.0438273588763636, 2.1603541374206543, -2.6723297278033655, -1.593750301991598, 2.8325443267822266]","[-1.2783173588104546e-05, 1.2783173588104546e-05, -0.0, -3.834952076431364e-05, 0.0, -1.917476038215682e-05]","[0.0411987341940403, -5.099487781524658, -2.286646842956543, -0.8456268906593323, 0.1368255764245987, 0.0448608435690403]"
1584446532132597194,,580006,,1584446532,132074178,'',"[shoulder_pan_joint, shoulder_lift_joint, elbow_joint, wrist_1_joint, wrist_2_joint,","[1.7777220010757446, -1.043863598500387, 2.1603899002075195, -2.6723535696612757, -1.5937379042254847, 2.8325443267822266]","[-1.2783173588104546e-05, 1.2783173588104546e-05, -0.0, -3.834952076431364e-05, 0.0, -1.917476038215682e-05]","[0.004577637184411287, -5.113220691680908, -2.27319598197937, -0.8433838486671448, 0.1727142482995987, 0.0471038855612278]"
1584446532244432366,,580020,,1584446532,243969593,'',"[shoulder_pan_joint, shoulder_lift_joint, elbow_joint, wrist_1_joint, wrist_2_joint,","[1.7777220010757446, -1.0438392798053187, 2.1604137420654297, -2.6723654905902308, -1.593762222920553, 2.8325681686401367]","[-1.2783173588104546e-05, 1.2783173588104546e-05, -0.0, -3.834952076431364e-05, 0.0, -1.917476038215682e-05]","[0.0457763709127903, -5.104065418243408, -2.286646842956543, -0.8456268906593323, 0.1570129543542862, 0.0515899695456028]"
1584446532356413021,,580034,,1584446532,355953213,'',"[shoulder_pan_joint, shoulder_lift_joint, elbow_joint, wrist_1_joint, wrist_2_joint,","[1.7777099609375, -1.0438273588763636, 2.1603779792785645, -2.6723654905902308, -1.593762222920553, 2.832580327987671]","[-1.2783173588104546e-05, 1.2783173588104546e-05, -0.0, -1.917476038215682e-05, 0.0, -1.917476038215682e-05]","[0.0274658240377903, -5.126953601837158, -2.27319598197937, -0.8523560166358948, 0.1323394924402237, 0.0538330152630806]"
1584446532468334475,,580048,,1584446532,467915082,'',"[shoulder_pan_joint, shoulder_lift_joint, elbow_joint, wrist_1_joint, wrist_2_joint,","[1.7777220010757446, -1.043863598500387, 2.1603899002075195, -2.6723535696612757, -1.593750301991598, 2.832580327987671]","[-1.2783173588104546e-05, 0.0, -0.0, -1.917476038215682e-05, 0.0, -1.917476038215682e-05]","[0.0, -5.099487781524658, -2.270954132080078, -0.8478699326515198, 0.1457977443933487, 0.0515899695456028]"
1584446532580311943,,580062,,1584446532,579908009,'',"[shoulder_pan_joint, shoulder_lift_joint, elbow_joint, wrist_1_joint, wrist_2_joint,","[1.777698040008545, -1.0438154379474085, 2.1604018211364746, -2.6723416487323206, -1.593762222920553, 2.8325562477111816]","[-1.2783173588104546e-05, 0.0, -0.0, -1.917476038215682e-05, 0.0, 0.0]","[0.0, -5.145264148712158, -2.275437593460083, -0.8590851426124573, 0.1457977443933487, 0.0493469275534153]"
1584446532692359181,,580076,,1584446532,691955077,'',"[shoulder_pan_joint, shoulder_lift_joint, elbow_joint, wrist_1_joint, wrist_2_joint,","[1.7777339220046997, -1.0438035170184534, 2.1603899002075195, -2.6723297278033655, -1.593774143849508, 2.8325443267822266]","[0.0, 0.0, -0.0, -1.917476038215682e-05, 0.0, 0.0]","[-0.01831054873764515, -5.090332508087158, -2.264228582382202, -0.8703004121780396, 0.1682281643152237, 0.0515899695456028]"
1584446532804402833,,580090,,1584446532,803961330,'',"[shoulder_pan_joint, shoulder_lift_joint, elbow_joint, wrist_1_joint, wrist_2_joint,","[1.7778059244155884, -1.0438035170184534, 2.1603899002075195, -2.6719587484942835, -1.5939057509051722, 2.831993341445923]","[0.0, 0.0, -0.0, 0.0007861651829443872, -0.0019366508349776268, -0.014112623408436775]","[0.009155274368822575, -5.039978504180908, -2.3068230152130127, -0.4059906303882599, 0.006729126907885075, -0.2512207329273224]"
1584446532916305282,,580104,,1584446532,915936664,'',"[shoulder_pan_joint, shoulder_lift_joint, elbow_joint, wrist_1_joint, wrist_2_joint,","[1.777974009513855, -1.0438154379474085, 2.1604018211364746, -2.671683136616842, -1.5940492788897913, 2.8293955326080322]","[0.00250550196506083, 0.0, -0.0, 0.0015339808305725455, -0.001208009896799922, -0.025349033996462822]","[0.1098632961511612, -5.140686511993408, -2.194732427597046, -0.4912262558937073, 0.006729126907885075, -0.2983246147632599]"
1584446533028264686,,580118,,1584446533,27893393,'',"[shoulder_pan_joint, shoulder_lift_joint, elbow_joint, wrist_1_joint, wrist_2_joint,","[1.7803484201431274, -1.0438154379474085, 2.1603779792785645, -2.671419922505514, -1.5943849722491663, 2.8272159099578857]","[0.04292589798569679, 0.0, -0.0, 0.00404587434604764, -0.002895388752222061, -0.011274758726358414]","[0.6271362900733948, -4.989624500274658, -2.3292412757873535, -0.4934692978858948, 0.0358886756002903, -0.2691650688648224]"
1584446533140463457,,580132,,1584446533,140047661,'',"[shoulder_pan_joint, shoulder_lift_joint, elbow_joint, wrist_1_joint, wrist_2_joint,","[1.7871966361999512, -1.0438273588763636, 2.1604857444763184, -2.6704862753497522, -1.595008675252096, 2.8277666568756104]","[0.07862929999828339, 0.0, 2.5566347176209092e-05, 0.008858739398419857, -0.006059224251657724, 0.039154861122369766]","[1.0482789278030396, -4.994202136993408, -2.268712282180786, -0.5966492295265198, 0.1435547024011612, 0.3050537407398224]"
1584446533252357500,,580146,,1584446533,251915355,'',"[shoulder_pan_joint, shoulder_lift_joint, elbow_joint, wrist_1_joint, wrist_2_joint,","[1.7960121631622314, -1.0438993612872522, 2.162022113800049, -2.6700432936297815, -1.595942799245016, 2.830940008163452]","[0.07501166313886642, -0.0037710361648350954, 0.03730130195617676, -0.002147573046386242, -0.005368933081626892, 0.012521118856966496]","[0.7690430283546448, -6.198120594024658, -2.098334789276123, -1.0452576875686646, 0.3409424126148224, 0.3992615044116974]"
1584446533364398738,,580160,,1584446533,363948317,'',"[shoulder_pan_joint, shoulder_lift_joint, elbow_joint, wrist_1_joint, wrist_2_joint,","[1.804887294769287, -1.0452654997455042, 2.16768741607666, -2.6714442412005823, -1.5960148016559046, 2.828209638595581]","[0.08466295897960663, -0.021514080464839935, 0.060924604535102844, -0.01792840100824833, -0.0004410194815136492, -0.04632622003555298]","[0.7141113877296448, -6.239319324493408, -1.9481333494186401, -1.0497437715530396, 0.3117828667163849, -0.3072967827320099]"
1584446533476285847,,580174,,1584446533,475907501,'',"[shoulder_pan_joint, shoulder_lift_joint, elbow_joint, wrist_1_joint, wrist_2_joint,","[1.8154056072235107, -1.0484908262835901, 2.1747565269470215, -2.674293343220846, -1.5959909597979944, 2.8238987922668457]","[0.10217590630054474, -0.031139811500906944, 0.056245964020490646, -0.020555343478918076, -0.00017257283616345376, -0.032654616981744766]","[0.7278442978858948, -6.097412586212158, -2.0378057956695557, -1.0183411836624146, 0.4082336723804474, -0.3252411186695099]"
1584446533588345138,,580188,,1584446533,587925475,'',"[shoulder_pan_joint, shoulder_lift_joint, elbow_joint, wrist_1_joint, wrist_2_joint,","[1.8265831470489502, -1.0520041624652308, 2.181741237640381, -2.6772025267230433, -1.5960148016559046, 2.820964813232422]","[0.09477444738149643, -0.036495961248874664, 0.0784631222486496, -0.03374757990241051, -0.00011504856229294091, -0.029375731945037842]","[0.8697510361671448, -6.042480945587158, -2.001936912536621, -1.0228272676467896, 0.3858032524585724, -0.2355194389820099]"
1584446533700326314,,580202,,1584446533,699937909,'',"[shoulder_pan_joint, shoulder_lift_joint, elbow_joint, wrist_1_joint, wrist_2_joint,","[1.8359264135360718, -1.0565474669085901, 2.1899867057800293, -2.6816795508014124, -1.5959909597979944, 2.8170135021209717]","[0.07920454442501068, -0.029874276369810104, 0.05854693427681923, -0.033555831760168076, -7.669904152862728e-05, -0.04030534625053406]","[0.8926392793655396, -5.914307117462158, -1.9279570579528809, -1.0990906953811646, 0.3902893364429474, -0.2377624809741974]"
1584446533812263226,,580216,,1584446533,811882646,'',"[shoulder_pan_joint, shoulder_lift_joint, elbow_joint, wrist_1_joint, wrist_2_joint,","[1.8433618545532227, -1.0589097181903284, 2.196359634399414, -2.6853788534747522, -1.595942799245016, 2.8113977909088135]","[0.04796246811747551, -0.020018449053168297, 0.048959553241729736, -0.03363252803683281, -5.752428114647046e-05, -0.04647962003946304]","[1.1993409395217896, -5.973816394805908, -1.9055389165878296, -1.0273133516311646, 0.4172058403491974, -0.3162689507007599]"
1584446533924331123,,580230,,1584446533,923894037,'',"[shoulder_pan_joint, shoulder_lift_joint, elbow_joint, wrist_1_joint, wrist_2_joint,","[1.8468399047851562, -1.0605877081500452, 2.199036121368408, -2.687294308339254, -1.595966641102926, 2.806715726852417]","[0.018228804692626, -0.001470064977183938, 0.0017512948252260685, -0.0016490294365212321, 0.00013422331539914012, -0.03359417989850044]","[0.9750367403030396, -5.387878894805908, -2.0400476455688477, -0.8231964707374573, 0.3409424126148224, -0.3050537407398224]"
1584446534036232189,,580244,,1584446534,35840959,'',"[shoulder_pan_joint, shoulder_lift_joint, elbow_joint, wrist_1_joint, wrist_2_joint,","[1.8475717306137085, -1.0605276266681116, 2.1989760398864746, -2.68716270128359, -1.595942799245016, 2.802225351333618]","[-0.005854693241417408, 0.0003067961661145091, 0.0003451456723269075, 0.0003834952076431364, 0.00013422331539914012, -0.04722743481397629]","[-0.02288818545639515, -5.122375965118408, -2.3426921367645264, -0.7536621689796448, 0.3701019585132599, -0.2534637749195099]"
1584446534148405552,,580258,,1584446534,147963387,'',"[shoulder_pan_joint, shoulder_lift_joint, elbow_joint, wrist_1_joint, wrist_2_joint,","[1.8466241359710693, -1.0605276266681116, 2.1989402770996094, -2.6872108618365687, -1.5959189573871058, 2.799123764038086]","[-0.0013550163712352514, 0.00012783173588104546, 0.0001661812566453591, 0.00017257283616345376, 0.00013422331539914012, -0.002281796419993043]","[-0.0732421949505806, -5.058289051055908, -2.4211554527282715, -0.6953430771827698, 0.3611297905445099, -0.0785064771771431]"
1584446534260295297,,580272,,1584446534,259856629,'',"[shoulder_pan_joint, shoulder_lift_joint, elbow_joint, wrist_1_joint, wrist_2_joint,","[1.8466122150421143, -1.0605395475970667, 2.1989521980285645, -2.6867316404925745, -1.5960748831378382, 2.799135684967041]","[0.0001661812566453591, 7.669904152862728e-05, 0.00010226538870483637, 0.001418932224623859, -0.000517718552146107, 0.0003834952076431364]","[-0.1190185695886612, -4.966736316680908, -2.297855854034424, -0.6056213974952698, 0.1323394924402237, -0.0336456336081028]"
1584446534372268277,,580286,,1584446534,371839026,'',"[shoulder_pan_joint, shoulder_lift_joint, elbow_joint, wrist_1_joint, wrist_2_joint,","[1.846648097038269, -1.0605276266681116, 2.1989521980285645, -2.686767880116598, -1.5960748831378382, 2.799123764038086]","[0.00011504856229294091, 5.1132694352418184e-05, 7.669904152862728e-05, 0.00024927189224399626, -0.00028762139845639467, 0.00017257283616345376]","[-0.1235962063074112, -4.975891590118408, -2.300097703933716, -0.7043152451515198, 0.1457977443933487, -0.02467346377670765]"
1584446534484295107,,580300,,1584446534,483874553,'',"[shoulder_pan_joint, shoulder_lift_joint, elbow_joint, wrist_1_joint, wrist_2_joint,","[1.846648097038269, -1.0605276266681116, 2.1989521980285645, -2.686803642903463, -1.5960868040667933, 2.7991116046905518]","[7.669904152862728e-05, 3.834952076431364e-05, 6.391586794052273e-05, -0.0004026699753012508, -0.00015339808305725455, 9.58738019107841e-05]","[-0.1144409328699112, -4.975891590118408, -2.275437593460083, -0.912918210029602, 0.1839294582605362, -0.0269165076315403]"
1584446534596217202,,580314,,1584446534,595834398,'',"[shoulder_pan_joint, shoulder_lift_joint, elbow_joint, wrist_1_joint, wrist_2_joint,","[1.8466241359710693, -1.0605395475970667, 2.1989641189575195, -2.68713885942568, -1.5961106459247034, 2.799147605895996]","[5.1132694352418184e-05, 3.834952076431364e-05, 5.1132694352418184e-05, -0.000690291344653815, -9.58738019107841e-05, 7.669904152862728e-05]","[-0.0869751051068306, -5.017090320587158, -2.3180320262908936, -0.8388977646827698, 0.2489776909351349, -0.02243042178452015]"
1584446534708243252,,580328,,1584446534,707826644,'',"[shoulder_pan_joint, shoulder_lift_joint, elbow_joint, wrist_1_joint, wrist_2_joint,","[1.846648097038269, -1.0604918638812464, 2.1989402770996094, -2.687174622212545, -1.596062485371725, 2.799159526824951]","[3.834952076431364e-05, 2.5566347176209092e-05, 3.834952076431364e-05, -0.0002109223569277674, -7.669904152862728e-05, 5.752428114647046e-05]","[-0.1052856519818306, -4.998779773712158, -2.284404993057251, -0.8658143281936646, 0.3790741264820099, -0.02467346377670765]"
1584446534820233634,,580342,,1584446534,819820784,'',"[shoulder_pan_joint, shoulder_lift_joint, elbow_joint, wrist_1_joint, wrist_2_joint,","[1.8466241359710693, -1.06055194536318, 2.1989521980285645, -2.687126938496725, -1.5960505644427698, 2.7991116046905518]","[2.5566347176209092e-05, 2.5566347176209092e-05, 3.834952076431364e-05, -0.00011504856229294091, 0.0, 3.834952076431364e-05]","[-0.1144409328699112, -4.998779773712158, -2.300097703933716, -0.881515622138977, 0.4553375840187073, -0.02243042178452015]"
1584446534932164746,,580356,,1584446534,931796108,'',"[shoulder_pan_joint, shoulder_lift_joint, elbow_joint, wrist_1_joint, wrist_2_joint,","[1.846648097038269, -1.0605157057391565, 2.1989879608154297, -2.68711501756777, -1.595954720173971, 2.799123764038086]","[2.5566347176209092e-05, 2.5566347176209092e-05, 2.5566347176209092e-05, -7.669904152862728e-05, 0.0007286408799700439, 3.834952076431364e-05]","[-0.1373291164636612, -5.007935047149658, -2.29337215423584, -0.8501129746437073, 0.4486084580421448, -0.0269165076315403]"
1584446535044343369,,580370,,1584446535,43821435,'',"[shoulder_pan_joint, shoulder_lift_joint, elbow_joint, wrist_1_joint, wrist_2_joint,","[1.846648097038269, -1.0605395475970667, 2.1989641189575195, -2.68713885942568, -1.5959189573871058, 2.799135684967041]","[2.5566347176209092e-05, 1.2783173588104546e-05, 2.5566347176209092e-05, -5.752428114647046e-05, 0.0002109223569277674, 3.834952076431364e-05]","[-0.1144409328699112, -5.007935047149658, -2.291130304336548, -0.8613282442092896, 0.4373932480812073, -0.0269165076315403]"
1584446535156171439,,580384,,1584446535,155807500,'',"[shoulder_pan_joint, shoulder_lift_joint, elbow_joint, wrist_1_joint, wrist_2_joint,","[1.846636176109314, -1.0605157057391565, 2.1989283561706543, -2.68711501756777, -1.595942799245016, 2.799135684967041]","[1.2783173588104546e-05, 1.2783173588104546e-05, 2.5566347176209092e-05, -5.752428114647046e-05, 0.0001917476038215682, 1.917476038215682e-05]","[-0.0961303785443306, -4.998779773712158, -2.302339553833008, -0.8545990586280823, 0.4284210503101349, -0.02467346377670765]"
1584446535268175076,,580398,,1584446535,267804785,'',"[shoulder_pan_joint, shoulder_lift_joint, elbow_joint, wrist_1_joint, wrist_2_joint,","[1.8466601371765137, -1.06055194536318, 2.1989641189575195, -2.687150780354635, -1.595942799245016, 2.799123764038086]","[1.2783173588104546e-05, 1.2783173588104546e-05, 2.5566347176209092e-05, -3.834952076431364e-05, 0.00015339808305725455, 1.917476038215682e-05]","[-0.0961303785443306, -5.003357410430908, -2.302339553833008, -0.8501129746437073, 0.4463654160499573, -0.02243042178452015]"
1584446535380216143,,580412,,1584446535,379848527,'',"[shoulder_pan_joint, shoulder_lift_joint, elbow_joint, wrist_1_joint, wrist_2_joint,","[1.846636176109314, -1.0605395475970667, 2.1989402770996094, -2.687174622212545, -1.5959070364581507, 2.799135684967041]","[1.2783173588104546e-05, 1.2783173588104546e-05, 2.5566347176209092e-05, -3.834952076431364e-05, 9.58738019107841e-05, 1.917476038215682e-05]","[-0.1052856519818306, -4.994202136993408, -2.3045811653137207, -0.877029538154602, 0.4172058403491974, -0.02018737979233265]"
1584446535492174265,,580426,,1584446535,491830353,'',"[shoulder_pan_joint, shoulder_lift_joint, elbow_joint, wrist_1_joint, wrist_2_joint,","[1.8466601371765137, -1.0605276266681116, 2.1989283561706543, -2.687150780354635, -1.595942799245016, 2.7991116046905518]","[1.2783173588104546e-05, 1.2783173588104546e-05, 1.2783173588104546e-05, -1.917476038215682e-05, 7.669904152862728e-05, 1.917476038215682e-05]","[-0.0320434607565403, -5.017090320587158, -2.3180320262908936, -0.8344116806983948, 0.4239349663257599, -0.0269165076315403]"
1584446535604096080,,580440,,1584446535,603816669,'',"[shoulder_pan_joint, shoulder_lift_joint, elbow_joint, wrist_1_joint, wrist_2_joint,","[1.846636176109314, -1.0605276266681116, 2.1989521980285645, -2.68716270128359, -1.5959308783160608, 2.799135684967041]","[1.2783173588104546e-05, 1.2783173588104546e-05, 1.2783173588104546e-05, -1.917476038215682e-05, 5.752428114647046e-05, 1.917476038215682e-05]","[-0.1007080152630806, -5.017090320587158, -2.295614004135132, -0.868057370185852, 0.4216919243335724, -0.0291595496237278]"
1584446535716111439,,580454,,1584446535,715823301,'',"[shoulder_pan_joint, shoulder_lift_joint, elbow_joint, wrist_1_joint, wrist_2_joint,","[1.846636176109314, -1.0605276266681116, 2.1989760398864746, -2.68716270128359, -1.5959189573871058, 2.7991116046905518]","[1.2783173588104546e-05, 1.2783173588104546e-05, 1.2783173588104546e-05, -1.917476038215682e-05, 3.834952076431364e-05, 1.917476038215682e-05]","[-0.0961303785443306, -4.998779773712158, -2.277679443359375, -0.8545990586280823, 0.4172058403491974, -0.02467346377670765]"
1584446535828116378,,580468,,1584446535,827759082,'',"[shoulder_pan_joint, shoulder_lift_joint, elbow_joint, wrist_1_joint, wrist_2_joint,","[1.846648097038269, -1.0605276266681116, 2.1989641189575195, -2.68716270128359, -1.5959308783160608, 2.799123764038086]","[1.2783173588104546e-05, 1.2783173588104546e-05, 1.2783173588104546e-05, -1.917476038215682e-05, 3.834952076431364e-05, 1.917476038215682e-05]","[-0.1052856519818306, -5.012512683868408, -2.295614004135132, -0.8545990586280823, 0.4216919243335724, -0.02467346377670765]"
1584446535940098185,,580482,,1584446535,939766456,'',"[shoulder_pan_joint, shoulder_lift_joint, elbow_joint, wrist_1_joint, wrist_2_joint,","[1.846708059310913, -1.0604918638812464, 2.1989879608154297, -2.68716270128359, -1.595954720173971, 2.7990996837615967]","[1.2783173588104546e-05, 0.0, 1.2783173588104546e-05, -1.917476038215682e-05, 3.834952076431364e-05, 1.917476038215682e-05]","[-0.1510620266199112, -4.998779773712158, -2.3045811653137207, -0.8478699326515198, 0.4351502060890198, -0.0291595496237278]"
1584446536052182373,,580496,,1584446536,51792345,'',"[shoulder_pan_joint, shoulder_lift_joint, elbow_joint, wrist_1_joint, wrist_2_joint,","[1.8467799425125122, -1.0605037848102015, 2.1989760398864746, -2.686911408101217, -1.5961464087115687, 2.7991116046905518]","[0.006187056191265583, 0.0, -1.2783173588104546e-05, 0.012808740139007568, -0.011083011515438557, 0.0]","[0.0732421949505806, -4.838562488555908, -2.46150803565979, -0.5316010117530823, 0.2243042290210724, 0.2265472710132599]"
1584446536164165892,,580510,,1584446536,163815057,'',"[shoulder_pan_joint, shoulder_lift_joint, elbow_joint, wrist_1_joint, wrist_2_joint,","[1.850102186203003, -1.0605276266681116, 2.1990842819213867, -2.6862290541278284, -1.596877400075094, 2.8011953830718994]","[0.050646934658288956, 0.0, 8.948221511673182e-05, 0.0041609229519963264, -0.010009224526584148, 0.007420632056891918]","[0.7781983017921448, -5.039978504180908, -2.185765266418457, -0.6011353135108948, 0.2220611870288849, 0.3409424126148224]"
1584446536276200577,,580524,,1584446536,275735399,'',"[shoulder_pan_joint, shoulder_lift_joint, elbow_joint, wrist_1_joint, wrist_2_joint,","[1.8565661907196045, -1.0605037848102015, 2.1995162963867188, -2.6854150930987757, -1.5982793013202112, 2.7975432872772217]","[0.057677678763866425, 0.0, 0.01697605475783348, 0.001859951764345169, -0.010239321738481522, -0.05543423071503639]","[0.7095337510108948, -5.351257801055908, -2.1364455223083496, -0.7446900010108948, 0.3207550346851349, -0.3162689507007599]"
1584446536388275958,,580538,,1584446536,387795992,'',"[shoulder_pan_joint, shoulder_lift_joint, elbow_joint, wrist_1_joint, wrist_2_joint,","[1.863306999206543, -1.0618460814105433, 2.2052407264709473, -2.6866958777057093, -1.598602596913473, 2.7919511795043945]","[0.07063981890678406, -0.02828916348516941, 0.0801377147436142, -0.024045148864388466, -0.0008436894277110696, -0.04247209429740906]","[0.7369995713233948, -6.120300769805908, -1.9571006298065186, -1.0362855195999146, 0.3342132866382599, -0.3723450005054474]"
1584446536500152067,,580552,,1584446536,499743865,'',"[shoulder_pan_joint, shoulder_lift_joint, elbow_joint, wrist_1_joint, wrist_2_joint,","[1.8719415664672852, -1.0664261023150843, 2.214062213897705, -2.6908138434039515, -1.5985549131976526, 2.7876765727996826]","[0.08647816628217697, -0.04571262747049332, 0.06822379678487778, -0.037525005638599396, -0.00023009712458588183, -0.038483742624521255]","[0.5905151963233948, -5.648804187774658, -1.8517354726791382, -0.948806881904602, 0.3319702446460724, -0.2377624809741974]"
1584446536612299242,,580566,,1584446536,611850906,'',"[shoulder_pan_joint, shoulder_lift_joint, elbow_joint, wrist_1_joint, wrist_2_joint,","[1.8823153972625732, -1.0703232924090784, 2.2220311164855957, -2.6944292227374476, -1.598579231892721, 2.782395839691162]","[0.09224338084459305, -0.029695311561226845, 0.07795178890228271, -0.03566505387425423, -0.00011504856229294091, -0.05225122347474098]","[0.6362915635108948, -5.900574207305908, -1.833801031112671, -0.975723385810852, 0.4149627983570099, -0.2758941948413849]"
1584446536724230965,,580580,,1584446536,723759135,'',"[shoulder_pan_joint, shoulder_lift_joint, elbow_joint, wrist_1_joint, wrist_2_joint,","[1.8922702074050903, -1.0739792029010218, 2.2307682037353516, -2.6984756628619593, -1.5985310713397425, 2.7771036624908447]","[0.07721036672592163, -0.03666214272379875, 0.08173561096191406, -0.03808107227087021, -7.669904152862728e-05, -0.045099034905433655]","[1.0070801973342896, -5.772400379180908, -1.8539773225784302, -1.0990906953811646, 0.4127197563648224, -0.2893524467945099]"
1584446536836157909,,580594,,1584446536,835761079,'',"[shoulder_pan_joint, shoulder_lift_joint, elbow_joint, wrist_1_joint, wrist_2_joint,","[1.8991177082061768, -1.078127686177389, 2.2384252548217773, -2.702773396168844, -1.5985191504107874, 2.7717270851135254]","[0.048243697732686996, -0.03574175387620926, 0.052027516067028046, -0.030909713357686996, -5.752428114647046e-05, -0.05625874549150467]","[1.3549805879592896, -5.758667469024658, -1.8158665895462036, -0.9600220918655396, 0.3880462944507599, -0.2601929008960724]"
1584446536948042644,,580608,,1584446536,947729269,'',"[shoulder_pan_joint, shoulder_lift_joint, elbow_joint, wrist_1_joint, wrist_2_joint,","[1.901840329170227, -1.081029240285055, 2.243129253387451, -2.705982033406393, -1.5984590689288538, 2.7634170055389404]","[0.002377670258283615, -0.015352590940892696, 0.03425890579819679, -0.025732528418302536, 0.0, -0.0679745227098465]","[0.9063721895217896, -5.552673816680908, -1.7463704347610474, -0.8030090928077698, 0.3611297905445099, -0.3005676567554474]"
1584446537060085765,,580622,,1584446537,59740040,'',"[shoulder_pan_joint, shoulder_lift_joint, elbow_joint, wrist_1_joint, wrist_2_joint,","[1.9015283584594727, -1.081400219594137, 2.2443294525146484, -2.7071788946734827, -1.5984590689288538, 2.760148048400879]","[-0.0007158577209338546, 0.000945954816415906, -0.00029401297797448933, -0.0005944175645709038, 0.0, -0.001073786523193121]","[-0.0640869215130806, -4.719543933868408, -2.1431708335876465, -0.5652466416358948, 0.3229980766773224, -0.01794433780014515]"
