PorkPy/robot-pulling-data/deg40/joint_states_throttle.csv
rosbagTimestamp,header,seq,stamp,secs,nsecs,frame_id,name,wrist_3_joint],position,velocity,effort
1584377274472081391,,633195,,1584377274,471721810,'',"[shoulder_pan_joint, shoulder_lift_joint, elbow_joint, wrist_1_joint, wrist_2_joint,","[1.4458881616592407, -1.1551349798785608, 2.424556016921997, -2.816087071095602, -1.5666220823871058, 2.57548451423645]","[0.0, 0.0, -0.0, 0.0, 0.0, 0.0]","[-0.0457763709127903, -3.996277332305908, -1.6118618249893188, -0.3521576225757599, -0.1323394924402237, -0.0358886756002903]"
1584377274584005050,,633209,,1584377274,583674543,'',"[shoulder_pan_joint, shoulder_lift_joint, elbow_joint, wrist_1_joint, wrist_2_joint,","[1.4458881616592407, -1.1551111380206507, 2.424556016921997, -2.81611138979067, -1.5666220823871058, 2.57548451423645]","[0.0, 0.0, -0.0, 0.0, 0.0, 0.0]","[-0.0366210974752903, -4.060364246368408, -1.6275544166564941, -0.3454284965991974, -0.1278534084558487, -0.02467346377670765]"
1584377274695990293,,633223,,1584377274,695641472,'',"[shoulder_pan_joint, shoulder_lift_joint, elbow_joint, wrist_1_joint, wrist_2_joint,","[1.4458881616592407, -1.1551230589496058, 2.4245798587799072, -2.816099468861715, -1.566634480153219, 2.5754964351654053]","[0.0, 0.0, -0.0, 0.0, 0.0, 0.0]","[0.004577637184411287, -3.996277332305908, -1.6185872554779053, -0.3544006645679474, -0.1323394924402237, -0.02243042178452015]"
1584377274808070964,,633237,,1584377274,807649708,'',"[shoulder_pan_joint, shoulder_lift_joint, elbow_joint, wrist_1_joint, wrist_2_joint,","[1.4459002017974854, -1.1550748983966272, 2.424556016921997, -2.816087071095602, -1.5666220823871058, 2.5754964351654053]","[0.0, 0.0, -0.0, 0.0, 0.0, 0.0]","[0.01373291201889515, -4.046631336212158, -1.6208289861679077, -0.3566437065601349, -0.1256103664636612, -0.0336456336081028]"
1584377274920084189,,633251,,1584377274,919679394,'',"[shoulder_pan_joint, shoulder_lift_joint, elbow_joint, wrist_1_joint, wrist_2_joint,","[1.445876121520996, -1.1551349798785608, 2.4245798587799072, -2.816075150166647, -1.5666220823871058, 2.575472593307495]","[0.0, 0.0, -0.0, 0.0, 0.0, 0.0]","[-0.01373291201889515, -4.042053699493408, -1.6096199750900269, -0.3454284965991974, -0.1368255764245987, -0.0314025916159153]"
1584377275032009370,,633265,,1584377275,31640511,'',"[shoulder_pan_joint, shoulder_lift_joint, elbow_joint, wrist_1_joint, wrist_2_joint,","[1.445876121520996, -1.1550868193255823, 2.424556016921997, -2.8160632292376917, -1.5666101614581507, 2.5755085945129395]","[0.0, 0.0, -0.0, 0.0, 0.0, 0.0]","[0.004577637184411287, -3.987122058868408, -1.6320381164550781, -0.3544006645679474, -0.1435547024011612, -0.0358886756002903]"
1584377275144003439,,633279,,1584377275,143635873,'',"[shoulder_pan_joint, shoulder_lift_joint, elbow_joint, wrist_1_joint, wrist_2_joint,","[1.445864200592041, -1.1551230589496058, 2.424556016921997, -2.816075150166647, -1.5666220823871058, 2.5754964351654053]","[0.0, 0.0, -0.0, 0.0, 0.0, 0.0]","[0.004577637184411287, -4.055786609649658, -1.6118618249893188, -0.3544006645679474, -0.1345825344324112, -0.02467346377670765]"
1584377275256110470,,633293,,1584377275,255756159,'',"[shoulder_pan_joint, shoulder_lift_joint, elbow_joint, wrist_1_joint, wrist_2_joint,","[1.4458881616592407, -1.1550992170916956, 2.424567937850952, -2.816099468861715, -1.566634480153219, 2.575472593307495]","[0.0, 0.0, -0.0, 0.0, 0.0, 0.0]","[0.0366210974752903, -3.968811511993408, -1.6163454055786133, -0.3409424126148224, -0.1368255764245987, -0.0336456336081028]"
1584377275368028237,,633307,,1584377275,367645232,'',"[shoulder_pan_joint, shoulder_lift_joint, elbow_joint, wrist_1_joint, wrist_2_joint,","[1.4458881616592407, -1.1551230589496058, 2.424556016921997, -2.816075150166647, -1.5666220823871058, 2.5754964351654053]","[0.0, 0.0, -0.0, 0.0, 0.0, 0.0]","[0.02288818545639515, -4.055786609649658, -1.598410964012146, -0.3521576225757599, -0.1368255764245987, -0.0291595496237278]"
1584377275479990296,,633321,,1584377275,479626978,'',"[shoulder_pan_joint, shoulder_lift_joint, elbow_joint, wrist_1_joint, wrist_2_joint,","[1.4458881616592407, -1.1551230589496058, 2.4245920181274414, -2.816099468861715, -1.5666464010821741, 2.5754964351654053]","[0.0, 0.0, -0.0, 0.0, 0.0, 0.0]","[0.0, -4.028320789337158, -1.6185872554779053, -0.3499145805835724, -0.1211242824792862, -0.02243042178452015]"
1584377275592029190,,633335,,1584377275,591649972,'',"[shoulder_pan_joint, shoulder_lift_joint, elbow_joint, wrist_1_joint, wrist_2_joint,","[1.4459121227264404, -1.1551349798785608, 2.424567937850952, -2.816099468861715, -1.566634480153219, 2.575472593307495]","[0.0, 0.0, -0.0, 0.0, 0.0, 0.0]","[-0.0320434607565403, -4.010010242462158, -1.593927264213562, -0.3566437065601349, -0.1300964504480362, -0.0269165076315403]"
1584377275704083963,,633349,,1584377275,703689466,'',"[shoulder_pan_joint, shoulder_lift_joint, elbow_joint, wrist_1_joint, wrist_2_joint,","[1.4458881616592407, -1.1551111380206507, 2.424543857574463, -2.816099468861715, -1.5666220823871058, 2.5755085945129395]","[0.0, 0.0, -0.0, 0.0, 0.0, 0.0]","[-0.004577637184411287, -4.010010242462158, -1.6208289861679077, -0.3544006645679474, -0.1323394924402237, -0.0291595496237278]"
1584377275816005958,,633363,,1584377275,815662787,'',"[shoulder_pan_joint, shoulder_lift_joint, elbow_joint, wrist_1_joint, wrist_2_joint,","[1.445864200592041, -1.1550992170916956, 2.424556016921997, -2.8160632292376917, -1.5665982405291956, 2.5754964351654053]","[0.0, 0.0, -0.0, 0.0, 0.0, 0.0]","[-0.009155274368822575, -4.023743152618408, -1.6118618249893188, -0.3521576225757599, -0.1345825344324112, -0.0291595496237278]"
1584377275928133847,,633377,,1584377275,927713422,'',"[shoulder_pan_joint, shoulder_lift_joint, elbow_joint, wrist_1_joint, wrist_2_joint,","[1.4458881616592407, -1.1551111380206507, 2.4245798587799072, -2.816087071095602, -1.566634480153219, 2.5754964351654053]","[0.0, 0.0, -0.0, 0.0, 0.0, 0.0]","[-0.01831054873764515, -4.037476062774658, -1.6028945446014404, -0.3588867485523224, -0.1345825344324112, -0.0314025916159153]"
1584377276039984559,,633391,,1584377276,39629566,'',"[shoulder_pan_joint, shoulder_lift_joint, elbow_joint, wrist_1_joint, wrist_2_joint,","[1.4458881616592407, -1.1551111380206507, 2.424567937850952, -2.816099468861715, -1.5666101614581507, 2.5755085945129395]","[0.0, 0.0, -0.0, 0.0, 0.0, 0.0]","[0.004577637184411287, -3.968811511993408, -1.6230708360671997, -0.3521576225757599, -0.1256103664636612, -0.0291595496237278]"
1584377276152020977,,633405,,1584377276,151640958,'',"[shoulder_pan_joint, shoulder_lift_joint, elbow_joint, wrist_1_joint, wrist_2_joint,","[1.445864200592041, -1.1551111380206507, 2.424556016921997, -2.8160513083087366, -1.5666464010821741, 2.57548451423645]","[0.0, 0.0, -0.0, 0.0, 0.0, 0.0]","[-0.0274658240377903, -4.042053699493408, -1.6096199750900269, -0.3544006645679474, -0.1300964504480362, -0.0314025916159153]"
1584377276264094295,,633419,,1584377276,263711350,'',"[shoulder_pan_joint, shoulder_lift_joint, elbow_joint, wrist_1_joint, wrist_2_joint,","[1.4458881616592407, -1.1550992170916956, 2.424567937850952, -2.8160393873797815, -1.5666702429400843, 2.5754964351654053]","[0.0, 0.0, -0.0, 0.0, 0.0, 0.0]","[0.009155274368822575, -4.037476062774658, -1.596169114112854, -0.3454284965991974, -0.1368255764245987, -0.02243042178452015]"
1584377276376033642,,633433,,1584377276,375634097,'',"[shoulder_pan_joint, shoulder_lift_joint, elbow_joint, wrist_1_joint, wrist_2_joint,","[1.4459002017974854, -1.1551111380206507, 2.4245920181274414, -2.8160632292376917, -1.5666101614581507, 2.57546067237854]","[0.0, 0.0, -0.0, 0.0, 0.0, 0.0]","[-0.02288818545639515, -4.005432605743408, -1.6208289861679077, -0.3566437065601349, -0.1300964504480362, -0.0336456336081028]"
1584377276487959063,,633447,,1584377276,487575157,'',"[shoulder_pan_joint, shoulder_lift_joint, elbow_joint, wrist_1_joint, wrist_2_joint,","[1.4458881616592407, -1.1551349798785608, 2.424567937850952, -2.8160513083087366, -1.5666101614581507, 2.57548451423645]","[0.0, 0.0, -0.0, 0.0, 0.0, 0.0]","[-0.01373291201889515, -4.051208972930908, -1.6253126859664917, -0.3521576225757599, -0.1368255764245987, -0.0314025916159153]"
1584377276600008827,,633461,,1584377276,599611696,'',"[shoulder_pan_joint, shoulder_lift_joint, elbow_joint, wrist_1_joint, wrist_2_joint,","[1.4459002017974854, -1.1550992170916956, 2.424556016921997, -2.816099468861715, -1.5666583220111292, 2.5755205154418945]","[0.0, 0.0, -0.0, 0.0, 0.0, 0.0]","[0.02288818545639515, -4.014587879180908, -1.6028945446014404, -0.3588867485523224, -0.1368255764245987, -0.0314025916159153]"
1584377276712010571,,633475,,1584377276,711603772,'',"[shoulder_pan_joint, shoulder_lift_joint, elbow_joint, wrist_1_joint, wrist_2_joint,","[1.4458881616592407, -1.1551111380206507, 2.4245798587799072, -2.8160632292376917, -1.5666101614581507, 2.5754964351654053]","[0.0, 0.0, -0.0, 0.0, 0.0, 0.0]","[0.0411987341940403, -4.010010242462158, -1.6096199750900269, -0.3611297905445099, -0.1390686184167862, -0.0291595496237278]"
1584377276824061577,,633489,,1584377276,823636002,'',"[shoulder_pan_joint, shoulder_lift_joint, elbow_joint, wrist_1_joint, wrist_2_joint,","[1.4458881616592407, -1.1551111380206507, 2.424567937850952, -2.816075150166647, -1.566634480153219, 2.5754964351654053]","[0.0, 0.0, -0.0, 0.0, 0.0, 0.0]","[-0.0320434607565403, -4.042053699493408, -1.6073781251907349, -0.3521576225757599, -0.1368255764245987, -0.0291595496237278]"
1584377276935983691,,633503,,1584377276,935574989,'',"[shoulder_pan_joint, shoulder_lift_joint, elbow_joint, wrist_1_joint, wrist_2_joint,","[1.4458881616592407, -1.1550992170916956, 2.4245798587799072, -2.816075150166647, -1.566634480153219, 2.575472593307495]","[0.0, 0.0, -0.0, 0.0, 0.0, 0.0]","[0.0, -4.028320789337158, -1.596169114112854, -0.3544006645679474, -0.1323394924402237, -0.0269165076315403]"
1584377277048052921,,633517,,1584377277,47599776,'',"[shoulder_pan_joint, shoulder_lift_joint, elbow_joint, wrist_1_joint, wrist_2_joint,","[1.4458881616592407, -1.1550868193255823, 2.424531936645508, -2.8160513083087366, -1.566634480153219, 2.57548451423645]","[0.0, 0.0, -0.0, 0.0, 0.0, 0.0]","[0.0, -4.023743152618408, -1.6073781251907349, -0.3521576225757599, -0.1256103664636612, -0.0426178015768528]"
1584377277159944109,,633531,,1584377277,159596039,'',"[shoulder_pan_joint, shoulder_lift_joint, elbow_joint, wrist_1_joint, wrist_2_joint,","[1.445864200592041, -1.1551230589496058, 2.424567937850952, -2.8160632292376917, -1.566634480153219, 2.57548451423645]","[0.0, 0.0, -0.0, 0.0, 0.0, 0.0]","[-0.0411987341940403, -4.010010242462158, -1.6163454055786133, -0.3454284965991974, -0.1435547024011612, -0.0314025916159153]"
1584377277272034959,,633545,,1584377277,271706556,'',"[shoulder_pan_joint, shoulder_lift_joint, elbow_joint, wrist_1_joint, wrist_2_joint,","[1.4458881616592407, -1.1551230589496058, 2.4245798587799072, -2.8161233107196253, -1.5666220823871058, 2.5755085945129395]","[0.0, 0.0, -0.0, 0.0, 0.0, 0.0]","[-0.0366210974752903, -4.010010242462158, -1.6253126859664917, -0.3521576225757599, -0.1278534084558487, -0.0336456336081028]"
1584377277383922750,,633559,,1584377277,383564591,'',"[shoulder_pan_joint, shoulder_lift_joint, elbow_joint, wrist_1_joint, wrist_2_joint,","[1.4458881616592407, -1.1551230589496058, 2.424567937850952, -2.816075150166647, -1.5666220823871058, 2.57546067237854]","[0.0, 0.0, -0.0, 0.0, 0.0, 0.0]","[-0.009155274368822575, -4.032898426055908, -1.6208289861679077, -0.3566437065601349, -0.1323394924402237, -0.0291595496237278]"
1584377277495928772,,633573,,1584377277,495585161,'',"[shoulder_pan_joint, shoulder_lift_joint, elbow_joint, wrist_1_joint, wrist_2_joint,","[1.4459002017974854, -1.1551111380206507, 2.4245798587799072, -2.816075150166647, -1.5666583220111292, 2.575472593307495]","[0.0, 0.0, -0.0, 0.0, 0.0, 0.0]","[-0.0366210974752903, -4.010010242462158, -1.6320381164550781, -0.3544006645679474, -0.1300964504480362, -0.0471038855612278]"
1584377277607937619,,633587,,1584377277,607560605,'',"[shoulder_pan_joint, shoulder_lift_joint, elbow_joint, wrist_1_joint, wrist_2_joint,","[1.4459002017974854, -1.1551111380206507, 2.4245920181274414, -2.816075150166647, -1.5666464010821741, 2.5755085945129395]","[0.0, 0.0, -0.0, 0.0, 0.0, 0.0]","[0.004577637184411287, -4.010010242462158, -1.6141035556793213, -0.3656158745288849, -0.1368255764245987, -0.0314025916159153]"
1584377277719835639,,633601,,1584377277,719523427,'',"[shoulder_pan_joint, shoulder_lift_joint, elbow_joint, wrist_1_joint, wrist_2_joint,","[1.4458881616592407, -1.1551111380206507, 2.424556016921997, -2.81611138979067, -1.5666583220111292, 2.5755085945129395]","[0.0, 0.0, -0.0, 0.0, 0.0, 0.0]","[-0.0411987341940403, -3.982544422149658, -1.6275544166564941, -0.3454284965991974, -0.1502838283777237, -0.0314025916159153]"
1584377277831888809,,633615,,1584377277,831586545,'',"[shoulder_pan_joint, shoulder_lift_joint, elbow_joint, wrist_1_joint, wrist_2_joint,","[1.445876121520996, -1.1551111380206507, 2.4245920181274414, -2.816099468861715, -1.566634480153219, 2.5754964351654053]","[0.0, 0.0, -0.0, 0.0, 0.0, 0.0]","[0.01831054873764515, -4.051208972930908, -1.6028945446014404, -0.3611297905445099, -0.1345825344324112, -0.0314025916159153]"
1584377277943894530,,633629,,1584377277,943553985,'',"[shoulder_pan_joint, shoulder_lift_joint, elbow_joint, wrist_1_joint, wrist_2_joint,","[1.445876121520996, -1.1551230589496058, 2.424556016921997, -2.816099468861715, -1.566634480153219, 2.57548451423645]","[0.0, 0.0, -0.0, 0.0, 0.0, 0.0]","[-0.004577637184411287, -4.032898426055908, -1.6051363945007324, -0.3521576225757599, -0.1368255764245987, -0.0291595496237278]"
1584377278055821455,,633643,,1584377278,55501077,'',"[shoulder_pan_joint, shoulder_lift_joint, elbow_joint, wrist_1_joint, wrist_2_joint,","[1.445876121520996, -1.1550748983966272, 2.424639940261841, -2.8160632292376917, -1.5665386358844202, 2.5770888328552246]","[0.0, 0.0, -0.0, 0.0, 0.0006135923322290182, 0.030066024512052536]","[-0.2334595024585724, -4.174805164337158, -1.6566979885101318, -0.4284210503101349, 0.02018737979233265, 0.3162689507007599]"
1584377278167881287,,633657,,1584377278,167589833,'',"[shoulder_pan_joint, shoulder_lift_joint, elbow_joint, wrist_1_joint, wrist_2_joint,","[1.4459720849990845, -1.1550748983966272, 2.4245798587799072, -2.8160632292376917, -1.5665863196002405, 2.580501079559326]","[0.0024288028944283724, 0.0, -0.0, 0.0, 0.00028762139845639467, 0.029394907876849174]","[0.2426147758960724, -4.083252429962158, -1.8001738786697388, -0.3678589165210724, 0.02467346377670765, 0.3162689507007599]"
1584377278279875246,,633671,,1584377278,279523880,'',"[shoulder_pan_joint, shoulder_lift_joint, elbow_joint, wrist_1_joint, wrist_2_joint,","[1.4462001323699951, -1.1551349798785608, 2.424556016921997, -2.8160632292376917, -1.566634480153219, 2.5831472873687744]","[0.0015467640478163958, 0.0, -0.0, 0.0, 0.0, 0.016643691807985306]","[0.1327514797449112, -4.179382801055908, -1.6835997104644775, -0.4037475883960724, 0.0336456336081028, 0.3521576225757599]"
1584377278391931261,,633685,,1584377278,391553596,'',"[shoulder_pan_joint, shoulder_lift_joint, elbow_joint, wrist_1_joint, wrist_2_joint,","[1.4487429857254028, -1.1551111380206507, 2.424531936645508, -2.8160632292376917, -1.5666821638690394, 2.5855414867401123]","[0.050761982798576355, 0.0, -0.0, 0.0, 0.0, 0.029586654156446457]","[0.7003784775733948, -4.161072254180908, -1.8001738786697388, -0.3409424126148224, 0.0605621412396431, 0.3611297905445099]"
1584377278503844560,,633699,,1584377278,503501971,'',"[shoulder_pan_joint, shoulder_lift_joint, elbow_joint, wrist_1_joint, wrist_2_joint,","[1.4574271440505981, -1.1550748983966272, 2.424436092376709, -2.8160513083087366, -1.5666702429400843, 2.589420795440674]","[0.10172849148511887, 0.0, -0.0023904533591121435, 0.0, 0.0, 0.04358423128724098]","[0.8148193955421448, -4.289246082305908, -1.8719117641448975, -0.2915954887866974, 0.1413116604089737, 0.2960815727710724]"
1584377278615776504,,633713,,1584377278,615499927,'',"[shoulder_pan_joint, shoulder_lift_joint, elbow_joint, wrist_1_joint, wrist_2_joint,","[1.4711134433746338, -1.155027214680807, 2.4224321842193604, -2.8142197767840784, -1.5665743986712855, 2.5963051319122314]","[0.13193513453006744, 0.004231230355799198, -0.02991262637078762, 0.02504223771393299, 0.0007669904152862728, 0.07660316675901413]","[0.9292603731155396, -3.263855218887329, -2.1229946613311768, -0.1659851223230362, 0.2018737941980362, 0.3297272026538849]"
1584377278727750005,,633727,,1584377278,727422604,'',"[shoulder_pan_joint, shoulder_lift_joint, elbow_joint, wrist_1_joint, wrist_2_joint,","[1.4856147766113281, -1.154139820729391, 2.418424606323242, -2.8117297331439417, -1.5665863196002405, 2.604254961013794]","[0.12656620144844055, 0.007989483885467052, -0.040650490671396255, 0.022070148959755898, 0.0, 0.07004539668560028]","[1.0665894746780396, -3.067016839981079, -2.102818250656128, -0.1457977443933487, 0.2579498589038849, 0.2983246147632599]"
1584377278839797173,,633741,,1584377278,839460234,'',"[shoulder_pan_joint, shoulder_lift_joint, elbow_joint, wrist_1_joint, wrist_2_joint,","[1.5001283884048462, -1.1531441847430628, 2.413553237915039, -2.8092029730426233, -1.5665982405291956, 2.6130549907684326]","[0.1344534158706665, 0.012668125331401825, -0.05282007157802582, 0.02822524681687355, 0.0, 0.07978617399930954]","[1.0711671113967896, -2.883911371231079, -2.107301950454712, -0.1906585842370987, 0.2579498589038849, 0.3588867485523224]"
1584377278951799408,,633755,,1584377278,951478920,'',"[shoulder_pan_joint, shoulder_lift_joint, elbow_joint, wrist_1_joint, wrist_2_joint,","[1.5150854587554932, -1.1510584990130823, 2.4076974391937256, -2.805432144795553, -1.5666821638690394, 2.6206459999084473]","[0.1289566606283188, 0.022242721170186996, -0.04117460176348686, 0.03438034653663635, 0.0, 0.059250008314847946]","[0.8834840059280396, -3.126526117324829, -2.188007116317749, -0.2915954887866974, 0.1884155422449112, 0.2983246147632599]"
1584377279063815328,,633769,,1584377279,63491444,'',"[shoulder_pan_joint, shoulder_lift_joint, elbow_joint, wrist_1_joint, wrist_2_joint,","[1.5292751789093018, -1.1497157255755823, 2.4066896438598633, -2.803145233784811, -1.5668380896197718, 2.62756609916687]","[0.1276272088289261, -0.0073503246530890465, 0.022587867453694344, -0.0004218447138555348, -0.0014572817599400878, 0.05727500841021538]","[0.7873535752296448, -4.618835926055908, -1.513222098350525, -0.6863709092140198, 0.2938385307788849, 0.3319702446460724]"
1584377279175749736,,633783,,1584377279,175420372,'',"[shoulder_pan_joint, shoulder_lift_joint, elbow_joint, wrist_1_joint, wrist_2_joint,","[1.543596625328064, -1.1510222593890589, 2.4104692935943604, -2.804474178944723, -1.5669100920306605, 2.632894277572632]","[0.12467429041862488, -0.0136652123183012, 0.03330016881227493, -0.00945315696299076, -0.00028762139845639467, 0.03702646121382713]","[0.7919312119483948, -5.026245594024658, -1.3854389190673828, -1.011612057685852, 0.3274841606616974, 0.3386993706226349]"
1584377279287762100,,633797,,1584377279,287452943,'',"[shoulder_pan_joint, shoulder_lift_joint, elbow_joint, wrist_1_joint, wrist_2_joint,","[1.5562149286270142, -1.1525805632220667, 2.4134933948516846, -2.8049772421466272, -1.5671137014972132, 2.6365461349487305]","[0.09918463975191116, -0.013562947511672974, 0.02803349867463112, -0.0023968450259417295, -0.0014764565275982022, 0.030794665217399597]","[1.0711671113967896, -5.026245594024658, -1.419066071510315, -1.119278073310852, 0.3588867485523224, 0.2736511528491974]"
1584377279399809329,,633811,,1584377279,399478982,'',"[shoulder_pan_joint, shoulder_lift_joint, elbow_joint, wrist_1_joint, wrist_2_joint,","[1.5663622617721558, -1.153947655354635, 2.4164090156555176, -2.8053720633136194, -1.5675328413592737, 2.6401379108428955]","[0.081582210958004, -0.008219580166041851, 0.02352103963494301, -0.0023584954906255007, -0.0057716029696166515, 0.029049761593341827]","[0.9658814668655396, -5.163574695587158, -1.3473281860351562, -1.1125489473342896, 0.4575806260108948, 0.3409424126148224]"
1584377279511827694,,633825,,1584377279,511486647,'',"[shoulder_pan_joint, shoulder_lift_joint, elbow_joint, wrist_1_joint, wrist_2_joint,","[1.5737987756729126, -1.1544516722308558, 2.418424606323242, -2.8055875937091272, -1.5680363813983362, 2.6425564289093018]","[0.05499321222305298, -0.001035437104292214, 0.006915696896612644, -0.0009012137306854129, -0.00768907880410552, 0.016566993668675423]","[1.0437012910842896, -4.838562488555908, -1.4370005130767822, -0.9286195039749146, 0.4598236680030823, 0.3297272026538849]"
1584377279623803469,,633839,,1584377279,623472822,'',"[shoulder_pan_joint, shoulder_lift_joint, elbow_joint, wrist_1_joint, wrist_2_joint,","[1.578668475151062, -1.1544035116778772, 2.418400526046753, -2.805085007344381, -1.5689590612994593, 2.6408207416534424]","[0.032047417014837265, 6.391586794052273e-05, -0.0006263754912652075, 0.005273059010505676, -0.007286408916115761, -0.05844466760754585]","[0.9979249238967896, -4.197693347930908, -2.0557403564453125, -0.7648773789405823, 0.4351502060890198, -0.3207550346851349]"
1584377279735821723,,633853,,1584377279,735460920,'',"[shoulder_pan_joint, shoulder_lift_joint, elbow_joint, wrist_1_joint, wrist_2_joint,","[1.5815829038619995, -1.1544154326068323, 2.418400526046753, -2.8047855536090296, -1.5697973410235804, 2.6344265937805176]","[0.022894663736224174, 6.391586794052273e-05, -0.00026844663079828024, 0.0013230585027486086, -0.007037137169390917, -0.05378520116209984]","[0.9338380098342896, -4.238892078399658, -1.997453212738037, -0.8254395127296448, 0.5360870957374573, -0.2332763969898224]"
1584377279847801566,,633867,,1584377279,847419473,'',"[shoulder_pan_joint, shoulder_lift_joint, elbow_joint, wrist_1_joint, wrist_2_joint,","[1.5833940505981445, -1.1544035116778772, 2.4184365272521973, -2.804605786000387, -1.5704806486712855, 2.6266205310821533]","[0.012898221611976624, 6.391586794052273e-05, -0.00014061490946915, 0.0010162623366340995, -0.0063276709988713264, -0.08475244045257568]","[0.7736206650733948, -4.156494617462158, -2.0400476455688477, -0.8276825547218323, 0.6213226914405823, -0.3072967827320099]"
1584377279959810524,,633881,,1584377279,959455661,'',"[shoulder_pan_joint, shoulder_lift_joint, elbow_joint, wrist_1_joint, wrist_2_joint,","[1.5847856998443604, -1.154379669819967, 2.4184484481811523, -2.804486099873678, -1.5708158651935022, 2.6174848079681396]","[0.012080098502337933, 6.391586794052273e-05, -7.669904152862728e-05, 0.0009587380336597562, -0.0013230585027486086, -0.08316093683242798]","[0.8560181260108948, -4.238892078399658, -1.999695062637329, -0.8478699326515198, 0.5697327256202698, -0.2826233208179474]"
1584377280071811757,,633895,,1584377280,71428051,'',"[shoulder_pan_joint, shoulder_lift_joint, elbow_joint, wrist_1_joint, wrist_2_joint,","[1.5861893892288208, -1.1543915907489222, 2.4184844493865967, -2.804342571889059, -1.5710676352130335, 2.606757402420044]","[0.015199193730950356, 3.834952076431364e-05, -7.669904152862728e-05, 0.0008820389630272985, -0.003029612125828862, -0.10145365446805954]","[0.8331299424171448, -4.183960437774658, -2.0310802459716797, -0.8097382187843323, 0.6101074814796448, -0.3364563286304474]"
1584377280183730886,,633909,,1584377280,183373840,'',"[shoulder_pan_joint, shoulder_lift_joint, elbow_joint, wrist_1_joint, wrist_2_joint,","[1.5881922245025635, -1.1543915907489222, 2.418640613555908, -2.80424672762026, -1.571367088948385, 2.5948562622070312]","[0.018983012065291405, 3.834952076431364e-05, 0.0017129452899098396, 0.0012655341997742653, -0.0029912625905126333, -0.11859589070081711]","[1.0574342012405396, -4.307556629180908, -1.8853626251220703, -0.881515622138977, 0.5719757676124573, -0.3162689507007599]"
1584377280295769038,,633923,,1584377280,295372808,'',"[shoulder_pan_joint, shoulder_lift_joint, elbow_joint, wrist_1_joint, wrist_2_joint,","[1.5897996425628662, -1.1544516722308558, 2.4192285537719727, -2.8042948881732386, -1.5714510122882288, 2.581590414047241]","[0.0093317162245512, 2.5566347176209092e-05, 0.010814565233886242, -5.752428114647046e-05, -0.000517718552146107, -0.12663011252880096]","[0.8193970322608948, -4.678345203399658, -1.6992924213409424, -1.029556393623352, 0.5630035996437073, -0.3072967827320099]"
1584377280407697926,,633937,,1584377280,407340659,'',"[shoulder_pan_joint, shoulder_lift_joint, elbow_joint, wrist_1_joint, wrist_2_joint,","[1.5902314186096191, -1.1544273535357874, 2.4200925827026367, -2.8043668905841272, -1.5714390913592737, 2.5683846473693848]","[0.0004985437844879925, 1.2783173588104546e-05, -0.0004474110610317439, -0.0005368932615965605, -0.0001917476038215682, -0.11497186124324799]","[-0.0503540076315403, -4.321289539337158, -1.9189897775650024, -0.8882447481155396, 0.5360870957374573, -0.2803802788257599]"
1584377280519808233,,633951,,1584377280,519416421,'',"[shoulder_pan_joint, shoulder_lift_joint, elbow_joint, wrist_1_joint, wrist_2_joint,","[1.5902553796768188, -1.1544154326068323, 2.419900417327881, -2.8043187300311487, -1.5714271704303187, 2.5557775497436523]","[-3.834952076431364e-05, 6.391586794052273e-05, -0.0006519418675452471, 0.0004985437844879925, -0.00011504856229294091, -0.10609395056962967]","[0.2517700493335724, -4.151916980743408, -2.1252365112304688, -0.7536621689796448, 0.5517883896827698, -0.3185119926929474]"
1584377280631784990,,633965,,1584377280,631377760,'',"[shoulder_pan_joint, shoulder_lift_joint, elbow_joint, wrist_1_joint, wrist_2_joint,","[1.5902314186096191, -1.154379669819967, 2.4198765754699707, -2.8043068091021937, -1.5714033285724085, 2.5433738231658936]","[-0.00012783173588104546, 6.391586794052273e-05, -0.00021731395099777728, 0.0, -7.669904152862728e-05, -0.1020672470331192]","[-0.3524780571460724, -4.243469715118408, -1.9503751993179321, -0.8254395127296448, 0.5450592637062073, -0.3611297905445099]"
1584377280743761897,,633979,,1584377280,743411994,'',"[shoulder_pan_joint, shoulder_lift_joint, elbow_joint, wrist_1_joint, wrist_2_joint,","[1.5901954174041748, -1.1544035116778772, 2.41992449760437, -2.8043068091021937, -1.5714152495013636, 2.5322513580322266]","[-0.0007797735743224621, 6.391586794052273e-05, -0.0, 0.0, -5.752428114647046e-05, -0.10141530632972717]","[-0.0961303785443306, -4.142761707305908, -2.107301950454712, -0.7985230088233948, 0.5405731797218323, -0.3611297905445099]"
1584377280855726602,,633993,,1584377280,855389863,'',"[shoulder_pan_joint, shoulder_lift_joint, elbow_joint, wrist_1_joint, wrist_2_joint,","[1.590171456336975, -1.1544035116778772, 2.41992449760437, -2.804330650960104, -1.5714033285724085, 2.5223982334136963]","[-0.0002556634717620909, 5.1132694352418184e-05, -0.0, 0.0, -3.834952076431364e-05, -0.08300753682851791]","[0.1007080152630806, -4.174805164337158, -2.111785650253296, -0.7917938828468323, 0.5316010117530823, -0.2781372368335724]"
1584377280968096703,,634007,,1584377280,967415391,'',"[shoulder_pan_joint, shoulder_lift_joint, elbow_joint, wrist_1_joint, wrist_2_joint,","[1.5901235342025757, -1.1544154326068323, 2.4199726581573486, -2.804354492818014, -1.5713794867144983, 2.5127487182617188]","[-0.0003962783666793257, 3.834952076431364e-05, -0.0, 0.0, -3.834952076431364e-05, -0.07752355933189392]","[-0.3433227837085724, -4.270935535430908, -1.9257152080535889, -0.8433838486671448, 0.5450592637062073, -0.3678589165210724]"
1584377281079744466,,634021,,1584377281,79392028,'',"[shoulder_pan_joint, shoulder_lift_joint, elbow_joint, wrist_1_joint, wrist_2_joint,","[1.5899673700332642, -1.1544154326068323, 2.4200685024261475, -2.8043788115130823, -1.5713313261615198, 2.504667043685913]","[-0.002032524673268199, 0.0, 0.0019046928500756621, -1.917476038215682e-05, -3.834952076431364e-05, -0.0803997665643692]","[-0.5630493760108948, -4.344177722930908, -1.9414079189300537, -0.8703004121780396, 0.5226288437843323, -0.2444916069507599]"
1584377281191742363,,634035,,1584377281,191385416,'',"[shoulder_pan_joint, shoulder_lift_joint, elbow_joint, wrist_1_joint, wrist_2_joint,","[1.5899074077606201, -1.1544035116778772, 2.4201645851135254, -2.8043907324420374, -1.5712955633746546, 2.4960711002349854]","[-0.0003195793251506984, 0.0, -0.0, -1.917476038215682e-05, -3.834952076431364e-05, -0.06507913768291473]","[0.3524780571460724, -4.133606433868408, -2.185765266418457, -0.7536621689796448, 0.5383301377296448, -0.2960815727710724]"
1584377281303678544,,634049,,1584377281,303363105,'',"[shoulder_pan_joint, shoulder_lift_joint, elbow_joint, wrist_1_joint, wrist_2_joint,","[1.5896434783935547, -1.1544392744647425, 2.420764446258545, -2.8047378698932093, -1.5711634794818323, 2.4880857467651367]","[-0.0031318773981183767, 0.0, 0.01835663802921772, -0.013038837350904942, 0.00845606904476881, -0.0851934626698494]","[-0.4348755180835724, -4.724121570587158, -1.7643048763275146, -0.886001706123352, 0.4822540879249573, -0.3162689507007599]"
1584377281415716135,,634063,,1584377281,415352226,'',"[shoulder_pan_joint, shoulder_lift_joint, elbow_joint, wrist_1_joint, wrist_2_joint,","[1.587652564048767, -1.1552909056292933, 2.4238719940185547, -2.8079221884356897, -1.5701811949359339, 2.4783403873443604]","[-0.0336836613714695, -0.013831393793225288, 0.029746444895863533, -0.038311172276735306, 0.00993252545595169, -0.09008302539587021]","[-0.7095337510108948, -5.163574695587158, -1.723952293395996, -0.872543454170227, 0.4239349663257599, -0.3095398247241974]"
1584377281527838685,,634077,,1584377281,527480817,'',"[shoulder_pan_joint, shoulder_lift_joint, elbow_joint, wrist_1_joint, wrist_2_joint,","[1.5823745727539062, -1.1561301390277308, 2.4253718852996826, -2.811310593281881, -1.5689590612994593, 2.4669671058654785]","[-0.061052437871694565, -0.0005880259559489787, 0.0012655341997742653, -0.00697961263358593, 0.011466506868600845, -0.09959370642900467]","[-0.7827759385108948, -4.206848621368408, -1.7822394371032715, -0.6280518174171448, 0.2534637749195099, -0.3858032524585724]"
1584377281639763053,,634091,,1584377281,639395507,'',"[shoulder_pan_joint, shoulder_lift_joint, elbow_joint, wrist_1_joint, wrist_2_joint,","[1.5749140977859497, -1.1562016646014612, 2.4251677989959717, -2.8120530287372034, -1.567568604146139, 2.456587076187134]","[-0.06886295229196548, -0.00023009712458588183, -0.0012655341997742653, -0.008743690326809883, 0.013077186420559883, -0.10018812119960785]","[-1.0025025606155396, -3.959656238555908, -1.9526170492172241, -0.4620667099952698, 0.1682281643152237, -0.3342132866382599]"
1584377281751754188,,634105,,1584377281,751389176,'',"[shoulder_pan_joint, shoulder_lift_joint, elbow_joint, wrist_1_joint, wrist_2_joint,","[1.5666382312774658, -1.1561654249774378, 2.425107479095459, -2.813441578541891, -1.5662749449359339, 2.4469735622406006]","[-0.0783480703830719, -0.00010226538870483637, -0.0006391586503013968, -0.012962138280272484, 0.006289321463555098, -0.07363107800483704]","[-1.0299683809280396, -4.060364246368408, -1.775514006614685, -0.3947754204273224, 0.0942077711224556, -0.3207550346851349]"
1584377281863581947,,634119,,1584377281,863291425,'',"[shoulder_pan_joint, shoulder_lift_joint, elbow_joint, wrist_1_joint, wrist_2_joint,","[1.5582901239395142, -1.1561654249774378, 2.425335645675659, -2.8142674604998987, -1.5659754912005823, 2.4384377002716064]","[-0.07122784107923508, -6.391586794052273e-05, 0.0028634308837354183, -0.007286408916115761, 0.00155315559823066, -0.07198204845190048]","[-1.1169434785842896, -4.202270984649658, -1.6275544166564941, -0.4015045464038849, 0.0919647291302681, -0.3835602104663849]"
1584377281975554857,,634133,,1584377281,975268903,'',"[shoulder_pan_joint, shoulder_lift_joint, elbow_joint, wrist_1_joint, wrist_2_joint,","[1.5509493350982666, -1.156177822743551, 2.4265594482421875, -2.8152616659747522, -1.5659516493426722, 2.432403802871704]","[-0.05855971947312355, -1.2783173588104546e-05, 0.030615700408816338, -0.027458256110548973, 0.00028762139845639467, -0.04078471660614014]","[-0.8514404892921448, -5.072021961212158, -1.5333983898162842, -0.5540314316749573, 0.0942077711224556, -0.3005676567554474]"
1584377282087542044,,634147,,1584377282,87284353,'',"[shoulder_pan_joint, shoulder_lift_joint, elbow_joint, wrist_1_joint, wrist_2_joint,","[1.5446404218673706, -1.1580479780780237, 2.4334945678710938, -2.819559399281637, -1.565939728413717, 2.427698850631714]","[-0.0577799454331398, -0.031203726306557655, 0.09037704020738602, -0.050698067992925644, 0.00017257283616345376, -0.04601942375302315]","[-0.8514404892921448, -5.236816883087158, -1.6006526947021484, -0.5831909775733948, 0.1166381984949112, -0.2736511528491974]"
1584377282199636650,,634161,,1584377282,199348923,'',"[shoulder_pan_joint, shoulder_lift_joint, elbow_joint, wrist_1_joint, wrist_2_joint,","[1.5381872653961182, -1.1627724806415003, 2.444125175476074, -2.8258445898639124, -1.566035572682516, 2.4215807914733887]","[-0.047029294073581696, -0.04737444221973419, 0.09099062532186508, -0.0565655417740345, 0.00017257283616345376, -0.05192524939775467]","[-0.8651733994483948, -5.104065418243408, -1.3988897800445557, -0.5876770615577698, 0.1031799390912056, -0.3521576225757599]"
1584377282311585375,,634175,,1584377282,311310783,'',"[shoulder_pan_joint, shoulder_lift_joint, elbow_joint, wrist_1_joint, wrist_2_joint,","[1.5349006652832031, -1.1676400343524378, 2.4496445655822754, -2.8302624861346644, -1.566035572682516, 2.416552782058716]","[-0.013268934562802315, -0.02257508412003517, 0.006544984877109528, -0.013326458632946014, 0.00013422331539914012, -0.034514568746089935]","[-1.2313843965530396, -4.440308094024658, -1.2823156118392944, -0.4957123398780823, 0.1143951565027237, -0.2512207329273224]"
1584377282423605684,,634189,,1584377282,423313849,'',"[shoulder_pan_joint, shoulder_lift_joint, elbow_joint, wrist_1_joint, wrist_2_joint,","[1.535800576210022, -1.168011490498678, 2.4496564865112305, -2.8302024046527308, -1.5661194960223597, 2.413560152053833]","[0.0362275131046772, 0.00015339808305725455, -0.0007030745618976653, 0.0027036413084715605, 9.58738019107841e-05, -0.01852281764149666]","[0.5996704697608948, -4.055786609649658, -1.7149850130081177, -0.3028106987476349, 0.1300964504480362, -0.2400055229663849]"
1584377282535708937,,634203,,1584377282,535420248,'',"[shoulder_pan_joint, shoulder_lift_joint, elbow_joint, wrist_1_joint, wrist_2_joint,","[1.5419896841049194, -1.1679638067828577, 2.4503159523010254, -2.829986874257223, -1.5662511030780237, 2.4104950428009033]","[0.0658716931939125, -3.834952076431364e-05, 0.018637867644429207, 0.0007286408799700439, 0.0, -0.036259472370147705]","[0.6912232041358948, -4.779053211212158, -1.4728695154190063, -0.5136566758155823, 0.1906585842370987, -0.2669220268726349]"
1584377282647651601,,634217,,1584377282,647352182,'',"[shoulder_pan_joint, shoulder_lift_joint, elbow_joint, wrist_1_joint, wrist_2_joint,","[1.5498220920562744, -1.1686590353595179, 2.453507661819458, -2.83069354692568, -1.5662391821490687, 2.4068796634674072]","[0.07660955935716629, -0.007631554733961821, 0.026512302458286285, -0.006442719604820013, 0.0, -0.027400732040405273]","[0.9841920137405396, -5.117798328399658, -1.181434154510498, -0.7581482529640198, 0.2310333549976349, -0.2714081108570099]"
1584377282759608872,,634231,,1584377282,759321535,'',"[shoulder_pan_joint, shoulder_lift_joint, elbow_joint, wrist_1_joint, wrist_2_joint,","[1.5585417747497559, -1.1691744963275355, 2.455475330352783, -2.830789391194479, -1.5664785544024866, 2.403886556625366]","[0.07853981852531433, -0.0007158577209338546, 0.008718124590814114, 0.001725728390738368, -0.005042961798608303, -0.02316311001777649]","[0.7965088486671448, -4.847717761993408, -1.2845574617385864, -0.6302948594093323, 0.2758941948413849, -0.3072967827320099]"
1584377282871566573,,634245,,1584377282,871292882,'',"[shoulder_pan_joint, shoulder_lift_joint, elbow_joint, wrist_1_joint, wrist_2_joint,","[1.568089485168457, -1.1691625753985804, 2.4556074142456055, -2.829028908406393, -1.5675447622882288, 2.4021506309509277]","[0.08297558128833771, -0.00023009712458588183, -0.0003707120195031166, 0.01986505091190338, -0.012981312349438667, -0.01248276885598898]","[0.8926392793655396, -4.312134265899658, -1.9279570579528809, -0.5809479355812073, 0.4800110459327698, -0.2444916069507599]"
1584377282983587092,,634259,,1584377282,983282453,'',"[shoulder_pan_joint, shoulder_lift_joint, elbow_joint, wrist_1_joint, wrist_2_joint,","[1.5761016607284546, -1.169138256703512, 2.45566725730896, -2.827472988759176, -1.5691264311419886, 2.3999359607696533]","[0.06582055985927582, -0.00014061490946915, 0.00010226538870483637, 0.010411894880235195, -0.013499030843377113, -0.030161898583173752]","[1.1398316621780396, -4.376221179962158, -1.8136247396469116, -0.6392670273780823, 0.5630035996437073, -0.2669220268726349]"
1584377283095533312,,634273,,1584377283,95238552,'',"[shoulder_pan_joint, shoulder_lift_joint, elbow_joint, wrist_1_joint, wrist_2_joint,","[1.582230806350708, -1.1691024939166468, 2.4557154178619385, -2.8262036482440394, -1.570780102406637, 2.395685911178589]","[0.04586602747440338, -7.669904152862728e-05, 0.00010226538870483637, 0.009012137539684772, -0.010335195809602737, -0.04958593100309372]","[0.9109498262405396, -4.293823719024658, -1.8876044750213623, -0.7828217148780823, 0.7312317490577698, -0.2377624809741974]"
1584377283207505070,,634287,,1584377283,207208877,'',"[shoulder_pan_joint, shoulder_lift_joint, elbow_joint, wrist_1_joint, wrist_2_joint,","[1.5862972736358643, -1.169138256703512, 2.45566725730896, -2.825282398854391, -1.5719063917743128, 2.389832019805908]","[0.032405346632003784, -5.1132694352418184e-05, 0.00010226538870483637, 0.007171360310167074, -0.00803422462195158, -0.048166997730731964]","[0.8834840059280396, -4.234314441680908, -1.9548587799072266, -0.8007660508155823, 0.6863709092140198, -0.2960815727710724]"
1584377283319546218,,634301,,1584377283,319264842,'',"[shoulder_pan_joint, shoulder_lift_joint, elbow_joint, wrist_1_joint, wrist_2_joint,","[1.5893797874450684, -1.169138256703512, 2.4557511806488037, -2.824803177510397, -1.5725296179400843, 2.3851146697998047]","[0.01865065097808838, -3.834952076431364e-05, 8.948221511673182e-05, 0.0014381069922819734, -0.003662379225715995, -0.044562142342329025]","[0.9201050996780396, -4.211426258087158, -1.9840023517608643, -0.7603912949562073, 0.6998291611671448, -0.2669220268726349]"
1584377283431500122,,634315,,1584377283,431220801,'',"[shoulder_pan_joint, shoulder_lift_joint, elbow_joint, wrist_1_joint, wrist_2_joint,","[1.5899434089660645, -1.1691268126117151, 2.455979347229004, -2.824695889149801, -1.5726378599749964, 2.3790454864501953]","[-0.01477734837681055, -3.834952076431364e-05, 0.004359062295407057, 0.0003834952076431364, -0.0007861651829443872, -0.07420632243156433]","[-0.5950928330421448, -4.344177722930908, -1.8024157285690308, -0.8456268906593323, 0.6706696152687073, -0.3252411186695099]"
1584377283543566296,,634329,,1584377283,543286444,'',"[shoulder_pan_joint, shoulder_lift_joint, elbow_joint, wrist_1_joint, wrist_2_joint,","[1.5863810777664185, -1.1691268126117151, 2.4575390815734863, -2.8260124365436, -1.5723021666156214, 2.3699228763580322]","[-0.041852109134197235, 2.5566347176209092e-05, 0.009727994911372662, -0.01014344859868288, 0.0044293696992099285, -0.08321846276521683]","[-1.0574342012405396, -4.829407215118408, -1.4392423629760742, -0.957779049873352, 0.5697327256202698, -0.2355194389820099]"
1584377283655509380,,634343,,1584377283,655224639,'',"[shoulder_pan_joint, shoulder_lift_joint, elbow_joint, wrist_1_joint, wrist_2_joint,","[1.5810911655426025, -1.1691864172564905, 2.4575390815734863, -2.826275650654928, -1.5714390913592737, 2.3595075607299805]","[-0.056297097355127335, 2.5566347176209092e-05, -0.0011377024929970503, -0.00011504856229294091, 0.010603642091155052, -0.09619977325201035]","[-0.8743286728858948, -4.060364246368408, -2.001936912536621, -0.7783356308937073, 0.4306641221046448, -0.3790741264820099]"
1584377283767529479,,634357,,1584377283,767241441,'',"[shoulder_pan_joint, shoulder_lift_joint, elbow_joint, wrist_1_joint, wrist_2_joint,","[1.5742665529251099, -1.169138256703512, 2.4575512409210205, -2.827341381703512, -1.5697134176837366, 2.3493077754974365]","[-0.06803204864263535, 2.5566347176209092e-05, -0.0, -0.01284708920866251, 0.014975488185882568, -0.09855826944112778]","[-0.9841920137405396, -4.101562976837158, -1.9077807664871216, -0.5316010117530823, 0.3588867485523224, -0.2691650688648224]"
1584377283879537765,,634371,,1584377283,879276988,'',"[shoulder_pan_joint, shoulder_lift_joint, elbow_joint, wrist_1_joint, wrist_2_joint,","[1.5656304359436035, -1.1691744963275355, 2.457515239715576, -2.8290889898883265, -1.5676644484149378, 2.3389523029327393]","[-0.08027832955121994, 2.5566347176209092e-05, -0.0, -0.016950488090515137, 0.01495631318539381, -0.07771530002355576]","[-0.9429932832717896, -4.023743152618408, -1.9436497688293457, -0.3970184624195099, 0.1345825344324112, -0.3117828667163849]"
1584377283991494725,,634385,,1584377283,991202650,'',"[shoulder_pan_joint, shoulder_lift_joint, elbow_joint, wrist_1_joint, wrist_2_joint,","[1.557006597518921, -1.1691625753985804, 2.457490921020508, -2.8304179350482386, -1.566418472920553, 2.329925537109375]","[-0.07740211486816406, 2.5566347176209092e-05, -0.0, -0.0087820403277874, 0.007631554733961821, -0.0783480703830719]","[-0.8193970322608948, -4.101562976837158, -1.7687885761260986, -0.3768310844898224, 0.1031799390912056, -0.3409424126148224]"
1584377284103494875,,634399,,1584377284,103206998,'',"[shoulder_pan_joint, shoulder_lift_joint, elbow_joint, wrist_1_joint, wrist_2_joint,","[1.5488622188568115, -1.1691983381854456, 2.4576590061187744, -2.830944840108053, -1.5662630240069788, 2.3231136798858643]","[-0.0689268708229065, 2.5566347176209092e-05, 0.0018279937794432044, -0.0018216022290289402, 0.0008053399506025016, -0.04644126817584038]","[-1.0391236543655396, -4.092407703399658, -1.7530958652496338, -0.5024414658546448, 0.1166381984949112, -0.3117828667163849]"
1584377284215483124,,634413,,1584377284,215189226,'',"[shoulder_pan_joint, shoulder_lift_joint, elbow_joint, wrist_1_joint, wrist_2_joint,","[1.5405380725860596, -1.1691744963275355, 2.458031177520752, -2.831291977559225, -1.5662630240069788, 2.3179421424865723]","[-0.07879548519849777, 2.5566347176209092e-05, 0.00830906257033348, -0.003719903528690338, 0.00036432043998502195, -0.052442967891693115]","[-1.0162354707717896, -4.220581531524658, -1.6723906993865967, -0.5809479355812073, 0.1009368970990181, -0.2871094048023224]"
1584377284327533739,,634427,,1584377284,327203062,'',"[shoulder_pan_joint, shoulder_lift_joint, elbow_joint, wrist_1_joint, wrist_2_joint,","[1.5315660238265991, -1.1699774901019495, 2.4616427421569824, -2.834141556416647, -1.5662391821490687, 2.311537265777588]","[-0.0825665146112442, -0.019034145399928093, 0.049854375422000885, -0.03675801679491997, 0.00015339808305725455, -0.05096651241183281]","[-0.9063721895217896, -5.021667957305908, -1.5827182531356812, -0.6213226914405823, 0.1054229810833931, -0.4037475883960724]"
1584377284439438923,,634441,,1584377284,439167346,'',"[shoulder_pan_joint, shoulder_lift_joint, elbow_joint, wrist_1_joint, wrist_2_joint,","[1.5238773822784424, -1.1730473677264612, 2.4683852195739746, -2.838499371205465, -1.566298786793844, 2.3061859607696533]","[-0.0520019493997097, -0.033249035477638245, 0.06844110786914825, -0.04241456836462021, 9.58738019107841e-05, -0.04713156074285507]","[-1.3320924043655396, -4.948425769805908, -1.4594186544418335, -0.6392670273780823, 0.1435547024011612, -0.2871094048023224]"
1584377284551528971,,634455,,1584377284,551212621,'',"[shoulder_pan_joint, shoulder_lift_joint, elbow_joint, wrist_1_joint, wrist_2_joint,","[1.5198951959609985, -1.1767523924456995, 2.4738802909851074, -2.842294518147604, -1.566298786793844, 2.300750970840454]","[-0.019724436104297638, -0.031446605920791626, 0.02129676751792431, -0.021686654537916183, 7.669904152862728e-05, -0.0523470938205719]","[-1.1215211153030396, -4.527283191680908, -1.37198805809021, -0.6572113633155823, 0.1480407863855362, -0.3117828667163849]"
1584377284663511149,,634469,,1584377284,663204536,'',"[shoulder_pan_joint, shoulder_lift_joint, elbow_joint, wrist_1_joint, wrist_2_joint,","[1.5192238092422485, -1.1784785429583948, 2.4744081497192383, -2.842928711568014, -1.5663345495807093, 2.296070098876953]","[0.01926424168050289, -0.0007925567333586514, -0.0038093857001513243, 0.0035089810844510794, 5.752428114647046e-05, -0.022396119311451912]","[0.6362915635108948, -3.863525867462158, -1.9077807664871216, -0.3521576225757599, 0.1435547024011612, -0.3229980766773224]"
1584377284775526278,,634483,,1584377284,775208064,'',"[shoulder_pan_joint, shoulder_lift_joint, elbow_joint, wrist_1_joint, wrist_2_joint,","[1.522834062576294, -1.1784427801715296, 2.4745399951934814, -2.8427136580096644, -1.5664547125445765, 2.2951364517211914]","[0.049317482858896255, -0.0001661812566453591, 0.0010610034223645926, 0.0006711166352033615, 3.834952076431364e-05, 0.04718908667564392]","[0.7598877549171448, -4.261780261993408, -1.7486122846603394, -0.3813171684741974, 0.2041168361902237, 0.1143951565027237]"
1584377284887523503,,634497,,1584377284,887176175,'',"[shoulder_pan_joint, shoulder_lift_joint, elbow_joint, wrist_1_joint, wrist_2_joint,","[1.530174732208252, -1.1784189383136194, 2.4747798442840576, -2.84221059480776, -1.5666940847979944, 2.302870035171509]","[0.07292800396680832, -8.948221511673182e-05, 0.003796602599322796, 0.0039116512052714825, -0.0016682040877640247, 0.0715026780962944]","[0.7369995713233948, -4.302978992462158, -1.7060178518295288, -0.5360870957374573, 0.2489776909351349, 0.4373932480812073]"
1584377284999529064,,634511,,1584377284,999169673,'',"[shoulder_pan_joint, shoulder_lift_joint, elbow_joint, wrist_1_joint, wrist_2_joint,","[1.5379352569580078, -1.1788743177997034, 2.4763996601104736, -2.8422587553607386, -1.566885773335592, 2.3099093437194824]","[0.06927201896905899, -0.011555989272892475, 0.025783661752939224, -0.0035473306197673082, -0.0011313108261674643, 0.057620152831077576]","[1.1260987520217896, -5.003357410430908, -1.2912828922271729, -0.8411408066749573, 0.3678589165210724, 0.2938385307788849]"
1584377285111552508,,634525,,1584377285,111198838,'',"[shoulder_pan_joint, shoulder_lift_joint, elbow_joint, wrist_1_joint, wrist_2_joint,","[1.544904112815857, -1.1804211775409144, 2.47947096824646, -2.842797581349508, -1.566981617604391, 2.3159189224243164]","[0.04966262727975845, -0.01200340036302805, 0.030730748549103737, -0.008206797763705254, -0.001418932224623859, 0.04598107561469078]","[1.1077882051467896, -4.815674304962158, -1.2823156118392944, -0.903946042060852, 0.3207550346851349, 0.3768310844898224]"
1584377285223508006,,634539,,1584377285,223157742,'',"[shoulder_pan_joint, shoulder_lift_joint, elbow_joint, wrist_1_joint, wrist_2_joint,","[1.5491502285003662, -1.181380573903219, 2.4818224906921387, -2.84377891222109, -1.566981617604391, 2.3188636302948]","[0.03392654284834862, -0.002377670258283615, 0.007938350550830364, -0.002070874208584428, -0.00024927189224399626, 0.008992962539196014]","[0.9109498262405396, -4.595947742462158, -1.1522905826568604, -0.8321686387062073, 0.3095398247241974, 0.3072967827320099]"
1584377285335459767,,634553,,1584377285,335121645,'',"[shoulder_pan_joint, shoulder_lift_joint, elbow_joint, wrist_1_joint, wrist_2_joint,","[1.5522328615188599, -1.1813443342791956, 2.481870412826538, -2.843539539967672, -1.5674007574664515, 2.314446449279785]","[0.02021019719541073, 6.391586794052273e-05, -0.00023009712458588183, 0.002799514913931489, -0.003202185034751892, -0.0589623861014843]","[1.0116578340530396, -3.913879871368408, -1.7530958652496338, -0.5742188096046448, 0.3880462944507599, -0.3319702446460724]"
1584377285447506023,,634567,,1584377285,447166910,'',"[shoulder_pan_joint, shoulder_lift_joint, elbow_joint, wrist_1_joint, wrist_2_joint,","[1.5536121129989624, -1.1813324133502405, 2.4819183349609375, -2.843264404927389, -1.56777269044985, 2.3078861236572266]","[0.004448544234037399, 6.391586794052273e-05, -0.0003579288604669273, 0.0016106799012050033, -0.0032213598024100065, -0.05785025283694267]","[0.6729126572608948, -3.913879871368408, -1.7508540153503418, -0.5854340195655823, 0.3790741264820099, -0.2601929008960724]"
1584377285559613204,,634581,,1584377285,559250707,'',"[shoulder_pan_joint, shoulder_lift_joint, elbow_joint, wrist_1_joint, wrist_2_joint,","[1.5521728992462158, -1.1813204924212855, 2.4818825721740723, -2.843264404927389, -1.5678327719317835, 2.299170732498169]","[-0.02275404892861843, 6.391586794052273e-05, -0.00017896443023346364, 0.00024927189224399626, -0.0003834952076431364, -0.09378375113010406]","[-0.9933472871780396, -3.845215320587158, -1.739645004272461, -0.5854340195655823, 0.3454284965991974, -0.4015045464038849]"
1584377285671523447,,634595,,1584377285,671168084,'',"[shoulder_pan_joint, shoulder_lift_joint, elbow_joint, wrist_1_joint, wrist_2_joint,","[1.5501816272735596, -1.1813324133502405, 2.481762647628784, -2.8433240095721644, -1.5677369276629847, 2.2901198863983154]","[-0.01395922526717186, 6.391586794052273e-05, -0.0006263754912652075, 0.00013422331539914012, -0.00013422331539914012, -0.07855899631977081]","[-0.9841920137405396, -3.817749500274658, -1.741886854171753, -0.5607605576515198, 0.3342132866382599, -0.2803802788257599]"
1584377285783437938,,634609,,1584377285,783138549,'',"[shoulder_pan_joint, shoulder_lift_joint, elbow_joint, wrist_1_joint, wrist_2_joint,","[1.5492700338363647, -1.1813204924212855, 2.4815948009490967, -2.8433240095721644, -1.5677250067340296, 2.281033515930176]","[0.0057524279691278934, 5.1132694352418184e-05, -0.004563592839986086, 9.58738019107841e-05, -0.00013422331539914012, -0.06252889335155487]","[0.1144409328699112, -3.689575672149658, -1.912264347076416, -0.4957123398780823, 0.3499145805835724, -0.3723450005054474]"
1584377285895520022,,634623,,1584377285,895149721,'',"[shoulder_pan_joint, shoulder_lift_joint, elbow_joint, wrist_1_joint, wrist_2_joint,","[1.5515968799591064, -1.181284252797262, 2.481438636779785, -2.842893425618307, -1.567784611378805, 2.276843547821045]","[0.022779615595936775, 0.0003579288604669273, 0.005739645101130009, 0.0007286408799700439, -0.00013422331539914012, -0.027400732040405273]","[0.8651733994483948, -4.170227527618408, -1.5737509727478027, -0.6684265732765198, 0.3768310844898224, -0.2579498589038849]"
1584377286007573311,,634637,,1584377286,7175870,'',"[shoulder_pan_joint, shoulder_lift_joint, elbow_joint, wrist_1_joint, wrist_2_joint,","[1.553636074066162, -1.1812604109393519, 2.481966495513916, -2.842869583760397, -1.5678446928607386, 2.274113893508911]","[0.01191391795873642, 0.00012783173588104546, 0.0009331716573797166, -0.00015339808305725455, -1.917476038215682e-05, -0.02093883790075779]","[0.8834840059280396, -4.000854969024658, -1.688083291053772, -0.6056213974952698, 0.3521576225757599, -0.2781372368335724]"
1584377286119503131,,634651,,1584377286,119101361,'',"[shoulder_pan_joint, shoulder_lift_joint, elbow_joint, wrist_1_joint, wrist_2_joint,","[1.5537079572677612, -1.1812966505633753, 2.481954336166382, -2.8428571859942835, -1.5678446928607386, 2.2710251808166504]","[-0.014534467831254005, 7.669904152862728e-05, 0.00024288029817398638, -0.00015339808305725455, -1.917476038215682e-05, -0.04205024987459183]","[-0.7324219346046448, -3.964233875274658, -1.6499725580215454, -0.6235657334327698, 0.3521576225757599, -0.2691650688648224]"
1584377286231469229,,634665,,1584377286,231066597,'',"[shoulder_pan_joint, shoulder_lift_joint, elbow_joint, wrist_1_joint, wrist_2_joint,","[1.5511534214019775, -1.1812728087054651, 2.4818105697631836, -2.842928711568014, -1.5677607695208948, 2.266248941421509]","[-0.02262621745467186, 5.1132694352418184e-05, -0.0007286408799700439, -9.58738019107841e-05, -0.00015339808305725455, -0.035473305732011795]","[-0.8193970322608948, -3.840637683868408, -1.7441285848617554, -0.6302948594093323, 0.3117828667163849, -0.3319702446460724]"
1584377286343480360,,634679,,1584377286,343095291,'',"[shoulder_pan_joint, shoulder_lift_joint, elbow_joint, wrist_1_joint, wrist_2_joint,","[1.5491262674331665, -1.1812484900103968, 2.4815948009490967, -2.8429649511920374, -1.5676763693438929, 2.262885093688965]","[-0.01456003449857235, 3.834952076431364e-05, -0.00336197461001575, 0.0, -0.00015339808305725455, -0.018254371359944344]","[-1.0391236543655396, -3.684998035430908, -1.8831208944320679, -0.5248718857765198, 0.3252411186695099, -0.3521576225757599]"
1584377286455503032,,634693,,1584377286,455114507,'',"[shoulder_pan_joint, shoulder_lift_joint, elbow_joint, wrist_1_joint, wrist_2_joint,","[1.5476510524749756, -1.1812966505633753, 2.4814507961273193, -2.8429768721209925, -1.5676525274859827, 2.261148691177368]","[-0.015186410397291183, 3.834952076431364e-05, -0.0006519418675452471, 0.0, 0.00015339808305725455, -0.018311895430088043]","[-0.9567261934280396, -3.804016590118408, -1.7643048763275146, -0.5607605576515198, 0.2960815727710724, -0.2601929008960724]"
1584377286567572944,,634707,,1584377286,567123445,'',"[shoulder_pan_joint, shoulder_lift_joint, elbow_joint, wrist_1_joint, wrist_2_joint,","[1.5453838109970093, -1.1813085714923304, 2.4813907146453857, -2.8430607954608362, -1.5674126783954065, 2.2585031986236572]","[-0.025706961750984192, 2.5566347176209092e-05, -0.0, 0.0, 0.001342233270406723, -0.02540655806660652]","[-0.9704591035842896, -3.817749500274658, -1.6835997104644775, -0.6101074814796448, 0.3050537407398224, -0.2601929008960724]"
1584377286679480752,,634721,,1584377286,679071609,'',"[shoulder_pan_joint, shoulder_lift_joint, elbow_joint, wrist_1_joint, wrist_2_joint,","[1.5414376258850098, -1.1812728087054651, 2.4809465408325195, -2.843407932912008, -1.566981617604391, 2.254014015197754]","[-0.03886084631085396, 0.0, -0.02100275456905365, -0.0011888351291418076, 0.0031254859641194344, -0.04947088286280632]","[-0.9933472871780396, -3.277588129043579, -2.001936912536621, -0.3611297905445099, 0.2287903130054474, -0.3072967827320099]"
1584377286791507413,,634735,,1584377286,791119890,'',"[shoulder_pan_joint, shoulder_lift_joint, elbow_joint, wrist_1_joint, wrist_2_joint,","[1.5372158288955688, -1.1804807821856897, 2.477755308151245, -2.84218675294985, -1.5670297781573694, 2.2487590312957764]","[-0.04024143144488335, 0.005905826110392809, -0.026192722842097282, 0.01056529302150011, 0.00026844663079828024, -0.049796853214502335]","[-0.9521485567092896, -2.746582269668579, -1.9750350713729858, -0.2220611870288849, 0.2534637749195099, -0.3364563286304474]"
1584377286903457840,,634749,,1584377286,903115892,'',"[shoulder_pan_joint, shoulder_lift_joint, elbow_joint, wrist_1_joint, wrist_2_joint,","[1.5321176052093506, -1.1799896399127405, 2.4752120971679688, -2.841253105794088, -1.5670297781573694, 2.2441859245300293]","[-0.05278172343969345, 0.0021731394808739424, -0.01949433982372284, 0.004467719234526157, 0.00024927189224399626, -0.042031075805425644]","[-0.8834840059280396, -2.751159906387329, -2.2418105602264404, -0.2714081108570099, 0.2063598781824112, -0.2938385307788849]"
1584377287015426082,,634763,,1584377287,15085626,'',"[shoulder_pan_joint, shoulder_lift_joint, elbow_joint, wrist_1_joint, wrist_2_joint,","[1.5257847309112549, -1.1799653212176722, 2.4731361865997314, -2.8412168661700647, -1.5669940153705042, 2.2385473251342773]","[-0.05224483087658882, 0.00023009712458588183, -0.02003123238682747, 0.0003067961661145091, 0.00013422331539914012, -0.060994911938905716]","[-0.8514404892921448, -2.709961175918579, -2.096092939376831, -0.2646789848804474, 0.1816864162683487, -0.3342132866382599]"
1584377287127466889,,634777,,1584377287,127127876,'',"[shoulder_pan_joint, shoulder_lift_joint, elbow_joint, wrist_1_joint, wrist_2_joint,","[1.5201233625411987, -1.1796653906451624, 2.4711685180664062, -2.8409298102008265, -1.566981617604391, 2.233004093170166]","[-0.04880615696310997, 0.0019302591681480408, -0.013256151229143143, 0.001418932224623859, 9.58738019107841e-05, -0.0347830168902874]","[-0.8605957627296448, -2.673340082168579, -2.024354934692383, -0.2153320610523224, 0.1839294582605362, -0.3566437065601349]"
1584377287239438937,,634791,,1584377287,239077803,'',"[shoulder_pan_joint, shoulder_lift_joint, elbow_joint, wrist_1_joint, wrist_2_joint,","[1.5149056911468506, -1.179713551198141, 2.4705209732055664, -2.841073815022604, -1.566861931477682, 2.2304301261901855]","[-0.041200168430805206, 0.00020453077740967274, 0.002543851500377059, -0.005982525181025267, 0.0006711166352033615, -0.01629854552447796]","[-1.1627198457717896, -3.396606683731079, -1.4459677934646606, -0.5540314316749573, 0.1727142482995987, -0.2871094048023224]"
1584377287351450309,,634805,,1584377287,351093944,'',"[shoulder_pan_joint, shoulder_lift_joint, elbow_joint, wrist_1_joint, wrist_2_joint,","[1.5110074281692505, -1.1796897093402308, 2.470568895339966, -2.841229263936178, -1.566742245350973, 2.2285869121551514]","[-0.032111331820487976, -3.834952076431364e-05, 0.0005624596378766, -0.0006711166352033615, 0.0005944175645709038, -0.013441506773233414]","[-1.0620118379592896, -3.405761957168579, -1.4123406410217285, -0.5607605576515198, 0.1547699123620987, -0.3005676567554474]"
1584377287463491396,,634819,,1584377287,463138177,'',"[shoulder_pan_joint, shoulder_lift_joint, elbow_joint, wrist_1_joint, wrist_2_joint,","[1.507277011871338, -1.1796773115741175, 2.4705569744110107, -2.841241184865133, -1.5667303244220179, 2.2287662029266357]","[-0.0359974168241024, -3.834952076431364e-05, 0.00020453077740967274, -0.0002109223569277674, 0.00032597093377262354, 0.03909733518958092]","[-0.8239746689796448, -3.364563226699829, -1.4392423629760742, -0.5787048935890198, 0.1727142482995987, 0.1951446682214737]"
1584377287575446343,,634833,,1584377287,575084788,'',"[shoulder_pan_joint, shoulder_lift_joint, elbow_joint, wrist_1_joint, wrist_2_joint,","[1.502791166305542, -1.1797016302691858, 2.470568895339966, -2.8412168661700647, -1.5667060057269495, 2.2342135906219482]","[-0.03572896867990494, -3.834952076431364e-05, 0.00012783173588104546, -0.00011504856229294091, 0.0001917476038215682, 0.061474282294511795]","[-1.0437012910842896, -3.337097406387329, -1.4235496520996094, -0.5428162217140198, 0.1592559963464737, 0.2489776909351349]"
1584377287687457735,,634847,,1584377287,687094667,'',"[shoulder_pan_joint, shoulder_lift_joint, elbow_joint, wrist_1_joint, wrist_2_joint,","[1.4994685649871826, -1.179713551198141, 2.4705569744110107, -2.8412769476519983, -1.5666821638690394, 2.2412166595458984]","[-0.027215376496315002, -3.834952076431364e-05, 8.948221511673182e-05, -7.669904152862728e-05, 0.00011504856229294091, 0.05186772719025612]","[-1.1398316621780396, -3.341675043106079, -1.4280333518981934, -0.5473023056983948, 0.1390686184167862, 0.3162689507007599]"
1584377287799456733,,634861,,1584377287,799068739,'',"[shoulder_pan_joint, shoulder_lift_joint, elbow_joint, wrist_1_joint, wrist_2_joint,","[1.4966858625411987, -1.1796897093402308, 2.4705810546875, -2.841241184865133, -1.5666702429400843, 2.2469987869262695]","[-0.022293854504823685, -3.834952076431364e-05, -0.0, -5.752428114647046e-05, 7.669904152862728e-05, 0.05324830859899521]","[-1.0849000215530396, -3.346252679824829, -1.4706276655197144, -0.5450592637062073, 0.1390686184167862, 0.2646789848804474]"
1584377287911360494,,634875,,1584377287,911065483,'',"[shoulder_pan_joint, shoulder_lift_joint, elbow_joint, wrist_1_joint, wrist_2_joint,","[1.4941669702529907, -1.179725472127096, 2.470568895339966, -2.841253105794088, -1.5666821638690394, 2.2543013095855713]","[-0.027177026495337486, -3.834952076431364e-05, -0.0, -5.752428114647046e-05, 7.669904152862728e-05, 0.06621044874191284]","[-1.0345460176467896, -3.387451410293579, -1.37198805809021, -0.5876770615577698, 0.1390686184167862, 0.3140259087085724]"
1584377288023491750,,634889,,1584377288,23077867,'',"[shoulder_pan_joint, shoulder_lift_joint, elbow_joint, wrist_1_joint, wrist_2_joint,","[1.4912761449813843, -1.179713551198141, 2.470568895339966, -2.8412769476519983, -1.5666702429400843, 2.2610292434692383]","[-0.022038191556930542, -2.5566347176209092e-05, -0.0, -3.834952076431364e-05, 7.669904152862728e-05, 0.057083260267972946]","[-0.9704591035842896, -3.300476312637329, -1.405615210533142, -0.5473023056983948, 0.1211242824792862, 0.3319702446460724]"
1584377288135466794,,634903,,1584377288,135093767,'',"[shoulder_pan_joint, shoulder_lift_joint, elbow_joint, wrist_1_joint, wrist_2_joint,","[1.4896692037582397, -1.1796773115741175, 2.47060489654541, -2.8412650267230433, -1.5667060057269495, 2.2677929401397705]","[-0.005688512232154608, -2.5566347176209092e-05, -0.0, -3.834952076431364e-05, 7.669904152862728e-05, 0.06498326361179352]","[-0.9338380098342896, -3.396606683731079, -1.3787134885787964, -0.5607605576515198, 0.1300964504480362, 0.3005676567554474]"
1584377288247397395,,634917,,1584377288,247127381,'',"[shoulder_pan_joint, shoulder_lift_joint, elbow_joint, wrist_1_joint, wrist_2_joint,","[1.490700602531433, -1.1797016302691858, 2.47060489654541, -2.841253105794088, -1.5667184034930628, 2.2750120162963867]","[0.022357771173119545, -2.5566347176209092e-05, -0.0, -1.917476038215682e-05, 7.669904152862728e-05, 0.06028544530272484]","[0.8605957627296448, -3.378296136856079, -1.4325169324874878, -0.5517883896827698, 0.1659851223230362, 0.3229980766773224]"
1584377288359363942,,634931,,1584377288,359077818,'',"[shoulder_pan_joint, shoulder_lift_joint, elbow_joint, wrist_1_joint, wrist_2_joint,","[1.4934111833572388, -1.1796897093402308, 2.470592975616455, -2.841241184865133, -1.566766087208883, 2.2819671630859375]","[0.02756052277982235, -1.2783173588104546e-05, -0.0, -1.917476038215682e-05, 5.752428114647046e-05, 0.07725510746240616]","[0.8056641221046448, -3.414917230606079, -1.4952876567840576, -0.4867401719093323, 0.1547699123620987, 0.3229980766773224]"
1584377288471453801,,634945,,1584377288,471158109,'',"[shoulder_pan_joint, shoulder_lift_joint, elbow_joint, wrist_1_joint, wrist_2_joint,","[1.4961458444595337, -1.179713551198141, 2.4706170558929443, -2.841241184865133, -1.566742245350973, 2.2902872562408447]","[0.02087492309510708, -1.2783173588104546e-05, -0.0, -1.917476038215682e-05, 3.834952076431364e-05, 0.06851141899824142]","[0.8468628525733948, -3.401184320449829, -1.4930458068847656, -0.5540314316749573, 0.1772003322839737, 0.3095398247241974]"
1584377288583368262,,634959,,1584377288,583082388,'',"[shoulder_pan_joint, shoulder_lift_joint, elbow_joint, wrist_1_joint, wrist_2_joint,","[1.4991928339004517, -1.179725472127096, 2.47060489654541, -2.841241184865133, -1.5667780081378382, 2.29905104637146]","[0.03538382425904274, -1.2783173588104546e-05, -0.0, -1.917476038215682e-05, 3.834952076431364e-05, 0.09029394388198853]","[0.8193970322608948, -3.428650140762329, -1.4616605043411255, -0.5046845078468323, 0.1884155422449112, 0.3028106987476349]"
1584377288695358965,,634973,,1584377288,695061731,'',"[shoulder_pan_joint, shoulder_lift_joint, elbow_joint, wrist_1_joint, wrist_2_joint,","[1.5038704872131348, -1.1796897093402308, 2.4706289768218994, -2.841229263936178, -1.566754166279928, 2.3081135749816895]","[0.0406760573387146, -1.2783173588104546e-05, 1.2783173588104546e-05, -1.917476038215682e-05, 3.834952076431364e-05, 0.07075486332178116]","[0.9155274629592896, -3.442383050918579, -1.5625419616699219, -0.5158997178077698, 0.2018737941980362, 0.3476715385913849]"
1584377288807425049,,634987,,1584377288,807086858,'',"[shoulder_pan_joint, shoulder_lift_joint, elbow_joint, wrist_1_joint, wrist_2_joint,","[1.5079009532928467, -1.179713551198141, 2.470676898956299, -2.841229263936178, -1.5667899290667933, 2.3165533542633057]","[0.02804628200829029, -1.2783173588104546e-05, 0.00023009712458588183, -1.917476038215682e-05, 1.917476038215682e-05, 0.07552938163280487]","[0.9246827363967896, -3.543091297149658, -1.3854389190673828, -0.5719757676124573, 0.1929016262292862, 0.3095398247241974]"
1584377288919340612,,635001,,1584377288,919054157,'',"[shoulder_pan_joint, shoulder_lift_joint, elbow_joint, wrist_1_joint, wrist_2_joint,","[1.5112351179122925, -1.179725472127096, 2.4706289768218994, -2.8411691824542444, -1.566861931477682, 2.323819875717163]","[0.036074116826057434, -1.2783173588104546e-05, 0.00023009712458588183, -1.917476038215682e-05, 1.917476038215682e-05, 0.05760097876191139]","[0.8605957627296448, -3.497314691543579, -1.4414842128753662, -0.5405731797218323, 0.2332763969898224, 0.3207550346851349]"
1584377289031371190,,635015,,1584377289,31072683,'',"[shoulder_pan_joint, shoulder_lift_joint, elbow_joint, wrist_1_joint, wrist_2_joint,","[1.51677668094635, -1.1796653906451624, 2.47060489654541, -2.8411453405963343, -1.5669339338885706, 2.3314459323883057]","[0.060566674917936325, -1.2783173588104546e-05, -5.1132694352418184e-05, 9.58738019107841e-05, 1.917476038215682e-05, 0.07541432976722717]","[0.9338380098342896, -3.543091297149658, -1.6028945446014404, -0.4530945420265198, 0.2332763969898224, 0.3499145805835724]"
1584377289143284248,,635029,,1584377289,143029122,'',"[shoulder_pan_joint, shoulder_lift_joint, elbow_joint, wrist_1_joint, wrist_2_joint,","[1.5239373445510864, -1.1796653906451624, 2.4706170558929443, -2.840977970753805, -1.5669940153705042, 2.338569164276123]","[0.06931036710739136, -1.2783173588104546e-05, -5.1132694352418184e-05, 0.007075486704707146, 0.0, 0.054437145590782166]","[0.7827759385108948, -3.643799304962158, -1.5266729593276978, -0.5360870957374573, 0.2803802788257599, 0.3925323784351349]"
1584377289255328131,,635043,,1584377289,255047066,'',"[shoulder_pan_joint, shoulder_lift_joint, elbow_joint, wrist_1_joint, wrist_2_joint,","[1.5327175855636597, -1.1796415487872522, 2.4706528186798096, -2.8406665960894983, -1.5672815481769007, 2.3451178073883057]","[0.08081522583961487, 0.0, -5.1132694352418184e-05, 0.002147573046386242, -0.0018024274613708258, 0.06791700422763824]","[0.9796143770217896, -3.712463855743408, -1.5401238203048706, -0.4665527939796448, 0.3544006645679474, 0.3297272026538849]"
1584377289367332840,,635057,,1584377289,367023512,'',"[shoulder_pan_joint, shoulder_lift_joint, elbow_joint, wrist_1_joint, wrist_2_joint,","[1.5419896841049194, -1.1796415487872522, 2.470808744430542, -2.8402956167804163, -1.5677369276629847, 2.352144956588745]","[0.0819273591041565, 0.0, 0.0015595471486449242, 0.0073439329862594604, -0.0036048549227416515, 0.05535753443837166]","[0.9155274629592896, -3.790283679962158, -1.5378820896148682, -0.5248718857765198, 0.4261780083179474, 0.3633728325366974]"
1584377289479234667,,635071,,1584377289,478950877,'',"[shoulder_pan_joint, shoulder_lift_joint, elbow_joint, wrist_1_joint, wrist_2_joint,","[1.5500977039337158, -1.1796653906451624, 2.471024751663208, -2.8398521582232874, -1.568455998097555, 2.358286142349243]","[0.0696810781955719, 0.0, 0.0022114890161901712, 0.0034322820138186216, -0.007017962168902159, 0.0586172416806221]","[1.1215211153030396, -3.913879871368408, -1.4952876567840576, -0.5966492295265198, 0.4575806260108948, 0.2714081108570099]"
1584377289591273019,,635085,,1584377289,590988098,'',"[shoulder_pan_joint, shoulder_lift_joint, elbow_joint, wrist_1_joint, wrist_2_joint,","[1.556874394416809, -1.1796773115741175, 2.471264362335205, -2.8393495718585413, -1.569270435963766, 2.3643319606781006]","[0.04736165702342987, 0.0, 0.001291100517846644, 0.004774515517055988, -0.008225971832871437, 0.04448544234037399]","[1.1993409395217896, -3.886414051055908, -1.513222098350525, -0.5966492295265198, 0.4912262558937073, 0.3790741264820099]"
1584377289703315539,,635099,,1584377289,703000100,'',"[shoulder_pan_joint, shoulder_lift_joint, elbow_joint, wrist_1_joint, wrist_2_joint,","[1.5610008239746094, -1.1796415487872522, 2.4713246822357178, -2.8389185110675257, -1.5700252691852015, 2.3676841259002686]","[0.032456476241350174, 0.0, 0.0007030745618976653, 0.005925001110881567, -0.005905826110392809, 0.02147573232650757]","[0.8605957627296448, -3.712463855743408, -1.6387635469436646, -0.6168366074562073, 0.5988922715187073, 0.3274841606616974]"
1584377289815347169,,635113,,1584377289,815014327,'',"[shoulder_pan_joint, shoulder_lift_joint, elbow_joint, wrist_1_joint, wrist_2_joint,","[1.5647308826446533, -1.1796897093402308, 2.471336841583252, -2.838367764149801, -1.5706961790667933, 2.369025230407715]","[0.028813272714614868, 0.0, -0.0, 0.006672816351056099, -0.0043718451634049416, -0.006135923322290182]","[0.8468628525733948, -3.707886219024658, -1.6320381164550781, -0.6751556992530823, 0.6235657334327698, 0.004486084450036287]"
1584377289927374721,,635127,,1584377289,927009659,'',"[shoulder_pan_joint, shoulder_lift_joint, elbow_joint, wrist_1_joint, wrist_2_joint,","[1.5672258138656616, -1.1796653906451624, 2.4713122844696045, -2.8378289381610315, -1.5711997191058558, 2.3636255264282227]","[0.015915051102638245, 0.0, -0.0, 0.0023584954906255007, -0.0036815539933741093, -0.07328593730926514]","[0.8239746689796448, -3.652954578399658, -1.6387635469436646, -0.6684265732765198, 0.6101074814796448, -0.2938385307788849]"
1584377290039350396,,635141,,1584377290,38995684,'',"[shoulder_pan_joint, shoulder_lift_joint, elbow_joint, wrist_1_joint, wrist_2_joint,","[1.5681253671646118, -1.1796653906451624, 2.471348762512207, -2.83752948442568, -1.5712955633746546, 2.355592727661133]","[-0.00026844663079828024, 0.0, -0.0, 0.0012271846644580364, -0.000517718552146107, -0.06776360422372818]","[0.0686645582318306, -3.717041492462158, -1.5603001117706299, -0.6796417832374573, 0.5719757676124573, -0.3140259087085724]"
1584377290151331010,,635155,,1584377290,151012015,'',"[shoulder_pan_joint, shoulder_lift_joint, elbow_joint, wrist_1_joint, wrist_2_joint,","[1.566206455230713, -1.1796534697162073, 2.471336841583252, -2.8375895659076136, -1.571223560963766, 2.3468177318573]","[-0.03468075022101402, 0.0, -0.0, 0.00024927189224399626, -0.00015339808305725455, -0.09405219554901123]","[-0.8560181260108948, -3.611755847930908, -1.5894436836242676, -0.6975861191749573, 0.5360870957374573, -0.3274841606616974]"
1584377290263324468,,635169,,1584377290,262985856,'',"[shoulder_pan_joint, shoulder_lift_joint, elbow_joint, wrist_1_joint, wrist_2_joint,","[1.5611565113067627, -1.1796773115741175, 2.4712765216827393, -2.837745491658346, -1.5707562605487269, 2.336772918701172]","[-0.053216353058815, 0.0, -0.0, -0.0023584954906255007, 0.004544418305158615, -0.08523181080818176]","[-1.0391236543655396, -3.561401844024658, -1.5177057981491089, -0.6302948594093323, 0.4732819199562073, -0.3050537407398224]"
1584377290375323958,,635183,,1584377290,375014290,'',"[shoulder_pan_joint, shoulder_lift_joint, elbow_joint, wrist_1_joint, wrist_2_joint,","[1.5546917915344238, -1.1796296278582972, 2.4705450534820557, -2.8378408590899866, -1.5699532667743128, 2.3277106285095215]","[-0.060144830495119095, 0.0, -0.017129452899098396, -0.00032597093377262354, 0.006442719604820013, -0.06856894493103027]","[-1.0665894746780396, -2.943420648574829, -1.916748046875, -0.3947754204273224, 0.3902893364429474, -0.4575806260108948]"
1584377290487234492,,635197,,1584377290,486933891,'',"[shoulder_pan_joint, shoulder_lift_joint, elbow_joint, wrist_1_joint, wrist_2_joint,","[1.549006462097168, -1.178610626851217, 2.4678452014923096, -2.8370984236346644, -1.5696538130389612, 2.3225510120391846]","[-0.04327104240655899, 0.012604208663105965, -0.021859226748347282, 0.0087245162576437, 0.0011121360585093498, -0.03857961669564247]","[-1.1581422090530396, -2.870178461074829, -1.9772769212722778, -0.2467346489429474, 0.4149627983570099, -0.3117828667163849]"
1584377290599259029,,635211,,1584377290,598962816,'',"[shoulder_pan_joint, shoulder_lift_joint, elbow_joint, wrist_1_joint, wrist_2_joint,","[1.544916033744812, -1.1773279348956507, 2.4654457569122314, -2.835937801991598, -1.5696056524859827, 2.3188517093658447]","[-0.03271213918924332, 0.010865697637200356, -0.023802269250154495, 0.013345632702112198, 0.0003067961661145091, -0.034399520605802536]","[-0.9567261934280396, -2.696228265762329, -1.9077807664871216, -0.3050537407398224, 0.4037475883960724, -0.2714081108570099]"
1584377290711273296,,635225,,1584377290,710971542,'',"[shoulder_pan_joint, shoulder_lift_joint, elbow_joint, wrist_1_joint, wrist_2_joint,","[1.5414739847183228, -1.175925079976217, 2.4624223709106445, -2.834069554005758, -1.5696175734149378, 2.3142545223236084]","[-0.02460760809481144, 0.01739789918065071, -0.032405346632003784, 0.017429856583476067, 0.0003067961661145091, -0.0394616574048996]","[-1.0208131074905396, -2.915954828262329, -2.0310802459716797, -0.2714081108570099, 0.4127197563648224, -0.3050537407398224]"
1584377290823203365,,635239,,1584377290,822940505,'',"[shoulder_pan_joint, shoulder_lift_joint, elbow_joint, wrist_1_joint, wrist_2_joint,","[1.539794683456421, -1.1733229796039026, 2.457275152206421, -2.831651035939352, -1.5694740454303187, 2.3100767135620117]","[-0.002940129954367876, 0.029337383806705475, -0.062202922999858856, 0.028416994959115982, 0.001764077926054597, -0.029644180089235306]","[-0.7507324814796448, -2.847290277481079, -1.865186333656311, -0.1996307522058487, 0.3656158745288849, -0.3768310844898224]"
1584377290935167649,,635253,,1584377290,934938512,'',"[shoulder_pan_joint, shoulder_lift_joint, elbow_joint, wrist_1_joint, wrist_2_joint,","[1.5427449941635132, -1.1691625753985804, 2.448864459991455, -2.8272092978106897, -1.569282356892721, 2.310723066329956]","[0.04609612375497818, 0.04314320906996727, -0.0919238030910492, 0.045348308980464935, 0.0010929612908512354, 0.05752428248524666]","[0.8148193955421448, -2.975464105606079, -2.100576400756836, -0.1659851223230362, 0.3342132866382599, 0.2287903130054474]"
1584377291047227382,,635267,,1584377291,46976423,'',"[shoulder_pan_joint, shoulder_lift_joint, elbow_joint, wrist_1_joint, wrist_2_joint,","[1.5488502979278564, -1.1647384802447718, 2.437753915786743, -2.8212712446795862, -1.5692585150348108, 2.318875789642334]","[0.06693269312381744, 0.037940457463264465, -0.09924855828285217, 0.05731336027383804, 0.00036432043998502195, 0.07067816704511642]","[0.8148193955421448, -2.728271722793579, -2.1655890941619873, -0.2175751030445099, 0.3790741264820099, 0.3902893364429474]"
1584377291159203958,,635281,,1584377291,158928244,'',"[shoulder_pan_joint, shoulder_lift_joint, elbow_joint, wrist_1_joint, wrist_2_joint,","[1.5575222969055176, -1.1599786917315882, 2.42832350730896, -2.8152855078326624, -1.569294277821676, 2.3263819217681885]","[0.08362752199172974, 0.04080389067530632, -0.057204701006412506, 0.045827675610780716, 0.00015339808305725455, 0.07361190766096115]","[1.0482789278030396, -3.240967035293579, -2.2126669883728027, -0.2781372368335724, 0.4127197563648224, 0.2960815727710724]"
1584377291271172169,,635295,,1584377291,270931129,'',"[shoulder_pan_joint, shoulder_lift_joint, elbow_joint, wrist_1_joint, wrist_2_joint,","[1.567753553390503, -1.1568849722491663, 2.42498779296875, -2.8113225142108362, -1.5694382826434534, 2.3350491523742676]","[0.09371344745159149, 0.008794823661446571, -0.0062765381298959255, 0.022607041522860527, 9.58738019107841e-05, 0.06651724129915237]","[0.9246827363967896, -3.868103504180908, -2.383044719696045, -0.4598236680030823, 0.4373932480812073, 0.4643097519874573]"
1584377291383309436,,635309,,1584377291,383027320,'',"[shoulder_pan_joint, shoulder_lift_joint, elbow_joint, wrist_1_joint, wrist_2_joint,","[1.5775048732757568, -1.1568849722491663, 2.4254438877105713, -2.810903851185934, -1.5696657339679163, 2.340867757797241]","[0.08403658121824265, -0.00043462790199555457, 0.007529288996011019, 0.0003834952076431364, -0.0014572817599400878, 0.04406359791755676]","[0.7873535752296448, -4.719543933868408, -1.6163454055786133, -0.7469330430030823, 0.5517883896827698, 0.2646789848804474]"
1584377291495207407,,635323,,1584377291,494918157,'',"[shoulder_pan_joint, shoulder_lift_joint, elbow_joint, wrist_1_joint, wrist_2_joint,","[1.5859613418579102, -1.1569693724261683, 2.4265594482421875, -2.81081992784609, -1.5700252691852015, 2.346757650375366]","[0.0718158707022667, -0.0006647250265814364, 0.014214889146387577, 0.00013422331539914012, -0.003624029690399766, 0.0543987937271595]","[0.9292603731155396, -4.911804676055908, -1.5177057981491089, -0.881515622138977, 0.6572113633155823, 0.3319702446460724]"
1584377291607146864,,635337,,1584377291,606898170,'',"[shoulder_pan_joint, shoulder_lift_joint, elbow_joint, wrist_1_joint, wrist_2_joint,","[1.593457818031311, -1.1579282919513147, 2.4293673038482666, -2.8112028280841272, -1.5701692740069788, 2.351893424987793]","[0.054251790046691895, -0.013741911388933659, 0.03609968349337578, -0.006902913562953472, -0.0007861651829443872, 0.04141748324036598]","[1.0986329317092896, -5.099487781524658, -1.4257915019989014, -1.123764157295227, 0.6168366074562073, 0.3588867485523224]"
1584377291719202378,,635351,,1584377291,718930320,'',"[shoulder_pan_joint, shoulder_lift_joint, elbow_joint, wrist_1_joint, wrist_2_joint,","[1.5983154773712158, -1.1596787611590784, 2.432666540145874, -2.8122203985797327, -1.5701454321490687, 2.355975866317749]","[0.03707120195031166, -0.011990617029368877, 0.016157930716872215, -0.005062136799097061, -0.00028762139845639467, 0.03875219076871872]","[0.9384156465530396, -4.980469226837158, -1.3540536165237427, -1.141708493232727, 0.6101074814796448, 0.2714081108570099]"
1584377291831148939,,635365,,1584377291,830889445,'',"[shoulder_pan_joint, shoulder_lift_joint, elbow_joint, wrist_1_joint, wrist_2_joint,","[1.6021294593811035, -1.1598470846759241, 2.4331228733062744, -2.812017265950338, -1.5704806486712855, 2.3607523441314697]","[0.02491440437734127, 0.0001917476038215682, 0.0004985437844879925, 0.002070874208584428, -0.004026699811220169, 0.03798520192503929]","[0.9109498262405396, -4.252624988555908, -1.9032971858978271, -0.8254395127296448, 0.6415100693702698, 0.2983246147632599]"
1584377291943171772,,635379,,1584377291,942930372,'',"[shoulder_pan_joint, shoulder_lift_joint, elbow_joint, wrist_1_joint, wrist_2_joint,","[1.6038087606430054, -1.1598709265338343, 2.4331228733062744, -2.8118255774127405, -1.5708759466754358, 2.3645236492156982]","[0.0038221688009798527, 0.00021731395099777728, 0.0001917476038215682, 0.0008436894277110696, -0.0032980588730424643, 0.02256869338452816]","[0.7781983017921448, -4.193115711212158, -1.963826060295105, -0.7895508408546448, 0.6347809433937073, 0.3454284965991974]"
1584377292055176702,,635393,,1584377292,54917148,'',"[shoulder_pan_joint, shoulder_lift_joint, elbow_joint, wrist_1_joint, wrist_2_joint,","[1.6024653911590576, -1.1598470846759241, 2.4330625534057617, -2.811873261128561, -1.5709717909442347, 2.361973524093628]","[-0.02197427488863468, 0.00010226538870483637, -2.5566347176209092e-05, 0.00024927189224399626, -0.000690291344653815, -0.0675143301486969]","[-1.0345460176467896, -4.055786609649658, -2.004178524017334, -0.7895508408546448, 0.5854340195655823, -0.3409424126148224]"
1584377292167162215,,635407,,1584377292,166899405,'',"[shoulder_pan_joint, shoulder_lift_joint, elbow_joint, wrist_1_joint, wrist_2_joint,","[1.6004142761230469, -1.1598227659808558, 2.4329187870025635, -2.8119214216815394, -1.570899788533346, 2.3544552326202393]","[-0.015096927992999554, 8.948221511673182e-05, -0.0010226538870483637, 0.00013422331539914012, -0.0002109223569277674, -0.06904831528663635]","[-0.8285523056983948, -4.087830066680908, -1.9010553359985352, -0.7895508408546448, 0.5899201035499573, -0.2960815727710724]"
1584377292279191370,,635421,,1584377292,278932006,'',"[shoulder_pan_joint, shoulder_lift_joint, elbow_joint, wrist_1_joint, wrist_2_joint,","[1.5987234115600586, -1.1598113218890589, 2.432882785797119, -2.8119810263263147, -1.5708039442645472, 2.3455963134765625]","[-0.015915051102638245, 8.948221511673182e-05, -0.0002556634717620909, 9.58738019107841e-05, 3.834952076431364e-05, -0.07727428525686264]","[-1.0574342012405396, -4.028320789337158, -1.9727933406829834, -0.7805786728858948, 0.5674896836280823, -0.3185119926929474]"
1584377292391137861,,635435,,1584377292,390887734,'',"[shoulder_pan_joint, shoulder_lift_joint, elbow_joint, wrist_1_joint, wrist_2_joint,","[1.5964444875717163, -1.159835163746969, 2.4327988624572754, -2.81199294725527, -1.5706365744220179, 2.3386290073394775]","[-0.024952754378318787, 7.669904152862728e-05, -0.0004090615548193455, 5.752428114647046e-05, 0.0018024274613708258, -0.0480136014521122]","[-1.1123658418655396, -4.037476062774658, -1.9458914995193481, -0.7895508408546448, 0.5473023056983948, -0.2781372368335724]"
1584377292503212421,,635449,,1584377292,502933290,'',"[shoulder_pan_joint, shoulder_lift_joint, elbow_joint, wrist_1_joint, wrist_2_joint,","[1.5933020114898682, -1.1593311468707483, 2.431335210800171, -2.811621967946188, -1.5705769697772425, 2.333205461502075]","[-0.03285275772213936, 0.013409549370408058, -0.024211330339312553, 0.011006312444806099, 0.0004985437844879925, -0.0604388453066349]","[-1.0894776582717896, -3.327942132949829, -2.2440524101257324, -0.4777680039405823, 0.5540314316749573, -0.2758941948413849]"
1584377292615167378,,635463,,1584377292,614901571,'',"[shoulder_pan_joint, shoulder_lift_joint, elbow_joint, wrist_1_joint, wrist_2_joint,","[1.5904711484909058, -1.1577847639666956, 2.4288511276245117, -2.8103049437152308, -1.5706008116351526, 2.3274953365325928]","[-0.014061491005122662, 0.012872655875980854, -0.018216021358966827, 0.010929613374173641, 0.0001917476038215682, -0.038061898201704025]","[-1.1032105684280396, -3.433227777481079, -2.358384609222412, -0.4822540879249573, 0.5585175156593323, -0.3207550346851349]"
1584377292727119098,,635477,,1584377292,726852891,'',"[shoulder_pan_joint, shoulder_lift_joint, elbow_joint, wrist_1_joint, wrist_2_joint,","[1.5912388563156128, -1.1567652861224573, 2.427051305770874, -2.8087242285357874, -1.5707443396197718, 2.3261666297912598]","[0.03250760957598686, 0.005164402071386576, -0.012067316100001335, 0.017679128795862198, -1.917476038215682e-05, 0.047630105167627335]","[0.7827759385108948, -3.620911121368408, -2.4301226139068604, -0.6258087754249573, 0.5966492295265198, 0.1839294582605362]"
1584377292839132393,,635491,,1584377292,838841100,'',"[shoulder_pan_joint, shoulder_lift_joint, elbow_joint, wrist_1_joint, wrist_2_joint,","[1.595712661743164, -1.1567290464984339, 2.426931381225586, -2.808089558278219, -1.5709360281573694, 2.3333492279052734]","[0.04286197945475578, 0.0003195793251506984, 0.0019302591681480408, 0.00046019424917176366, -0.005062136799097061, 0.06145510822534561]","[0.6500244736671448, -4.408264636993408, -1.9458914995193481, -0.8837586641311646, 0.6639404892921448, 0.4306641221046448]"
1584377292951209498,,635505,,1584377292,950912173,'',"[shoulder_pan_joint, shoulder_lift_joint, elbow_joint, wrist_1_joint, wrist_2_joint,","[1.6008703708648682, -1.1566813627826136, 2.4270875453948975, -2.8079941908465784, -1.571235481892721, 2.3389523029327393]","[0.04408916458487511, 0.00015339808305725455, 0.0023393207229673862, 0.00199417513795197, -0.002837864449247718, 0.03737160935997963]","[1.1260987520217896, -4.458618640899658, -1.9593424797058105, -0.9286195039749146, 0.6325379014015198, 0.3342132866382599]"
1584377293063254693,,635519,,1584377293,62901604,'',"[shoulder_pan_joint, shoulder_lift_joint, elbow_joint, wrist_1_joint, wrist_2_joint,","[1.6050562858581543, -1.1566932837115687, 2.4278552532196045, -2.8079703489886683, -1.5717504660235804, 2.3429148197174072]","[0.0295546967536211, -0.0004218447138555348, 0.006954046431928873, 0.00028762139845639467, -0.004237622022628784, 0.04055461660027504]","[0.8972169160842896, -4.769897937774658, -1.7643048763275146, -1.0273133516311646, 0.6370239853858948, 0.2646789848804474]"
1584377293175090937,,635533,,1584377293,174788433,'',"[shoulder_pan_joint, shoulder_lift_joint, elbow_joint, wrist_1_joint, wrist_2_joint,","[1.607323169708252, -1.1567414442645472, 2.427903175354004, -2.807826344166891, -1.5721939245807093, 2.3476078510284424]","[0.009357282891869545, -0.00021731395099777728, 0.0003707120195031166, 0.000862864195369184, -0.0033172336407005787, 0.03840704634785652]","[0.9613038301467896, -4.371643543243408, -2.0759165287017822, -0.863571286201477, 0.6616974472999573, 0.3028106987476349]"
1584377293287248703,,635547,,1584377293,286885715,'',"[shoulder_pan_joint, shoulder_lift_joint, elbow_joint, wrist_1_joint, wrist_2_joint,","[1.6074669361114502, -1.1567171255694788, 2.4278433322906494, -2.8077662626849573, -1.5724218527423304, 2.3511273860931396]","[-0.0011888351291418076, -0.00010226538870483637, -3.834952076431364e-05, 0.0004218447138555348, -0.0013230585027486086, 0.027707528322935104]","[-0.2929687798023224, -4.252624988555908, -2.1274781227111816, -0.903946042060852, 0.6639404892921448, 0.3162689507007599]"
1584377293399225089,,635561,,1584377293,398857483,'',"[shoulder_pan_joint, shoulder_lift_joint, elbow_joint, wrist_1_joint, wrist_2_joint,","[1.6074550151824951, -1.1567290464984339, 2.427675485610962, -2.8076112906085413, -1.572493855153219, 2.3545632362365723]","[0.00023009712458588183, -6.391586794052273e-05, -0.0028889973182231188, 0.0041609229519963264, -0.0005368932615965605, 0.033862628042697906]","[0.2609253227710724, -4.161072254180908, -2.194732427597046, -0.8972169160842896, 0.6616974472999573, 0.2915954887866974]"
1584377293511171319,,635575,,1584377293,510783345,'',"[shoulder_pan_joint, shoulder_lift_joint, elbow_joint, wrist_1_joint, wrist_2_joint,","[1.6074550151824951, -1.1566932837115687, 2.4276397228240967, -2.807575050984518, -1.5725057760821741, 2.3587770462036133]","[-0.0002556634717620909, -5.1132694352418184e-05, -0.0003451456723269075, 0.0005560680292546749, -0.00032597093377262354, 0.04502233862876892]","[-0.0411987341940403, -4.293823719024658, -2.078158378601074, -0.890487790107727, 0.6639404892921448, 0.2736511528491974]"
1584377293623167783,,635589,,1584377293,622786411,'',"[shoulder_pan_joint, shoulder_lift_joint, elbow_joint, wrist_1_joint, wrist_2_joint,","[1.6074429750442505, -1.1567290464984339, 2.4276516437530518, -2.807575050984518, -1.5725057760821741, 2.3636374473571777]","[0.0, -3.834952076431364e-05, -0.0001661812566453591, 0.00017257283616345376, -0.0001917476038215682, 0.03207937255501747]","[-0.1419067531824112, -4.312134265899658, -2.0647075176239014, -0.9241334199905396, 0.6729126572608948, 0.3072967827320099]"
1584377293735122289,,635603,,1584377293,734782555,'',"[shoulder_pan_joint, shoulder_lift_joint, elbow_joint, wrist_1_joint, wrist_2_joint,","[1.6074669361114502, -1.1567652861224573, 2.4276275634765625, -2.807598892842428, -1.572481934224264, 2.365804433822632]","[0.0, -2.5566347176209092e-05, -0.00010226538870483637, 0.0, -0.00011504856229294091, 0.008839564397931099]","[0.1510620266199112, -4.211426258087158, -2.194732427597046, -0.8703004121780396, 0.6616974472999573, 0.3364563286304474]"
1584377293847155842,,635617,,1584377293,846775322,'',"[shoulder_pan_joint, shoulder_lift_joint, elbow_joint, wrist_1_joint, wrist_2_joint,","[1.6067116260528564, -1.1567290464984339, 2.427663564682007, -2.8076470533954065, -1.5724456946002405, 2.361147403717041]","[-0.01613236404955387, -2.5566347176209092e-05, -0.0, 0.0, -5.752428114647046e-05, -0.06824297457933426]","[-0.8697510361671448, -4.312134265899658, -2.004178524017334, -0.953292965888977, 0.6415100693702698, -0.3386993706226349]"
1584377293959170049,,635631,,1584377293,958800099,'',"[shoulder_pan_joint, shoulder_lift_joint, elbow_joint, wrist_1_joint, wrist_2_joint,","[1.6047803163528442, -1.1567414442645472, 2.4276275634765625, -2.807694737111227, -1.5723617712603968, 2.3543834686279297]","[-0.015084144659340382, -2.5566347176209092e-05, -0.0, 0.0, -5.752428114647046e-05, -0.05161845311522484]","[-1.0620118379592896, -4.211426258087158, -2.1207528114318848, -0.8972169160842896, 0.6258087754249573, -0.2400055229663849]"
1584377294071209213,,635645,,1584377294,70819485,'',"[shoulder_pan_joint, shoulder_lift_joint, elbow_joint, wrist_1_joint, wrist_2_joint,","[1.603101372718811, -1.156752888356344, 2.4276516437530518, -2.8077309767352503, -1.5721700827227991, 2.34791898727417]","[-0.017487380653619766, -1.2783173588104546e-05, -0.0, 0.0, 0.00475534051656723, -0.0691058337688446]","[-0.9384156465530396, -4.257202625274658, -2.0624656677246094, -0.9061890840530396, 0.5652466416358948, -0.3229980766773224]"
1584377294183075985,,635659,,1584377294,182716644,'',"[shoulder_pan_joint, shoulder_lift_joint, elbow_joint, wrist_1_joint, wrist_2_joint,","[1.600750207901001, -1.1567652861224573, 2.427663564682007, -2.807838265095846, -1.571810547505514, 2.3410592079162598]","[-0.026563433930277824, -1.2783173588104546e-05, -0.0, -0.0004026699753012508, 0.0041609229519963264, -0.05457136780023575]","[-0.5950928330421448, -4.257202625274658, -1.9705514907836914, -0.948806881904602, 0.5226288437843323, -0.3656158745288849]"
1584377294295187964,,635673,,1584377294,294807334,'',"[shoulder_pan_joint, shoulder_lift_joint, elbow_joint, wrist_1_joint, wrist_2_joint,","[1.5961685180664062, -1.1567652861224573, 2.427663564682007, -2.808185402547018, -1.571115795766012, 2.3346660137176514]","[-0.054673634469509125, -1.2783173588104546e-05, -0.0, -0.0030487868934869766, 0.006941263098269701, -0.06258641928434372]","[-1.0162354707717896, -4.151916980743408, -2.0490148067474365, -0.8568421006202698, 0.4620667099952698, -0.2691650688648224]"
1584377294407124146,,635687,,1584377294,406793559,'',"[shoulder_pan_joint, shoulder_lift_joint, elbow_joint, wrist_1_joint, wrist_2_joint,","[1.5889480113983154, -1.156752888356344, 2.427363634109497, -2.8089879194842737, -1.5698211828814905, 2.3274953365325928]","[-0.06227962300181389, -1.2783173588104546e-05, -0.007171360310167074, -0.005042961798608303, 0.010507768951356411, -0.0541686974465847]","[-0.7965088486671448, -3.863525867462158, -2.1409289836883545, -0.6706696152687073, 0.4037475883960724, -0.3544006645679474]"
1584377294519168589,,635701,,1584377294,518783981,'',"[shoulder_pan_joint, shoulder_lift_joint, elbow_joint, wrist_1_joint, wrist_2_joint,","[1.582446575164795, -1.1560099760638636, 2.424267530441284, -2.808436695729391, -1.569270435963766, 2.3230416774749756]","[-0.06040049344301224, 0.013179452158510685, -0.03707120195031166, 0.00814927276223898, 0.0013614079216495156, -0.03290388733148575]","[-0.9750367403030396, -3.144836664199829, -2.6251602172851562, -0.3499145805835724, 0.3544006645679474, -0.2803802788257599]"
1584377294631115100,,635715,,1584377294,630771769,'',"[shoulder_pan_joint, shoulder_lift_joint, elbow_joint, wrist_1_joint, wrist_2_joint,","[1.5760177373886108, -1.1546910444842737, 2.420464515686035, -2.8072636763202112, -1.5693305174456995, 2.319091320037842]","[-0.04800081625580788, 0.009676862508058548, -0.03557557240128517, 0.014246846549212933, 0.0001917476038215682, -0.037333257496356964]","[-0.8789063692092896, -3.227234125137329, -2.360626459121704, -0.3925323784351349, 0.3431854546070099, -0.3005676567554474]"
1584377294743111003,,635729,,1584377294,742758735,'',"[shoulder_pan_joint, shoulder_lift_joint, elbow_joint, wrist_1_joint, wrist_2_joint,","[1.5724434852600098, -1.153252426777975, 2.414716958999634, -2.8052642981158655, -1.5693061987506312, 2.3146376609802246]","[-0.015327025204896927, 0.019583821296691895, -0.07469208538532257, 0.028685441240668297, 0.0001917476038215682, -0.029203159734606743]","[-1.2176514863967896, -2.970886468887329, -2.1498963832855225, -0.2983246147632599, 0.3566437065601349, -0.3140259087085724]"
1584377294855199038,,635743,,1584377294,854845298,'',"[shoulder_pan_joint, shoulder_lift_joint, elbow_joint, wrist_1_joint, wrist_2_joint,","[1.573150873184204, -1.1493561903582972, 2.403006076812744, -2.800164524708883, -1.5692227522479456, 2.3141472339630127]","[0.034872498363256454, 0.05331861600279808, -0.12836863100528717, 0.058042000979185104, 3.834952076431364e-05, 0.04494563862681389]","[0.7369995713233948, -2.888489007949829, -2.1543798446655273, -0.1614990383386612, 0.3611297905445099, 0.2512207329273224]"
1584377294967109281,,635757,,1584377294,966776239,'',"[shoulder_pan_joint, shoulder_lift_joint, elbow_joint, wrist_1_joint, wrist_2_joint,","[1.578956127166748, -1.1423304716693323, 2.387695550918579, -2.7921913305865687, -1.5691025892840784, 2.3197498321533203]","[0.06366020441055298, 0.06357072293758392, -0.13398043811321259, 0.07140680402517319, 0.0009395632660016418, 0.0499502494931221]","[0.8880616426467896, -3.273010492324829, -2.6094675064086914, -0.2220611870288849, 0.3319702446460724, 0.3656158745288849]"
1584377295079090025,,635771,,1584377295,78787040,'',"[shoulder_pan_joint, shoulder_lift_joint, elbow_joint, wrist_1_joint, wrist_2_joint,","[1.5862133502960205, -1.1358917395221155, 2.3743045330047607, -2.7847803274737757, -1.5689709822284144, 2.325352430343628]","[0.07277460396289825, 0.054724764078855515, -0.10165179520845413, 0.05531918257474899, 0.0005560680292546749, 0.05944175645709038]","[0.7232666611671448, -3.341675043106079, -2.5310041904449463, -0.1413116604089737, 0.3431854546070099, 0.2467346489429474]"
1584377295191172891,,635785,,1584377295,190773145,'',"[shoulder_pan_joint, shoulder_lift_joint, elbow_joint, wrist_1_joint, wrist_2_joint,","[1.5953648090362549, -1.131036106740133, 2.3663246631622314, -2.779321018849508, -1.569042984639303, 2.333888053894043]","[0.08388318121433258, 0.026192722842097282, -0.02978479489684105, 0.03382427617907524, 0.00032597093377262354, 0.08080244064331055]","[0.7873535752296448, -3.689575672149658, -2.5825657844543457, -0.3858032524585724, 0.3970184624195099, 0.4530945420265198]"
1584377295303111407,,635799,,1584377295,302780088,'',"[shoulder_pan_joint, shoulder_lift_joint, elbow_joint, wrist_1_joint, wrist_2_joint,","[1.6053199768066406, -1.130472485219137, 2.366276741027832, -2.77812368074526, -1.5691145102130335, 2.341909408569336]","[0.0877692699432373, -0.004026699811220169, 0.019353725016117096, -0.0031638354994356632, 0.00015339808305725455, 0.07574030011892319]","[0.8468628525733948, -5.131531238555908, -1.6387635469436646, -0.872543454170227, 0.4396362900733948, 0.2803802788257599]"
1584377295415125433,,635813,,1584377295,414748049,'',"[shoulder_pan_joint, shoulder_lift_joint, elbow_joint, wrist_1_joint, wrist_2_joint,","[1.6150233745574951, -1.1318028608905237, 2.3690967559814453, -2.778722111378805, -1.5691984335528772, 2.351043701171875]","[0.09232007712125778, -0.009229451417922974, 0.024236897006630898, -0.004007524810731411, -1.917476038215682e-05, 0.0752609372138977]","[0.8605957627296448, -5.397034168243408, -1.546849250793457, -1.0901185274124146, 0.4777680039405823, 0.3633728325366974]"
1584377295527134080,,635827,,1584377295,526751436,'',"[shoulder_pan_joint, shoulder_lift_joint, elbow_joint, wrist_1_joint, wrist_2_joint,","[1.625110387802124, -1.1325343290912073, 2.371208906173706, -2.7787583510028284, -1.5694382826434534, 2.3599865436553955]","[0.09106732904911041, -0.002837864449247718, 0.01569773629307747, -0.0004985437844879925, -0.004544418305158615, 0.08914346247911453]","[1.3137818574905396, -5.392456531524658, -1.6522144079208374, -1.092361569404602, 0.5540314316749573, 0.3409424126148224]"
1584377295639114875,,635841,,1584377295,638762577,'',"[shoulder_pan_joint, shoulder_lift_joint, elbow_joint, wrist_1_joint, wrist_2_joint,","[1.6345981359481812, -1.1326783339129847, 2.373056411743164, -2.77871019044985, -1.5697615782367151, 2.3684027194976807]","[0.07308140397071838, -0.00250550196506083, 0.017116669565439224, -0.0001917476038215682, -0.003950000740587711, 0.05531918257474899]","[0.9109498262405396, -5.520630359649658, -1.773272156715393, -1.128250241279602, 0.6033783555030823, 0.3701019585132599]"
1584377295751101030,,635855,,1584377295,750748311,'',"[shoulder_pan_joint, shoulder_lift_joint, elbow_joint, wrist_1_joint, wrist_2_joint,","[1.6422384977340698, -1.1331341902362269, 2.374880313873291, -2.778698269520895, -1.570193115864889, 2.3731071949005127]","[0.05866198241710663, -0.0052538844756782055, 0.015148060396313667, -0.00011504856229294091, -0.004793690051883459, 0.039327431470155716]","[0.9246827363967896, -5.378723621368408, -1.818108320236206, -1.1484376192092896, 0.6818848252296448, 0.2871094048023224]"
1584377295863177112,,635869,,1584377295,862782295,'',"[shoulder_pan_joint, shoulder_lift_joint, elbow_joint, wrist_1_joint, wrist_2_joint,","[1.6474201679229736, -1.1337936560260218, 2.376596212387085, -2.7786505858050745, -1.5707080999957483, 2.3775250911712646]","[0.04062492400407791, -0.005036570131778717, 0.011952267028391361, 0.0, -0.0029529130551964045, 0.03919320926070213]","[0.8514404892921448, -5.241394519805908, -1.7105014324188232, -1.2112427949905396, 0.7177734971046448, 0.3162689507007599]"
1584377295975121138,,635883,,1584377295,974737041,'',"[shoulder_pan_joint, shoulder_lift_joint, elbow_joint, wrist_1_joint, wrist_2_joint,","[1.6520737409591675, -1.1337817350970667, 2.3769924640655518, -2.778351132069723, -1.5712836424456995, 2.381200075149536]","[0.04020307958126068, 7.669904152862728e-05, 0.0005624596378766, 0.0016873788554221392, -0.006366020534187555, 0.02076626569032669]","[0.8102417588233948, -4.701233386993408, -2.196974277496338, -0.984695553779602, 0.7200165390968323, 0.3252411186695099]"
1584377296087107854,,635897,,1584377296,86732834,'',"[shoulder_pan_joint, shoulder_lift_joint, elbow_joint, wrist_1_joint, wrist_2_joint,","[1.6558758020401, -1.1338055769549769, 2.377016305923462, -2.7778847853290003, -1.5720980803119105, 2.3835346698760986]","[0.02563026361167431, 7.669904152862728e-05, -0.0, 0.00293373828753829, -0.004621117375791073, 0.022127673029899597]","[0.9658814668655396, -4.586792469024658, -2.3180320262908936, -0.9375916719436646, 0.7177734971046448, 0.3274841606616974]"
1584377296199080093,,635911,,1584377296,198745248,'',"[shoulder_pan_joint, shoulder_lift_joint, elbow_joint, wrist_1_joint, wrist_2_joint,","[1.6574108600616455, -1.133817497883932, 2.3769683837890625, -2.777776543294088, -1.5724218527423304, 2.385413885116577]","[0.00250550196506083, 7.669904152862728e-05, -0.0, 0.0011121360585093498, -0.0016682040877640247, 0.014361895620822906]","[0.6134033799171448, -4.577637195587158, -2.297855854034424, -0.980209469795227, 0.7155304551124573, 0.3028106987476349]"
1584377296311144834,,635925,,1584377296,310740369,'',"[shoulder_pan_joint, shoulder_lift_joint, elbow_joint, wrist_1_joint, wrist_2_joint,","[1.6558997631072998, -1.1337817350970667, 2.376932144165039, -2.777872387562887, -1.5724337736712855, 2.383331060409546]","[-0.03341521695256233, 6.391586794052273e-05, -0.0, 0.00026844663079828024, -0.000690291344653815, -0.06030461937189102]","[-0.9246827363967896, -4.431152820587158, -2.27319598197937, -0.962265133857727, 0.6863709092140198, -0.2803802788257599]"
1584377296423101303,,635939,,1584377296,422738065,'',"[shoulder_pan_joint, shoulder_lift_joint, elbow_joint, wrist_1_joint, wrist_2_joint,","[1.6522176265716553, -1.1337698141681116, 2.376680374145508, -2.7779205481158655, -1.5723379294024866, 2.3753819465637207]","[-0.026793532073497772, 5.1132694352418184e-05, -0.0027483822777867317, 0.00013422331539914012, -0.0002109223569277674, -0.07035219669342041]","[-1.0986329317092896, -4.266357898712158, -2.4099464416503906, -0.9241334199905396, 0.6639404892921448, -0.3297272026538849]"
