PorkPy/robot-pulling-data/good_move_90_300mm/joint_states_throttle.csv
rosbagTimestamp,header,seq,stamp,secs,nsecs,frame_id,name,wrist_3_joint],position,velocity,effort
1584454662315337616,,1596323,,1584454662,314962365,'',"[shoulder_pan_joint, shoulder_lift_joint, elbow_joint, wrist_1_joint, wrist_2_joint,","[1.4047702550888062, -1.17180043855776, 2.483058452606201, -2.8628390471087855, -1.5670059362994593, 2.7207303047180176]","[0.0, 0.0, -0.0, 0.0, 0.0, 0.0]","[0.5538941025733948, -4.174805164337158, -1.0334746837615967, -0.5450592637062073, 0.1211242824792862, 0.1211242824792862]"
1584454662427300644,,1596337,,1584454662,426942836,'',"[shoulder_pan_joint, shoulder_lift_joint, elbow_joint, wrist_1_joint, wrist_2_joint,","[1.404758334159851, -1.1718123594867151, 2.4830703735351562, -2.8628271261798304, -1.566981617604391, 2.7207183837890625]","[0.0, 0.0, -0.0, 0.0, 0.0, 0.0]","[0.5493164658546448, -4.216003894805908, -1.0469255447387695, -0.5226288437843323, 0.1143951565027237, 0.1435547024011612]"
1584454662539507168,,1596351,,1584454662,539046979,'',"[shoulder_pan_joint, shoulder_lift_joint, elbow_joint, wrist_1_joint, wrist_2_joint,","[1.4047942161560059, -1.17180043855776, 2.4830703735351562, -2.862863365803854, -1.5669940153705042, 2.7207422256469727]","[0.0, 0.0, -0.0, 0.0, 0.0, 0.0]","[0.5126953721046448, -4.234314441680908, -1.0357165336608887, -0.5248718857765198, 0.1121521145105362, 0.1278534084558487]"
1584454662651332159,,1596365,,1584454662,651023272,'',"[shoulder_pan_joint, shoulder_lift_joint, elbow_joint, wrist_1_joint, wrist_2_joint,","[1.4047702550888062, -1.1718247572528284, 2.483046531677246, -2.8628514448748987, -1.566981617604391, 2.720754384994507]","[0.0, 0.0, -0.0, 0.0, 0.0, 0.0]","[0.5218506455421448, -4.225159168243408, -1.0245074033737183, -0.5316010117530823, 0.1323394924402237, 0.1256103664636612]"
1584454662763361582,,1596379,,1584454662,762987233,'',"[shoulder_pan_joint, shoulder_lift_joint, elbow_joint, wrist_1_joint, wrist_2_joint,","[1.4047702550888062, -1.171788517628805, 2.483058452606201, -2.8628271261798304, -1.5669696966754358, 2.7207422256469727]","[0.0, 0.0, -0.0, 0.0, 0.0, 0.0]","[0.5401611924171448, -4.197693347930908, -1.0312328338623047, -0.5316010117530823, 0.1099090725183487, 0.1300964504480362]"
1584454662875517831,,1596393,,1584454662,875043956,'',"[shoulder_pan_joint, shoulder_lift_joint, elbow_joint, wrist_1_joint, wrist_2_joint,","[1.4047702550888062, -1.1717646757708948, 2.483046531677246, -2.8628514448748987, -1.5669940153705042, 2.720754384994507]","[0.0, 0.0, -0.0, 0.0, 0.0, 0.0]","[0.5310059189796448, -4.252624988555908, -1.0334746837615967, -0.5226288437843323, 0.1121521145105362, 0.1323394924402237]"
1584454662987447919,,1596407,,1584454662,987005623,'',"[shoulder_pan_joint, shoulder_lift_joint, elbow_joint, wrist_1_joint, wrist_2_joint,","[1.4047702550888062, -1.17180043855776, 2.483046531677246, -2.8628271261798304, -1.566981617604391, 2.7207303047180176]","[0.0, 0.0, -0.0, 0.0, 0.0, 0.0]","[0.5447388291358948, -4.261780261993408, -1.0200238227844238, -0.5248718857765198, 0.1211242824792862, 0.1413116604089737]"
1584454663099469797,,1596421,,1584454663,99034905,'',"[shoulder_pan_joint, shoulder_lift_joint, elbow_joint, wrist_1_joint, wrist_2_joint,","[1.4047822952270508, -1.17180043855776, 2.4830703735351562, -2.862863365803854, -1.5670059362994593, 2.7207303047180176]","[0.0, 0.0, -0.0, 0.0, 0.0, 0.0]","[0.5310059189796448, -4.216003894805908, -1.0289909839630127, -0.5360870957374573, 0.1121521145105362, 0.1256103664636612]"
1584454663211595781,,1596435,,1584454663,211059700,'',"[shoulder_pan_joint, shoulder_lift_joint, elbow_joint, wrist_1_joint, wrist_2_joint,","[1.404758334159851, -1.17180043855776, 2.483058452606201, -2.8628390471087855, -1.5669940153705042, 2.7207303047180176]","[0.0, 0.0, -0.0, 0.0, 0.0, 0.0]","[0.5264282822608948, -4.202270984649658, -1.0379582643508911, -0.5293579697608948, 0.1480407863855362, 0.1211242824792862]"
1584454663323579208,,1596449,,1584454663,323030383,'',"[shoulder_pan_joint, shoulder_lift_joint, elbow_joint, wrist_1_joint, wrist_2_joint,","[1.4047702550888062, -1.1718123594867151, 2.483046531677246, -2.8628152052508753, -1.5669940153705042, 2.7207064628601074]","[0.0, 0.0, -0.0, 0.0, 0.0, 0.0]","[0.5401611924171448, -4.211426258087158, -1.0267492532730103, -0.5405731797218323, 0.1166381984949112, 0.1211242824792862]"
1584454663435450015,,1596463,,1584454663,434964438,'',"[shoulder_pan_joint, shoulder_lift_joint, elbow_joint, wrist_1_joint, wrist_2_joint,","[1.4047822952270508, -1.1718123594867151, 2.4830822944641113, -2.8628514448748987, -1.5669696966754358, 2.720754384994507]","[0.0, 0.0, -0.0, 0.0, 0.0, 0.0]","[0.5035400986671448, -4.229736804962158, -1.0312328338623047, -0.5405731797218323, 0.1345825344324112, 0.1166381984949112]"
1584454663547469438,,1596477,,1584454663,546991836,'',"[shoulder_pan_joint, shoulder_lift_joint, elbow_joint, wrist_1_joint, wrist_2_joint,","[1.404758334159851, -1.1718123594867151, 2.4830703735351562, -2.8628152052508753, -1.5669940153705042, 2.7207183837890625]","[0.0, 0.0, -0.0, 0.0, 0.0, 0.0]","[0.5264282822608948, -4.193115711212158, -1.0200238227844238, -0.5271149277687073, 0.1278534084558487, 0.1211242824792862]"
1584454663659357047,,1596491,,1584454663,658959073,'',"[shoulder_pan_joint, shoulder_lift_joint, elbow_joint, wrist_1_joint, wrist_2_joint,","[1.4047702550888062, -1.17180043855776, 2.4830703735351562, -2.8628390471087855, -1.5670059362994593, 2.7207183837890625]","[0.0, 0.0, -0.0, 0.0, 0.0, 0.0]","[0.5355835556983948, -4.179382801055908, -1.0245074033737183, -0.5383301377296448, 0.1233673244714737, 0.1323394924402237]"
1584454663771292754,,1596505,,1584454663,770929315,'',"[shoulder_pan_joint, shoulder_lift_joint, elbow_joint, wrist_1_joint, wrist_2_joint,","[1.4047702550888062, -1.1718123594867151, 2.4830822944641113, -2.8628390471087855, -1.5669696966754358, 2.7207183837890625]","[0.0, 0.0, -0.0, 0.0, 0.0, 0.0]","[0.5493164658546448, -4.183960437774658, -1.0312328338623047, -0.5316010117530823, 0.1211242824792862, 0.1323394924402237]"
1584454663883212663,,1596519,,1584454663,882916299,'',"[shoulder_pan_joint, shoulder_lift_joint, elbow_joint, wrist_1_joint, wrist_2_joint,","[1.4047702550888062, -1.17180043855776, 2.483058452606201, -2.8628390471087855, -1.5669577757464808, 2.7207303047180176]","[0.0, 0.0, -0.0, 0.0, 0.0, 0.0]","[0.5172730088233948, -4.243469715118408, -1.0312328338623047, -0.5316010117530823, 0.0964508131146431, 0.1480407863855362]"
1584454663995376246,,1596533,,1584454663,994979535,'',"[shoulder_pan_joint, shoulder_lift_joint, elbow_joint, wrist_1_joint, wrist_2_joint,","[1.4047942161560059, -1.17180043855776, 2.4830703735351562, -2.8628152052508753, -1.566981617604391, 2.7207064628601074]","[0.0, 0.0, -0.0, 0.0, 0.0, 0.0]","[0.5355835556983948, -4.211426258087158, -1.0110565423965454, -0.5293579697608948, 0.1413116604089737, 0.1300964504480362]"
1584454664107238627,,1596547,,1584454664,106935481,'',"[shoulder_pan_joint, shoulder_lift_joint, elbow_joint, wrist_1_joint, wrist_2_joint,","[1.404758334159851, -1.1718123594867151, 2.483058452606201, -2.8628390471087855, -1.5669940153705042, 2.7207183837890625]","[0.0, 0.0, -0.0, 0.0, 0.0, 0.0]","[0.5264282822608948, -4.229736804962158, -1.0357165336608887, -0.5248718857765198, 0.0852356031537056, 0.1278534084558487]"
1584454664219416567,,1596561,,1584454664,218996803,'',"[shoulder_pan_joint, shoulder_lift_joint, elbow_joint, wrist_1_joint, wrist_2_joint,","[1.4047702550888062, -1.1718362013446253, 2.483058452606201, -2.8628271261798304, -1.5669940153705042, 2.7207183837890625]","[0.0, 0.0, -0.0, 0.0, 0.0, 0.0]","[0.5493164658546448, -4.197693347930908, -1.0245074033737183, -0.5271149277687073, 0.1256103664636612, 0.1323394924402237]"
1584454664331433016,,1596575,,1584454664,330970592,'',"[shoulder_pan_joint, shoulder_lift_joint, elbow_joint, wrist_1_joint, wrist_2_joint,","[1.4047822952270508, -1.17180043855776, 2.4830703735351562, -2.8628514448748987, -1.5669940153705042, 2.7207303047180176]","[0.0, 0.0, -0.0, 0.0, 0.0, 0.0]","[0.5447388291358948, -4.211426258087158, -1.0334746837615967, -0.5293579697608948, 0.1166381984949112, 0.1323394924402237]"
1584454664443354116,,1596589,,1584454664,442961453,'',"[shoulder_pan_joint, shoulder_lift_joint, elbow_joint, wrist_1_joint, wrist_2_joint,","[1.4047702550888062, -1.17180043855776, 2.4830703735351562, -2.862875286732809, -1.5669577757464808, 2.7207064628601074]","[0.0, 0.0, -0.0, 0.0, 0.0, 0.0]","[0.5218506455421448, -4.225159168243408, -1.0446836948394775, -0.5383301377296448, 0.1143951565027237, 0.1323394924402237]"
1584454664555242115,,1596603,,1584454664,554919613,'',"[shoulder_pan_joint, shoulder_lift_joint, elbow_joint, wrist_1_joint, wrist_2_joint,","[1.4047822952270508, -1.1718123594867151, 2.483058452606201, -2.8628390471087855, -1.5669696966754358, 2.7207303047180176]","[0.0, 0.0, -0.0, 0.0, 0.0, 0.0]","[0.5447388291358948, -4.229736804962158, -1.0379582643508911, -0.5271149277687073, 0.1345825344324112, 0.1233673244714737]"
1584454664667256450,,1596617,,1584454664,666908410,'',"[shoulder_pan_joint, shoulder_lift_joint, elbow_joint, wrist_1_joint, wrist_2_joint,","[1.404758334159851, -1.1718247572528284, 2.483046531677246, -2.862863365803854, -1.5669940153705042, 2.7207422256469727]","[0.0, 0.0, -0.0, 0.0, 0.0, 0.0]","[0.5035400986671448, -4.229736804962158, -1.0357165336608887, -0.5360870957374573, 0.1233673244714737, 0.1323394924402237]"
1584454664779233295,,1596631,,1584454664,778898489,'',"[shoulder_pan_joint, shoulder_lift_joint, elbow_joint, wrist_1_joint, wrist_2_joint,","[1.404758334159851, -1.1718123594867151, 2.483058452606201, -2.8628271261798304, -1.5670059362994593, 2.7207303047180176]","[0.0, 0.0, -0.0, 0.0, 0.0, 0.0]","[0.5310059189796448, -4.243469715118408, -1.0334746837615967, -0.5338440537452698, 0.1188812404870987, 0.1211242824792862]"
1584454664891292693,,1596645,,1584454664,890934875,'',"[shoulder_pan_joint, shoulder_lift_joint, elbow_joint, wrist_1_joint, wrist_2_joint,","[1.4047702550888062, -1.1718123594867151, 2.483058452606201, -2.8628390471087855, -1.5669696966754358, 2.7207422256469727]","[0.0, 0.0, -0.0, 0.0, 0.0, 0.0]","[0.5310059189796448, -4.238892078399658, -1.0446836948394775, -0.5383301377296448, 0.1121521145105362, 0.1323394924402237]"
1584454665003288313,,1596659,,1584454665,2955822,'',"[shoulder_pan_joint, shoulder_lift_joint, elbow_joint, wrist_1_joint, wrist_2_joint,","[1.4047702550888062, -1.17180043855776, 2.4830703735351562, -2.8628152052508753, -1.5669696966754358, 2.7207183837890625]","[0.0, 0.0, -0.0, 0.0, 0.0, 0.0]","[0.5447388291358948, -4.211426258087158, -1.042441964149475, -0.5316010117530823, 0.1099090725183487, 0.1345825344324112]"
1584454665115123583,,1596673,,1584454665,114830796,'',"[shoulder_pan_joint, shoulder_lift_joint, elbow_joint, wrist_1_joint, wrist_2_joint,","[1.404758334159851, -1.1718123594867151, 2.483058452606201, -2.862863365803854, -1.5669940153705042, 2.720754384994507]","[0.0, 0.0, -0.0, 0.0, 0.0, 0.0]","[0.5310059189796448, -4.188538074493408, -1.040200114250183, -0.5383301377296448, 0.1390686184167862, 0.1256103664636612]"
1584454665227102712,,1596687,,1584454665,226834491,'',"[shoulder_pan_joint, shoulder_lift_joint, elbow_joint, wrist_1_joint, wrist_2_joint,","[1.4047702550888062, -1.1718123594867151, 2.483058452606201, -2.8628514448748987, -1.5670059362994593, 2.7207183837890625]","[0.0, 0.0, -0.0, 0.0, 0.0, 0.0]","[0.5310059189796448, -4.216003894805908, -1.0491673946380615, -0.5428162217140198, 0.1413116604089737, 0.1368255764245987]"
1584454665339151691,,1596701,,1584454665,338850920,'',"[shoulder_pan_joint, shoulder_lift_joint, elbow_joint, wrist_1_joint, wrist_2_joint,","[1.4047702550888062, -1.17180043855776, 2.483046531677246, -2.8628390471087855, -1.5670059362994593, 2.7207303047180176]","[0.0, 0.0, -0.0, 0.0, 0.0, 0.0]","[0.5584717392921448, -4.129028797149658, -1.042441964149475, -0.5316010117530823, 0.1099090725183487, 0.1345825344324112]"
1584454665451144176,,1596715,,1584454665,450845237,'',"[shoulder_pan_joint, shoulder_lift_joint, elbow_joint, wrist_1_joint, wrist_2_joint,","[1.4047942161560059, -1.1718247572528284, 2.4830703735351562, -2.862863365803854, -1.5669696966754358, 2.720754384994507]","[0.0, 0.0, -0.0, 0.0, 0.0, 0.0]","[0.5218506455421448, -4.188538074493408, -1.055892825126648, -0.5405731797218323, 0.1368255764245987, 0.1323394924402237]"
1584454665563243539,,1596729,,1584454665,562871644,'',"[shoulder_pan_joint, shoulder_lift_joint, elbow_joint, wrist_1_joint, wrist_2_joint,","[1.4047462940216064, -1.17180043855776, 2.4830703735351562, -2.862863365803854, -1.5669577757464808, 2.7207422256469727]","[0.0, 0.0, -0.0, 0.0, 0.0, 0.0]","[0.5401611924171448, -4.197693347930908, -1.0334746837615967, -0.5383301377296448, 0.1121521145105362, 0.1435547024011612]"
1584454665675191590,,1596743,,1584454665,674836296,'',"[shoulder_pan_joint, shoulder_lift_joint, elbow_joint, wrist_1_joint, wrist_2_joint,","[1.4047702550888062, -1.17180043855776, 2.483058452606201, -2.8628514448748987, -1.566981617604391, 2.7207064628601074]","[0.0, 0.0, -0.0, 0.0, 0.0, 0.0]","[0.5218506455421448, -4.238892078399658, -1.0312328338623047, -0.5316010117530823, 0.1211242824792862, 0.1368255764245987]"
1584454665787116097,,1596757,,1584454665,786801479,'',"[shoulder_pan_joint, shoulder_lift_joint, elbow_joint, wrist_1_joint, wrist_2_joint,","[1.4047702550888062, -1.17180043855776, 2.483058452606201, -2.8628514448748987, -1.566981617604391, 2.7207303047180176]","[0.0, 0.0, -0.0, 0.0, 0.0, 0.0]","[0.5493164658546448, -4.188538074493408, -1.0469255447387695, -0.5316010117530823, 0.1233673244714737, 0.1323394924402237]"
1584454665899127576,,1596771,,1584454665,898795476,'',"[shoulder_pan_joint, shoulder_lift_joint, elbow_joint, wrist_1_joint, wrist_2_joint,","[1.4047462940216064, -1.17180043855776, 2.4830100536346436, -2.8628390471087855, -1.566981617604391, 2.720754384994507]","[0.0, 0.0, -0.0, 0.0, 0.0, 0.0]","[0.5401611924171448, -4.174805164337158, -1.0289909839630127, -0.5383301377296448, 0.1211242824792862, 0.1278534084558487]"
1584454666011188017,,1596785,,1584454666,10883568,'',"[shoulder_pan_joint, shoulder_lift_joint, elbow_joint, wrist_1_joint, wrist_2_joint,","[1.4047702550888062, -1.1717646757708948, 2.483058452606201, -2.8628390471087855, -1.566981617604391, 2.7207064628601074]","[0.0, 0.0, -0.0, 0.0, 0.0, 0.0]","[0.5218506455421448, -4.252624988555908, -1.0469255447387695, -0.5383301377296448, 0.1233673244714737, 0.1345825344324112]"
1584454666123137551,,1596799,,1584454666,122804368,'',"[shoulder_pan_joint, shoulder_lift_joint, elbow_joint, wrist_1_joint, wrist_2_joint,","[1.4047822952270508, -1.171788517628805, 2.4830822944641113, -2.8628390471087855, -1.5669696966754358, 2.7207422256469727]","[0.0, 0.0, -0.0, 0.0, 0.0, 0.0]","[0.5493164658546448, -4.211426258087158, -1.0446836948394775, -0.5271149277687073, 0.1031799390912056, 0.1278534084558487]"
1584454666235202720,,1596813,,1584454666,234843048,'',"[shoulder_pan_joint, shoulder_lift_joint, elbow_joint, wrist_1_joint, wrist_2_joint,","[1.4047822952270508, -1.17180043855776, 2.483034372329712, -2.8628390471087855, -1.5669940153705042, 2.7207303047180176]","[0.0, 0.0, -0.0, 0.0, 0.0, 0.0]","[0.5218506455421448, -4.238892078399658, -1.0334746837615967, -0.5360870957374573, 0.1233673244714737, 0.1390686184167862]"
1584454666347125785,,1596827,,1584454666,346812139,'',"[shoulder_pan_joint, shoulder_lift_joint, elbow_joint, wrist_1_joint, wrist_2_joint,","[1.4047702550888062, -1.17180043855776, 2.4830222129821777, -2.8628271261798304, -1.566981617604391, 2.7207303047180176]","[0.0, 0.0, -0.0, 0.0, 0.0, 0.0]","[0.5172730088233948, -4.225159168243408, -1.0312328338623047, -0.5158997178077698, 0.1525268703699112, 0.1278534084558487]"
1584454666459165386,,1596841,,1584454666,458782180,'',"[shoulder_pan_joint, shoulder_lift_joint, elbow_joint, wrist_1_joint, wrist_2_joint,","[1.4047702550888062, -1.1718247572528284, 2.483058452606201, -2.8628514448748987, -1.5669696966754358, 2.7207303047180176]","[0.0, 0.0, -0.0, 0.0, 0.0, 0.0]","[0.5584717392921448, -4.220581531524658, -1.0245074033737183, -0.5338440537452698, 0.1323394924402237, 0.1323394924402237]"
1584454666571277454,,1596855,,1584454666,570848142,'',"[shoulder_pan_joint, shoulder_lift_joint, elbow_joint, wrist_1_joint, wrist_2_joint,","[1.404758334159851, -1.17180043855776, 2.483034372329712, -2.8628514448748987, -1.5669940153705042, 2.7207183837890625]","[0.0, 0.0, -0.0, 0.0, 0.0, 0.0]","[0.5218506455421448, -4.206848621368408, -1.0491673946380615, -0.5203858017921448, 0.1076660305261612, 0.1256103664636612]"
1584454666683189717,,1596869,,1584454666,682798567,'',"[shoulder_pan_joint, shoulder_lift_joint, elbow_joint, wrist_1_joint, wrist_2_joint,","[1.4047942161560059, -1.17180043855776, 2.4830703735351562, -2.8628271261798304, -1.5669696966754358, 2.7207422256469727]","[0.0, 0.0, -0.0, 0.0, 0.0, 0.0]","[0.5126953721046448, -4.197693347930908, -1.0334746837615967, -0.5383301377296448, 0.1099090725183487, 0.1256103664636612]"
1584454666795166332,,1596883,,1584454666,794784589,'',"[shoulder_pan_joint, shoulder_lift_joint, elbow_joint, wrist_1_joint, wrist_2_joint,","[1.404758334159851, -1.17177659669985, 2.483046531677246, -2.8628514448748987, -1.5669696966754358, 2.7207303047180176]","[0.0, 0.0, -0.0, 0.0, 0.0, 0.0]","[0.5401611924171448, -4.206848621368408, -1.0312328338623047, -0.5338440537452698, 0.1368255764245987, 0.1502838283777237]"
1584454666907184754,,1596897,,1584454666,906815394,'',"[shoulder_pan_joint, shoulder_lift_joint, elbow_joint, wrist_1_joint, wrist_2_joint,","[1.4047822952270508, -1.1718485991107386, 2.4830222129821777, -2.8628390471087855, -1.5669940153705042, 2.7207422256469727]","[0.0, 0.0, -0.0, 0.0, 0.0, 0.0]","[0.5264282822608948, -4.206848621368408, -1.0603764057159424, -0.5405731797218323, 0.1211242824792862, 0.1345825344324112]"
1584454667019270492,,1596911,,1584454667,18841201,'',"[shoulder_pan_joint, shoulder_lift_joint, elbow_joint, wrist_1_joint, wrist_2_joint,","[1.4047702550888062, -1.1718247572528284, 2.483046531677246, -2.8628271261798304, -1.5669696966754358, 2.7207183837890625]","[0.0, 0.0, -0.0, 0.0, 0.0, 0.0]","[0.5447388291358948, -4.206848621368408, -1.0357165336608887, -0.5383301377296448, 0.1188812404870987, 0.1502838283777237]"
1584454667131125148,,1596925,,1584454667,130716836,'',"[shoulder_pan_joint, shoulder_lift_joint, elbow_joint, wrist_1_joint, wrist_2_joint,","[1.4047822952270508, -1.1718247572528284, 2.483046531677246, -2.8628390471087855, -1.5669940153705042, 2.720682382583618]","[0.0, 0.0, -0.0, 0.0, 0.0, 0.0]","[0.5538941025733948, -4.234314441680908, -1.0469255447387695, -0.5316010117530823, 0.1188812404870987, 0.1323394924402237]"
1584454667243122742,,1596939,,1584454667,242726993,'',"[shoulder_pan_joint, shoulder_lift_joint, elbow_joint, wrist_1_joint, wrist_2_joint,","[1.4047462940216064, -1.1718247572528284, 2.483034372329712, -2.8628390471087855, -1.5670059362994593, 2.7207303047180176]","[0.0, 0.0, -0.0, 0.0, 0.0, 0.0]","[0.5218506455421448, -4.165649890899658, -1.0446836948394775, -0.5383301377296448, 0.1502838283777237, 0.1278534084558487]"
1584454667355077054,,1596953,,1584454667,354710319,'',"[shoulder_pan_joint, shoulder_lift_joint, elbow_joint, wrist_1_joint, wrist_2_joint,","[1.4047462940216064, -1.17177659669985, 2.4830222129821777, -2.8628271261798304, -1.5669940153705042, 2.7207303047180176]","[0.0, 0.0, -0.0, 0.0, 0.0, 0.0]","[0.5310059189796448, -4.234314441680908, -1.0491673946380615, -0.5360870957374573, 0.1480407863855362, 0.1368255764245987]"
1584454667467244696,,1596967,,1584454667,466783044,'',"[shoulder_pan_joint, shoulder_lift_joint, elbow_joint, wrist_1_joint, wrist_2_joint,","[1.4047942161560059, -1.1718123594867151, 2.4830703735351562, -2.8628271261798304, -1.5669696966754358, 2.7207303047180176]","[0.0, 0.0, -0.0, 0.0, 0.0, 0.0]","[0.5310059189796448, -4.170227527618408, -1.051409125328064, -0.5405731797218323, 0.1278534084558487, 0.1323394924402237]"
1584454667579163141,,1596981,,1584454667,578729521,'',"[shoulder_pan_joint, shoulder_lift_joint, elbow_joint, wrist_1_joint, wrist_2_joint,","[1.4047462940216064, -1.17177659669985, 2.4830703735351562, -2.862863365803854, -1.566981617604391, 2.720766305923462]","[0.0, 0.0, -0.0, 0.0, 0.0, 0.0]","[0.5310059189796448, -4.188538074493408, -1.0491673946380615, -0.5293579697608948, 0.1188812404870987, 0.1054229810833931]"
1584454667691116111,,1596995,,1584454667,690724410,'',"[shoulder_pan_joint, shoulder_lift_joint, elbow_joint, wrist_1_joint, wrist_2_joint,","[1.4047822952270508, -1.1718247572528284, 2.483034372329712, -2.8628390471087855, -1.566981617604391, 2.7207422256469727]","[0.0, 0.0, -0.0, 0.0, 0.0, 0.0]","[0.5264282822608948, -4.183960437774658, -1.0581345558166504, -0.5271149277687073, 0.1233673244714737, 0.1345825344324112]"
1584454667803355857,,1597009,,1584454667,802873947,'',"[shoulder_pan_joint, shoulder_lift_joint, elbow_joint, wrist_1_joint, wrist_2_joint,","[1.4047822952270508, -1.1718123594867151, 2.483046531677246, -2.8628271261798304, -1.5670059362994593, 2.7207303047180176]","[0.0, 0.0, -0.0, 0.0, 0.0, 0.0]","[0.5264282822608948, -4.193115711212158, -1.042441964149475, -0.5316010117530823, 0.1233673244714737, 0.1143951565027237]"
1584454667915394878,,1597023,,1584454667,914943224,'',"[shoulder_pan_joint, shoulder_lift_joint, elbow_joint, wrist_1_joint, wrist_2_joint,","[1.404758334159851, -1.17180043855776, 2.483058452606201, -2.862863365803854, -1.5669696966754358, 2.7207422256469727]","[0.0, 0.0, -0.0, 0.0, 0.0, 0.0]","[0.5447388291358948, -4.183960437774658, -1.051409125328064, -0.5338440537452698, 0.1143951565027237, 0.1188812404870987]"
1584454668027369388,,1597037,,1584454668,26802880,'',"[shoulder_pan_joint, shoulder_lift_joint, elbow_joint, wrist_1_joint, wrist_2_joint,","[1.4047462940216064, -1.1718362013446253, 2.4831063747406006, -2.8628514448748987, -1.5670178572284144, 2.7207183837890625]","[0.0, 0.0, -0.0, 0.0, 0.0, 0.0]","[0.5218506455421448, -4.243469715118408, -1.0357165336608887, -0.5226288437843323, 0.1278534084558487, 0.1188812404870987]"
1584454668139143374,,1597051,,1584454668,138727056,'',"[shoulder_pan_joint, shoulder_lift_joint, elbow_joint, wrist_1_joint, wrist_2_joint,","[1.4047942161560059, -1.1718247572528284, 2.483058452606201, -2.862863365803854, -1.5669696966754358, 2.7207183837890625]","[0.0, 0.0, -0.0, 0.0, 0.0, 0.0]","[0.5401611924171448, -4.211426258087158, -1.0379582643508911, -0.5316010117530823, 0.0986938551068306, 0.1188812404870987]"
1584454668251137140,,1597065,,1584454668,250726694,'',"[shoulder_pan_joint, shoulder_lift_joint, elbow_joint, wrist_1_joint, wrist_2_joint,","[1.404758334159851, -1.17180043855776, 2.4831063747406006, -2.8628514448748987, -1.566981617604391, 2.720754384994507]","[0.0, 0.0, -0.0, 0.0, 0.0, 0.0]","[0.5264282822608948, -4.202270984649658, -1.040200114250183, -0.5450592637062073, 0.1166381984949112, 0.1480407863855362]"
1584454668363118844,,1597079,,1584454668,362692748,'',"[shoulder_pan_joint, shoulder_lift_joint, elbow_joint, wrist_1_joint, wrist_2_joint,","[1.4047942161560059, -1.17180043855776, 2.483034372329712, -2.8628390471087855, -1.5669696966754358, 2.7207183837890625]","[0.0, 0.0, -0.0, 0.0, 0.0, 0.0]","[0.5126953721046448, -4.202270984649658, -1.040200114250183, -0.5316010117530823, 0.1143951565027237, 0.1323394924402237]"
1584454668475260607,,1597093,,1584454668,474838168,'',"[shoulder_pan_joint, shoulder_lift_joint, elbow_joint, wrist_1_joint, wrist_2_joint,","[1.4047702550888062, -1.1718247572528284, 2.4830100536346436, -2.8628390471087855, -1.5669940153705042, 2.7207422256469727]","[0.0, 0.0, -0.0, 0.0, 0.0, 0.0]","[0.5355835556983948, -4.234314441680908, -1.042441964149475, -0.5383301377296448, 0.1188812404870987, 0.1211242824792862]"
1584454668587323402,,1597107,,1584454668,586884532,'',"[shoulder_pan_joint, shoulder_lift_joint, elbow_joint, wrist_1_joint, wrist_2_joint,","[1.4047822952270508, -1.1718123594867151, 2.483034372329712, -2.862875286732809, -1.566981617604391, 2.7207064628601074]","[0.0, 0.0, -0.0, 0.0, 0.0, 0.0]","[0.5447388291358948, -4.206848621368408, -1.0446836948394775, -0.5450592637062073, 0.1099090725183487, 0.1256103664636612]"
1584454668699094663,,1597121,,1584454668,698703302,'',"[shoulder_pan_joint, shoulder_lift_joint, elbow_joint, wrist_1_joint, wrist_2_joint,","[1.4047702550888062, -1.171788517628805, 2.4831063747406006, -2.8628271261798304, -1.5669940153705042, 2.7207422256469727]","[0.0, 0.0, -0.0, 0.0, 0.0, 0.0]","[0.5126953721046448, -4.206848621368408, -1.053650975227356, -0.5271149277687073, 0.1278534084558487, 0.1368255764245987]"
1584454668811069754,,1597135,,1584454668,810696457,'',"[shoulder_pan_joint, shoulder_lift_joint, elbow_joint, wrist_1_joint, wrist_2_joint,","[1.4047702550888062, -1.17180043855776, 2.4830822944641113, -2.8628390471087855, -1.5669940153705042, 2.7207183837890625]","[0.0, 0.0, -0.0, 0.0, 0.0, 0.0]","[0.5218506455421448, -4.220581531524658, -1.0469255447387695, -0.5405731797218323, 0.1031799390912056, 0.1121521145105362]"
1584454668923257392,,1597149,,1584454668,922833601,'',"[shoulder_pan_joint, shoulder_lift_joint, elbow_joint, wrist_1_joint, wrist_2_joint,","[1.4047462940216064, -1.17180043855776, 2.483046531677246, -2.8628390471087855, -1.5669696966754358, 2.7207422256469727]","[0.0, 0.0, -0.0, 0.0, 0.0, 0.0]","[0.5126953721046448, -4.193115711212158, -1.0267492532730103, -0.5248718857765198, 0.1323394924402237, 0.1256103664636612]"
1584454669035239026,,1597163,,1584454669,34764289,'',"[shoulder_pan_joint, shoulder_lift_joint, elbow_joint, wrist_1_joint, wrist_2_joint,","[1.4047822952270508, -1.171788517628805, 2.4830944538116455, -2.8628271261798304, -1.5669696966754358, 2.7207183837890625]","[0.0, 0.0, -0.0, 0.0, 0.0, 0.0]","[0.5310059189796448, -4.248047351837158, -1.0289909839630127, -0.5383301377296448, 0.1211242824792862, 0.1256103664636612]"
1584454669147075248,,1597177,,1584454669,146651096,'',"[shoulder_pan_joint, shoulder_lift_joint, elbow_joint, wrist_1_joint, wrist_2_joint,","[1.404758334159851, -1.17180043855776, 2.4830703735351562, -2.8628152052508753, -1.5669339338885706, 2.7207422256469727]","[0.0, 0.0, -0.0, 0.0, 0.0, 0.0]","[0.5081177353858948, -4.211426258087158, -1.0446836948394775, -0.5293579697608948, 0.1031799390912056, 0.1278534084558487]"
1584454669259246325,,1597191,,1584454669,258778622,'',"[shoulder_pan_joint, shoulder_lift_joint, elbow_joint, wrist_1_joint, wrist_2_joint,","[1.4047942161560059, -1.1718362013446253, 2.4830822944641113, -2.8628514448748987, -1.566981617604391, 2.7207064628601074]","[0.0, 0.0, -0.0, 0.0, 0.0, 0.0]","[0.5447388291358948, -4.179382801055908, -1.051409125328064, -0.5316010117530823, 0.1323394924402237, 0.1166381984949112]"
1584454669371105931,,1597205,,1584454669,370674536,'',"[shoulder_pan_joint, shoulder_lift_joint, elbow_joint, wrist_1_joint, wrist_2_joint,","[1.4047462940216064, -1.17180043855776, 2.483058452606201, -2.8628390471087855, -1.566981617604391, 2.720682382583618]","[0.0, 0.0, -0.0, 0.0, 0.0, 0.0]","[0.5172730088233948, -4.234314441680908, -1.0334746837615967, -0.5450592637062073, 0.1233673244714737, 0.1525268703699112]"
1584454669483175850,,1597219,,1584454669,482647282,'',"[shoulder_pan_joint, shoulder_lift_joint, elbow_joint, wrist_1_joint, wrist_2_joint,","[1.4047702550888062, -1.171788517628805, 2.483046531677246, -2.8628271261798304, -1.5670059362994593, 2.7207303047180176]","[0.0, 0.0, -0.0, 0.0, 0.0, 0.0]","[0.5355835556983948, -4.197693347930908, -1.0446836948394775, -0.5316010117530823, 0.0897216871380806, 0.1300964504480362]"
1584454669595054661,,1597233,,1584454669,594612055,'',"[shoulder_pan_joint, shoulder_lift_joint, elbow_joint, wrist_1_joint, wrist_2_joint,","[1.4047702550888062, -1.17180043855776, 2.4830703735351562, -2.862887207661764, -1.5669940153705042, 2.7207183837890625]","[0.0, 0.0, -0.0, 0.0, 0.0, 0.0]","[0.5355835556983948, -4.216003894805908, -1.0334746837615967, -0.5316010117530823, 0.1031799390912056, 0.1300964504480362]"
1584454669706977856,,1597247,,1584454669,706585112,'',"[shoulder_pan_joint, shoulder_lift_joint, elbow_joint, wrist_1_joint, wrist_2_joint,","[1.4047702550888062, -1.1718123594867151, 2.4830822944641113, -2.862863365803854, -1.5670059362994593, 2.7207303047180176]","[0.0, 0.0, -0.0, 0.0, 0.0, 0.0]","[0.5355835556983948, -4.156494617462158, -1.042441964149475, -0.5271149277687073, 0.0964508131146431, 0.1300964504480362]"
1584454669819065327,,1597261,,1584454669,818636376,'',"[shoulder_pan_joint, shoulder_lift_joint, elbow_joint, wrist_1_joint, wrist_2_joint,","[1.4047702550888062, -1.17177659669985, 2.483034372329712, -2.8628271261798304, -1.5669940153705042, 2.7207303047180176]","[0.0, 0.0, -0.0, 0.0, 0.0, 0.0]","[0.5493164658546448, -4.179382801055908, -1.0491673946380615, -0.5226288437843323, 0.1166381984949112, 0.1188812404870987]"
1584454669930965198,,1597275,,1584454669,930576712,'',"[shoulder_pan_joint, shoulder_lift_joint, elbow_joint, wrist_1_joint, wrist_2_joint,","[1.4047702550888062, -1.1718247572528284, 2.483046531677246, -2.8628514448748987, -1.5669940153705042, 2.7207183837890625]","[0.0, 0.0, -0.0, 0.0, 0.0, 0.0]","[0.5355835556983948, -4.243469715118408, -1.0289909839630127, -0.5383301377296448, 0.1121521145105362, 0.1211242824792862]"
1584454670043117140,,1597289,,1584454670,42669654,'',"[shoulder_pan_joint, shoulder_lift_joint, elbow_joint, wrist_1_joint, wrist_2_joint,","[1.4047702550888062, -1.1718247572528284, 2.4830822944641113, -2.862875286732809, -1.566981617604391, 2.7207303047180176]","[0.0, 0.0, -0.0, 0.0, 0.0, 0.0]","[0.5218506455421448, -4.216003894805908, -1.042441964149475, -0.5383301377296448, 0.1031799390912056, 0.1345825344324112]"
1584454670154966616,,1597303,,1584454670,154572961,'',"[shoulder_pan_joint, shoulder_lift_joint, elbow_joint, wrist_1_joint, wrist_2_joint,","[1.4047702550888062, -1.17180043855776, 2.4830822944641113, -2.8628390471087855, -1.5670059362994593, 2.7207183837890625]","[0.0, 0.0, -0.0, 0.0, 0.0, 0.0]","[0.5584717392921448, -4.188538074493408, -1.0469255447387695, -0.5360870957374573, 0.1188812404870987, 0.1435547024011612]"
1584454670267104201,,1597317,,1584454670,266629084,'',"[shoulder_pan_joint, shoulder_lift_joint, elbow_joint, wrist_1_joint, wrist_2_joint,","[1.4031509160995483, -1.1716445128070276, 2.4819304943084717, -2.8620250860797327, -1.5670059362994593, 2.717221975326538]","[-0.013141102157533169, 0.0018791265320032835, -0.010047574527561665, 0.008686166256666183, 0.0, -0.01848446950316429]","[-0.9475709199905396, -3.025818109512329, -1.8943299055099487, -0.2332763969898224, 0.0493469275534153, -0.2893524467945099]"
1584454670378986820,,1597331,,1584454670,378549002,'',"[shoulder_pan_joint, shoulder_lift_joint, elbow_joint, wrist_1_joint, wrist_2_joint,","[1.402119517326355, -1.1716926733600062, 2.4820022583007812, -2.862037007008688, -1.5670059362994593, 2.7162764072418213]","[-0.005573463626205921, -8.948221511673182e-05, 0.0017768611432984471, -0.0016873788554221392, 0.0, 0.027151459828019142]","[-0.5676270127296448, -3.739929676055908, -1.1993685960769653, -0.5114136338233948, 0.0538330152630806, 0.0874786451458931]"
1584454670491038104,,1597345,,1584454670,490668213,'',"[shoulder_pan_joint, shoulder_lift_joint, elbow_joint, wrist_1_joint, wrist_2_joint,","[1.402179479598999, -1.171668831502096, 2.4820022583007812, -2.862072769795553, -1.5670178572284144, 2.7211015224456787]","[0.00043462790199555457, 0.0, 0.0003195793251506984, -0.0003067961661145091, 0.0, 0.03232864663004875]","[-0.0503540076315403, -3.561401844024658, -1.3764716386795044, -0.4329071640968323, 0.0403747595846653, 0.3768310844898224]"
1584454670603107862,,1597359,,1584454670,602693117,'',"[shoulder_pan_joint, shoulder_lift_joint, elbow_joint, wrist_1_joint, wrist_2_joint,","[1.4017956256866455, -1.1716445128070276, 2.4820022583007812, -2.8620970884906214, -1.5670297781573694, 2.7212212085723877]","[-0.006749515421688557, 0.0, -0.0, -0.00015339808305725455, 0.0, -0.054015301167964935]","[-0.5676270127296448, -3.648376941680908, -1.275590181350708, -0.5069275498390198, 0.0291595496237278, -0.2512207329273224]"
1584454670715005388,,1597373,,1584454670,714586977,'',"[shoulder_pan_joint, shoulder_lift_joint, elbow_joint, wrist_1_joint, wrist_2_joint,","[1.4017236232757568, -1.171680752431051, 2.4820144176483154, -2.8621090094195765, -1.5669940153705042, 2.716001033782959]","[0.0011377024929970503, 0.0, -0.0, -0.00015339808305725455, 0.0, -0.034457042813301086]","[0.0457763709127903, -3.511047601699829, -1.358537197113037, -0.4530945420265198, 0.0471038855612278, -0.3925323784351349]"
1584454670827166176,,1597387,,1584454670,826763594,'',"[shoulder_pan_joint, shoulder_lift_joint, elbow_joint, wrist_1_joint, wrist_2_joint,","[1.4017716646194458, -1.171680752431051, 2.481990337371826, -2.8620851675616663, -1.5669940153705042, 2.7139058113098145]","[0.00285064778290689, 0.0, -3.834952076431364e-05, -0.00013422331539914012, 0.0, -0.001859951764345169]","[0.2700805962085724, -3.465271234512329, -1.4706276655197144, -0.3992615044116974, 0.0426178015768528, -0.1682281643152237]"
1584454670939006687,,1597401,,1584454670,938584498,'',"[shoulder_pan_joint, shoulder_lift_joint, elbow_joint, wrist_1_joint, wrist_2_joint,","[1.40185546875, -1.171656910573141, 2.481990337371826, -2.862060848866598, -1.5670059362994593, 2.7183237075805664]","[0.0004985437844879925, 0.0, -0.0, -9.58738019107841e-05, 0.0, 0.05079393833875656]","[0.1098632961511612, -3.529358386993408, -1.4370005130767822, -0.4306641221046448, 0.0448608435690403, 0.3117828667163849]"
1584454671051041549,,1597415,,1584454671,50588904,'',"[shoulder_pan_joint, shoulder_lift_joint, elbow_joint, wrist_1_joint, wrist_2_joint,","[1.4018794298171997, -1.171656910573141, 2.481870412826538, -2.8620131651507776, -1.5670178572284144, 2.7225863933563232]","[-0.0018279937794432044, 0.0, -0.0003834952076431364, 1.917476038215682e-05, -3.834952076431364e-05, 0.02057451754808426]","[-0.5264282822608948, -3.639221668243408, -1.27783203125, -0.4777680039405823, 0.0493469275534153, 0.3431854546070099]"
1584454671163012433,,1597429,,1584454671,162571199,'',"[shoulder_pan_joint, shoulder_lift_joint, elbow_joint, wrist_1_joint, wrist_2_joint,","[1.40185546875, -1.1715968290912073, 2.481210947036743, -2.8616183439837855, -1.567077938710348, 2.724238634109497]","[0.0035665053874254227, 0.000818123109638691, -0.016349678859114647, 0.012808740139007568, -3.834952076431364e-05, 0.013652428984642029]","[0.2746582329273224, -2.989197015762329, -1.8046574592590332, -0.2444916069507599, 0.0358886756002903, 0.2960815727710724]"
1584454671274877849,,1597443,,1584454671,274574363,'',"[shoulder_pan_joint, shoulder_lift_joint, elbow_joint, wrist_1_joint, wrist_2_joint,","[1.4018675088882446, -1.1708892027484339, 2.4787631034851074, -2.859870258961813, -1.567077938710348, 2.7251248359680176]","[-0.0005624596378766, 0.010520551353693008, -0.02635890431702137, 0.013652428984642029, -3.834952076431364e-05, -0.023565780371427536]","[-0.1968383938074112, -2.801513910293579, -1.7575794458389282, -0.1839294582605362, 0.0448608435690403, -0.1211242824792862]"
1584454671386981541,,1597457,,1584454671,386636277,'',"[shoulder_pan_joint, shoulder_lift_joint, elbow_joint, wrist_1_joint, wrist_2_joint,","[1.4019393920898438, -1.1690428892718714, 2.4735560417175293, -2.8574517408954065, -1.567101780568258, 2.719796657562256]","[0.0007797735743224621, 0.02346990630030632, -0.07227606326341629, 0.032290294766426086, -3.834952076431364e-05, -0.0521169975399971]","[0.2380371391773224, -2.815246820449829, -1.8517354726791382, -0.1547699123620987, 0.0448608435690403, -0.3566437065601349]"
1584454671498862577,,1597471,,1584454671,498573176,'',"[shoulder_pan_joint, shoulder_lift_joint, elbow_joint, wrist_1_joint, wrist_2_joint,","[1.4020472764968872, -1.1658175627337855, 2.4638500213623047, -2.852602783833639, -1.567089859639303, 2.715270519256592]","[0.0006647250265814364, 0.028992237523198128, -0.08687444776296616, 0.05077476426959038, -3.834952076431364e-05, -0.031101461499929428]","[0.1464843899011612, -2.655029535293579, -1.7777557373046875, -0.1009368970990181, 0.02467346377670765, -0.3319702446460724]"
1584454671610859429,,1597485,,1584454671,610557996,'',"[shoulder_pan_joint, shoulder_lift_joint, elbow_joint, wrist_1_joint, wrist_2_joint,","[1.402335286140442, -1.1618970076190394, 2.453207492828369, -2.846604649220602, -1.5670536200152796, 2.714348793029785]","[0.01224627997726202, 0.04563593119382858, -0.09225616604089737, 0.05397694930434227, -5.752428114647046e-05, 0.04235704615712166]","[0.8056641221046448, -2.650451898574829, -1.8472518920898438, -0.0785064771771431, 0.0269165076315403, 0.1390686184167862]"
1584454671722994429,,1597499,,1584454671,722572551,'',"[shoulder_pan_joint, shoulder_lift_joint, elbow_joint, wrist_1_joint, wrist_2_joint,","[1.405405879020691, -1.1565373579608362, 2.4426016807556152, -2.840283219014303, -1.567077938710348, 2.721867799758911]","[0.03864353522658348, 0.04692703112959862, -0.0907093957066536, 0.057025738060474396, -5.752428114647046e-05, 0.07474321871995926]","[0.6225586533546448, -3.062439203262329, -1.961584210395813, -0.1704712063074112, 0.02467346377670765, 0.4284210503101349]"
1584454671834969541,,1597513,,1584454671,834556169,'',"[shoulder_pan_joint, shoulder_lift_joint, elbow_joint, wrist_1_joint, wrist_2_joint,","[1.4109114408493042, -1.1523411909686487, 2.432739019393921, -2.8341296354876917, -1.5670655409442347, 2.7296626567840576]","[0.06010648235678673, 0.02989984303712845, -0.09238399565219879, 0.05476311594247818, -5.752428114647046e-05, 0.0691058337688446]","[0.7369995713233948, -2.792358636856079, -1.9526170492172241, -0.1457977443933487, 0.0291595496237278, 0.3005676567554474]"
1584454671946905218,,1597527,,1584454671,946558170,'',"[shoulder_pan_joint, shoulder_lift_joint, elbow_joint, wrist_1_joint, wrist_2_joint,","[1.4182645082473755, -1.1486247221576136, 2.4233920574188232, -2.8283231894122522, -1.567077938710348, 2.738008499145508]","[0.06576942652463913, 0.0357673205435276, -0.08251538127660751, 0.046000249683856964, -5.752428114647046e-05, 0.07349685579538345]","[0.7690430283546448, -3.089905023574829, -2.0557403564453125, -0.1278534084558487, 0.0493469275534153, 0.3858032524585724]"
1584454672058973103,,1597541,,1584454672,58555473,'',"[shoulder_pan_joint, shoulder_lift_joint, elbow_joint, wrist_1_joint, wrist_2_joint,","[1.4257370233535767, -1.1446078459369105, 2.414116859436035, -2.8231633345233362, -1.567089859639303, 2.745911121368408]","[0.07386117428541183, 0.03627864643931389, -0.08039338141679764, 0.04183932766318321, -5.752428114647046e-05, 0.07146432995796204]","[1.0528565645217896, -3.057861566543579, -1.961584210395813, -0.1345825344324112, 0.0538330152630806, 0.2758941948413849]"
1584454672170864207,,1597555,,1584454672,170528981,'',"[shoulder_pan_joint, shoulder_lift_joint, elbow_joint, wrist_1_joint, wrist_2_joint,","[1.4346851110458374, -1.1407955328570765, 2.404038190841675, -2.8176196257220667, -1.567077938710348, 2.7544846534729004]","[0.08479078859090805, 0.030896930024027824, -0.09136134386062622, 0.05506991222500801, -5.752428114647046e-05, 0.06906748563051224]","[0.7232666611671448, -2.865600824356079, -1.9481333494186401, -0.1099090725183487, 0.0628051832318306, 0.4553375840187073]"
1584454672282954815,,1597569,,1584454672,282566650,'',"[shoulder_pan_joint, shoulder_lift_joint, elbow_joint, wrist_1_joint, wrist_2_joint,","[1.445108413696289, -1.1368868986712855, 2.39296293258667, -2.811561886464254, -1.567089859639303, 2.760735273361206]","[0.09294645488262177, 0.04357783868908882, -0.10263609886169434, 0.060323797166347504, -3.834952076431364e-05, 0.052136171609163284]","[1.0803223848342896, -2.801513910293579, -2.015387773513794, -0.1143951565027237, 0.0829925611615181, 0.2960815727710724]"
1584454672394882197,,1597583,,1584454672,394621800,'',"[shoulder_pan_joint, shoulder_lift_joint, elbow_joint, wrist_1_joint, wrist_2_joint,","[1.4556159973144531, -1.1315272490130823, 2.381131887435913, -2.804953400288717, -1.5671137014972132, 2.7673325538635254]","[0.09518350660800934, 0.052385445684194565, -0.11116247624158859, 0.06402452290058136, -3.834952076431364e-05, 0.060745641589164734]","[0.7736206650733948, -3.149414300918579, -2.0647075176239014, -0.1502838283777237, 0.0717773512005806, 0.3858032524585724]"
1584454672506960511,,1597597,,1584454672,506540867,'',"[shoulder_pan_joint, shoulder_lift_joint, elbow_joint, wrist_1_joint, wrist_2_joint,","[1.4665310382843018, -1.1262524763690394, 2.3680169582366943, -2.7974708716021937, -1.567089859639303, 2.773331642150879]","[0.10240600258111954, 0.04598107561469078, -0.12175972759723663, 0.06889491528272629, -1.917476038215682e-05, 0.046191997826099396]","[0.8605957627296448, -3.012085199356079, -1.9526170492172241, -0.0986938551068306, 0.0560760572552681, 0.3723450005054474]"
1584454672618806261,,1597611,,1584454672,618509577,'',"[shoulder_pan_joint, shoulder_lift_joint, elbow_joint, wrist_1_joint, wrist_2_joint,","[1.4782381057739258, -1.1200535933123987, 2.353821277618408, -2.789521042500631, -1.567101780568258, 2.778719663619995]","[0.10308351367712021, 0.06051554158329964, -0.12663011252880096, 0.0691058337688446, -1.917476038215682e-05, 0.051599279046058655]","[0.8102417588233948, -3.149414300918579, -2.004178524017334, -0.1143951565027237, 0.0829925611615181, 0.3095398247241974]"
1584454672730862364,,1597625,,1584454672,730534742,'',"[shoulder_pan_joint, shoulder_lift_joint, elbow_joint, wrist_1_joint, wrist_2_joint,","[1.4893451929092407, -1.1141789595233362, 2.3396379947662354, -2.7817633787738245, -1.5671137014972132, 2.7850306034088135]","[0.1037738025188446, 0.042222823947668076, -0.1235877200961113, 0.0711575374007225, -1.917476038215682e-05, 0.05531918257474899]","[1.0345460176467896, -3.057861566543579, -2.098334789276123, -0.1256103664636612, 0.1099090725183487, 0.3768310844898224]"
1584454672842912204,,1597639,,1584454672,842509111,'',"[shoulder_pan_joint, shoulder_lift_joint, elbow_joint, wrist_1_joint, wrist_2_joint,","[1.501039981842041, -1.1085198561297815, 2.326173782348633, -2.7738621870623987, -1.5671256224261683, 2.7906103134155273]","[0.1078132838010788, 0.05748593062162399, -0.11235131323337555, 0.06830049306154251, -1.917476038215682e-05, 0.04939418286085129]","[1.3412476778030396, -3.218078851699829, -2.3269994258880615, -0.1659851223230362, 0.0897216871380806, 0.3005676567554474]"
1584454672954750831,,1597653,,1584454672,954459176,'',"[shoulder_pan_joint, shoulder_lift_joint, elbow_joint, wrist_1_joint, wrist_2_joint,","[1.5130586624145508, -1.1030648390399378, 2.3143296241760254, -2.766714398060934, -1.5671137014972132, 2.7971839904785156]","[0.10846522450447083, 0.03479579836130142, -0.09188544750213623, 0.059480104595422745, -1.917476038215682e-05, 0.06645971536636353]","[1.1581422090530396, -3.259277582168579, -2.3337247371673584, -0.1345825344324112, 0.1233673244714737, 0.3140259087085724]"
1584454673067028407,,1597667,,1584454673,66582054,'',"[shoulder_pan_joint, shoulder_lift_joint, elbow_joint, wrist_1_joint, wrist_2_joint,","[1.525148868560791, -1.0992758909808558, 2.3043336868286133, -2.760848347340719, -1.567101780568258, 2.8038179874420166]","[0.1093216985464096, 0.03903981298208237, -0.08078965544700623, 0.04423617199063301, -1.917476038215682e-05, 0.05044879391789436]","[1.0162354707717896, -3.263855218887329, -2.2171506881713867, -0.1390686184167862, 0.1390686184167862, 0.3723450005054474]"
1584454673178764973,,1597681,,1584454673,178444625,'',"[shoulder_pan_joint, shoulder_lift_joint, elbow_joint, wrist_1_joint, wrist_2_joint,","[1.5375034809112549, -1.0948165098773401, 2.2948529720306396, -2.7558682600604456, -1.5671375433551233, 2.8085358142852783]","[0.10950066149234772, 0.04146861657500267, -0.09010858833789825, 0.0475534051656723, 0.0, 0.04235704615712166]","[1.2588502168655396, -3.538513660430908, -2.2350850105285645, -0.1099090725183487, 0.1502838283777237, 0.3207550346851349]"
1584454673290894282,,1597695,,1584454673,290509664,'',"[shoulder_pan_joint, shoulder_lift_joint, elbow_joint, wrist_1_joint, wrist_2_joint,","[1.5491981506347656, -1.0907405058490198, 2.2848565578460693, -2.7503488699542444, -1.5671256224261683, 2.8126070499420166]","[0.09964483976364136, 0.02973366156220436, -0.09919742494821548, 0.0524621456861496, 0.0, 0.029318207874894142]","[1.0116578340530396, -3.364563226699829, -2.1319618225097656, -0.1300964504480362, 0.1435547024011612, 0.3409424126148224]"
1584454673402824851,,1597709,,1584454673,402496999,'',"[shoulder_pan_joint, shoulder_lift_joint, elbow_joint, wrist_1_joint, wrist_2_joint,","[1.5598851442337036, -1.0870116392718714, 2.2743682861328125, -2.744507137929098, -1.5671137014972132, 2.8150618076324463]","[0.09294645488262177, 0.03658544272184372, -0.0911184623837471, 0.052385445684194565, 0.0, 0.01390170119702816]","[0.9017945528030396, -3.369140863418579, -2.3225157260894775, -0.1659851223230362, 0.1727142482995987, 0.3633728325366974]"
1584454673514810933,,1597723,,1584454673,514481477,'',"[shoulder_pan_joint, shoulder_lift_joint, elbow_joint, wrist_1_joint, wrist_2_joint,","[1.5705244541168213, -1.0826838652240198, 2.265259265899658, -2.7390835920916956, -1.567101780568258, 2.8135650157928467]","[0.08959726244211197, 0.03549887239933014, -0.06387751549482346, 0.042337872087955475, 0.0, -0.0453866571187973]","[0.8422852158546448, -3.616333484649658, -2.26198673248291, -0.1031799390912056, 0.1525268703699112, -0.2893524467945099]"
1584454673626954008,,1597737,,1584454673,626516471,'',"[shoulder_pan_joint, shoulder_lift_joint, elbow_joint, wrist_1_joint, wrist_2_joint,","[1.5805754661560059, -1.079470459614889, 2.2572665214538574, -2.7344144026385706, -1.5671256224261683, 2.8096492290496826]","[0.08782040327787399, 0.025617480278015137, -0.07658398896455765, 0.04252961650490761, 0.0, -0.031254857778549194]","[0.8743286728858948, -3.575134754180908, -2.295614004135132, -0.1390686184167862, 0.1794433742761612, -0.3252411186695099]"
1584454673739050636,,1597751,,1584454673,738612277,'',"[shoulder_pan_joint, shoulder_lift_joint, elbow_joint, wrist_1_joint, wrist_2_joint,","[1.590315341949463, -1.076461140309469, 2.2480978965759277, -2.7294705549823206, -1.5671375433551233, 2.8071343898773193]","[0.08810163289308548, 0.03220081329345703, -0.09416085481643677, 0.04433204606175423, 0.0, -0.018426945433020592]","[0.8697510361671448, -3.341675043106079, -2.2440524101257324, -0.1772003322839737, 0.1659851223230362, -0.2915954887866974]"
1584454673850790839,,1597765,,1584454673,850476021,'',"[shoulder_pan_joint, shoulder_lift_joint, elbow_joint, wrist_1_joint, wrist_2_joint,","[1.60019850730896, -1.0715211073504847, 2.2372965812683105, -2.7238200346576136, -1.5671375433551233, 2.805158853530884]","[0.08723237365484238, 0.050225090235471725, -0.09929969161748886, 0.053766027092933655, 0.0, -0.022012624889612198]","[1.2359620332717896, -3.625488758087158, -2.394253730773926, -0.0919647291302681, 0.1794433742761612, -0.2534637749195099]"
1584454673962920228,,1597779,,1584454673,962524559,'',"[shoulder_pan_joint, shoulder_lift_joint, elbow_joint, wrist_1_joint, wrist_2_joint,","[1.6092301607131958, -1.0662701765643519, 2.2269997596740723, -2.718001190816061, -1.5671137014972132, 2.8022851943969727]","[0.0744747668504715, 0.03696893900632858, -0.08413884788751602, 0.05008447542786598, 0.0, -0.027285683900117874]","[0.9750367403030396, -3.822327136993408, -2.468233346939087, -0.1704712063074112, 0.1794433742761612, -0.2444916069507599]"
1584454674074815241,,1597793,,1584454674,74501725,'',"[shoulder_pan_joint, shoulder_lift_joint, elbow_joint, wrist_1_joint, wrist_2_joint,","[1.6177340745925903, -1.06256610551943, 2.21799898147583, -2.7130096594439905, -1.5671137014972132, 2.798046112060547]","[0.0763283297419548, 0.03530712425708771, -0.07035858929157257, 0.04199272394180298, 0.0, -0.04350753128528595]","[0.7507324814796448, -3.739929676055908, -2.3225157260894775, -0.1592559963464737, 0.1682281643152237, -0.2938385307788849]"
1584454674186963605,,1597807,,1584454674,186541807,'',"[shoulder_pan_joint, shoulder_lift_joint, elbow_joint, wrist_1_joint, wrist_2_joint,","[1.6269577741622925, -1.0588019529925745, 2.210653781890869, -2.708651844655172, -1.5671137014972132, 2.793998956680298]","[0.08833172917366028, 0.03171505406498909, -0.06564159691333771, 0.036623790860176086, 0.0, -0.03351747989654541]","[0.7461548447608948, -3.707886219024658, -2.4144299030303955, -0.1143951565027237, 0.2041168361902237, -0.3252411186695099]"
1584454674298737411,,1597821,,1584454674,298455945,'',"[shoulder_pan_joint, shoulder_lift_joint, elbow_joint, wrist_1_joint, wrist_2_joint,","[1.6370571851730347, -1.0555880705462855, 2.204317092895508, -2.704676930104391, -1.5671137014972132, 2.7916040420532227]","[0.09164257347583771, 0.01925146020948887, -0.0401008166372776, 0.02774587832391262, 0.0, -0.011524030938744545]","[0.9567261934280396, -3.991699695587158, -2.4323644638061523, -0.1614990383386612, 0.1951446682214737, -0.2669220268726349]"
1584454674410988397,,1597835,,1584454674,410522878,'',"[shoulder_pan_joint, shoulder_lift_joint, elbow_joint, wrist_1_joint, wrist_2_joint,","[1.6470003128051758, -1.0541852156268519, 2.1991920471191406, -2.701839272175924, -1.5671137014972132, 2.7902867794036865]","[0.08656764775514603, 0.011057444848120213, -0.055325575172901154, 0.025176459923386574, 0.0, -0.012233496643602848]","[0.8789063692092896, -3.758240222930908, -2.544455051422119, -0.1839294582605362, 0.2041168361902237, -0.2377624809741974]"
1584454674522975702,,1597849,,1584454674,522487240,'',"[shoulder_pan_joint, shoulder_lift_joint, elbow_joint, wrist_1_joint, wrist_2_joint,","[1.6568591594696045, -1.052723232899801, 2.192915439605713, -2.698703114186422, -1.5671137014972132, 2.7883591651916504]","[0.08782040327787399, 0.012949354946613312, -0.04573819413781166, 0.025080585852265358, 0.0, -0.01721893437206745]","[0.9796143770217896, -3.520203113555908, -2.3987371921539307, -0.1592559963464737, 0.2400055229663849, -0.2601929008960724]"
1584454674634812855,,1597863,,1584454674,634495893,'',"[shoulder_pan_joint, shoulder_lift_joint, elbow_joint, wrist_1_joint, wrist_2_joint,","[1.6671143770217896, -1.0513327757464808, 2.1888585090637207, -2.696512524281637, -1.5671137014972132, 2.786167860031128]","[0.08975066244602203, 0.01362686324864626, -0.03399045765399933, 0.016816264018416405, 0.0, -0.026326945051550865]","[0.7690430283546448, -3.753662586212158, -2.5758402347564697, -0.1839294582605362, 0.2444916069507599, -0.2310333549976349]"
1584454674746842449,,1597877,,1584454674,746470544,'',"[shoulder_pan_joint, shoulder_lift_joint, elbow_joint, wrist_1_joint, wrist_2_joint,","[1.6767579317092896, -1.0495579878436487, 2.1850900650024414, -2.694357697163717, -1.5671494642840784, 2.7823240756988525]","[0.08586457371711731, 0.01751294732093811, -0.02978479489684105, 0.01865704171359539, 0.0, -0.04066966474056244]","[0.8651733994483948, -3.845215320587158, -2.443573474884033, -0.1525268703699112, 0.2512207329273224, -0.2871094048023224]"
1584454674858761495,,1597891,,1584454674,858453510,'',"[shoulder_pan_joint, shoulder_lift_joint, elbow_joint, wrist_1_joint, wrist_2_joint,","[1.6857411861419678, -1.0481794516192835, 2.1832175254821777, -2.6927292982684534, -1.5671494642840784, 2.7782530784606934]","[0.07861651480197906, 0.0012144014472141862, -0.002147573046386242, 0.0024351945612579584, 0.0, -0.03418859839439392]","[0.8056641221046448, -4.573059558868408, -2.365110158920288, -0.2960815727710724, 0.2512207329273224, -0.3297272026538849]"
1584454674970836183,,1597905,,1584454674,970460451,'',"[shoulder_pan_joint, shoulder_lift_joint, elbow_joint, wrist_1_joint, wrist_2_joint,","[1.6948087215423584, -1.0481913725482386, 2.1833133697509766, -2.6927292982684534, -1.5671613852130335, 2.775151491165161]","[0.07492218166589737, 0.00024288029817398638, 0.0006391586503013968, 0.00026844663079828024, 0.0, -0.022434469312429428]","[0.9063721895217896, -4.939270496368408, -2.0422894954681396, -0.4172058403491974, 0.2422485649585724, -0.2646789848804474]"
1584454675082830760,,1597919,,1584454675,82434711,'',"[shoulder_pan_joint, shoulder_lift_joint, elbow_joint, wrist_1_joint, wrist_2_joint,","[1.702832579612732, -1.048227612172262, 2.1833739280700684, -2.6927054564105433, -1.5671857039081019, 2.77227783203125]","[0.06606344133615494, 0.00011504856229294091, 0.00023009712458588183, 0.00013422331539914012, 0.0, -0.02811019867658615]","[0.9567261934280396, -4.975891590118408, -2.01090407371521, -0.4194488823413849, 0.2557068169116974, -0.2422485649585724]"
1584454675194814679,,1597933,,1584454675,194427726,'',"[shoulder_pan_joint, shoulder_lift_joint, elbow_joint, wrist_1_joint, wrist_2_joint,","[1.7091295719146729, -1.0481913725482386, 2.1833620071411133, -2.6927416960345667, -1.567197624837057, 2.768481969833374]","[0.05031457170844078, 7.669904152862728e-05, 0.00023009712458588183, 9.58738019107841e-05, 0.0, -0.04193520173430443]","[0.8697510361671448, -4.861450672149658, -2.091609239578247, -0.3970184624195099, 0.2669220268726349, -0.2781372368335724]"
1584454675306738514,,1597947,,1584454675,306415360,'',"[shoulder_pan_joint, shoulder_lift_joint, elbow_joint, wrist_1_joint, wrist_2_joint,","[1.7150306701660156, -1.0482152144061487, 2.183457851409912, -2.692693535481588, -1.5671494642840784, 2.764075517654419]","[0.053344182670116425, 5.1132694352418184e-05, 0.0001661812566453591, 7.669904152862728e-05, 0.0, -0.03551165759563446]","[0.8331299424171448, -4.907227039337158, -2.0579819679260254, -0.4037475883960724, 0.2691650688648224, -0.2983246147632599]"
1584454675418790239,,1597961,,1584454675,418410690,'',"[shoulder_pan_joint, shoulder_lift_joint, elbow_joint, wrist_1_joint, wrist_2_joint,","[1.7209553718566895, -1.0482633749591272, 2.183422088623047, -2.6927416960345667, -1.567197624837057, 2.7606632709503174]","[0.051899682730436325, 3.834952076431364e-05, 0.0001661812566453591, 5.752428114647046e-05, 0.0, -0.022722091525793076]","[0.7369995713233948, -4.957581043243408, -2.0691912174224854, -0.3992615044116974, 0.2871094048023224, -0.3050537407398224]"
1584454675530754389,,1597975,,1584454675,530399326,'',"[shoulder_pan_joint, shoulder_lift_joint, elbow_joint, wrist_1_joint, wrist_2_joint,","[1.727216362953186, -1.0482037703143519, 2.1834821701049805, -2.692693535481588, -1.567197624837057, 2.757981061935425]","[0.052577193826436996, 2.5566347176209092e-05, 0.0001661812566453591, 3.834952076431364e-05, 0.0, -0.03184927627444267]","[0.7965088486671448, -4.998779773712158, -2.0333220958709717, -0.4037475883960724, 0.2983246147632599, -0.2646789848804474]"
1584454675642835960,,1597989,,1584454675,642451101,'',"[shoulder_pan_joint, shoulder_lift_joint, elbow_joint, wrist_1_joint, wrist_2_joint,","[1.7322534322738647, -1.048227612172262, 2.183566093444824, -2.692693535481588, -1.567209545766012, 2.753981590270996]","[0.03514094278216362, 2.5566347176209092e-05, 0.0002556634717620909, 3.834952076431364e-05, 0.0, -0.04741918295621872]","[0.8789063692092896, -4.939270496368408, -2.0759165287017822, -0.3947754204273224, 0.3005676567554474, -0.2153320610523224]"
1584454675754757010,,1598003,,1584454675,754403520,'',"[shoulder_pan_joint, shoulder_lift_joint, elbow_joint, wrist_1_joint, wrist_2_joint,","[1.7351921796798706, -1.0482152144061487, 2.1835780143737793, -2.6927173773394983, -1.5671737829791468, 2.7478630542755127]","[0.019468773156404495, 2.5566347176209092e-05, 0.0004090615548193455, 3.834952076431364e-05, 0.0, -0.05489733815193176]","[0.8880616426467896, -4.975891590118408, -2.0602238178253174, -0.4104767143726349, 0.3229980766773224, -0.3297272026538849]"
1584454675866899825,,1598017,,1584454675,866394461,'',"[shoulder_pan_joint, shoulder_lift_joint, elbow_joint, wrist_1_joint, wrist_2_joint,","[1.7370150089263916, -1.048227612172262, 2.1836018562316895, -2.6927173773394983, -1.567209545766012, 2.741852283477783]","[0.01537815760821104, 1.2783173588104546e-05, 0.0003195793251506984, 1.917476038215682e-05, 0.0, -0.057447582483291626]","[1.0208131074905396, -4.971313953399658, -2.026596784591675, -0.4261780083179474, 0.3140259087085724, -0.2871094048023224]"
1584454675978787723,,1598031,,1584454675,978382286,'',"[shoulder_pan_joint, shoulder_lift_joint, elbow_joint, wrist_1_joint, wrist_2_joint,","[1.738598346710205, -1.048227612172262, 2.1836977005004883, -2.6927173773394983, -1.5671857039081019, 2.7341771125793457]","[0.012195147573947906, 1.2783173588104546e-05, 0.0003707120195031166, 1.917476038215682e-05, 0.0, -0.07481991499662399]","[0.9292603731155396, -4.957581043243408, -2.0759165287017822, -0.4216919243335724, 0.3207550346851349, -0.3611297905445099]"
1584454676090822747,,1598045,,1584454676,90397352,'',"[shoulder_pan_joint, shoulder_lift_joint, elbow_joint, wrist_1_joint, wrist_2_joint,","[1.7399177551269531, -1.0482152144061487, 2.183685779571533, -2.6927173773394983, -1.567197624837057, 2.726741075515747]","[0.010571684688329697, 1.2783173588104546e-05, 0.0003451456723269075, 1.917476038215682e-05, 0.0, -0.062433019280433655]","[0.8651733994483948, -4.971313953399658, -2.114027261734009, -0.4104767143726349, 0.3095398247241974, -0.3005676567554474]"
1584454676202809089,,1598059,,1584454676,202372954,'',"[shoulder_pan_joint, shoulder_lift_joint, elbow_joint, wrist_1_joint, wrist_2_joint,","[1.7406854629516602, -1.0482152144061487, 2.1836977005004883, -2.6927173773394983, -1.5671613852130335, 2.7187788486480713]","[0.0014317154418677092, 1.2783173588104546e-05, 0.0001661812566453591, 1.917476038215682e-05, 0.0, -0.07650729268789291]","[0.3204346001148224, -4.939270496368408, -2.102818250656128, -0.4037475883960724, 0.2714081108570099, -0.3588867485523224]"
1584454676314828183,,1598073,,1584454676,314392249,'',"[shoulder_pan_joint, shoulder_lift_joint, elbow_joint, wrist_1_joint, wrist_2_joint,","[1.7406854629516602, -1.0482037703143519, 2.1837096214294434, -2.6927292982684534, -1.567197624837057, 2.7120137214660645]","[0.0001917476038215682, 1.2783173588104546e-05, 0.00010226538870483637, 1.917476038215682e-05, 0.0, -0.04400607571005821]","[0.0366210974752903, -4.888916492462158, -2.1386873722076416, -0.3902893364429474, 0.2803802788257599, -0.2781372368335724]"
1584454676426767888,,1598087,,1584454676,426380033,'',"[shoulder_pan_joint, shoulder_lift_joint, elbow_joint, wrist_1_joint, wrist_2_joint,","[1.7406495809555054, -1.0482152144061487, 2.1836977005004883, -2.6927416960345667, -1.567209545766012, 2.7071526050567627]","[0.00010226538870483637, 1.2783173588104546e-05, 7.669904152862728e-05, 1.917476038215682e-05, 0.0, -0.04741918295621872]","[-0.0503540076315403, -4.948425769805908, -2.078158378601074, -0.4059906303882599, 0.2736511528491974, -0.2444916069507599]"
1584454676538788735,,1598101,,1584454676,538355165,'',"[shoulder_pan_joint, shoulder_lift_joint, elbow_joint, wrist_1_joint, wrist_2_joint,","[1.740613579750061, -1.048239533101217, 2.183673858642578, -2.692753616963522, -1.5671256224261683, 2.7017645835876465]","[-1.2783173588104546e-05, -1.2783173588104546e-05, 6.391586794052273e-05, 1.917476038215682e-05, 0.0, -0.04189684987068176]","[0.0595092847943306, -4.902649402618408, -2.107301950454712, -0.3902893364429474, 0.3185119926929474, -0.3005676567554474]"
1584454676650765209,,1598115,,1584454676,650379669,'',"[shoulder_pan_joint, shoulder_lift_joint, elbow_joint, wrist_1_joint, wrist_2_joint,","[1.740613579750061, -1.0482152144061487, 2.183685779571533, -2.692753616963522, -1.5671256224261683, 2.6972503662109375]","[-1.2783173588104546e-05, -1.2783173588104546e-05, 5.1132694352418184e-05, 1.917476038215682e-05, 0.0, -0.036010198295116425]","[0.02288818545639515, -4.925537586212158, -2.107301950454712, -0.3992615044116974, 0.2983246147632599, -0.2714081108570099]"
1584454676762709323,,1598129,,1584454676,762344922,'',"[shoulder_pan_joint, shoulder_lift_joint, elbow_joint, wrist_1_joint, wrist_2_joint,","[1.740601658821106, -1.048227612172262, 2.183685779571533, -2.692765537892477, -1.5671494642840784, 2.6943886280059814]","[-1.2783173588104546e-05, -1.2783173588104546e-05, 3.834952076431364e-05, 0.0, 0.0, -0.008858739398419857]","[-0.0320434607565403, -4.888916492462158, -2.096092939376831, -0.3992615044116974, 0.3117828667163849, -0.1637420803308487]"
1584454676874814557,,1598143,,1584454676,874385295,'',"[shoulder_pan_joint, shoulder_lift_joint, elbow_joint, wrist_1_joint, wrist_2_joint,","[1.7406256198883057, -1.0482514540301722, 2.1837096214294434, -2.692765537892477, -1.5672333876239222, 2.6944127082824707]","[-1.2783173588104546e-05, -6.391586794052273e-05, 3.834952076431364e-05, 0.0, -0.0007861651829443872, 0.0005752427969127893]","[-0.0457763709127903, -5.081177234649658, -2.201457977294922, -0.3342132866382599, 0.0874786451458931, 0.0515899695456028]"
1584454676986703117,,1598157,,1584454676,986337594,'',"[shoulder_pan_joint, shoulder_lift_joint, elbow_joint, wrist_1_joint, wrist_2_joint,","[1.740613579750061, -1.0482633749591272, 2.183650016784668, -2.692753616963522, -1.567221466694967, 2.69446063041687]","[-5.1132694352418184e-05, -6.391586794052273e-05, 2.5566347176209092e-05, 0.0, -0.0004218447138555348, 0.00036432043998502195]","[-0.0274658240377903, -5.081177234649658, -2.201457977294922, -0.3364563286304474, 0.0874786451458931, 0.0471038855612278]"
1584454677098783685,,1598171,,1584454677,98344996,'',"[shoulder_pan_joint, shoulder_lift_joint, elbow_joint, wrist_1_joint, wrist_2_joint,","[1.740601658821106, -1.0482752958880823, 2.183650016784668, -2.692789379750387, -1.5672453085528772, 2.69446063041687]","[-5.1132694352418184e-05, -6.391586794052273e-05, 2.5566347176209092e-05, 0.0, -0.00017257283616345376, 0.00015339808305725455]","[-0.0366210974752903, -5.117798328399658, -2.2081832885742188, -0.3364563286304474, 0.1009368970990181, 0.0515899695456028]"
1584454677210791918,,1598185,,1584454677,210326589,'',"[shoulder_pan_joint, shoulder_lift_joint, elbow_joint, wrist_1_joint, wrist_2_joint,","[1.740613579750061, -1.0482633749591272, 2.183685779571533, -2.692753616963522, -1.567209545766012, 2.6944963932037354]","[-5.1132694352418184e-05, -6.391586794052273e-05, 2.5566347176209092e-05, 0.0, -0.00011504856229294091, 9.58738019107841e-05]","[-0.0320434607565403, -5.062866687774658, -2.194732427597046, -0.3319702446460724, 0.1390686184167862, 0.0448608435690403]"
1584454677322774283,,1598199,,1584454677,322269320,'',"[shoulder_pan_joint, shoulder_lift_joint, elbow_joint, wrist_1_joint, wrist_2_joint,","[1.7405776977539062, -1.0482872168170374, 2.183650016784668, -2.6927416960345667, -1.5672333876239222, 2.694472551345825]","[-5.1132694352418184e-05, -5.1132694352418184e-05, 2.5566347176209092e-05, 0.0, -7.669904152862728e-05, 7.669904152862728e-05]","[-0.0274658240377903, -5.062866687774658, -2.2081832885742188, -0.3342132866382599, 0.1951446682214737, 0.0538330152630806]"
1584454677434613641,,1598213,,1584454677,434275239,'',"[shoulder_pan_joint, shoulder_lift_joint, elbow_joint, wrist_1_joint, wrist_2_joint,","[1.740601658821106, -1.0482514540301722, 2.183673858642578, -2.692753616963522, -1.567209545766012, 2.6945204734802246]","[-3.834952076431364e-05, -3.834952076431364e-05, 2.5566347176209092e-05, 0.0, 0.0, 5.752428114647046e-05]","[-0.004577637184411287, -5.104065418243408, -2.201457977294922, -0.3364563286304474, 0.3005676567554474, 0.0538330152630806]"
1584454677546629028,,1598227,,1584454677,546311084,'',"[shoulder_pan_joint, shoulder_lift_joint, elbow_joint, wrist_1_joint, wrist_2_joint,","[1.7405776977539062, -1.0482633749591272, 2.183650016784668, -2.692777458821432, -1.567221466694967, 2.6945085525512695]","[-2.5566347176209092e-05, -2.5566347176209092e-05, 1.2783173588104546e-05, 0.0, 0.0, 3.834952076431364e-05]","[-0.0274658240377903, -5.067444324493408, -2.194732427597046, -0.3319702446460724, 0.2489776909351349, 0.0515899695456028]"
1584454677658553785,,1598241,,1584454677,658263293,'',"[shoulder_pan_joint, shoulder_lift_joint, elbow_joint, wrist_1_joint, wrist_2_joint,","[1.740613579750061, -1.0482872168170374, 2.183685779571533, -2.692765537892477, -1.567209545766012, 2.6945085525512695]","[-2.5566347176209092e-05, -2.5566347176209092e-05, 1.2783173588104546e-05, 0.0, 0.0, 3.834952076431364e-05]","[-0.0640869215130806, -5.053711414337158, -2.2081832885742188, -0.3409424126148224, 0.2422485649585724, 0.0493469275534153]"
1584454677770572378,,1598255,,1584454677,770250857,'',"[shoulder_pan_joint, shoulder_lift_joint, elbow_joint, wrist_1_joint, wrist_2_joint,","[1.740613579750061, -1.0482752958880823, 2.183685779571533, -2.692753616963522, -1.5671857039081019, 2.6945085525512695]","[-2.5566347176209092e-05, -2.5566347176209092e-05, 1.2783173588104546e-05, 0.0, 0.0, 3.834952076431364e-05]","[-0.0366210974752903, -5.067444324493408, -2.201457977294922, -0.3386993706226349, 0.2355194389820099, 0.0538330152630806]"
1584454677882600568,,1598269,,1584454677,882289307,'',"[shoulder_pan_joint, shoulder_lift_joint, elbow_joint, wrist_1_joint, wrist_2_joint,","[1.7405776977539062, -1.0482872168170374, 2.183673858642578, -2.692765537892477, -1.567209545766012, 2.6945085525512695]","[-1.2783173588104546e-05, -1.2783173588104546e-05, 1.2783173588104546e-05, 0.0, 0.0, 1.917476038215682e-05]","[-0.0320434607565403, -5.094910144805908, -2.201457977294922, -0.3386993706226349, 0.2579498589038849, 0.0605621412396431]"
1584454677994579096,,1598283,,1584454677,994270309,'',"[shoulder_pan_joint, shoulder_lift_joint, elbow_joint, wrist_1_joint, wrist_2_joint,","[1.740601658821106, -1.0482752958880823, 2.183650016784668, -2.692753616963522, -1.5671494642840784, 2.6944963932037354]","[-1.2783173588104546e-05, -1.2783173588104546e-05, 1.2783173588104546e-05, 0.0, 0.0, 1.917476038215682e-05]","[-0.0320434607565403, -5.062866687774658, -2.19921612739563, -0.3342132866382599, 0.2624359428882599, 0.0448608435690403]"
1584454678106544189,,1598297,,1584454678,106238899,'',"[shoulder_pan_joint, shoulder_lift_joint, elbow_joint, wrist_1_joint, wrist_2_joint,","[1.740613579750061, -1.0482514540301722, 2.183650016784668, -2.692765537892477, -1.567197624837057, 2.6944963932037354]","[-1.2783173588104546e-05, -1.2783173588104546e-05, 1.2783173588104546e-05, 0.0, 0.0, 1.917476038215682e-05]","[-0.02288818545639515, -5.094910144805908, -2.19921612739563, -0.3364563286304474, 0.2534637749195099, 0.0560760572552681]"
1584454678218515474,,1598311,,1584454678,218221334,'',"[shoulder_pan_joint, shoulder_lift_joint, elbow_joint, wrist_1_joint, wrist_2_joint,","[1.7405896186828613, -1.0482633749591272, 2.183650016784668, -2.692753616963522, -1.567209545766012, 2.6944963932037354]","[-1.2783173588104546e-05, -1.2783173588104546e-05, 1.2783173588104546e-05, 0.0, 0.0, 1.917476038215682e-05]","[-0.0274658240377903, -5.072021961212158, -2.201457977294922, -0.3409424126148224, 0.2265472710132599, 0.0560760572552681]"
1584454678330580192,,1598325,,1584454678,330261146,'',"[shoulder_pan_joint, shoulder_lift_joint, elbow_joint, wrist_1_joint, wrist_2_joint,","[1.740601658821106, -1.0483115355121058, 2.1836376190185547, -2.6927416960345667, -1.5671857039081019, 2.694472551345825]","[-1.2783173588104546e-05, -1.2783173588104546e-05, 1.2783173588104546e-05, 0.0, 1.917476038215682e-05, 1.917476038215682e-05]","[-0.01831054873764515, -5.099487781524658, -2.201457977294922, -0.3409424126148224, 0.2534637749195099, 0.0493469275534153]"
1584454678442537991,,1598339,,1584454678,442253640,'',"[shoulder_pan_joint, shoulder_lift_joint, elbow_joint, wrist_1_joint, wrist_2_joint,","[1.7405656576156616, -1.0482752958880823, 2.1836977005004883, -2.692753616963522, -1.567221466694967, 2.6944963932037354]","[-1.2783173588104546e-05, -1.2783173588104546e-05, 1.2783173588104546e-05, 0.0, 0.0, 1.917476038215682e-05]","[-0.0411987341940403, -5.072021961212158, -2.203699827194214, -0.3319702446460724, 0.2938385307788849, 0.0515899695456028]"
1584454678554593563,,1598353,,1584454678,554273405,'',"[shoulder_pan_joint, shoulder_lift_joint, elbow_joint, wrist_1_joint, wrist_2_joint,","[1.7405896186828613, -1.0482872168170374, 2.183661937713623, -2.692765537892477, -1.567209545766012, 2.6944963932037354]","[-1.2783173588104546e-05, -1.2783173588104546e-05, 1.2783173588104546e-05, 0.0, 0.0, 1.917476038215682e-05]","[-0.0457763709127903, -5.104065418243408, -2.194732427597046, -0.3476715385913849, 0.2332763969898224, 0.0560760572552681]"
1584454678666521096,,1598367,,1584454678,666202220,'',"[shoulder_pan_joint, shoulder_lift_joint, elbow_joint, wrist_1_joint, wrist_2_joint,","[1.740613579750061, -1.048239533101217, 2.183650016784668, -2.6927292982684534, -1.5671737829791468, 2.694220781326294]","[-1.2783173588104546e-05, -1.2783173588104546e-05, 1.2783173588104546e-05, 0.0, 0.0, -0.016892964020371437]","[-0.0320434607565403, -5.085754871368408, -2.2081832885742188, -0.3207550346851349, 0.2669220268726349, -0.2803802788257599]"
1584454678778596514,,1598381,,1584454678,778264504,'',"[shoulder_pan_joint, shoulder_lift_joint, elbow_joint, wrist_1_joint, wrist_2_joint,","[1.740601658821106, -1.0482991377459925, 2.183673858642578, -2.692777458821432, -1.5671737829791468, 2.684666156768799]","[-1.2783173588104546e-05, -1.2783173588104546e-05, 1.2783173588104546e-05, 0.0, 0.0, -0.16666701436042786]","[-0.0457763709127903, -5.099487781524658, -2.2149088382720947, -0.3319702446460724, 0.2153320610523224, -0.4687958359718323]"
1584454678890587375,,1598395,,1584454678,890234697,'',"[shoulder_pan_joint, shoulder_lift_joint, elbow_joint, wrist_1_joint, wrist_2_joint,","[1.740613579750061, -1.0482633749591272, 2.183650016784668, -2.692789379750387, -1.5671857039081019, 2.66237211227417]","[0.0, 0.0, 1.2783173588104546e-05, 0.0, 0.0, -0.20377017557621002]","[-0.02288818545639515, -5.090332508087158, -2.185765266418457, -0.3252411186695099, 0.2153320610523224, -0.3566437065601349]"
1584454679002559902,,1598409,,1584454679,2249141,'',"[shoulder_pan_joint, shoulder_lift_joint, elbow_joint, wrist_1_joint, wrist_2_joint,","[1.7405776977539062, -1.0482633749591272, 2.1836376190185547, -2.692765537892477, -1.5671737829791468, 2.6398861408233643]","[0.0, 0.0, -0.0, 0.0, 0.0, -0.19897648692131042]","[-0.0274658240377903, -5.085754871368408, -2.176798105239868, -0.3319702446460724, 0.2377624809741974, -0.4463654160499573]"
1584454679114520376,,1598423,,1584454679,114206921,'',"[shoulder_pan_joint, shoulder_lift_joint, elbow_joint, wrist_1_joint, wrist_2_joint,","[1.7406256198883057, -1.0482514540301722, 2.183650016784668, -2.692777458821432, -1.5671613852130335, 2.6174252033233643]","[0.0, 0.0, -0.0, 0.0, 0.0, -0.20062552392482758]","[-0.0549316480755806, -5.081177234649658, -2.1678307056427, -0.3431854546070099, 0.2534637749195099, -0.4059906303882599]"
1584454679226544709,,1598437,,1584454679,226231845,'',"[shoulder_pan_joint, shoulder_lift_joint, elbow_joint, wrist_1_joint, wrist_2_joint,","[1.740601658821106, -1.0482991377459925, 2.1836376190185547, -2.692801300679342, -1.5671137014972132, 2.5949041843414307]","[0.0, 0.0, -0.0, 0.0, 0.0, -0.1985354721546173]","[-0.0274658240377903, -5.076599597930908, -2.116269111633301, -0.3342132866382599, 0.2377624809741974, -0.4486084580421448]"
1584454679338481479,,1598451,,1584454679,338189995,'',"[shoulder_pan_joint, shoulder_lift_joint, elbow_joint, wrist_1_joint, wrist_2_joint,","[1.7406256198883057, -1.0482633749591272, 2.183650016784668, -2.692777458821432, -1.5671613852130335, 2.5726587772369385]","[0.0, 0.0, -0.0, 0.0, 0.0, -0.2007022202014923]","[-0.01831054873764515, -5.085754871368408, -2.022113084793091, -0.3386993706226349, 0.2243042290210724, -0.4239349663257599]"
1584454679450506493,,1598465,,1584454679,450214999,'',"[shoulder_pan_joint, shoulder_lift_joint, elbow_joint, wrist_1_joint, wrist_2_joint,","[1.740613579750061, -1.0482633749591272, 2.1836376190185547, -2.692777458821432, -1.5671256224261683, 2.5501747131347656]","[0.0, 0.0, -0.0, 0.0, 9.58738019107841e-05, -0.20206362009048462]","[-0.0366210974752903, -5.090332508087158, -1.9458914995193481, -0.3386993706226349, 0.2243042290210724, -0.3880462944507599]"
1584454679562530967,,1598479,,1584454679,562248590,'',"[shoulder_pan_joint, shoulder_lift_joint, elbow_joint, wrist_1_joint, wrist_2_joint,","[1.740601658821106, -1.0482752958880823, 2.183650016784668, -2.692753616963522, -1.5671256224261683, 2.527726173400879]","[0.0, 0.0, -0.0, 0.0, 9.58738019107841e-05, -0.1992449313402176]","[-0.01831054873764515, -5.108643054962158, -1.9705514907836914, -0.3319702446460724, 0.2422485649585724, -0.4329071640968323]"
1584454679674775081,,1598493,,1584454679,674480771,'',"[shoulder_pan_joint, shoulder_lift_joint, elbow_joint, wrist_1_joint, wrist_2_joint,","[1.740601658821106, -1.0482752958880823, 2.1836137771606445, -2.692777458821432, -1.567077938710348, 2.5054214000701904]","[0.0, 0.0, -0.0, 0.0, 9.58738019107841e-05, -0.20227454602718353]","[-0.0457763709127903, -5.081177234649658, -1.9503751993179321, -0.3342132866382599, 0.2108459621667862, -0.3678589165210724]"
1584454679786653682,,1598507,,1584454679,786283120,'',"[shoulder_pan_joint, shoulder_lift_joint, elbow_joint, wrist_1_joint, wrist_2_joint,","[1.7405896186828613, -1.0482752958880823, 2.183661937713623, -2.692765537892477, -1.567101780568258, 2.4829258918762207]","[0.0, 0.0, -0.0, 0.0, 9.58738019107841e-05, -0.19914905726909637]","[-0.02288818545639515, -5.039978504180908, -1.9481333494186401, -0.3274841606616974, 0.2467346489429474, -0.4777680039405823]"
1584454679898457093,,1598521,,1584454679,898166490,'',"[shoulder_pan_joint, shoulder_lift_joint, elbow_joint, wrist_1_joint, wrist_2_joint,","[1.7406256198883057, -1.0482872168170374, 2.1836256980895996, -2.692777458821432, -1.5670655409442347, 2.460562229156494]","[0.0, 0.0, -0.0, 0.0, 0.0, -0.1985354721546173]","[-0.0595092847943306, -5.085754871368408, -1.8965717554092407, -0.3319702446460724, 0.2355194389820099, -0.3970184624195099]"
1584454680010764706,,1598535,,1584454680,10464826,'',"[shoulder_pan_joint, shoulder_lift_joint, elbow_joint, wrist_1_joint, wrist_2_joint,","[1.7405656576156616, -1.0483229796039026, 2.183650016784668, -2.692777458821432, -1.567077938710348, 2.4380905628204346]","[0.0, 0.0, -0.0, 0.0, 0.0, -0.19773012399673462]","[-0.0869751051068306, -5.072021961212158, -1.818108320236206, -0.3342132866382599, 0.2086029201745987, -0.4934692978858948]"
1584454680122638057,,1598549,,1584454680,122347764,'',"[shoulder_pan_joint, shoulder_lift_joint, elbow_joint, wrist_1_joint, wrist_2_joint,","[1.7405896186828613, -1.0482872168170374, 2.183661937713623, -2.692801300679342, -1.5670655409442347, 2.4157748222351074]","[0.0, 0.0, -0.0, 0.0, 0.0, -0.2010473608970642]","[-0.0274658240377903, -5.081177234649658, -1.8427683115005493, -0.3297272026538849, 0.2041168361902237, -0.3790741264820099]"
1584454680234508112,,1598563,,1584454680,234230183,'',"[shoulder_pan_joint, shoulder_lift_joint, elbow_joint, wrist_1_joint, wrist_2_joint,","[1.740601658821106, -1.0482872168170374, 2.1836376190185547, -2.692789379750387, -1.5670536200152796, 2.393423557281494]","[0.0, 0.0, -0.0, 0.0, 0.0, -0.19884225726127625]","[-0.01831054873764515, -5.058289051055908, -1.831559181213379, -0.3342132866382599, 0.2310333549976349, -0.4418793320655823]"
1584454680346578742,,1598577,,1584454680,346271568,'',"[shoulder_pan_joint, shoulder_lift_joint, elbow_joint, wrist_1_joint, wrist_2_joint,","[1.7405896186828613, -1.0482633749591272, 2.183661937713623, -2.692789379750387, -1.5670655409442347, 2.3710482120513916]","[0.0, 0.0, -0.0, 0.0, 0.0, -0.2015267312526703]","[-0.01831054873764515, -5.085754871368408, -1.8248337507247925, -0.3274841606616974, 0.1749572902917862, -0.4261780083179474]"
1584454680458570134,,1598591,,1584454680,458247541,'',"[shoulder_pan_joint, shoulder_lift_joint, elbow_joint, wrist_1_joint, wrist_2_joint,","[1.740601658821106, -1.0482872168170374, 2.1836256980895996, -2.692789379750387, -1.567077938710348, 2.3485894203186035]","[0.0, 0.0, -0.0, 0.0, 0.0, -0.2015267312526703]","[-0.02288818545639515, -5.099487781524658, -1.8091411590576172, -0.3274841606616974, 0.1211242824792862, -0.3342132866382599]"
1584454680570498347,,1598605,,1584454680,570148083,'',"[shoulder_pan_joint, shoulder_lift_joint, elbow_joint, wrist_1_joint, wrist_2_joint,","[1.7406256198883057, -1.0482872168170374, 2.183650016784668, -2.692765537892477, -1.5670655409442347, 2.3263938426971436]","[0.0, 0.0, -0.0, 0.0, 0.0, -0.20056799054145813]","[-0.0366210974752903, -5.062866687774658, -1.8293174505233765, -0.3319702446460724, 0.0942077711224556, -0.4979553818702698]"
1584454680682514285,,1598619,,1584454680,682194378,'',"[shoulder_pan_joint, shoulder_lift_joint, elbow_joint, wrist_1_joint, wrist_2_joint,","[1.7406256198883057, -1.0483115355121058, 2.183673858642578, -2.692789379750387, -1.567101780568258, 2.3038156032562256]","[0.0, 0.0, -0.0, 0.0, 0.0, -0.2017376571893692]","[-0.02288818545639515, -5.072021961212158, -1.8248337507247925, -0.3207550346851349, 0.0942077711224556, -0.3611297905445099]"
1584454680794434554,,1598633,,1584454680,794127020,'',"[shoulder_pan_joint, shoulder_lift_joint, elbow_joint, wrist_1_joint, wrist_2_joint,","[1.740613579750061, -1.0482633749591272, 2.183673858642578, -2.692813221608297, -1.5671137014972132, 2.2814526557922363]","[0.0, 0.0, -0.0, 0.0, 0.0, -0.19801774621009827]","[-0.0320434607565403, -5.049133777618408, -1.8248337507247925, -0.3319702446460724, 0.0785064771771431, -0.5024414658546448]"
1584454680906362938,,1598647,,1584454680,906080401,'',"[shoulder_pan_joint, shoulder_lift_joint, elbow_joint, wrist_1_joint, wrist_2_joint,","[1.740601658821106, -1.0482872168170374, 2.183673858642578, -2.692777458821432, -1.567101780568258, 2.2591257095336914]","[0.0, 0.0, 2.5566347176209092e-05, 0.0, 0.0, -0.20062552392482758]","[-0.0457763709127903, -5.067444324493408, -1.8001738786697388, -0.3342132866382599, 0.0785064771771431, -0.3835602104663849]"
1584454681018432937,,1598661,,1584454681,18092912,'',"[shoulder_pan_joint, shoulder_lift_joint, elbow_joint, wrist_1_joint, wrist_2_joint,","[1.740601658821106, -1.0482633749591272, 2.1836376190185547, -2.692801300679342, -1.567077938710348, 2.2366557121276855]","[0.0, 0.0, 2.5566347176209092e-05, 0.0, 0.0, -0.19761507213115692]","[-0.0823974683880806, -5.076599597930908, -1.820350170135498, -0.3274841606616974, 0.0964508131146431, -0.4351502060890198]"
1584454681130466378,,1598675,,1584454681,130127094,'',"[shoulder_pan_joint, shoulder_lift_joint, elbow_joint, wrist_1_joint, wrist_2_joint,","[1.740601658821106, -1.0482991377459925, 2.1836376190185547, -2.692777458821432, -1.567077938710348, 2.2142691612243652]","[0.0, 0.0, 2.5566347176209092e-05, 0.0, 0.0, -0.19884225726127625]","[-0.0503540076315403, -5.067444324493408, -1.8068993091583252, -0.3319702446460724, 0.0852356031537056, -0.3925323784351349]"
1584454681242408828,,1598689,,1584454681,242122292,'',"[shoulder_pan_joint, shoulder_lift_joint, elbow_joint, wrist_1_joint, wrist_2_joint,","[1.740613579750061, -1.0482991377459925, 2.1836376190185547, -2.692801300679342, -1.567101780568258, 2.1918110847473145]","[0.0, 0.0, 2.5566347176209092e-05, 0.0, 0.0, -0.2008172571659088]","[-0.0320434607565403, -5.090332508087158, -1.8158665895462036, -0.3386993706226349, 0.0785064771771431, -0.3947754204273224]"
1584454681354480820,,1598703,,1584454681,354115418,'',"[shoulder_pan_joint, shoulder_lift_joint, elbow_joint, wrist_1_joint, wrist_2_joint,","[1.740601658821106, -1.0482514540301722, 2.1836256980895996, -2.692789379750387, -1.5670655409442347, 2.1694843769073486]","[0.0, 0.0, 2.5566347176209092e-05, 0.0, 0.0, -0.19987769424915314]","[-0.0366210974752903, -5.053711414337158, -1.820350170135498, -0.3386993706226349, 0.0852356031537056, -0.5271149277687073]"
1584454681466569093,,1598717,,1584454681,466159648,'',"[shoulder_pan_joint, shoulder_lift_joint, elbow_joint, wrist_1_joint, wrist_2_joint,","[1.740613579750061, -1.0483115355121058, 2.183661937713623, -2.692789379750387, -1.567077938710348, 2.1470863819122314]","[0.0, 0.0, 2.5566347176209092e-05, 0.0, 0.0, -0.2008364349603653]","[-0.02288818545639515, -5.081177234649658, -1.818108320236206, -0.3342132866382599, 0.0852356031537056, -0.3566437065601349]"
1584454681578408852,,1598731,,1584454681,578085909,'',"[shoulder_pan_joint, shoulder_lift_joint, elbow_joint, wrist_1_joint, wrist_2_joint,","[1.740601658821106, -1.0482752958880823, 2.183650016784668, -2.692813221608297, -1.567089859639303, 2.124652147293091]","[0.0, 0.0, 2.5566347176209092e-05, 0.0, 0.0, -0.19987769424915314]","[-0.0274658240377903, -5.053711414337158, -1.82259202003479, -0.3431854546070099, 0.0874786451458931, -0.4844971299171448]"
1584454681690456118,,1598745,,1584454681,690152060,'',"[shoulder_pan_joint, shoulder_lift_joint, elbow_joint, wrist_1_joint, wrist_2_joint,","[1.740601658821106, -1.0482752958880823, 2.1836256980895996, -2.692789379750387, -1.567077938710348, 2.102277994155884]","[0.0, 0.0, 2.5566347176209092e-05, 0.0, 0.0, -0.2018526941537857]","[-0.01831054873764515, -5.053711414337158, -1.820350170135498, -0.3386993706226349, 0.0874786451458931, -0.3902893364429474]"
1584454681802394240,,1598759,,1584454681,802073120,'',"[shoulder_pan_joint, shoulder_lift_joint, elbow_joint, wrist_1_joint, wrist_2_joint,","[1.740601658821106, -1.0482752958880823, 2.1836376190185547, -2.692801300679342, -1.5670655409442347, 2.079951763153076]","[0.0, 0.0, 2.5566347176209092e-05, 0.0, 0.0, -0.19788353145122528]","[-0.0366210974752903, -5.104065418243408, -1.8046574592590332, -0.3319702446460724, 0.0807495191693306, -0.4844971299171448]"
1584454681914396332,,1598773,,1584454681,914052399,'',"[shoulder_pan_joint, shoulder_lift_joint, elbow_joint, wrist_1_joint, wrist_2_joint,","[1.7406375408172607, -1.0482752958880823, 2.183685779571533, -2.6928251425372522, -1.567101780568258, 2.0574095249176025]","[0.0, 0.0, 2.5566347176209092e-05, 0.0, 0.0, -0.2001461535692215]","[-0.02288818545639515, -5.062866687774658, -1.8113828897476196, -0.3297272026538849, 0.0807495191693306, -0.4059906303882599]"
1584454682026441795,,1598787,,1584454682,26060964,'',"[shoulder_pan_joint, shoulder_lift_joint, elbow_joint, wrist_1_joint, wrist_2_joint,","[1.740613579750061, -1.0482752958880823, 2.183661937713623, -2.692789379750387, -1.567077938710348, 2.035107135772705]","[0.0, 0.0, 2.5566347176209092e-05, 0.0, 0.0, -0.19985853135585785]","[-0.0503540076315403, -5.058289051055908, -1.8068993091583252, -0.3409424126148224, 0.0874786451458931, -0.4598236680030823]"
1584454682138596391,,1598801,,1584454682,138147052,'',"[shoulder_pan_joint, shoulder_lift_joint, elbow_joint, wrist_1_joint, wrist_2_joint,","[1.7406256198883057, -1.0482872168170374, 2.183661937713623, -2.692777458821432, -1.567101780568258, 2.012709140777588]","[0.0, 0.0, 2.5566347176209092e-05, 0.0, 0.0, -0.20100900530815125]","[-0.0274658240377903, -5.099487781524658, -1.8091411590576172, -0.3409424126148224, 0.0672912672162056, -0.4800110459327698]"
1584454682250534494,,1598815,,1584454682,250108087,'',"[shoulder_pan_joint, shoulder_lift_joint, elbow_joint, wrist_1_joint, wrist_2_joint,","[1.7405896186828613, -1.0482991377459925, 2.183650016784668, -2.692777458821432, -1.567077938710348, 1.9902266263961792]","[0.0, 0.0, 2.5566347176209092e-05, 0.0, 0.0, -0.2008172571659088]","[-0.0274658240377903, -5.058289051055908, -1.8091411590576172, -0.3342132866382599, 0.0919647291302681, -0.4261780083179474]"
1584454682362461575,,1598829,,1584454682,362087486,'',"[shoulder_pan_joint, shoulder_lift_joint, elbow_joint, wrist_1_joint, wrist_2_joint,","[1.7406256198883057, -1.0482752958880823, 2.1836977005004883, -2.692789379750387, -1.567101780568258, 1.9679003953933716]","[0.0, 0.0, 2.5566347176209092e-05, 0.0, 0.0, -0.198784738779068]","[-0.0274658240377903, -5.053711414337158, -1.8113828897476196, -0.3297272026538849, 0.0785064771771431, -0.5764618515968323]"
1584454682474382536,,1598843,,1584454682,474065313,'',"[shoulder_pan_joint, shoulder_lift_joint, elbow_joint, wrist_1_joint, wrist_2_joint,","[1.740613579750061, -1.0482872168170374, 2.183673858642578, -2.692765537892477, -1.5670655409442347, 1.9454898834228516]","[0.0, 0.0, 1.2783173588104546e-05, 0.0, 0.0, -0.20237042009830475]","[0.0, -5.081177234649658, -1.8046574592590332, -0.3342132866382599, 0.0785064771771431, -0.3633728325366974]"
1584454682586611421,,1598857,,1584454682,586166209,'',"[shoulder_pan_joint, shoulder_lift_joint, elbow_joint, wrist_1_joint, wrist_2_joint,","[1.7406495809555054, -1.0482752958880823, 2.183650016784668, -2.692777458821432, -1.5671256224261683, 1.923079013824463]","[0.0, 0.0, 1.2783173588104546e-05, 0.0, 0.0, -0.19884225726127625]","[-0.0320434607565403, -5.085754871368408, -1.8158665895462036, -0.3319702446460724, 0.0762634351849556, -0.4957123398780823]"
1584454682698522723,,1598871,,1584454682,698161188,'',"[shoulder_pan_joint, shoulder_lift_joint, elbow_joint, wrist_1_joint, wrist_2_joint,","[1.7405896186828613, -1.0482633749591272, 2.183661937713623, -2.692789379750387, -1.5671256224261683, 1.9005610942840576]","[0.0, 0.0, 1.2783173588104546e-05, 0.0, 0.0, -0.19884225726127625]","[-0.0869751051068306, -5.053711414337158, -1.8248337507247925, -0.3297272026538849, 0.0964508131146431, -0.4351502060890198]"
1584454682810336183,,1598885,,1584454682,810035230,'',"[shoulder_pan_joint, shoulder_lift_joint, elbow_joint, wrist_1_joint, wrist_2_joint,","[1.7405776977539062, -1.0483115355121058, 2.1836977005004883, -2.6928251425372522, -1.567077938710348, 1.878222107887268]","[0.0, 0.0, 1.2783173588104546e-05, 0.0, 0.0, -0.19905318319797516]","[-0.009155274368822575, -5.085754871368408, -1.8091411590576172, -0.3342132866382599, 0.0672912672162056, -0.4329071640968323]"
1584454682922385353,,1598899,,1584454682,922001335,'',"[shoulder_pan_joint, shoulder_lift_joint, elbow_joint, wrist_1_joint, wrist_2_joint,","[1.740601658821106, -1.0482872168170374, 2.183673858642578, -2.692789379750387, -1.5670655409442347, 1.8557991981506348]","[0.0, 0.0, 1.2783173588104546e-05, 0.0, 0.0, -0.20089396834373474]","[-0.0457763709127903, -5.039978504180908, -1.8158665895462036, -0.3229980766773224, 0.0807495191693306, -0.4373932480812073]"
1584454683034380331,,1598913,,1584454683,34014147,'',"[shoulder_pan_joint, shoulder_lift_joint, elbow_joint, wrist_1_joint, wrist_2_joint,","[1.740613579750061, -1.0482752958880823, 2.183685779571533, -2.692789379750387, -1.567089859639303, 1.8334243297576904]","[0.0, 0.0, 1.2783173588104546e-05, 0.0, 0.0, -0.19702066481113434]","[-0.0274658240377903, -5.076599597930908, -1.8068993091583252, -0.3431854546070099, 0.0314025916159153, -0.4867401719093323]"
1584454683146500073,,1598927,,1584454683,146065782,'',"[shoulder_pan_joint, shoulder_lift_joint, elbow_joint, wrist_1_joint, wrist_2_joint,","[1.740613579750061, -1.0482991377459925, 2.183661937713623, -2.692813221608297, -1.5671137014972132, 1.8109291791915894]","[0.0, 0.0, 1.2783173588104546e-05, 0.0, 0.0, -0.20075973868370056]","[-0.0869751051068306, -5.090332508087158, -1.8158665895462036, -0.3454284965991974, 0.0403747595846653, -0.4172058403491974]"
1584454683258475605,,1598941,,1584454683,258052504,'',"[shoulder_pan_joint, shoulder_lift_joint, elbow_joint, wrist_1_joint, wrist_2_joint,","[1.7406375408172607, -1.0482872168170374, 2.183673858642578, -2.692777458821432, -1.5671494642840784, 1.7885777950286865]","[0.0, 0.0, 1.2783173588104546e-05, 0.0, 0.0, -0.20146921277046204]","[-0.0274658240377903, -5.058289051055908, -1.8091411590576172, -0.3319702446460724, 0.0381317175924778, -0.3880462944507599]"
1584454683370356180,,1598955,,1584454683,370057823,'',"[shoulder_pan_joint, shoulder_lift_joint, elbow_joint, wrist_1_joint, wrist_2_joint,","[1.7405896186828613, -1.0482752958880823, 2.183673858642578, -2.692777458821432, -1.5671137014972132, 1.7663099765777588]","[0.0, 0.0, 1.2783173588104546e-05, 0.0, 0.0, -0.2007022202014923]","[-0.0411987341940403, -5.099487781524658, -1.8270756006240845, -0.3319702446460724, 0.0358886756002903, -0.5742188096046448]"
1584454683482336931,,1598969,,1584454683,482032563,'',"[shoulder_pan_joint, shoulder_lift_joint, elbow_joint, wrist_1_joint, wrist_2_joint,","[1.740601658821106, -1.0482872168170374, 2.183673858642578, -2.692789379750387, -1.5671256224261683, 1.7437070608139038]","[0.0, 0.0, 1.2783173588104546e-05, 0.0, 0.0, -0.20100900530815125]","[-0.02288818545639515, -5.072021961212158, -1.8068993091583252, -0.3342132866382599, 0.0381317175924778, -0.3790741264820099]"
1584454683594390981,,1598983,,1584454683,594037050,'',"[shoulder_pan_joint, shoulder_lift_joint, elbow_joint, wrist_1_joint, wrist_2_joint,","[1.7406256198883057, -1.0482752958880823, 2.183673858642578, -2.692789379750387, -1.5671137014972132, 1.7214148044586182]","[0.0, 0.0, 1.2783173588104546e-05, 0.0, 0.0, -0.19884225726127625]","[-0.0274658240377903, -5.053711414337158, -1.8270756006240845, -0.3319702446460724, 0.0314025916159153, -0.5787048935890198]"
1584454683706366242,,1598997,,1584454683,706005438,'',"[shoulder_pan_joint, shoulder_lift_joint, elbow_joint, wrist_1_joint, wrist_2_joint,","[1.740601658821106, -1.0483115355121058, 2.183685779571533, -2.692789379750387, -1.5671137014972132, 1.6990025043487549]","[0.0, 0.0, 1.2783173588104546e-05, 0.0, 0.0, -0.20039542019367218]","[-0.01373291201889515, -5.099487781524658, -1.8158665895462036, -0.3386993706226349, 0.0336456336081028, -0.4373932480812073]"
1584454683818362173,,1599011,,1584454683,817989256,'',"[shoulder_pan_joint, shoulder_lift_joint, elbow_joint, wrist_1_joint, wrist_2_joint,","[1.7405896186828613, -1.0482872168170374, 2.183673858642578, -2.692753616963522, -1.5671256224261683, 1.676578164100647]","[0.0, 0.0, 1.2783173588104546e-05, 0.0, 0.0, -0.196617990732193]","[-0.01831054873764515, -5.049133777618408, -1.820350170135498, -0.3386993706226349, 0.0358886756002903, -0.5136566758155823]"
1584454683930298461,,1599025,,1584454683,929950421,'',"[shoulder_pan_joint, shoulder_lift_joint, elbow_joint, wrist_1_joint, wrist_2_joint,","[1.740613579750061, -1.048335377370016, 2.183661937713623, -2.692777458821432, -1.5671137014972132, 1.6542140245437622]","[0.0, 0.0, -0.0, 0.0, 0.0, -0.20062552392482758]","[-0.0503540076315403, -5.058289051055908, -1.8046574592590332, -0.3342132866382599, 0.0314025916159153, -0.4329071640968323]"
1584454684042445013,,1599039,,1584454684,42020260,'',"[shoulder_pan_joint, shoulder_lift_joint, elbow_joint, wrist_1_joint, wrist_2_joint,","[1.7406256198883057, -1.0482872168170374, 2.183650016784668, -2.692801300679342, -1.5670655409442347, 1.6316814422607422]","[0.0, 0.0, -0.0, 0.0, 0.0, -0.2006063461303711]","[-0.0457763709127903, -5.062866687774658, -1.8046574592590332, -0.3364563286304474, 0.0336456336081028, -0.4441223740577698]"
1584454684154441464,,1599053,,1584454684,154008626,'',"[shoulder_pan_joint, shoulder_lift_joint, elbow_joint, wrist_1_joint, wrist_2_joint,","[1.7406375408172607, -1.0482991377459925, 2.183685779571533, -2.692765537892477, -1.5671137014972132, 1.6093043088912964]","[0.0, 0.0, -0.0, 0.0, 0.0, -0.19914905726909637]","[-0.0457763709127903, -5.067444324493408, -1.8068993091583252, -0.3386993706226349, 0.0314025916159153, -0.4844971299171448]"
1584454684266365611,,1599067,,1584454684,265982936,'',"[shoulder_pan_joint, shoulder_lift_joint, elbow_joint, wrist_1_joint, wrist_2_joint,","[1.740613579750061, -1.0482752958880823, 2.183650016784668, -2.692789379750387, -1.567101780568258, 1.5869511365890503]","[0.0, 0.0, -0.0, 0.0, 0.0, -0.2004912942647934]","[-0.01831054873764515, -5.085754871368408, -1.7934484481811523, -0.3364563286304474, 0.0381317175924778, -0.3678589165210724]"
1584454684378407466,,1599081,,1584454684,378005385,'',"[shoulder_pan_joint, shoulder_lift_joint, elbow_joint, wrist_1_joint, wrist_2_joint,","[1.740613579750061, -1.0482872168170374, 2.1837096214294434, -2.692801300679342, -1.567101780568258, 1.5645735263824463]","[0.0, 0.0, -0.0, 0.0, 0.0, -0.20110487937927246]","[-0.01373291201889515, -5.081177234649658, -1.8113828897476196, -0.3364563286304474, 0.0426178015768528, -0.5046845078468323]"
1584454684490431680,,1599095,,1584454684,490055177,'',"[shoulder_pan_joint, shoulder_lift_joint, elbow_joint, wrist_1_joint, wrist_2_joint,","[1.7406256198883057, -1.0482872168170374, 2.183685779571533, -2.6928251425372522, -1.567089859639303, 1.5422075986862183]","[0.0, 0.0, -0.0, 0.0, 0.0, -0.2018718719482422]","[-0.0366210974752903, -5.072021961212158, -1.8001738786697388, -0.3342132866382599, 0.0336456336081028, -0.4351502060890198]"
1584454684602475820,,1599109,,1584454684,602061576,'',"[shoulder_pan_joint, shoulder_lift_joint, elbow_joint, wrist_1_joint, wrist_2_joint,","[1.740613579750061, -1.0482752958880823, 2.183685779571533, -2.692789379750387, -1.567101780568258, 1.5197573900222778]","[0.0, 0.0, -0.0, 0.0, 0.0, -0.19815197587013245]","[-0.0640869215130806, -5.076599597930908, -1.8046574592590332, -0.3409424126148224, 0.0291595496237278, -0.5450592637062073]"
1584454684714476670,,1599123,,1584454684,714096159,'',"[shoulder_pan_joint, shoulder_lift_joint, elbow_joint, wrist_1_joint, wrist_2_joint,","[1.7405896186828613, -1.0482872168170374, 2.183685779571533, -2.692801300679342, -1.567089859639303, 1.4974629878997803]","[0.0, 0.0, -0.0, 0.0, 0.0, -0.19985853135585785]","[-0.009155274368822575, -5.053711414337158, -1.8001738786697388, -0.3342132866382599, 0.0291595496237278, -0.4418793320655823]"
1584454684826393031,,1599137,,1584454684,826033911,'',"[shoulder_pan_joint, shoulder_lift_joint, elbow_joint, wrist_1_joint, wrist_2_joint,","[1.7406375408172607, -1.0482991377459925, 2.183685779571533, -2.692753616963522, -1.5671137014972132, 1.4750843048095703]","[0.0, 0.0, -0.0, 0.0, 0.0, -0.19884225726127625]","[-0.0366210974752903, -5.044556140899658, -1.786723017692566, -0.3297272026538849, 0.0426178015768528, -0.5293579697608948]"
1584454684938513234,,1599151,,1584454684,938102607,'',"[shoulder_pan_joint, shoulder_lift_joint, elbow_joint, wrist_1_joint, wrist_2_joint,","[1.7406375408172607, -1.0482991377459925, 2.1836977005004883, -2.692777458821432, -1.5671137014972132, 1.4527052640914917]","[0.0, 0.0, -0.0, 0.0, 0.0, -0.20089396834373474]","[-0.01831054873764515, -5.072021961212158, -1.7979320287704468, -0.3274841606616974, 0.0403747595846653, -0.4687958359718323]"
1584454685050358002,,1599165,,1584454685,49999763,'',"[shoulder_pan_joint, shoulder_lift_joint, elbow_joint, wrist_1_joint, wrist_2_joint,","[1.7406375408172607, -1.0482872168170374, 2.183685779571533, -2.692801300679342, -1.5671256224261683, 1.430241584777832]","[0.0, 0.0, -0.0, 0.0, 0.0, -0.2008172571659088]","[-0.0686645582318306, -5.053711414337158, -1.8001738786697388, -0.3342132866382599, 0.0426178015768528, -0.4418793320655823]"
1584454685162346879,,1599179,,1584454685,161976878,'',"[shoulder_pan_joint, shoulder_lift_joint, elbow_joint, wrist_1_joint, wrist_2_joint,","[1.740613579750061, -1.0482991377459925, 2.183673858642578, -2.692789379750387, -1.5671137014972132, 1.4079461097717285]","[0.0, 0.0, -0.0, 0.0, 0.0, -0.19959008693695068]","[-0.0457763709127903, -5.067444324493408, -1.7979320287704468, -0.3274841606616974, 0.0403747595846653, -0.5562744736671448]"
1584454685274439480,,1599193,,1584454685,274063397,'',"[shoulder_pan_joint, shoulder_lift_joint, elbow_joint, wrist_1_joint, wrist_2_joint,","[1.7406256198883057, -1.0482752958880823, 2.1836977005004883, -2.692765537892477, -1.567089859639303, 1.3854700326919556]","[0.0, 0.0, -0.0, 0.0, 0.0, -0.2035592496395111]","[-0.01373291201889515, -5.035400867462158, -1.8068993091583252, -0.3342132866382599, 0.0336456336081028, -0.4104767143726349]"
1584454685386436422,,1599207,,1584454685,386006168,'',"[shoulder_pan_joint, shoulder_lift_joint, elbow_joint, wrist_1_joint, wrist_2_joint,","[1.7405896186828613, -1.0482991377459925, 2.183685779571533, -2.692801300679342, -1.5671256224261683, 1.3629696369171143]","[0.0, 0.0, -0.0, 0.0, 0.0, -0.1975383758544922]","[-0.02288818545639515, -5.058289051055908, -1.7979320287704468, -0.3319702446460724, 0.0314025916159153, -0.5226288437843323]"
1584454685498492986,,1599221,,1584454685,497995647,'',"[shoulder_pan_joint, shoulder_lift_joint, elbow_joint, wrist_1_joint, wrist_2_joint,","[1.7406256198883057, -1.0482872168170374, 2.183673858642578, -2.692777458821432, -1.567089859639303, 1.340589165687561]","[0.0, 0.0, -0.0, 0.0, 0.0, -0.19966678321361542]","[-0.0457763709127903, -5.053711414337158, -1.8046574592590332, -0.3319702446460724, 0.0291595496237278, -0.4530945420265198]"
1584454685610445455,,1599235,,1584454685,609945791,'',"[shoulder_pan_joint, shoulder_lift_joint, elbow_joint, wrist_1_joint, wrist_2_joint,","[1.740601658821106, -1.0482514540301722, 2.1836977005004883, -2.692801300679342, -1.5671137014972132, 1.3182557821273804]","[0.0, 0.0, -0.0, 0.0, 0.0, -0.1992449313402176]","[-0.0320434607565403, -5.062866687774658, -1.8001738786697388, -0.3342132866382599, 0.02467346377670765, -0.4889832139015198]"
1584454685722384669,,1599249,,1584454685,721953874,'',"[shoulder_pan_joint, shoulder_lift_joint, elbow_joint, wrist_1_joint, wrist_2_joint,","[1.7406256198883057, -1.0482991377459925, 2.183685779571533, -2.692789379750387, -1.5671137014972132, 1.295922040939331]","[0.0, 0.0, -0.0, 0.0, 0.0, -0.20100900530815125]","[-0.0366210974752903, -5.067444324493408, -1.7956902980804443, -0.3319702446460724, 0.0291595496237278, -0.4687958359718323]"
1584454685834407710,,1599263,,1584454685,833946228,'',"[shoulder_pan_joint, shoulder_lift_joint, elbow_joint, wrist_1_joint, wrist_2_joint,","[1.740601658821106, -1.0482633749591272, 2.183673858642578, -2.692789379750387, -1.567077938710348, 1.2734324932098389]","[0.0, 0.0, -0.0, 0.0, 0.0, -0.19761507213115692]","[0.004577637184411287, -5.058289051055908, -1.7956902980804443, -0.3342132866382599, 0.0291595496237278, -0.5360870957374573]"
1584454685946253099,,1599277,,1584454685,945938672,'',"[shoulder_pan_joint, shoulder_lift_joint, elbow_joint, wrist_1_joint, wrist_2_joint,","[1.740601658821106, -1.0482752958880823, 2.1837096214294434, -2.692789379750387, -1.5671137014972132, 1.2510018348693848]","[0.0, 0.0, -0.0, 0.0, 0.0, -0.20110487937927246]","[-0.0320434607565403, -5.067444324493408, -1.7956902980804443, -0.3319702446460724, 0.0291595496237278, -0.5248718857765198]"
1584454686058287732,,1599291,,1584454686,57966432,'',"[shoulder_pan_joint, shoulder_lift_joint, elbow_joint, wrist_1_joint, wrist_2_joint,","[1.7406256198883057, -1.0482633749591272, 2.183673858642578, -2.692777458821432, -1.567077938710348, 1.2285594940185547]","[0.0, 0.0, -0.0, 0.0, 0.0, -0.20056799054145813]","[-0.0640869215130806, -5.053711414337158, -1.8024157285690308, -0.3297272026538849, 0.0314025916159153, -0.4643097519874573]"
1584454686170261050,,1599305,,1584454686,169934450,'',"[shoulder_pan_joint, shoulder_lift_joint, elbow_joint, wrist_1_joint, wrist_2_joint,","[1.740601658821106, -1.0482872168170374, 2.183685779571533, -2.692789379750387, -1.567089859639303, 1.2062242031097412]","[0.0, 0.0, -0.0, 0.0, 0.0, -0.20039542019367218]","[-0.01831054873764515, -5.076599597930908, -1.7620631456375122, -0.3386993706226349, 0.0291595496237278, -0.5787048935890198]"
1584454686282207508,,1599319,,1584454686,281928086,'',"[shoulder_pan_joint, shoulder_lift_joint, elbow_joint, wrist_1_joint, wrist_2_joint,","[1.740613579750061, -1.0482633749591272, 2.183661937713623, -2.692789379750387, -1.567089859639303, 1.1837807893753052]","[0.0, 0.0, -0.0, 0.0, 0.0, -0.20181435346603394]","[-0.0595092847943306, -5.058289051055908, -1.786723017692566, -0.3274841606616974, 0.0336456336081028, -0.4015045464038849]"
